Fleaurent/UniversalRobot/communication/record/robot_data2.csv
timestamp target_q_0 target_q_1 target_q_2 target_q_3 target_q_4 target_q_5 target_qd_0 target_qd_1 target_qd_2 target_qd_3 target_qd_4 target_qd_5 target_qdd_0 target_qdd_1 target_qdd_2 target_qdd_3 target_qdd_4 target_qdd_5 target_current_0 target_current_1 target_current_2 target_current_3 target_current_4 target_current_5 target_moment_0 target_moment_1 target_moment_2 target_moment_3 target_moment_4 target_moment_5 actual_q_0 actual_q_1 actual_q_2 actual_q_3 actual_q_4 actual_q_5 actual_qd_0 actual_qd_1 actual_qd_2 actual_qd_3 actual_qd_4 actual_qd_5 actual_current_0 actual_current_1 actual_current_2 actual_current_3 actual_current_4 actual_current_5 joint_control_output_0 joint_control_output_1 joint_control_output_2 joint_control_output_3 joint_control_output_4 joint_control_output_5 actual_TCP_pose_0 actual_TCP_pose_1 actual_TCP_pose_2 actual_TCP_pose_3 actual_TCP_pose_4 actual_TCP_pose_5 actual_TCP_speed_0 actual_TCP_speed_1 actual_TCP_speed_2 actual_TCP_speed_3 actual_TCP_speed_4 actual_TCP_speed_5 actual_TCP_force_0 actual_TCP_force_1 actual_TCP_force_2 actual_TCP_force_3 actual_TCP_force_4 actual_TCP_force_5 target_TCP_pose_0 target_TCP_pose_1 target_TCP_pose_2 target_TCP_pose_3 target_TCP_pose_4 target_TCP_pose_5 target_TCP_speed_0 target_TCP_speed_1 target_TCP_speed_2 target_TCP_speed_3 target_TCP_speed_4 target_TCP_speed_5
12967.392 -1.6007002035724085 -1.7271001974688929 -2.2029998938189905 -0.8079999128924769 1.5951000452041626 -0.03099996248354131 0.0 0.0 0.0 0.0 0.0 0.0 0.0 0.0 0.0 0.0 0.0 0.0 3.650210433332182e-18 0.5427793678631418 0.5731123298385189 0.2276317208234577 0.0015570708124341278 0.0 4.7927262989651557e-17 7.1266931000430525 5.336936637922256 1.0345861711426152 0.00707688684251311 0.0 -1.6007002035724085 -1.7271001974688929 -2.2029998938189905 -0.8079999128924769 1.5951000452041626 -0.03099996248354131 0.0 0.0 0.0 0.0 0.0 0.0 3.650210317624521e-18 0.5427793860435486 0.5731123089790344 0.22763171792030334 0.0015570707619190216 0.0 3.650210317624521e-18 0.5427793860435486 0.5731123089790344 0.22763171792030334 0.0015570707619190216 0.0 -0.11842706929373131 -0.2680453534302138 0.15727817303169656 -0.0012209830284131572 3.1162764812408956 0.03889191616813326 0.0 0.0 0.0 0.0 0.0 0.0 -7.511218148109654e-07 -1.6948063694212381e-06 -5.227722803655168e-07 8.577250786496456e-08 -6.113140665687394e-08 6.237609692428192e-10 -0.11842706929373131 -0.2680453534302138 0.15727817303169656 -0.0012209830284131572 3.1162764812408956 0.03889191616813326 0.0 0.0 0.0 0.0 0.0 0.0
12967.4 -1.6007002035724085 -1.7271001974688929 -2.2029998938189905 -0.8079999128924769 1.5951000452041626 -0.03099996248354131 0.0 0.0 0.0 0.0 0.0 0.0 0.0 0.0 0.0 0.0 0.0 0.0 3.650210433332182e-18 0.5427793678631418 0.5731123298385189 0.2276317208234577 0.0015570708124341278 0.0 4.7927262989651557e-17 7.1266931000430525 5.336936637922256 1.0345861711426152 0.00707688684251311 0.0 -1.6007002035724085 -1.7271001974688929 -2.2029998938189905 -0.8079999128924769 1.5951000452041626 -0.03099996248354131 0.0 0.0 0.0 0.0 0.0 0.0 3.650210317624521e-18 0.5427793860435486 0.5731123089790344 0.22763171792030334 0.0015570707619190216 0.0 3.650210317624521e-18 0.5427793860435486 0.5731123089790344 0.22763171792030334 0.0015570707619190216 0.0 -0.11842706929373131 -0.2680453534302138 0.15727817303169656 -0.0012209830284131572 3.1162764812408956 0.03889191616813326 0.0 0.0 0.0 0.0 0.0 0.0 -7.511218148109654e-07 -1.6948063694212381e-06 -5.227722803655168e-07 8.577250786496456e-08 -6.113140665687394e-08 6.237609692428192e-10 -0.11842706929373131 -0.2680453534302138 0.15727817303169656 -0.0012209830284131572 3.1162764812408956 0.03889191616813326 0.0 0.0 0.0 0.0 0.0 0.0
12967.408 -1.6007002035724085 -1.7271001974688929 -2.2029998938189905 -0.8079999128924769 1.5951000452041626 -0.03099996248354131 0.0 0.0 0.0 0.0 0.0 0.0 0.0 0.0 0.0 0.0 0.0 0.0 3.650210433332182e-18 0.5427793678631418 0.5731123298385189 0.2276317208234577 0.0015570708124341278 0.0 4.7927262989651557e-17 7.1266931000430525 5.336936637922256 1.0345861711426152 0.00707688684251311 0.0 -1.6007002035724085 -1.7271001974688929 -2.2029998938189905 -0.8079999128924769 1.5951000452041626 -0.03099996248354131 0.0 0.0 0.0 0.0 0.0 0.0 3.650210317624521e-18 0.5427793860435486 0.5731123089790344 0.22763171792030334 0.0015570707619190216 0.0 3.650210317624521e-18 0.5427793860435486 0.5731123089790344 0.22763171792030334 0.0015570707619190216 0.0 -0.11842706929373131 -0.2680453534302138 0.15727817303169656 -0.0012209830284131572 3.1162764812408956 0.03889191616813326 0.0 0.0 0.0 0.0 0.0 0.0 -7.511218148109654e-07 -1.6948063694212381e-06 -5.227722803655168e-07 8.577250786496456e-08 -6.113140665687394e-08 6.237609692428192e-10 -0.11842706929373131 -0.2680453534302138 0.15727817303169656 -0.0012209830284131572 3.1162764812408956 0.03889191616813326 0.0 0.0 0.0 0.0 0.0 0.0
12967.416 -1.6007002035724085 -1.7271001974688929 -2.2029998938189905 -0.8079999128924769 1.5951000452041626 -0.03099996248354131 0.0 0.0 0.0 0.0 0.0 0.0 0.0 0.0 0.0 0.0 0.0 0.0 3.650210433332182e-18 0.5427793678631418 0.5731123298385189 0.2276317208234577 0.0015570708124341278 0.0 4.7927262989651557e-17 7.1266931000430525 5.336936637922256 1.0345861711426152 0.00707688684251311 0.0 -1.6007002035724085 -1.7271001974688929 -2.2029998938189905 -0.8079999128924769 1.5951000452041626 -0.03099996248354131 0.0 0.0 0.0 0.0 0.0 0.0 3.650210317624521e-18 0.5427793860435486 0.5731123089790344 0.22763171792030334 0.0015570707619190216 0.0 3.650210317624521e-18 0.5427793860435486 0.5731123089790344 0.22763171792030334 0.0015570707619190216 0.0 -0.11842706929373131 -0.2680453534302138 0.15727817303169656 -0.0012209830284131572 3.1162764812408956 0.03889191616813326 0.0 0.0 0.0 0.0 0.0 0.0 -7.511218148109654e-07 -1.6948063694212381e-06 -5.227722803655168e-07 8.577250786496456e-08 -6.113140665687394e-08 6.237609692428192e-10 -0.11842706929373131 -0.2680453534302138 0.15727817303169656 -0.0012209830284131572 3.1162764812408956 0.03889191616813326 0.0 0.0 0.0 0.0 0.0 0.0
12967.423999999999 -1.6007002035724085 -1.7271001974688929 -2.2029998938189905 -0.8079999128924769 1.5951000452041626 -0.03099996248354131 0.0 0.0 0.0 0.0 0.0 0.0 0.0 0.0 0.0 0.0 0.0 0.0 3.650210433332182e-18 0.5427793678631418 0.5731123298385189 0.2276317208234577 0.0015570708124341278 0.0 4.7927262989651557e-17 7.1266931000430525 5.336936637922256 1.0345861711426152 0.00707688684251311 0.0 -1.6007002035724085 -1.7271001974688929 -2.2029998938189905 -0.8079999128924769 1.5951000452041626 -0.03099996248354131 0.0 0.0 0.0 0.0 0.0 0.0 3.650210317624521e-18 0.5427793860435486 0.5731123089790344 0.22763171792030334 0.0015570707619190216 0.0 3.650210317624521e-18 0.5427793860435486 0.5731123089790344 0.22763171792030334 0.0015570707619190216 0.0 -0.11842706929373131 -0.2680453534302138 0.15727817303169656 -0.0012209830284131572 3.1162764812408956 0.03889191616813326 0.0 0.0 0.0 0.0 0.0 0.0 -7.511218148109654e-07 -1.6948063694212381e-06 -5.227722803655168e-07 8.577250786496456e-08 -6.113140665687394e-08 6.237609692428192e-10 -0.11842706929373131 -0.2680453534302138 0.15727817303169656 -0.0012209830284131572 3.1162764812408956 0.03889191616813326 0.0 0.0 0.0 0.0 0.0 0.0
12967.431999999999 -1.6007002035724085 -1.7271001974688929 -2.2029998938189905 -0.8079999128924769 1.5951000452041626 -0.03099996248354131 0.0 0.0 0.0 0.0 0.0 0.0 0.0 0.0 0.0 0.0 0.0 0.0 3.650210433332182e-18 0.5427793678631418 0.5731123298385189 0.2276317208234577 0.0015570708124341278 0.0 4.7927262989651557e-17 7.1266931000430525 5.336936637922256 1.0345861711426152 0.00707688684251311 0.0 -1.6007002035724085 -1.7271001974688929 -2.2029998938189905 -0.8079999128924769 1.5951000452041626 -0.03099996248354131 0.0 0.0 0.0 0.0 0.0 0.0 3.650210317624521e-18 0.5427793860435486 0.5731123089790344 0.22763171792030334 0.0015570707619190216 0.0 3.650210317624521e-18 0.5427793860435486 0.5731123089790344 0.22763171792030334 0.0015570707619190216 0.0 -0.11842706929373131 -0.2680453534302138 0.15727817303169656 -0.0012209830284131572 3.1162764812408956 0.03889191616813326 0.0 0.0 0.0 0.0 0.0 0.0 -7.511218148109654e-07 -1.6948063694212381e-06 -5.227722803655168e-07 8.577250786496456e-08 -6.113140665687394e-08 6.237609692428192e-10 -0.11842706929373131 -0.2680453534302138 0.15727817303169656 -0.0012209830284131572 3.1162764812408956 0.03889191616813326 0.0 0.0 0.0 0.0 0.0 0.0
12967.439999999999 -1.6007002035724085 -1.7271001974688929 -2.2029998938189905 -0.8079999128924769 1.5951000452041626 -0.03099996248354131 0.0 0.0 0.0 0.0 0.0 0.0 0.0 0.0 0.0 0.0 0.0 0.0 3.650210433332182e-18 0.5427793678631418 0.5731123298385189 0.2276317208234577 0.0015570708124341278 0.0 4.7927262989651557e-17 7.1266931000430525 5.336936637922256 1.0345861711426152 0.00707688684251311 0.0 -1.6007002035724085 -1.7271001974688929 -2.2029998938189905 -0.8079999128924769 1.5951000452041626 -0.03099996248354131 0.0 0.0 0.0 0.0 0.0 0.0 3.650210317624521e-18 0.5427793860435486 0.5731123089790344 0.22763171792030334 0.0015570707619190216 0.0 3.650210317624521e-18 0.5427793860435486 0.5731123089790344 0.22763171792030334 0.0015570707619190216 0.0 -0.11842706929373131 -0.2680453534302138 0.15727817303169656 -0.0012209830284131572 3.1162764812408956 0.03889191616813326 0.0 0.0 0.0 0.0 0.0 0.0 -7.511218148109654e-07 -1.6948063694212381e-06 -5.227722803655168e-07 8.577250786496456e-08 -6.113140665687394e-08 6.237609692428192e-10 -0.11842706929373131 -0.2680453534302138 0.15727817303169656 -0.0012209830284131572 3.1162764812408956 0.03889191616813326 0.0 0.0 0.0 0.0 0.0 0.0
12967.448 -1.6007002035724085 -1.7271001974688929 -2.2029998938189905 -0.8079999128924769 1.5951000452041626 -0.03099996248354131 0.0 0.0 0.0 0.0 0.0 0.0 0.0 0.0 0.0 0.0 0.0 0.0 3.650210433332182e-18 0.5427793678631418 0.5731123298385189 0.2276317208234577 0.0015570708124341278 0.0 4.7927262989651557e-17 7.1266931000430525 5.336936637922256 1.0345861711426152 0.00707688684251311 0.0 -1.6007002035724085 -1.7271001974688929 -2.2029998938189905 -0.8079999128924769 1.5951000452041626 -0.03099996248354131 0.0 0.0 0.0 0.0 0.0 0.0 3.650210317624521e-18 0.5427793860435486 0.5731123089790344 0.22763171792030334 0.0015570707619190216 0.0 3.650210317624521e-18 0.5427793860435486 0.5731123089790344 0.22763171792030334 0.0015570707619190216 0.0 -0.11842706929373131 -0.2680453534302138 0.15727817303169656 -0.0012209830284131572 3.1162764812408956 0.03889191616813326 0.0 0.0 0.0 0.0 0.0 0.0 -7.511218148109654e-07 -1.6948063694212381e-06 -5.227722803655168e-07 8.577250786496456e-08 -6.113140665687394e-08 6.237609692428192e-10 -0.11842706929373131 -0.2680453534302138 0.15727817303169656 -0.0012209830284131572 3.1162764812408956 0.03889191616813326 0.0 0.0 0.0 0.0 0.0 0.0
12967.456 -1.6007002035724085 -1.7271001974688929 -2.2029998938189905 -0.8079999128924769 1.5951000452041626 -0.03099996248354131 0.0 0.0 0.0 0.0 0.0 0.0 0.0 0.0 0.0 0.0 0.0 0.0 3.650210433332182e-18 0.5427793678631418 0.5731123298385189 0.2276317208234577 0.0015570708124341278 0.0 4.7927262989651557e-17 7.1266931000430525 5.336936637922256 1.0345861711426152 0.00707688684251311 0.0 -1.6007002035724085 -1.7271001974688929 -2.2029998938189905 -0.8079999128924769 1.5951000452041626 -0.03099996248354131 0.0 0.0 0.0 0.0 0.0 0.0 3.650210317624521e-18 0.5427793860435486 0.5731123089790344 0.22763171792030334 0.0015570707619190216 0.0 3.650210317624521e-18 0.5427793860435486 0.5731123089790344 0.22763171792030334 0.0015570707619190216 0.0 -0.11842706929373131 -0.2680453534302138 0.15727817303169656 -0.0012209830284131572 3.1162764812408956 0.03889191616813326 0.0 0.0 0.0 0.0 0.0 0.0 -7.511218148109654e-07 -1.6948063694212381e-06 -5.227722803655168e-07 8.577250786496456e-08 -6.113140665687394e-08 6.237609692428192e-10 -0.11842706929373131 -0.2680453534302138 0.15727817303169656 -0.0012209830284131572 3.1162764812408956 0.03889191616813326 0.0 0.0 0.0 0.0 0.0 0.0
12967.464 -1.6007002035724085 -1.7271001974688929 -2.2029998938189905 -0.8079999128924769 1.5951000452041626 -0.03099996248354131 0.0 0.0 0.0 0.0 0.0 0.0 0.0 0.0 0.0 0.0 0.0 0.0 3.650210433332182e-18 0.5427793678631418 0.5731123298385189 0.2276317208234577 0.0015570708124341278 0.0 4.7927262989651557e-17 7.1266931000430525 5.336936637922256 1.0345861711426152 0.00707688684251311 0.0 -1.6007002035724085 -1.7271001974688929 -2.2029998938189905 -0.8079999128924769 1.5951000452041626 -0.03099996248354131 0.0 0.0 0.0 0.0 0.0 0.0 3.650210317624521e-18 0.5427793860435486 0.5731123089790344 0.22763171792030334 0.0015570707619190216 0.0 3.650210317624521e-18 0.5427793860435486 0.5731123089790344 0.22763171792030334 0.0015570707619190216 0.0 -0.11842706929373131 -0.2680453534302138 0.15727817303169656 -0.0012209830284131572 3.1162764812408956 0.03889191616813326 0.0 0.0 0.0 0.0 0.0 0.0 -7.511218148109654e-07 -1.6948063694212381e-06 -5.227722803655168e-07 8.577250786496456e-08 -6.113140665687394e-08 6.237609692428192e-10 -0.11842706929373131 -0.2680453534302138 0.15727817303169656 -0.0012209830284131572 3.1162764812408956 0.03889191616813326 0.0 0.0 0.0 0.0 0.0 0.0
12967.472 -1.6007002035724085 -1.7271001974688929 -2.2029998938189905 -0.8079999128924769 1.5951000452041626 -0.03099996248354131 0.0 0.0 0.0 0.0 0.0 0.0 0.0 0.0 0.0 0.0 0.0 0.0 3.650210433332182e-18 0.5427793678631418 0.5731123298385189 0.2276317208234577 0.0015570708124341278 0.0 4.7927262989651557e-17 7.1266931000430525 5.336936637922256 1.0345861711426152 0.00707688684251311 0.0 -1.6007002035724085 -1.7271001974688929 -2.2029998938189905 -0.8079999128924769 1.5951000452041626 -0.03099996248354131 0.0 0.0 0.0 0.0 0.0 0.0 3.650210317624521e-18 0.5427793860435486 0.5731123089790344 0.22763171792030334 0.0015570707619190216 0.0 3.650210317624521e-18 0.5427793860435486 0.5731123089790344 0.22763171792030334 0.0015570707619190216 0.0 -0.11842706929373131 -0.2680453534302138 0.15727817303169656 -0.0012209830284131572 3.1162764812408956 0.03889191616813326 0.0 0.0 0.0 0.0 0.0 0.0 -7.511218148109654e-07 -1.6948063694212381e-06 -5.227722803655168e-07 8.577250786496456e-08 -6.113140665687394e-08 6.237609692428192e-10 -0.11842706929373131 -0.2680453534302138 0.15727817303169656 -0.0012209830284131572 3.1162764812408956 0.03889191616813326 0.0 0.0 0.0 0.0 0.0 0.0
12967.48 -1.6007002035724085 -1.7271001974688929 -2.2029998938189905 -0.8079999128924769 1.5951000452041626 -0.03099996248354131 0.0 0.0 0.0 0.0 0.0 0.0 0.0 0.0 0.0 0.0 0.0 0.0 3.650210433332182e-18 0.5427793678631418 0.5731123298385189 0.2276317208234577 0.0015570708124341278 0.0 4.7927262989651557e-17 7.1266931000430525 5.336936637922256 1.0345861711426152 0.00707688684251311 0.0 -1.6007002035724085 -1.7271001974688929 -2.2029998938189905 -0.8079999128924769 1.5951000452041626 -0.03099996248354131 0.0 0.0 0.0 0.0 0.0 0.0 3.650210317624521e-18 0.5427793860435486 0.5731123089790344 0.22763171792030334 0.0015570707619190216 0.0 3.650210317624521e-18 0.5427793860435486 0.5731123089790344 0.22763171792030334 0.0015570707619190216 0.0 -0.11842706929373131 -0.2680453534302138 0.15727817303169656 -0.0012209830284131572 3.1162764812408956 0.03889191616813326 0.0 0.0 0.0 0.0 0.0 0.0 -7.511218148109654e-07 -1.6948063694212381e-06 -5.227722803655168e-07 8.577250786496456e-08 -6.113140665687394e-08 6.237609692428192e-10 -0.11842706929373131 -0.2680453534302138 0.15727817303169656 -0.0012209830284131572 3.1162764812408956 0.03889191616813326 0.0 0.0 0.0 0.0 0.0 0.0
12967.488 -1.6007002035724085 -1.7271001974688929 -2.2029998938189905 -0.8079999128924769 1.5951000452041626 -0.03099996248354131 0.0 0.0 0.0 0.0 0.0 0.0 0.0 0.0 0.0 0.0 0.0 0.0 3.650210433332182e-18 0.5427793678631418 0.5731123298385189 0.2276317208234577 0.0015570708124341278 0.0 4.7927262989651557e-17 7.1266931000430525 5.336936637922256 1.0345861711426152 0.00707688684251311 0.0 -1.6007002035724085 -1.7271001974688929 -2.2029998938189905 -0.8079999128924769 1.5951000452041626 -0.03099996248354131 0.0 0.0 0.0 0.0 0.0 0.0 3.650210317624521e-18 0.5427793860435486 0.5731123089790344 0.22763171792030334 0.0015570707619190216 0.0 3.650210317624521e-18 0.5427793860435486 0.5731123089790344 0.22763171792030334 0.0015570707619190216 0.0 -0.11842706929373131 -0.2680453534302138 0.15727817303169656 -0.0012209830284131572 3.1162764812408956 0.03889191616813326 0.0 0.0 0.0 0.0 0.0 0.0 -7.511218148109654e-07 -1.6948063694212381e-06 -5.227722803655168e-07 8.577250786496456e-08 -6.113140665687394e-08 6.237609692428192e-10 -0.11842706929373131 -0.2680453534302138 0.15727817303169656 -0.0012209830284131572 3.1162764812408956 0.03889191616813326 0.0 0.0 0.0 0.0 0.0 0.0
12967.496 -1.6007002035724085 -1.7271001974688929 -2.2029998938189905 -0.8079999128924769 1.5951000452041626 -0.03099996248354131 0.0 0.0 0.0 0.0 0.0 0.0 0.0 0.0 0.0 0.0 0.0 0.0 3.650210433332182e-18 0.5427793678631418 0.5731123298385189 0.2276317208234577 0.0015570708124341278 0.0 4.7927262989651557e-17 7.1266931000430525 5.336936637922256 1.0345861711426152 0.00707688684251311 0.0 -1.6007002035724085 -1.7271001974688929 -2.2029998938189905 -0.8079999128924769 1.5951000452041626 -0.03099996248354131 0.0 0.0 0.0 0.0 0.0 0.0 3.650210317624521e-18 0.5427793860435486 0.5731123089790344 0.22763171792030334 0.0015570707619190216 0.0 3.650210317624521e-18 0.5427793860435486 0.5731123089790344 0.22763171792030334 0.0015570707619190216 0.0 -0.11842706929373131 -0.2680453534302138 0.15727817303169656 -0.0012209830284131572 3.1162764812408956 0.03889191616813326 0.0 0.0 0.0 0.0 0.0 0.0 -7.511218148109654e-07 -1.6948063694212381e-06 -5.227722803655168e-07 8.577250786496456e-08 -6.113140665687394e-08 6.237609692428192e-10 -0.11842706929373131 -0.2680453534302138 0.15727817303169656 -0.0012209830284131572 3.1162764812408956 0.03889191616813326 0.0 0.0 0.0 0.0 0.0 0.0
12967.503999999999 -1.6007002035724085 -1.7271001974688929 -2.2029998938189905 -0.8079999128924769 1.5951000452041626 -0.03099996248354131 0.0 0.0 0.0 0.0 0.0 0.0 0.0 0.0 0.0 0.0 0.0 0.0 3.650210433332182e-18 0.5427793678631418 0.5731123298385189 0.2276317208234577 0.0015570708124341278 0.0 4.7927262989651557e-17 7.1266931000430525 5.336936637922256 1.0345861711426152 0.00707688684251311 0.0 -1.6007002035724085 -1.7271001974688929 -2.2029998938189905 -0.8079999128924769 1.5951000452041626 -0.03099996248354131 0.0 0.0 0.0 0.0 0.0 0.0 3.650210317624521e-18 0.5427793860435486 0.5731123089790344 0.22763171792030334 0.0015570707619190216 0.0 3.650210317624521e-18 0.5427793860435486 0.5731123089790344 0.22763171792030334 0.0015570707619190216 0.0 -0.11842706929373131 -0.2680453534302138 0.15727817303169656 -0.0012209830284131572 3.1162764812408956 0.03889191616813326 0.0 0.0 0.0 0.0 0.0 0.0 -7.511218148109654e-07 -1.6948063694212381e-06 -5.227722803655168e-07 8.577250786496456e-08 -6.113140665687394e-08 6.237609692428192e-10 -0.11842706929373131 -0.2680453534302138 0.15727817303169656 -0.0012209830284131572 3.1162764812408956 0.03889191616813326 0.0 0.0 0.0 0.0 0.0 0.0
12967.511999999999 -1.6007002035724085 -1.7271001974688929 -2.2029998938189905 -0.8079999128924769 1.5951000452041626 -0.03099996248354131 0.0 0.0 0.0 0.0 0.0 0.0 0.0 0.0 0.0 0.0 0.0 0.0 3.650210433332182e-18 0.5427793678631418 0.5731123298385189 0.2276317208234577 0.0015570708124341278 0.0 4.7927262989651557e-17 7.1266931000430525 5.336936637922256 1.0345861711426152 0.00707688684251311 0.0 -1.6007002035724085 -1.7271001974688929 -2.2029998938189905 -0.8079999128924769 1.5951000452041626 -0.03099996248354131 0.0 0.0 0.0 0.0 0.0 0.0 3.650210317624521e-18 0.5427793860435486 0.5731123089790344 0.22763171792030334 0.0015570707619190216 0.0 3.650210317624521e-18 0.5427793860435486 0.5731123089790344 0.22763171792030334 0.0015570707619190216 0.0 -0.11842706929373131 -0.2680453534302138 0.15727817303169656 -0.0012209830284131572 3.1162764812408956 0.03889191616813326 0.0 0.0 0.0 0.0 0.0 0.0 -7.511218148109654e-07 -1.6948063694212381e-06 -5.227722803655168e-07 8.577250786496456e-08 -6.113140665687394e-08 6.237609692428192e-10 -0.11842706929373131 -0.2680453534302138 0.15727817303169656 -0.0012209830284131572 3.1162764812408956 0.03889191616813326 0.0 0.0 0.0 0.0 0.0 0.0
12967.519999999999 -1.6007002035724085 -1.7271001974688929 -2.2029998938189905 -0.8079999128924769 1.5951000452041626 -0.03099996248354131 0.0 0.0 0.0 0.0 0.0 0.0 0.0 0.0 0.0 0.0 0.0 0.0 3.650210433332182e-18 0.5427793678631418 0.5731123298385189 0.2276317208234577 0.0015570708124341278 0.0 4.7927262989651557e-17 7.1266931000430525 5.336936637922256 1.0345861711426152 0.00707688684251311 0.0 -1.6007002035724085 -1.7271001974688929 -2.2029998938189905 -0.8079999128924769 1.5951000452041626 -0.03099996248354131 0.0 0.0 0.0 0.0 0.0 0.0 3.650210317624521e-18 0.5427793860435486 0.5731123089790344 0.22763171792030334 0.0015570707619190216 0.0 3.650210317624521e-18 0.5427793860435486 0.5731123089790344 0.22763171792030334 0.0015570707619190216 0.0 -0.11842706929373131 -0.2680453534302138 0.15727817303169656 -0.0012209830284131572 3.1162764812408956 0.03889191616813326 0.0 0.0 0.0 0.0 0.0 0.0 -7.511218148109654e-07 -1.6948063694212381e-06 -5.227722803655168e-07 8.577250786496456e-08 -6.113140665687394e-08 6.237609692428192e-10 -0.11842706929373131 -0.2680453534302138 0.15727817303169656 -0.0012209830284131572 3.1162764812408956 0.03889191616813326 0.0 0.0 0.0 0.0 0.0 0.0
12967.528 -1.6007002035724085 -1.7271001974688929 -2.2029998938189905 -0.8079999128924769 1.5951000452041626 -0.03099996248354131 0.0 0.0 0.0 0.0 0.0 0.0 0.0 0.0 0.0 0.0 0.0 0.0 3.650210433332182e-18 0.5427793678631418 0.5731123298385189 0.2276317208234577 0.0015570708124341278 0.0 4.7927262989651557e-17 7.1266931000430525 5.336936637922256 1.0345861711426152 0.00707688684251311 0.0 -1.6007002035724085 -1.7271001974688929 -2.2029998938189905 -0.8079999128924769 1.5951000452041626 -0.03099996248354131 0.0 0.0 0.0 0.0 0.0 0.0 3.650210317624521e-18 0.5427793860435486 0.5731123089790344 0.22763171792030334 0.0015570707619190216 0.0 3.650210317624521e-18 0.5427793860435486 0.5731123089790344 0.22763171792030334 0.0015570707619190216 0.0 -0.11842706929373131 -0.2680453534302138 0.15727817303169656 -0.0012209830284131572 3.1162764812408956 0.03889191616813326 0.0 0.0 0.0 0.0 0.0 0.0 -7.511218148109654e-07 -1.6948063694212381e-06 -5.227722803655168e-07 8.577250786496456e-08 -6.113140665687394e-08 6.237609692428192e-10 -0.11842706929373131 -0.2680453534302138 0.15727817303169656 -0.0012209830284131572 3.1162764812408956 0.03889191616813326 0.0 0.0 0.0 0.0 0.0 0.0
12967.536 -1.6007002035724085 -1.7271001974688929 -2.2029998938189905 -0.8079999128924769 1.5951000452041626 -0.03099996248354131 0.0 0.0 0.0 0.0 0.0 0.0 0.0 0.0 0.0 0.0 0.0 0.0 3.650210433332182e-18 0.5427793678631418 0.5731123298385189 0.2276317208234577 0.0015570708124341278 0.0 4.7927262989651557e-17 7.1266931000430525 5.336936637922256 1.0345861711426152 0.00707688684251311 0.0 -1.6007002035724085 -1.7271001974688929 -2.2029998938189905 -0.8079999128924769 1.5951000452041626 -0.03099996248354131 0.0 0.0 0.0 0.0 0.0 0.0 3.650210317624521e-18 0.5427793860435486 0.5731123089790344 0.22763171792030334 0.0015570707619190216 0.0 3.650210317624521e-18 0.5427793860435486 0.5731123089790344 0.22763171792030334 0.0015570707619190216 0.0 -0.11842706929373131 -0.2680453534302138 0.15727817303169656 -0.0012209830284131572 3.1162764812408956 0.03889191616813326 0.0 0.0 0.0 0.0 0.0 0.0 -7.511218148109654e-07 -1.6948063694212381e-06 -5.227722803655168e-07 8.577250786496456e-08 -6.113140665687394e-08 6.237609692428192e-10 -0.11842706929373131 -0.2680453534302138 0.15727817303169656 -0.0012209830284131572 3.1162764812408956 0.03889191616813326 0.0 0.0 0.0 0.0 0.0 0.0
12967.544 -1.6007002035724085 -1.7271001974688929 -2.2029998938189905 -0.8079999128924769 1.5951000452041626 -0.03099996248354131 0.0 0.0 0.0 0.0 0.0 0.0 0.0 0.0 0.0 0.0 0.0 0.0 3.650210433332182e-18 0.5427793678631418 0.5731123298385189 0.2276317208234577 0.0015570708124341278 0.0 4.7927262989651557e-17 7.1266931000430525 5.336936637922256 1.0345861711426152 0.00707688684251311 0.0 -1.6007002035724085 -1.7271001974688929 -2.2029998938189905 -0.8079999128924769 1.5951000452041626 -0.03099996248354131 0.0 0.0 0.0 0.0 0.0 0.0 3.650210317624521e-18 0.5427793860435486 0.5731123089790344 0.22763171792030334 0.0015570707619190216 0.0 3.650210317624521e-18 0.5427793860435486 0.5731123089790344 0.22763171792030334 0.0015570707619190216 0.0 -0.11842706929373131 -0.2680453534302138 0.15727817303169656 -0.0012209830284131572 3.1162764812408956 0.03889191616813326 0.0 0.0 0.0 0.0 0.0 0.0 -7.511218148109654e-07 -1.6948063694212381e-06 -5.227722803655168e-07 8.577250786496456e-08 -6.113140665687394e-08 6.237609692428192e-10 -0.11842706929373131 -0.2680453534302138 0.15727817303169656 -0.0012209830284131572 3.1162764812408956 0.03889191616813326 0.0 0.0 0.0 0.0 0.0 0.0
12967.552 -1.6007002035724085 -1.7271001974688929 -2.2029998938189905 -0.8079999128924769 1.5951000452041626 -0.03099996248354131 0.0 0.0 0.0 0.0 0.0 0.0 0.0 0.0 0.0 0.0 0.0 0.0 3.650210433332182e-18 0.5427793678631418 0.5731123298385189 0.2276317208234577 0.0015570708124341278 0.0 4.7927262989651557e-17 7.1266931000430525 5.336936637922256 1.0345861711426152 0.00707688684251311 0.0 -1.6007002035724085 -1.7271001974688929 -2.2029998938189905 -0.8079999128924769 1.5951000452041626 -0.03099996248354131 0.0 0.0 0.0 0.0 0.0 0.0 3.650210317624521e-18 0.5427793860435486 0.5731123089790344 0.22763171792030334 0.0015570707619190216 0.0 3.650210317624521e-18 0.5427793860435486 0.5731123089790344 0.22763171792030334 0.0015570707619190216 0.0 -0.11842706929373131 -0.2680453534302138 0.15727817303169656 -0.0012209830284131572 3.1162764812408956 0.03889191616813326 0.0 0.0 0.0 0.0 0.0 0.0 -7.511218148109654e-07 -1.6948063694212381e-06 -5.227722803655168e-07 8.577250786496456e-08 -6.113140665687394e-08 6.237609692428192e-10 -0.11842706929373131 -0.2680453534302138 0.15727817303169656 -0.0012209830284131572 3.1162764812408956 0.03889191616813326 0.0 0.0 0.0 0.0 0.0 0.0
12967.56 -1.6007002035724085 -1.7271001974688929 -2.2029998938189905 -0.8079999128924769 1.5951000452041626 -0.03099996248354131 0.0 0.0 0.0 0.0 0.0 0.0 0.0 0.0 0.0 0.0 0.0 0.0 3.650210433332182e-18 0.5427793678631418 0.5731123298385189 0.2276317208234577 0.0015570708124341278 0.0 4.7927262989651557e-17 7.1266931000430525 5.336936637922256 1.0345861711426152 0.00707688684251311 0.0 -1.6007002035724085 -1.7271001974688929 -2.2029998938189905 -0.8079999128924769 1.5951000452041626 -0.03099996248354131 0.0 0.0 0.0 0.0 0.0 0.0 3.650210317624521e-18 0.5427793860435486 0.5731123089790344 0.22763171792030334 0.0015570707619190216 0.0 3.650210317624521e-18 0.5427793860435486 0.5731123089790344 0.22763171792030334 0.0015570707619190216 0.0 -0.11842706929373131 -0.2680453534302138 0.15727817303169656 -0.0012209830284131572 3.1162764812408956 0.03889191616813326 0.0 0.0 0.0 0.0 0.0 0.0 -7.511218148109654e-07 -1.6948063694212381e-06 -5.227722803655168e-07 8.577250786496456e-08 -6.113140665687394e-08 6.237609692428192e-10 -0.11842706929373131 -0.2680453534302138 0.15727817303169656 -0.0012209830284131572 3.1162764812408956 0.03889191616813326 0.0 0.0 0.0 0.0 0.0 0.0
12967.568 -1.6007002035724085 -1.7271001974688929 -2.2029998938189905 -0.8079999128924769 1.5951000452041626 -0.03099996248354131 0.0 0.0 0.0 0.0 0.0 0.0 0.0 0.0 0.0 0.0 0.0 0.0 3.650210433332182e-18 0.5427793678631418 0.5731123298385189 0.2276317208234577 0.0015570708124341278 0.0 4.7927262989651557e-17 7.1266931000430525 5.336936637922256 1.0345861711426152 0.00707688684251311 0.0 -1.6007002035724085 -1.7271001974688929 -2.2029998938189905 -0.8079999128924769 1.5951000452041626 -0.03099996248354131 0.0 0.0 0.0 0.0 0.0 0.0 3.650210317624521e-18 0.5427793860435486 0.5731123089790344 0.22763171792030334 0.0015570707619190216 0.0 3.650210317624521e-18 0.5427793860435486 0.5731123089790344 0.22763171792030334 0.0015570707619190216 0.0 -0.11842706929373131 -0.2680453534302138 0.15727817303169656 -0.0012209830284131572 3.1162764812408956 0.03889191616813326 0.0 0.0 0.0 0.0 0.0 0.0 -7.511218148109654e-07 -1.6948063694212381e-06 -5.227722803655168e-07 8.577250786496456e-08 -6.113140665687394e-08 6.237609692428192e-10 -0.11842706929373131 -0.2680453534302138 0.15727817303169656 -0.0012209830284131572 3.1162764812408956 0.03889191616813326 0.0 0.0 0.0 0.0 0.0 0.0
12967.576 -1.6007002035724085 -1.7271001974688929 -2.2029998938189905 -0.8079999128924769 1.5951000452041626 -0.03099996248354131 0.0 0.0 0.0 0.0 0.0 0.0 0.0 0.0 0.0 0.0 0.0 0.0 3.650210433332182e-18 0.5427793678631418 0.5731123298385189 0.2276317208234577 0.0015570708124341278 0.0 4.7927262989651557e-17 7.1266931000430525 5.336936637922256 1.0345861711426152 0.00707688684251311 0.0 -1.6007002035724085 -1.7271001974688929 -2.2029998938189905 -0.8079999128924769 1.5951000452041626 -0.03099996248354131 0.0 0.0 0.0 0.0 0.0 0.0 3.650210317624521e-18 0.5427793860435486 0.5731123089790344 0.22763171792030334 0.0015570707619190216 0.0 3.650210317624521e-18 0.5427793860435486 0.5731123089790344 0.22763171792030334 0.0015570707619190216 0.0 -0.11842706929373131 -0.2680453534302138 0.15727817303169656 -0.0012209830284131572 3.1162764812408956 0.03889191616813326 0.0 0.0 0.0 0.0 0.0 0.0 -7.511218148109654e-07 -1.6948063694212381e-06 -5.227722803655168e-07 8.577250786496456e-08 -6.113140665687394e-08 6.237609692428192e-10 -0.11842706929373131 -0.2680453534302138 0.15727817303169656 -0.0012209830284131572 3.1162764812408956 0.03889191616813326 0.0 0.0 0.0 0.0 0.0 0.0
12967.583999999999 -1.6007002035724085 -1.7271001974688929 -2.2029998938189905 -0.8079999128924769 1.5951000452041626 -0.03099996248354131 0.0 0.0 0.0 0.0 0.0 0.0 0.0 0.0 0.0 0.0 0.0 0.0 3.650210433332182e-18 0.5427793678631418 0.5731123298385189 0.2276317208234577 0.0015570708124341278 0.0 4.7927262989651557e-17 7.1266931000430525 5.336936637922256 1.0345861711426152 0.00707688684251311 0.0 -1.6007002035724085 -1.7271001974688929 -2.2029998938189905 -0.8079999128924769 1.5951000452041626 -0.03099996248354131 0.0 0.0 0.0 0.0 0.0 0.0 3.650210317624521e-18 0.5427793860435486 0.5731123089790344 0.22763171792030334 0.0015570707619190216 0.0 3.650210317624521e-18 0.5427793860435486 0.5731123089790344 0.22763171792030334 0.0015570707619190216 0.0 -0.11842706929373131 -0.2680453534302138 0.15727817303169656 -0.0012209830284131572 3.1162764812408956 0.03889191616813326 0.0 0.0 0.0 0.0 0.0 0.0 -7.511218148109654e-07 -1.6948063694212381e-06 -5.227722803655168e-07 8.577250786496456e-08 -6.113140665687394e-08 6.237609692428192e-10 -0.11842706929373131 -0.2680453534302138 0.15727817303169656 -0.0012209830284131572 3.1162764812408956 0.03889191616813326 0.0 0.0 0.0 0.0 0.0 0.0
12967.591999999999 -1.6007002035724085 -1.7271001974688929 -2.2029998938189905 -0.8079999128924769 1.5951000452041626 -0.03099996248354131 0.0 0.0 0.0 0.0 0.0 0.0 0.0 0.0 0.0 0.0 0.0 0.0 3.650210433332182e-18 0.5427793678631418 0.5731123298385189 0.2276317208234577 0.0015570708124341278 0.0 4.7927262989651557e-17 7.1266931000430525 5.336936637922256 1.0345861711426152 0.00707688684251311 0.0 -1.6007002035724085 -1.7271001974688929 -2.2029998938189905 -0.8079999128924769 1.5951000452041626 -0.03099996248354131 0.0 0.0 0.0 0.0 0.0 0.0 3.650210317624521e-18 0.5427793860435486 0.5731123089790344 0.22763171792030334 0.0015570707619190216 0.0 3.650210317624521e-18 0.5427793860435486 0.5731123089790344 0.22763171792030334 0.0015570707619190216 0.0 -0.11842706929373131 -0.2680453534302138 0.15727817303169656 -0.0012209830284131572 3.1162764812408956 0.03889191616813326 0.0 0.0 0.0 0.0 0.0 0.0 -7.511218148109654e-07 -1.6948063694212381e-06 -5.227722803655168e-07 8.577250786496456e-08 -6.113140665687394e-08 6.237609692428192e-10 -0.11842706929373131 -0.2680453534302138 0.15727817303169656 -0.0012209830284131572 3.1162764812408956 0.03889191616813326 0.0 0.0 0.0 0.0 0.0 0.0
12967.599999999999 -1.6007002035724085 -1.7271001974688929 -2.2029998938189905 -0.8079999128924769 1.5951000452041626 -0.03099996248354131 0.0 0.0 0.0 0.0 0.0 0.0 0.0 0.0 0.0 0.0 0.0 0.0 3.650210433332182e-18 0.5427793678631418 0.5731123298385189 0.2276317208234577 0.0015570708124341278 0.0 4.7927262989651557e-17 7.1266931000430525 5.336936637922256 1.0345861711426152 0.00707688684251311 0.0 -1.6007002035724085 -1.7271001974688929 -2.2029998938189905 -0.8079999128924769 1.5951000452041626 -0.03099996248354131 0.0 0.0 0.0 0.0 0.0 0.0 3.650210317624521e-18 0.5427793860435486 0.5731123089790344 0.22763171792030334 0.0015570707619190216 0.0 3.650210317624521e-18 0.5427793860435486 0.5731123089790344 0.22763171792030334 0.0015570707619190216 0.0 -0.11842706929373131 -0.2680453534302138 0.15727817303169656 -0.0012209830284131572 3.1162764812408956 0.03889191616813326 0.0 0.0 0.0 0.0 0.0 0.0 -7.511218148109654e-07 -1.6948063694212381e-06 -5.227722803655168e-07 8.577250786496456e-08 -6.113140665687394e-08 6.237609692428192e-10 -0.11842706929373131 -0.2680453534302138 0.15727817303169656 -0.0012209830284131572 3.1162764812408956 0.03889191616813326 0.0 0.0 0.0 0.0 0.0 0.0
12967.608 -1.6007002035724085 -1.7271001974688929 -2.2029998938189905 -0.8079999128924769 1.5951000452041626 -0.03099996248354131 0.0 0.0 0.0 0.0 0.0 0.0 0.0 0.0 0.0 0.0 0.0 0.0 3.650210433332182e-18 0.5427793678631418 0.5731123298385189 0.2276317208234577 0.0015570708124341278 0.0 4.7927262989651557e-17 7.1266931000430525 5.336936637922256 1.0345861711426152 0.00707688684251311 0.0 -1.6007002035724085 -1.7271001974688929 -2.2029998938189905 -0.8079999128924769 1.5951000452041626 -0.03099996248354131 0.0 0.0 0.0 0.0 0.0 0.0 3.650210317624521e-18 0.5427793860435486 0.5731123089790344 0.22763171792030334 0.0015570707619190216 0.0 3.650210317624521e-18 0.5427793860435486 0.5731123089790344 0.22763171792030334 0.0015570707619190216 0.0 -0.11842706929373131 -0.2680453534302138 0.15727817303169656 -0.0012209830284131572 3.1162764812408956 0.03889191616813326 0.0 0.0 0.0 0.0 0.0 0.0 -7.511218148109654e-07 -1.6948063694212381e-06 -5.227722803655168e-07 8.577250786496456e-08 -6.113140665687394e-08 6.237609692428192e-10 -0.11842706929373131 -0.2680453534302138 0.15727817303169656 -0.0012209830284131572 3.1162764812408956 0.03889191616813326 0.0 0.0 0.0 0.0 0.0 0.0
12967.616 -1.6007002035724085 -1.7271001974688929 -2.2029998938189905 -0.8079999128924769 1.5951000452041626 -0.03099996248354131 0.0 0.0 0.0 0.0 0.0 0.0 0.0 0.0 0.0 0.0 0.0 0.0 3.650210433332182e-18 0.5427793678631418 0.5731123298385189 0.2276317208234577 0.0015570708124341278 0.0 4.7927262989651557e-17 7.1266931000430525 5.336936637922256 1.0345861711426152 0.00707688684251311 0.0 -1.6007002035724085 -1.7271001974688929 -2.2029998938189905 -0.8079999128924769 1.5951000452041626 -0.03099996248354131 0.0 0.0 0.0 0.0 0.0 0.0 3.650210317624521e-18 0.5427793860435486 0.5731123089790344 0.22763171792030334 0.0015570707619190216 0.0 3.650210317624521e-18 0.5427793860435486 0.5731123089790344 0.22763171792030334 0.0015570707619190216 0.0 -0.11842706929373131 -0.2680453534302138 0.15727817303169656 -0.0012209830284131572 3.1162764812408956 0.03889191616813326 0.0 0.0 0.0 0.0 0.0 0.0 -7.511218148109654e-07 -1.6948063694212381e-06 -5.227722803655168e-07 8.577250786496456e-08 -6.113140665687394e-08 6.237609692428192e-10 -0.11842706929373131 -0.2680453534302138 0.15727817303169656 -0.0012209830284131572 3.1162764812408956 0.03889191616813326 0.0 0.0 0.0 0.0 0.0 0.0
12967.624 -1.6007002035724085 -1.7271001974688929 -2.2029998938189905 -0.8079999128924769 1.5951000452041626 -0.03099996248354131 0.0 0.0 0.0 0.0 0.0 0.0 0.0 0.0 0.0 0.0 0.0 0.0 3.650210433332182e-18 0.5427793678631418 0.5731123298385189 0.2276317208234577 0.0015570708124341278 0.0 4.7927262989651557e-17 7.1266931000430525 5.336936637922256 1.0345861711426152 0.00707688684251311 0.0 -1.6007002035724085 -1.7271001974688929 -2.2029998938189905 -0.8079999128924769 1.5951000452041626 -0.03099996248354131 0.0 0.0 0.0 0.0 0.0 0.0 3.650210317624521e-18 0.5427793860435486 0.5731123089790344 0.22763171792030334 0.0015570707619190216 0.0 3.650210317624521e-18 0.5427793860435486 0.5731123089790344 0.22763171792030334 0.0015570707619190216 0.0 -0.11842706929373131 -0.2680453534302138 0.15727817303169656 -0.0012209830284131572 3.1162764812408956 0.03889191616813326 0.0 0.0 0.0 0.0 0.0 0.0 -7.511218148109654e-07 -1.6948063694212381e-06 -5.227722803655168e-07 8.577250786496456e-08 -6.113140665687394e-08 6.237609692428192e-10 -0.11842706929373131 -0.2680453534302138 0.15727817303169656 -0.0012209830284131572 3.1162764812408956 0.03889191616813326 0.0 0.0 0.0 0.0 0.0 0.0
12967.632 -1.6007002035724085 -1.7271001974688929 -2.2029998938189905 -0.8079999128924769 1.5951000452041626 -0.03099996248354131 0.0 0.0 0.0 0.0 0.0 0.0 0.0 0.0 0.0 0.0 0.0 0.0 3.650210433332182e-18 0.5427793678631418 0.5731123298385189 0.2276317208234577 0.0015570708124341278 0.0 4.7927262989651557e-17 7.1266931000430525 5.336936637922256 1.0345861711426152 0.00707688684251311 0.0 -1.6007002035724085 -1.7271001974688929 -2.2029998938189905 -0.8079999128924769 1.5951000452041626 -0.03099996248354131 0.0 0.0 0.0 0.0 0.0 0.0 3.650210317624521e-18 0.5427793860435486 0.5731123089790344 0.22763171792030334 0.0015570707619190216 0.0 3.650210317624521e-18 0.5427793860435486 0.5731123089790344 0.22763171792030334 0.0015570707619190216 0.0 -0.11842706929373131 -0.2680453534302138 0.15727817303169656 -0.0012209830284131572 3.1162764812408956 0.03889191616813326 0.0 0.0 0.0 0.0 0.0 0.0 -7.511218148109654e-07 -1.6948063694212381e-06 -5.227722803655168e-07 8.577250786496456e-08 -6.113140665687394e-08 6.237609692428192e-10 -0.11842706929373131 -0.2680453534302138 0.15727817303169656 -0.0012209830284131572 3.1162764812408956 0.03889191616813326 0.0 0.0 0.0 0.0 0.0 0.0
12967.64 -1.6007002035724085 -1.7271001974688929 -2.2029998938189905 -0.8079999128924769 1.5951000452041626 -0.03099996248354131 0.0 0.0 0.0 0.0 0.0 0.0 0.0 0.0 0.0 0.0 0.0 0.0 3.650210433332182e-18 0.5427793678631418 0.5731123298385189 0.2276317208234577 0.0015570708124341278 0.0 4.7927262989651557e-17 7.1266931000430525 5.336936637922256 1.0345861711426152 0.00707688684251311 0.0 -1.6007002035724085 -1.7271001974688929 -2.2029998938189905 -0.8079999128924769 1.5951000452041626 -0.03099996248354131 0.0 0.0 0.0 0.0 0.0 0.0 3.650210317624521e-18 0.5427793860435486 0.5731123089790344 0.22763171792030334 0.0015570707619190216 0.0 3.650210317624521e-18 0.5427793860435486 0.5731123089790344 0.22763171792030334 0.0015570707619190216 0.0 -0.11842706929373131 -0.2680453534302138 0.15727817303169656 -0.0012209830284131572 3.1162764812408956 0.03889191616813326 0.0 0.0 0.0 0.0 0.0 0.0 -7.511218148109654e-07 -1.6948063694212381e-06 -5.227722803655168e-07 8.577250786496456e-08 -6.113140665687394e-08 6.237609692428192e-10 -0.11842706929373131 -0.2680453534302138 0.15727817303169656 -0.0012209830284131572 3.1162764812408956 0.03889191616813326 0.0 0.0 0.0 0.0 0.0 0.0
12967.648 -1.6007002035724085 -1.7271001974688929 -2.2029998938189905 -0.8079999128924769 1.5951000452041626 -0.03099996248354131 0.0 0.0 0.0 0.0 0.0 0.0 0.0 0.0 0.0 0.0 0.0 0.0 3.650210433332182e-18 0.5427793678631418 0.5731123298385189 0.2276317208234577 0.0015570708124341278 0.0 4.7927262989651557e-17 7.1266931000430525 5.336936637922256 1.0345861711426152 0.00707688684251311 0.0 -1.6007002035724085 -1.7271001974688929 -2.2029998938189905 -0.8079999128924769 1.5951000452041626 -0.03099996248354131 0.0 0.0 0.0 0.0 0.0 0.0 3.650210317624521e-18 0.5427793860435486 0.5731123089790344 0.22763171792030334 0.0015570707619190216 0.0 3.650210317624521e-18 0.5427793860435486 0.5731123089790344 0.22763171792030334 0.0015570707619190216 0.0 -0.11842706929373131 -0.2680453534302138 0.15727817303169656 -0.0012209830284131572 3.1162764812408956 0.03889191616813326 0.0 0.0 0.0 0.0 0.0 0.0 -7.511218148109654e-07 -1.6948063694212381e-06 -5.227722803655168e-07 8.577250786496456e-08 -6.113140665687394e-08 6.237609692428192e-10 -0.11842706929373131 -0.2680453534302138 0.15727817303169656 -0.0012209830284131572 3.1162764812408956 0.03889191616813326 0.0 0.0 0.0 0.0 0.0 0.0
12967.655999999999 -1.6007002035724085 -1.7271001974688929 -2.2029998938189905 -0.8079999128924769 1.5951000452041626 -0.03099996248354131 0.0 0.0 0.0 0.0 0.0 0.0 0.0 0.0 0.0 0.0 0.0 0.0 3.650210433332182e-18 0.5427793678631418 0.5731123298385189 0.2276317208234577 0.0015570708124341278 0.0 4.7927262989651557e-17 7.1266931000430525 5.336936637922256 1.0345861711426152 0.00707688684251311 0.0 -1.6007002035724085 -1.7271001974688929 -2.2029998938189905 -0.8079999128924769 1.5951000452041626 -0.03099996248354131 0.0 0.0 0.0 0.0 0.0 0.0 3.650210317624521e-18 0.5427793860435486 0.5731123089790344 0.22763171792030334 0.0015570707619190216 0.0 3.650210317624521e-18 0.5427793860435486 0.5731123089790344 0.22763171792030334 0.0015570707619190216 0.0 -0.11842706929373131 -0.2680453534302138 0.15727817303169656 -0.0012209830284131572 3.1162764812408956 0.03889191616813326 0.0 0.0 0.0 0.0 0.0 0.0 -7.511218148109654e-07 -1.6948063694212381e-06 -5.227722803655168e-07 8.577250786496456e-08 -6.113140665687394e-08 6.237609692428192e-10 -0.11842706929373131 -0.2680453534302138 0.15727817303169656 -0.0012209830284131572 3.1162764812408956 0.03889191616813326 0.0 0.0 0.0 0.0 0.0 0.0
12967.663999999999 -1.6007002035724085 -1.7271001974688929 -2.2029998938189905 -0.8079999128924769 1.5951000452041626 -0.03099996248354131 0.0 0.0 0.0 0.0 0.0 0.0 0.0 0.0 0.0 0.0 0.0 0.0 3.650210433332182e-18 0.5427793678631418 0.5731123298385189 0.2276317208234577 0.0015570708124341278 0.0 4.7927262989651557e-17 7.1266931000430525 5.336936637922256 1.0345861711426152 0.00707688684251311 0.0 -1.6007002035724085 -1.7271001974688929 -2.2029998938189905 -0.8079999128924769 1.5951000452041626 -0.03099996248354131 0.0 0.0 0.0 0.0 0.0 0.0 3.650210317624521e-18 0.5427793860435486 0.5731123089790344 0.22763171792030334 0.0015570707619190216 0.0 3.650210317624521e-18 0.5427793860435486 0.5731123089790344 0.22763171792030334 0.0015570707619190216 0.0 -0.11842706929373131 -0.2680453534302138 0.15727817303169656 -0.0012209830284131572 3.1162764812408956 0.03889191616813326 0.0 0.0 0.0 0.0 0.0 0.0 -7.511218148109654e-07 -1.6948063694212381e-06 -5.227722803655168e-07 8.577250786496456e-08 -6.113140665687394e-08 6.237609692428192e-10 -0.11842706929373131 -0.2680453534302138 0.15727817303169656 -0.0012209830284131572 3.1162764812408956 0.03889191616813326 0.0 0.0 0.0 0.0 0.0 0.0
12967.671999999999 -1.6007002035724085 -1.7271001974688929 -2.2029998938189905 -0.8079999128924769 1.5951000452041626 -0.03099996248354131 0.0 0.0 0.0 0.0 0.0 0.0 0.0 0.0 0.0 0.0 0.0 0.0 3.650210433332182e-18 0.5427793678631418 0.5731123298385189 0.2276317208234577 0.0015570708124341278 0.0 4.7927262989651557e-17 7.1266931000430525 5.336936637922256 1.0345861711426152 0.00707688684251311 0.0 -1.6007002035724085 -1.7271001974688929 -2.2029998938189905 -0.8079999128924769 1.5951000452041626 -0.03099996248354131 0.0 0.0 0.0 0.0 0.0 0.0 3.650210317624521e-18 0.5427793860435486 0.5731123089790344 0.22763171792030334 0.0015570707619190216 0.0 3.650210317624521e-18 0.5427793860435486 0.5731123089790344 0.22763171792030334 0.0015570707619190216 0.0 -0.11842706929373131 -0.2680453534302138 0.15727817303169656 -0.0012209830284131572 3.1162764812408956 0.03889191616813326 0.0 0.0 0.0 0.0 0.0 0.0 -7.511218148109654e-07 -1.6948063694212381e-06 -5.227722803655168e-07 8.577250786496456e-08 -6.113140665687394e-08 6.237609692428192e-10 -0.11842706929373131 -0.2680453534302138 0.15727817303169656 -0.0012209830284131572 3.1162764812408956 0.03889191616813326 0.0 0.0 0.0 0.0 0.0 0.0
12967.68 -1.6007002035724085 -1.7271001974688929 -2.2029998938189905 -0.8079999128924769 1.5951000452041626 -0.03099996248354131 0.0 0.0 0.0 0.0 0.0 0.0 0.0 0.0 0.0 0.0 0.0 0.0 3.650210433332182e-18 0.5427793678631418 0.5731123298385189 0.2276317208234577 0.0015570708124341278 0.0 4.7927262989651557e-17 7.1266931000430525 5.336936637922256 1.0345861711426152 0.00707688684251311 0.0 -1.6007002035724085 -1.7271001974688929 -2.2029998938189905 -0.8079999128924769 1.5951000452041626 -0.03099996248354131 0.0 0.0 0.0 0.0 0.0 0.0 3.650210317624521e-18 0.5427793860435486 0.5731123089790344 0.22763171792030334 0.0015570707619190216 0.0 3.650210317624521e-18 0.5427793860435486 0.5731123089790344 0.22763171792030334 0.0015570707619190216 0.0 -0.11842706929373131 -0.2680453534302138 0.15727817303169656 -0.0012209830284131572 3.1162764812408956 0.03889191616813326 0.0 0.0 0.0 0.0 0.0 0.0 -7.511218148109654e-07 -1.6948063694212381e-06 -5.227722803655168e-07 8.577250786496456e-08 -6.113140665687394e-08 6.237609692428192e-10 -0.11842706929373131 -0.2680453534302138 0.15727817303169656 -0.0012209830284131572 3.1162764812408956 0.03889191616813326 0.0 0.0 0.0 0.0 0.0 0.0
12967.688 -1.6007002035724085 -1.7271001974688929 -2.2029998938189905 -0.8079999128924769 1.5951000452041626 -0.03099996248354131 0.0 0.0 0.0 0.0 0.0 0.0 0.0 0.0 0.0 0.0 0.0 0.0 3.650210433332182e-18 0.5427793678631418 0.5731123298385189 0.2276317208234577 0.0015570708124341278 0.0 4.7927262989651557e-17 7.1266931000430525 5.336936637922256 1.0345861711426152 0.00707688684251311 0.0 -1.6007002035724085 -1.7271001974688929 -2.2029998938189905 -0.8079999128924769 1.5951000452041626 -0.03099996248354131 0.0 0.0 0.0 0.0 0.0 0.0 3.650210317624521e-18 0.5427793860435486 0.5731123089790344 0.22763171792030334 0.0015570707619190216 0.0 3.650210317624521e-18 0.5427793860435486 0.5731123089790344 0.22763171792030334 0.0015570707619190216 0.0 -0.11842706929373131 -0.2680453534302138 0.15727817303169656 -0.0012209830284131572 3.1162764812408956 0.03889191616813326 0.0 0.0 0.0 0.0 0.0 0.0 -7.511218148109654e-07 -1.6948063694212381e-06 -5.227722803655168e-07 8.577250786496456e-08 -6.113140665687394e-08 6.237609692428192e-10 -0.11842706929373131 -0.2680453534302138 0.15727817303169656 -0.0012209830284131572 3.1162764812408956 0.03889191616813326 0.0 0.0 0.0 0.0 0.0 0.0
12967.696 -1.6007002035724085 -1.7271001974688929 -2.2029998938189905 -0.8079999128924769 1.5951000452041626 -0.03099996248354131 0.0 0.0 0.0 0.0 0.0 0.0 0.0 0.0 0.0 0.0 0.0 0.0 3.650210433332182e-18 0.5427793678631418 0.5731123298385189 0.2276317208234577 0.0015570708124341278 0.0 4.7927262989651557e-17 7.1266931000430525 5.336936637922256 1.0345861711426152 0.00707688684251311 0.0 -1.6007002035724085 -1.7271001974688929 -2.2029998938189905 -0.8079999128924769 1.5951000452041626 -0.03099996248354131 0.0 0.0 0.0 0.0 0.0 0.0 3.650210317624521e-18 0.5427793860435486 0.5731123089790344 0.22763171792030334 0.0015570707619190216 0.0 3.650210317624521e-18 0.5427793860435486 0.5731123089790344 0.22763171792030334 0.0015570707619190216 0.0 -0.11842706929373131 -0.2680453534302138 0.15727817303169656 -0.0012209830284131572 3.1162764812408956 0.03889191616813326 0.0 0.0 0.0 0.0 0.0 0.0 -7.511218148109654e-07 -1.6948063694212381e-06 -5.227722803655168e-07 8.577250786496456e-08 -6.113140665687394e-08 6.237609692428192e-10 -0.11842706929373131 -0.2680453534302138 0.15727817303169656 -0.0012209830284131572 3.1162764812408956 0.03889191616813326 0.0 0.0 0.0 0.0 0.0 0.0
12967.704 -1.6007002035724085 -1.7271001974688929 -2.2029998938189905 -0.8079999128924769 1.5951000452041626 -0.03099996248354131 0.0 0.0 0.0 0.0 0.0 0.0 0.0 0.0 0.0 0.0 0.0 0.0 3.650210433332182e-18 0.5427793678631418 0.5731123298385189 0.2276317208234577 0.0015570708124341278 0.0 4.7927262989651557e-17 7.1266931000430525 5.336936637922256 1.0345861711426152 0.00707688684251311 0.0 -1.6007002035724085 -1.7271001974688929 -2.2029998938189905 -0.8079999128924769 1.5951000452041626 -0.03099996248354131 0.0 0.0 0.0 0.0 0.0 0.0 3.650210317624521e-18 0.5427793860435486 0.5731123089790344 0.22763171792030334 0.0015570707619190216 0.0 3.650210317624521e-18 0.5427793860435486 0.5731123089790344 0.22763171792030334 0.0015570707619190216 0.0 -0.11842706929373131 -0.2680453534302138 0.15727817303169656 -0.0012209830284131572 3.1162764812408956 0.03889191616813326 0.0 0.0 0.0 0.0 0.0 0.0 -7.511218148109654e-07 -1.6948063694212381e-06 -5.227722803655168e-07 8.577250786496456e-08 -6.113140665687394e-08 6.237609692428192e-10 -0.11842706929373131 -0.2680453534302138 0.15727817303169656 -0.0012209830284131572 3.1162764812408956 0.03889191616813326 0.0 0.0 0.0 0.0 0.0 0.0
12967.712 -1.6007002035724085 -1.7271001974688929 -2.2029998938189905 -0.8079999128924769 1.5951000452041626 -0.03099996248354131 0.0 0.0 0.0 0.0 0.0 0.0 0.0 0.0 0.0 0.0 0.0 0.0 3.650210433332182e-18 0.5427793678631418 0.5731123298385189 0.2276317208234577 0.0015570708124341278 0.0 4.7927262989651557e-17 7.1266931000430525 5.336936637922256 1.0345861711426152 0.00707688684251311 0.0 -1.6007002035724085 -1.7271001974688929 -2.2029998938189905 -0.8079999128924769 1.5951000452041626 -0.03099996248354131 0.0 0.0 0.0 0.0 0.0 0.0 3.650210317624521e-18 0.5427793860435486 0.5731123089790344 0.22763171792030334 0.0015570707619190216 0.0 3.650210317624521e-18 0.5427793860435486 0.5731123089790344 0.22763171792030334 0.0015570707619190216 0.0 -0.11842706929373131 -0.2680453534302138 0.15727817303169656 -0.0012209830284131572 3.1162764812408956 0.03889191616813326 0.0 0.0 0.0 0.0 0.0 0.0 -7.511218148109654e-07 -1.6948063694212381e-06 -5.227722803655168e-07 8.577250786496456e-08 -6.113140665687394e-08 6.237609692428192e-10 -0.11842706929373131 -0.2680453534302138 0.15727817303169656 -0.0012209830284131572 3.1162764812408956 0.03889191616813326 0.0 0.0 0.0 0.0 0.0 0.0
12967.72 -1.6007002035724085 -1.7271001974688929 -2.2029998938189905 -0.8079999128924769 1.5951000452041626 -0.03099996248354131 0.0 0.0 0.0 0.0 0.0 0.0 0.0 0.0 0.0 0.0 0.0 0.0 3.650210433332182e-18 0.5427793678631418 0.5731123298385189 0.2276317208234577 0.0015570708124341278 0.0 4.7927262989651557e-17 7.1266931000430525 5.336936637922256 1.0345861711426152 0.00707688684251311 0.0 -1.6007002035724085 -1.7271001974688929 -2.2029998938189905 -0.8079999128924769 1.5951000452041626 -0.03099996248354131 0.0 0.0 0.0 0.0 0.0 0.0 3.650210317624521e-18 0.5427793860435486 0.5731123089790344 0.22763171792030334 0.0015570707619190216 0.0 3.650210317624521e-18 0.5427793860435486 0.5731123089790344 0.22763171792030334 0.0015570707619190216 0.0 -0.11842706929373131 -0.2680453534302138 0.15727817303169656 -0.0012209830284131572 3.1162764812408956 0.03889191616813326 0.0 0.0 0.0 0.0 0.0 0.0 -7.511218148109654e-07 -1.6948063694212381e-06 -5.227722803655168e-07 8.577250786496456e-08 -6.113140665687394e-08 6.237609692428192e-10 -0.11842706929373131 -0.2680453534302138 0.15727817303169656 -0.0012209830284131572 3.1162764812408956 0.03889191616813326 0.0 0.0 0.0 0.0 0.0 0.0
12967.728 -1.6007002035724085 -1.7271001974688929 -2.2029998938189905 -0.8079999128924769 1.5951000452041626 -0.03099996248354131 0.0 0.0 0.0 0.0 0.0 0.0 0.0 0.0 0.0 0.0 0.0 0.0 3.650210433332182e-18 0.5427793678631418 0.5731123298385189 0.2276317208234577 0.0015570708124341278 0.0 4.7927262989651557e-17 7.1266931000430525 5.336936637922256 1.0345861711426152 0.00707688684251311 0.0 -1.6007002035724085 -1.7271001974688929 -2.2029998938189905 -0.8079999128924769 1.5951000452041626 -0.03099996248354131 0.0 0.0 0.0 0.0 0.0 0.0 3.650210317624521e-18 0.5427793860435486 0.5731123089790344 0.22763171792030334 0.0015570707619190216 0.0 3.650210317624521e-18 0.5427793860435486 0.5731123089790344 0.22763171792030334 0.0015570707619190216 0.0 -0.11842706929373131 -0.2680453534302138 0.15727817303169656 -0.0012209830284131572 3.1162764812408956 0.03889191616813326 0.0 0.0 0.0 0.0 0.0 0.0 -7.511218148109654e-07 -1.6948063694212381e-06 -5.227722803655168e-07 8.577250786496456e-08 -6.113140665687394e-08 6.237609692428192e-10 -0.11842706929373131 -0.2680453534302138 0.15727817303169656 -0.0012209830284131572 3.1162764812408956 0.03889191616813326 0.0 0.0 0.0 0.0 0.0 0.0
12967.735999999999 -1.6007002035724085 -1.7271001974688929 -2.2029998938189905 -0.8079999128924769 1.5951000452041626 -0.03099996248354131 0.0 0.0 0.0 0.0 0.0 0.0 0.0 0.0 0.0 0.0 0.0 0.0 3.650210433332182e-18 0.5427793678631418 0.5731123298385189 0.2276317208234577 0.0015570708124341278 0.0 4.7927262989651557e-17 7.1266931000430525 5.336936637922256 1.0345861711426152 0.00707688684251311 0.0 -1.6007002035724085 -1.7271001974688929 -2.2029998938189905 -0.8079999128924769 1.5951000452041626 -0.03099996248354131 0.0 0.0 0.0 0.0 0.0 0.0 3.650210317624521e-18 0.5427793860435486 0.5731123089790344 0.22763171792030334 0.0015570707619190216 0.0 3.650210317624521e-18 0.5427793860435486 0.5731123089790344 0.22763171792030334 0.0015570707619190216 0.0 -0.11842706929373131 -0.2680453534302138 0.15727817303169656 -0.0012209830284131572 3.1162764812408956 0.03889191616813326 0.0 0.0 0.0 0.0 0.0 0.0 -7.511218148109654e-07 -1.6948063694212381e-06 -5.227722803655168e-07 8.577250786496456e-08 -6.113140665687394e-08 6.237609692428192e-10 -0.11842706929373131 -0.2680453534302138 0.15727817303169656 -0.0012209830284131572 3.1162764812408956 0.03889191616813326 0.0 0.0 0.0 0.0 0.0 0.0
12967.743999999999 -1.6007002035724085 -1.7271001974688929 -2.2029998938189905 -0.8079999128924769 1.5951000452041626 -0.03099996248354131 0.0 0.0 0.0 0.0 0.0 0.0 0.0 0.0 0.0 0.0 0.0 0.0 3.650210433332182e-18 0.5427793678631418 0.5731123298385189 0.2276317208234577 0.0015570708124341278 0.0 4.7927262989651557e-17 7.1266931000430525 5.336936637922256 1.0345861711426152 0.00707688684251311 0.0 -1.6007002035724085 -1.7271001974688929 -2.2029998938189905 -0.8079999128924769 1.5951000452041626 -0.03099996248354131 0.0 0.0 0.0 0.0 0.0 0.0 3.650210317624521e-18 0.5427793860435486 0.5731123089790344 0.22763171792030334 0.0015570707619190216 0.0 3.650210317624521e-18 0.5427793860435486 0.5731123089790344 0.22763171792030334 0.0015570707619190216 0.0 -0.11842706929373131 -0.2680453534302138 0.15727817303169656 -0.0012209830284131572 3.1162764812408956 0.03889191616813326 0.0 0.0 0.0 0.0 0.0 0.0 -7.511218148109654e-07 -1.6948063694212381e-06 -5.227722803655168e-07 8.577250786496456e-08 -6.113140665687394e-08 6.237609692428192e-10 -0.11842706929373131 -0.2680453534302138 0.15727817303169656 -0.0012209830284131572 3.1162764812408956 0.03889191616813326 0.0 0.0 0.0 0.0 0.0 0.0
12967.751999999999 -1.6007002035724085 -1.7271001974688929 -2.2029998938189905 -0.8079999128924769 1.5951000452041626 -0.03099996248354131 0.0 0.0 0.0 0.0 0.0 0.0 0.0 0.0 0.0 0.0 0.0 0.0 3.650210433332182e-18 0.5427793678631418 0.5731123298385189 0.2276317208234577 0.0015570708124341278 0.0 4.7927262989651557e-17 7.1266931000430525 5.336936637922256 1.0345861711426152 0.00707688684251311 0.0 -1.6007002035724085 -1.7271001974688929 -2.2029998938189905 -0.8079999128924769 1.5951000452041626 -0.03099996248354131 0.0 0.0 0.0 0.0 0.0 0.0 3.650210317624521e-18 0.5427793860435486 0.5731123089790344 0.22763171792030334 0.0015570707619190216 0.0 3.650210317624521e-18 0.5427793860435486 0.5731123089790344 0.22763171792030334 0.0015570707619190216 0.0 -0.11842706929373131 -0.2680453534302138 0.15727817303169656 -0.0012209830284131572 3.1162764812408956 0.03889191616813326 0.0 0.0 0.0 0.0 0.0 0.0 -7.511218148109654e-07 -1.6948063694212381e-06 -5.227722803655168e-07 8.577250786496456e-08 -6.113140665687394e-08 6.237609692428192e-10 -0.11842706929373131 -0.2680453534302138 0.15727817303169656 -0.0012209830284131572 3.1162764812408956 0.03889191616813326 0.0 0.0 0.0 0.0 0.0 0.0
12967.76 -1.6007002035724085 -1.7271001974688929 -2.2029998938189905 -0.8079999128924769 1.5951000452041626 -0.03099996248354131 0.0 0.0 0.0 0.0 0.0 0.0 0.0 0.0 0.0 0.0 0.0 0.0 3.650210433332182e-18 0.5427793678631418 0.5731123298385189 0.2276317208234577 0.0015570708124341278 0.0 4.7927262989651557e-17 7.1266931000430525 5.336936637922256 1.0345861711426152 0.00707688684251311 0.0 -1.6007002035724085 -1.7271001974688929 -2.2029998938189905 -0.8079999128924769 1.5951000452041626 -0.03099996248354131 0.0 0.0 0.0 0.0 0.0 0.0 3.650210317624521e-18 0.5427793860435486 0.5731123089790344 0.22763171792030334 0.0015570707619190216 0.0 3.650210317624521e-18 0.5427793860435486 0.5731123089790344 0.22763171792030334 0.0015570707619190216 0.0 -0.11842706929373131 -0.2680453534302138 0.15727817303169656 -0.0012209830284131572 3.1162764812408956 0.03889191616813326 0.0 0.0 0.0 0.0 0.0 0.0 -7.511218148109654e-07 -1.6948063694212381e-06 -5.227722803655168e-07 8.577250786496456e-08 -6.113140665687394e-08 6.237609692428192e-10 -0.11842706929373131 -0.2680453534302138 0.15727817303169656 -0.0012209830284131572 3.1162764812408956 0.03889191616813326 0.0 0.0 0.0 0.0 0.0 0.0
12967.768 -1.6007002035724085 -1.7271001974688929 -2.2029998938189905 -0.8079999128924769 1.5951000452041626 -0.03099996248354131 0.0 0.0 0.0 0.0 0.0 0.0 0.0 0.0 0.0 0.0 0.0 0.0 3.650210433332182e-18 0.5427793678631418 0.5731123298385189 0.2276317208234577 0.0015570708124341278 0.0 4.7927262989651557e-17 7.1266931000430525 5.336936637922256 1.0345861711426152 0.00707688684251311 0.0 -1.6007002035724085 -1.7271001974688929 -2.2029998938189905 -0.8079999128924769 1.5951000452041626 -0.03099996248354131 0.0 0.0 0.0 0.0 0.0 0.0 3.650210317624521e-18 0.5427793860435486 0.5731123089790344 0.22763171792030334 0.0015570707619190216 0.0 3.650210317624521e-18 0.5427793860435486 0.5731123089790344 0.22763171792030334 0.0015570707619190216 0.0 -0.11842706929373131 -0.2680453534302138 0.15727817303169656 -0.0012209830284131572 3.1162764812408956 0.03889191616813326 0.0 0.0 0.0 0.0 0.0 0.0 -7.511218148109654e-07 -1.6948063694212381e-06 -5.227722803655168e-07 8.577250786496456e-08 -6.113140665687394e-08 6.237609692428192e-10 -0.11842706929373131 -0.2680453534302138 0.15727817303169656 -0.0012209830284131572 3.1162764812408956 0.03889191616813326 0.0 0.0 0.0 0.0 0.0 0.0
12967.776 -1.6007002035724085 -1.7271001974688929 -2.2029998938189905 -0.8079999128924769 1.5951000452041626 -0.03099996248354131 0.0 0.0 0.0 0.0 0.0 0.0 0.0 0.0 0.0 0.0 0.0 0.0 3.650210433332182e-18 0.5427793678631418 0.5731123298385189 0.2276317208234577 0.0015570708124341278 0.0 4.7927262989651557e-17 7.1266931000430525 5.336936637922256 1.0345861711426152 0.00707688684251311 0.0 -1.6007002035724085 -1.7271001974688929 -2.2029998938189905 -0.8079999128924769 1.5951000452041626 -0.03099996248354131 0.0 0.0 0.0 0.0 0.0 0.0 3.650210317624521e-18 0.5427793860435486 0.5731123089790344 0.22763171792030334 0.0015570707619190216 0.0 3.650210317624521e-18 0.5427793860435486 0.5731123089790344 0.22763171792030334 0.0015570707619190216 0.0 -0.11842706929373131 -0.2680453534302138 0.15727817303169656 -0.0012209830284131572 3.1162764812408956 0.03889191616813326 0.0 0.0 0.0 0.0 0.0 0.0 -7.511218148109654e-07 -1.6948063694212381e-06 -5.227722803655168e-07 8.577250786496456e-08 -6.113140665687394e-08 6.237609692428192e-10 -0.11842706929373131 -0.2680453534302138 0.15727817303169656 -0.0012209830284131572 3.1162764812408956 0.03889191616813326 0.0 0.0 0.0 0.0 0.0 0.0
12967.784 -1.6007002035724085 -1.7271001974688929 -2.2029998938189905 -0.8079999128924769 1.5951000452041626 -0.03099996248354131 0.0 0.0 0.0 0.0 0.0 0.0 0.0 0.0 0.0 0.0 0.0 0.0 3.650210433332182e-18 0.5427793678631418 0.5731123298385189 0.2276317208234577 0.0015570708124341278 0.0 4.7927262989651557e-17 7.1266931000430525 5.336936637922256 1.0345861711426152 0.00707688684251311 0.0 -1.6007002035724085 -1.7271001974688929 -2.2029998938189905 -0.8079999128924769 1.5951000452041626 -0.03099996248354131 0.0 0.0 0.0 0.0 0.0 0.0 3.650210317624521e-18 0.5427793860435486 0.5731123089790344 0.22763171792030334 0.0015570707619190216 0.0 3.650210317624521e-18 0.5427793860435486 0.5731123089790344 0.22763171792030334 0.0015570707619190216 0.0 -0.11842706929373131 -0.2680453534302138 0.15727817303169656 -0.0012209830284131572 3.1162764812408956 0.03889191616813326 0.0 0.0 0.0 0.0 0.0 0.0 -7.511218148109654e-07 -1.6948063694212381e-06 -5.227722803655168e-07 8.577250786496456e-08 -6.113140665687394e-08 6.237609692428192e-10 -0.11842706929373131 -0.2680453534302138 0.15727817303169656 -0.0012209830284131572 3.1162764812408956 0.03889191616813326 0.0 0.0 0.0 0.0 0.0 0.0
12967.792 -1.6007002035724085 -1.7271001974688929 -2.2029998938189905 -0.8079999128924769 1.5951000452041626 -0.03099996248354131 0.0 0.0 0.0 0.0 0.0 0.0 0.0 0.0 0.0 0.0 0.0 0.0 3.650210433332182e-18 0.5427793678631418 0.5731123298385189 0.2276317208234577 0.0015570708124341278 0.0 4.7927262989651557e-17 7.1266931000430525 5.336936637922256 1.0345861711426152 0.00707688684251311 0.0 -1.6007002035724085 -1.7271001974688929 -2.2029998938189905 -0.8079999128924769 1.5951000452041626 -0.03099996248354131 0.0 0.0 0.0 0.0 0.0 0.0 3.650210317624521e-18 0.5427793860435486 0.5731123089790344 0.22763171792030334 0.0015570707619190216 0.0 3.650210317624521e-18 0.5427793860435486 0.5731123089790344 0.22763171792030334 0.0015570707619190216 0.0 -0.11842706929373131 -0.2680453534302138 0.15727817303169656 -0.0012209830284131572 3.1162764812408956 0.03889191616813326 0.0 0.0 0.0 0.0 0.0 0.0 -7.511218148109654e-07 -1.6948063694212381e-06 -5.227722803655168e-07 8.577250786496456e-08 -6.113140665687394e-08 6.237609692428192e-10 -0.11842706929373131 -0.2680453534302138 0.15727817303169656 -0.0012209830284131572 3.1162764812408956 0.03889191616813326 0.0 0.0 0.0 0.0 0.0 0.0
12967.8 -1.6007002035724085 -1.7271001974688929 -2.2029998938189905 -0.8079999128924769 1.5951000452041626 -0.03099996248354131 0.0 0.0 0.0 0.0 0.0 0.0 0.0 0.0 0.0 0.0 0.0 0.0 3.650210433332182e-18 0.5427793678631418 0.5731123298385189 0.2276317208234577 0.0015570708124341278 0.0 4.7927262989651557e-17 7.1266931000430525 5.336936637922256 1.0345861711426152 0.00707688684251311 0.0 -1.6007002035724085 -1.7271001974688929 -2.2029998938189905 -0.8079999128924769 1.5951000452041626 -0.03099996248354131 0.0 0.0 0.0 0.0 0.0 0.0 3.650210317624521e-18 0.5427793860435486 0.5731123089790344 0.22763171792030334 0.0015570707619190216 0.0 3.650210317624521e-18 0.5427793860435486 0.5731123089790344 0.22763171792030334 0.0015570707619190216 0.0 -0.11842706929373131 -0.2680453534302138 0.15727817303169656 -0.0012209830284131572 3.1162764812408956 0.03889191616813326 0.0 0.0 0.0 0.0 0.0 0.0 -7.511218148109654e-07 -1.6948063694212381e-06 -5.227722803655168e-07 8.577250786496456e-08 -6.113140665687394e-08 6.237609692428192e-10 -0.11842706929373131 -0.2680453534302138 0.15727817303169656 -0.0012209830284131572 3.1162764812408956 0.03889191616813326 0.0 0.0 0.0 0.0 0.0 0.0
12967.807999999999 -1.6007002035724085 -1.7271001974688929 -2.2029998938189905 -0.8079999128924769 1.5951000452041626 -0.03099996248354131 0.0 0.0 0.0 0.0 0.0 0.0 0.0 0.0 0.0 0.0 0.0 0.0 3.650210433332182e-18 0.5427793678631418 0.5731123298385189 0.2276317208234577 0.0015570708124341278 0.0 4.7927262989651557e-17 7.1266931000430525 5.336936637922256 1.0345861711426152 0.00707688684251311 0.0 -1.6007002035724085 -1.7271001974688929 -2.2029998938189905 -0.8079999128924769 1.5951000452041626 -0.03099996248354131 0.0 0.0 0.0 0.0 0.0 0.0 3.650210317624521e-18 0.5427793860435486 0.5731123089790344 0.22763171792030334 0.0015570707619190216 0.0 3.650210317624521e-18 0.5427793860435486 0.5731123089790344 0.22763171792030334 0.0015570707619190216 0.0 -0.11842706929373131 -0.2680453534302138 0.15727817303169656 -0.0012209830284131572 3.1162764812408956 0.03889191616813326 0.0 0.0 0.0 0.0 0.0 0.0 -7.511218148109654e-07 -1.6948063694212381e-06 -5.227722803655168e-07 8.577250786496456e-08 -6.113140665687394e-08 6.237609692428192e-10 -0.11842706929373131 -0.2680453534302138 0.15727817303169656 -0.0012209830284131572 3.1162764812408956 0.03889191616813326 0.0 0.0 0.0 0.0 0.0 0.0
12967.815999999999 -1.6007002035724085 -1.7271001974688929 -2.2029998938189905 -0.8079999128924769 1.5951000452041626 -0.03099996248354131 0.0 0.0 0.0 0.0 0.0 0.0 0.0 0.0 0.0 0.0 0.0 0.0 3.650210433332182e-18 0.5427793678631418 0.5731123298385189 0.2276317208234577 0.0015570708124341278 0.0 4.7927262989651557e-17 7.1266931000430525 5.336936637922256 1.0345861711426152 0.00707688684251311 0.0 -1.6007002035724085 -1.7271001974688929 -2.2029998938189905 -0.8079999128924769 1.5951000452041626 -0.03099996248354131 0.0 0.0 0.0 0.0 0.0 0.0 3.650210317624521e-18 0.5427793860435486 0.5731123089790344 0.22763171792030334 0.0015570707619190216 0.0 3.650210317624521e-18 0.5427793860435486 0.5731123089790344 0.22763171792030334 0.0015570707619190216 0.0 -0.11842706929373131 -0.2680453534302138 0.15727817303169656 -0.0012209830284131572 3.1162764812408956 0.03889191616813326 0.0 0.0 0.0 0.0 0.0 0.0 -7.511218148109654e-07 -1.6948063694212381e-06 -5.227722803655168e-07 8.577250786496456e-08 -6.113140665687394e-08 6.237609692428192e-10 -0.11842706929373131 -0.2680453534302138 0.15727817303169656 -0.0012209830284131572 3.1162764812408956 0.03889191616813326 0.0 0.0 0.0 0.0 0.0 0.0
12967.823999999999 -1.6007002035724085 -1.7271001974688929 -2.2029998938189905 -0.8079999128924769 1.5951000452041626 -0.03099996248354131 0.0 0.0 0.0 0.0 0.0 0.0 0.0 0.0 0.0 0.0 0.0 0.0 3.650210433332182e-18 0.5427793678631418 0.5731123298385189 0.2276317208234577 0.0015570708124341278 0.0 4.7927262989651557e-17 7.1266931000430525 5.336936637922256 1.0345861711426152 0.00707688684251311 0.0 -1.6007002035724085 -1.7271001974688929 -2.2029998938189905 -0.8079999128924769 1.5951000452041626 -0.03099996248354131 0.0 0.0 0.0 0.0 0.0 0.0 3.650210317624521e-18 0.5427793860435486 0.5731123089790344 0.22763171792030334 0.0015570707619190216 0.0 3.650210317624521e-18 0.5427793860435486 0.5731123089790344 0.22763171792030334 0.0015570707619190216 0.0 -0.11842706929373131 -0.2680453534302138 0.15727817303169656 -0.0012209830284131572 3.1162764812408956 0.03889191616813326 0.0 0.0 0.0 0.0 0.0 0.0 -7.511218148109654e-07 -1.6948063694212381e-06 -5.227722803655168e-07 8.577250786496456e-08 -6.113140665687394e-08 6.237609692428192e-10 -0.11842706929373131 -0.2680453534302138 0.15727817303169656 -0.0012209830284131572 3.1162764812408956 0.03889191616813326 0.0 0.0 0.0 0.0 0.0 0.0
12967.831999999999 -1.6007002035724085 -1.7271001974688929 -2.2029998938189905 -0.8079999128924769 1.5951000452041626 -0.03099996248354131 0.0 0.0 0.0 0.0 0.0 0.0 0.0 0.0 0.0 0.0 0.0 0.0 3.650210433332182e-18 0.5427793678631418 0.5731123298385189 0.2276317208234577 0.0015570708124341278 0.0 4.7927262989651557e-17 7.1266931000430525 5.336936637922256 1.0345861711426152 0.00707688684251311 0.0 -1.6007002035724085 -1.7271001974688929 -2.2029998938189905 -0.8079999128924769 1.5951000452041626 -0.03099996248354131 0.0 0.0 0.0 0.0 0.0 0.0 3.650210317624521e-18 0.5427793860435486 0.5731123089790344 0.22763171792030334 0.0015570707619190216 0.0 3.650210317624521e-18 0.5427793860435486 0.5731123089790344 0.22763171792030334 0.0015570707619190216 0.0 -0.11842706929373131 -0.2680453534302138 0.15727817303169656 -0.0012209830284131572 3.1162764812408956 0.03889191616813326 0.0 0.0 0.0 0.0 0.0 0.0 -7.511218148109654e-07 -1.6948063694212381e-06 -5.227722803655168e-07 8.577250786496456e-08 -6.113140665687394e-08 6.237609692428192e-10 -0.11842706929373131 -0.2680453534302138 0.15727817303169656 -0.0012209830284131572 3.1162764812408956 0.03889191616813326 0.0 0.0 0.0 0.0 0.0 0.0
12967.84 -1.6007002035724085 -1.7271001974688929 -2.2029998938189905 -0.8079999128924769 1.5951000452041626 -0.03099996248354131 0.0 0.0 0.0 0.0 0.0 0.0 0.0 0.0 0.0 0.0 0.0 0.0 3.650210433332182e-18 0.5427793678631418 0.5731123298385189 0.2276317208234577 0.0015570708124341278 0.0 4.7927262989651557e-17 7.1266931000430525 5.336936637922256 1.0345861711426152 0.00707688684251311 0.0 -1.6007002035724085 -1.7271001974688929 -2.2029998938189905 -0.8079999128924769 1.5951000452041626 -0.03099996248354131 0.0 0.0 0.0 0.0 0.0 0.0 3.650210317624521e-18 0.5427793860435486 0.5731123089790344 0.22763171792030334 0.0015570707619190216 0.0 3.650210317624521e-18 0.5427793860435486 0.5731123089790344 0.22763171792030334 0.0015570707619190216 0.0 -0.11842706929373131 -0.2680453534302138 0.15727817303169656 -0.0012209830284131572 3.1162764812408956 0.03889191616813326 0.0 0.0 0.0 0.0 0.0 0.0 -7.511218148109654e-07 -1.6948063694212381e-06 -5.227722803655168e-07 8.577250786496456e-08 -6.113140665687394e-08 6.237609692428192e-10 -0.11842706929373131 -0.2680453534302138 0.15727817303169656 -0.0012209830284131572 3.1162764812408956 0.03889191616813326 0.0 0.0 0.0 0.0 0.0 0.0
12967.848 -1.6007002035724085 -1.7271001974688929 -2.2029998938189905 -0.8079999128924769 1.5951000452041626 -0.03099996248354131 0.0 0.0 0.0 0.0 0.0 0.0 0.0 0.0 0.0 0.0 0.0 0.0 3.650210433332182e-18 0.5427793678631418 0.5731123298385189 0.2276317208234577 0.0015570708124341278 0.0 4.7927262989651557e-17 7.1266931000430525 5.336936637922256 1.0345861711426152 0.00707688684251311 0.0 -1.6007002035724085 -1.7271001974688929 -2.2029998938189905 -0.8079999128924769 1.5951000452041626 -0.03099996248354131 0.0 0.0 0.0 0.0 0.0 0.0 3.650210317624521e-18 0.5427793860435486 0.5731123089790344 0.22763171792030334 0.0015570707619190216 0.0 3.650210317624521e-18 0.5427793860435486 0.5731123089790344 0.22763171792030334 0.0015570707619190216 0.0 -0.11842706929373131 -0.2680453534302138 0.15727817303169656 -0.0012209830284131572 3.1162764812408956 0.03889191616813326 0.0 0.0 0.0 0.0 0.0 0.0 -7.511218148109654e-07 -1.6948063694212381e-06 -5.227722803655168e-07 8.577250786496456e-08 -6.113140665687394e-08 6.237609692428192e-10 -0.11842706929373131 -0.2680453534302138 0.15727817303169656 -0.0012209830284131572 3.1162764812408956 0.03889191616813326 0.0 0.0 0.0 0.0 0.0 0.0
12967.856 -1.6007002035724085 -1.7271001974688929 -2.2029998938189905 -0.8079999128924769 1.5951000452041626 -0.03099996248354131 0.0 0.0 0.0 0.0 0.0 0.0 0.0 0.0 0.0 0.0 0.0 0.0 3.650210433332182e-18 0.5427793678631418 0.5731123298385189 0.2276317208234577 0.0015570708124341278 0.0 4.7927262989651557e-17 7.1266931000430525 5.336936637922256 1.0345861711426152 0.00707688684251311 0.0 -1.6007002035724085 -1.7271001974688929 -2.2029998938189905 -0.8079999128924769 1.5951000452041626 -0.03099996248354131 0.0 0.0 0.0 0.0 0.0 0.0 3.650210317624521e-18 0.5427793860435486 0.5731123089790344 0.22763171792030334 0.0015570707619190216 0.0 3.650210317624521e-18 0.5427793860435486 0.5731123089790344 0.22763171792030334 0.0015570707619190216 0.0 -0.11842706929373131 -0.2680453534302138 0.15727817303169656 -0.0012209830284131572 3.1162764812408956 0.03889191616813326 0.0 0.0 0.0 0.0 0.0 0.0 -7.511218148109654e-07 -1.6948063694212381e-06 -5.227722803655168e-07 8.577250786496456e-08 -6.113140665687394e-08 6.237609692428192e-10 -0.11842706929373131 -0.2680453534302138 0.15727817303169656 -0.0012209830284131572 3.1162764812408956 0.03889191616813326 0.0 0.0 0.0 0.0 0.0 0.0
12967.864 -1.6007002035724085 -1.7271001974688929 -2.2029998938189905 -0.8079999128924769 1.5951000452041626 -0.03099996248354131 0.0 0.0 0.0 0.0 0.0 0.0 0.0 0.0 0.0 0.0 0.0 0.0 3.650210433332182e-18 0.5427793678631418 0.5731123298385189 0.2276317208234577 0.0015570708124341278 0.0 4.7927262989651557e-17 7.1266931000430525 5.336936637922256 1.0345861711426152 0.00707688684251311 0.0 -1.6007002035724085 -1.7271001974688929 -2.2029998938189905 -0.8079999128924769 1.5951000452041626 -0.03099996248354131 0.0 0.0 0.0 0.0 0.0 0.0 3.650210317624521e-18 0.5427793860435486 0.5731123089790344 0.22763171792030334 0.0015570707619190216 0.0 3.650210317624521e-18 0.5427793860435486 0.5731123089790344 0.22763171792030334 0.0015570707619190216 0.0 -0.11842706929373131 -0.2680453534302138 0.15727817303169656 -0.0012209830284131572 3.1162764812408956 0.03889191616813326 0.0 0.0 0.0 0.0 0.0 0.0 -7.511218148109654e-07 -1.6948063694212381e-06 -5.227722803655168e-07 8.577250786496456e-08 -6.113140665687394e-08 6.237609692428192e-10 -0.11842706929373131 -0.2680453534302138 0.15727817303169656 -0.0012209830284131572 3.1162764812408956 0.03889191616813326 0.0 0.0 0.0 0.0 0.0 0.0
12967.872 -1.6007002035724085 -1.7271001974688929 -2.2029998938189905 -0.8079999128924769 1.5951000452041626 -0.03099996248354131 0.0 0.0 0.0 0.0 0.0 0.0 0.0 0.0 0.0 0.0 0.0 0.0 3.650210433332182e-18 0.5427793678631418 0.5731123298385189 0.2276317208234577 0.0015570708124341278 0.0 4.7927262989651557e-17 7.1266931000430525 5.336936637922256 1.0345861711426152 0.00707688684251311 0.0 -1.6007002035724085 -1.7271001974688929 -2.2029998938189905 -0.8079999128924769 1.5951000452041626 -0.03099996248354131 0.0 0.0 0.0 0.0 0.0 0.0 3.650210317624521e-18 0.5427793860435486 0.5731123089790344 0.22763171792030334 0.0015570707619190216 0.0 3.650210317624521e-18 0.5427793860435486 0.5731123089790344 0.22763171792030334 0.0015570707619190216 0.0 -0.11842706929373131 -0.2680453534302138 0.15727817303169656 -0.0012209830284131572 3.1162764812408956 0.03889191616813326 0.0 0.0 0.0 0.0 0.0 0.0 -7.511218148109654e-07 -1.6948063694212381e-06 -5.227722803655168e-07 8.577250786496456e-08 -6.113140665687394e-08 6.237609692428192e-10 -0.11842706929373131 -0.2680453534302138 0.15727817303169656 -0.0012209830284131572 3.1162764812408956 0.03889191616813326 0.0 0.0 0.0 0.0 0.0 0.0
12967.88 -1.6007002035724085 -1.7271001974688929 -2.2029998938189905 -0.8079999128924769 1.5951000452041626 -0.03099996248354131 0.0 0.0 0.0 0.0 0.0 0.0 0.0 0.0 0.0 0.0 0.0 0.0 3.650210433332182e-18 0.5427793678631418 0.5731123298385189 0.2276317208234577 0.0015570708124341278 0.0 4.7927262989651557e-17 7.1266931000430525 5.336936637922256 1.0345861711426152 0.00707688684251311 0.0 -1.6007002035724085 -1.7271001974688929 -2.2029998938189905 -0.8079999128924769 1.5951000452041626 -0.03099996248354131 0.0 0.0 0.0 0.0 0.0 0.0 3.650210317624521e-18 0.5427793860435486 0.5731123089790344 0.22763171792030334 0.0015570707619190216 0.0 3.650210317624521e-18 0.5427793860435486 0.5731123089790344 0.22763171792030334 0.0015570707619190216 0.0 -0.11842706929373131 -0.2680453534302138 0.15727817303169656 -0.0012209830284131572 3.1162764812408956 0.03889191616813326 0.0 0.0 0.0 0.0 0.0 0.0 -7.511218148109654e-07 -1.6948063694212381e-06 -5.227722803655168e-07 8.577250786496456e-08 -6.113140665687394e-08 6.237609692428192e-10 -0.11842706929373131 -0.2680453534302138 0.15727817303169656 -0.0012209830284131572 3.1162764812408956 0.03889191616813326 0.0 0.0 0.0 0.0 0.0 0.0
12967.887999999999 -1.6007002035724085 -1.7271001974688929 -2.2029998938189905 -0.8079999128924769 1.5951000452041626 -0.03099996248354131 0.0 0.0 0.0 0.0 0.0 0.0 0.0 0.0 0.0 0.0 0.0 0.0 3.650210433332182e-18 0.5427793678631418 0.5731123298385189 0.2276317208234577 0.0015570708124341278 0.0 4.7927262989651557e-17 7.1266931000430525 5.336936637922256 1.0345861711426152 0.00707688684251311 0.0 -1.6007002035724085 -1.7271001974688929 -2.2029998938189905 -0.8079999128924769 1.5951000452041626 -0.03099996248354131 0.0 0.0 0.0 0.0 0.0 0.0 3.650210317624521e-18 0.5427793860435486 0.5731123089790344 0.22763171792030334 0.0015570707619190216 0.0 3.650210317624521e-18 0.5427793860435486 0.5731123089790344 0.22763171792030334 0.0015570707619190216 0.0 -0.11842706929373131 -0.2680453534302138 0.15727817303169656 -0.0012209830284131572 3.1162764812408956 0.03889191616813326 0.0 0.0 0.0 0.0 0.0 0.0 -7.511218148109654e-07 -1.6948063694212381e-06 -5.227722803655168e-07 8.577250786496456e-08 -6.113140665687394e-08 6.237609692428192e-10 -0.11842706929373131 -0.2680453534302138 0.15727817303169656 -0.0012209830284131572 3.1162764812408956 0.03889191616813326 0.0 0.0 0.0 0.0 0.0 0.0
12967.895999999999 -1.6007002035724085 -1.7271001974688929 -2.2029998938189905 -0.8079999128924769 1.5951000452041626 -0.03099996248354131 0.0 0.0 0.0 0.0 0.0 0.0 0.0 0.0 0.0 0.0 0.0 0.0 3.650210433332182e-18 0.5427793678631418 0.5731123298385189 0.2276317208234577 0.0015570708124341278 0.0 4.7927262989651557e-17 7.1266931000430525 5.336936637922256 1.0345861711426152 0.00707688684251311 0.0 -1.6007002035724085 -1.7271001974688929 -2.2029998938189905 -0.8079999128924769 1.5951000452041626 -0.03099996248354131 0.0 0.0 0.0 0.0 0.0 0.0 3.650210317624521e-18 0.5427793860435486 0.5731123089790344 0.22763171792030334 0.0015570707619190216 0.0 3.650210317624521e-18 0.5427793860435486 0.5731123089790344 0.22763171792030334 0.0015570707619190216 0.0 -0.11842706929373131 -0.2680453534302138 0.15727817303169656 -0.0012209830284131572 3.1162764812408956 0.03889191616813326 0.0 0.0 0.0 0.0 0.0 0.0 -7.511218148109654e-07 -1.6948063694212381e-06 -5.227722803655168e-07 8.577250786496456e-08 -6.113140665687394e-08 6.237609692428192e-10 -0.11842706929373131 -0.2680453534302138 0.15727817303169656 -0.0012209830284131572 3.1162764812408956 0.03889191616813326 0.0 0.0 0.0 0.0 0.0 0.0
12967.903999999999 -1.6007002035724085 -1.7271001974688929 -2.2029998938189905 -0.8079999128924769 1.5951000452041626 -0.03099996248354131 0.0 0.0 0.0 0.0 0.0 0.0 0.0 0.0 0.0 0.0 0.0 0.0 3.650210433332182e-18 0.5427793678631418 0.5731123298385189 0.2276317208234577 0.0015570708124341278 0.0 4.7927262989651557e-17 7.1266931000430525 5.336936637922256 1.0345861711426152 0.00707688684251311 0.0 -1.6007002035724085 -1.7271001974688929 -2.2029998938189905 -0.8079999128924769 1.5951000452041626 -0.03099996248354131 0.0 0.0 0.0 0.0 0.0 0.0 3.650210317624521e-18 0.5427793860435486 0.5731123089790344 0.22763171792030334 0.0015570707619190216 0.0 3.650210317624521e-18 0.5427793860435486 0.5731123089790344 0.22763171792030334 0.0015570707619190216 0.0 -0.11842706929373131 -0.2680453534302138 0.15727817303169656 -0.0012209830284131572 3.1162764812408956 0.03889191616813326 0.0 0.0 0.0 0.0 0.0 0.0 -7.511218148109654e-07 -1.6948063694212381e-06 -5.227722803655168e-07 8.577250786496456e-08 -6.113140665687394e-08 6.237609692428192e-10 -0.11842706929373131 -0.2680453534302138 0.15727817303169656 -0.0012209830284131572 3.1162764812408956 0.03889191616813326 0.0 0.0 0.0 0.0 0.0 0.0
12967.912 -1.6007002035724085 -1.7271001974688929 -2.2029998938189905 -0.8079999128924769 1.5951000452041626 -0.03099996248354131 0.0 0.0 0.0 0.0 0.0 0.0 0.0 0.0 0.0 0.0 0.0 0.0 3.650210433332182e-18 0.5427793678631418 0.5731123298385189 0.2276317208234577 0.0015570708124341278 0.0 4.7927262989651557e-17 7.1266931000430525 5.336936637922256 1.0345861711426152 0.00707688684251311 0.0 -1.6007002035724085 -1.7271001974688929 -2.2029998938189905 -0.8079999128924769 1.5951000452041626 -0.03099996248354131 0.0 0.0 0.0 0.0 0.0 0.0 3.650210317624521e-18 0.5427793860435486 0.5731123089790344 0.22763171792030334 0.0015570707619190216 0.0 3.650210317624521e-18 0.5427793860435486 0.5731123089790344 0.22763171792030334 0.0015570707619190216 0.0 -0.11842706929373131 -0.2680453534302138 0.15727817303169656 -0.0012209830284131572 3.1162764812408956 0.03889191616813326 0.0 0.0 0.0 0.0 0.0 0.0 -7.511218148109654e-07 -1.6948063694212381e-06 -5.227722803655168e-07 8.577250786496456e-08 -6.113140665687394e-08 6.237609692428192e-10 -0.11842706929373131 -0.2680453534302138 0.15727817303169656 -0.0012209830284131572 3.1162764812408956 0.03889191616813326 0.0 0.0 0.0 0.0 0.0 0.0
12967.92 -1.6007002035724085 -1.7271001974688929 -2.2029998938189905 -0.8079999128924769 1.5951000452041626 -0.03099996248354131 0.0 0.0 0.0 0.0 0.0 0.0 0.0 0.0 0.0 0.0 0.0 0.0 3.650210433332182e-18 0.5427793678631418 0.5731123298385189 0.2276317208234577 0.0015570708124341278 0.0 4.7927262989651557e-17 7.1266931000430525 5.336936637922256 1.0345861711426152 0.00707688684251311 0.0 -1.6007002035724085 -1.7271001974688929 -2.2029998938189905 -0.8079999128924769 1.5951000452041626 -0.03099996248354131 0.0 0.0 0.0 0.0 0.0 0.0 3.650210317624521e-18 0.5427793860435486 0.5731123089790344 0.22763171792030334 0.0015570707619190216 0.0 3.650210317624521e-18 0.5427793860435486 0.5731123089790344 0.22763171792030334 0.0015570707619190216 0.0 -0.11842706929373131 -0.2680453534302138 0.15727817303169656 -0.0012209830284131572 3.1162764812408956 0.03889191616813326 0.0 0.0 0.0 0.0 0.0 0.0 -7.511218148109654e-07 -1.6948063694212381e-06 -5.227722803655168e-07 8.577250786496456e-08 -6.113140665687394e-08 6.237609692428192e-10 -0.11842706929373131 -0.2680453534302138 0.15727817303169656 -0.0012209830284131572 3.1162764812408956 0.03889191616813326 0.0 0.0 0.0 0.0 0.0 0.0
12967.928 -1.6007002035724085 -1.7271001974688929 -2.2029998938189905 -0.8079999128924769 1.5951000452041626 -0.03099996248354131 0.0 0.0 0.0 0.0 0.0 0.0 0.0 0.0 0.0 0.0 0.0 0.0 3.650210433332182e-18 0.5427793678631418 0.5731123298385189 0.2276317208234577 0.0015570708124341278 0.0 4.7927262989651557e-17 7.1266931000430525 5.336936637922256 1.0345861711426152 0.00707688684251311 0.0 -1.6007002035724085 -1.7271001974688929 -2.2029998938189905 -0.8079999128924769 1.5951000452041626 -0.03099996248354131 0.0 0.0 0.0 0.0 0.0 0.0 3.650210317624521e-18 0.5427793860435486 0.5731123089790344 0.22763171792030334 0.0015570707619190216 0.0 3.650210317624521e-18 0.5427793860435486 0.5731123089790344 0.22763171792030334 0.0015570707619190216 0.0 -0.11842706929373131 -0.2680453534302138 0.15727817303169656 -0.0012209830284131572 3.1162764812408956 0.03889191616813326 0.0 0.0 0.0 0.0 0.0 0.0 -7.511218148109654e-07 -1.6948063694212381e-06 -5.227722803655168e-07 8.577250786496456e-08 -6.113140665687394e-08 6.237609692428192e-10 -0.11842706929373131 -0.2680453534302138 0.15727817303169656 -0.0012209830284131572 3.1162764812408956 0.03889191616813326 0.0 0.0 0.0 0.0 0.0 0.0
12967.936 -1.6007002035724085 -1.7271001974688929 -2.2029998938189905 -0.8079999128924769 1.5951000452041626 -0.03099996248354131 0.0 0.0 0.0 0.0 0.0 0.0 0.0 0.0 0.0 0.0 0.0 0.0 3.650210433332182e-18 0.5427793678631418 0.5731123298385189 0.2276317208234577 0.0015570708124341278 0.0 4.7927262989651557e-17 7.1266931000430525 5.336936637922256 1.0345861711426152 0.00707688684251311 0.0 -1.6007002035724085 -1.7271001974688929 -2.2029998938189905 -0.8079999128924769 1.5951000452041626 -0.03099996248354131 0.0 0.0 0.0 0.0 0.0 0.0 3.650210317624521e-18 0.5427793860435486 0.5731123089790344 0.22763171792030334 0.0015570707619190216 0.0 3.650210317624521e-18 0.5427793860435486 0.5731123089790344 0.22763171792030334 0.0015570707619190216 0.0 -0.11842706929373131 -0.2680453534302138 0.15727817303169656 -0.0012209830284131572 3.1162764812408956 0.03889191616813326 0.0 0.0 0.0 0.0 0.0 0.0 -7.511218148109654e-07 -1.6948063694212381e-06 -5.227722803655168e-07 8.577250786496456e-08 -6.113140665687394e-08 6.237609692428192e-10 -0.11842706929373131 -0.2680453534302138 0.15727817303169656 -0.0012209830284131572 3.1162764812408956 0.03889191616813326 0.0 0.0 0.0 0.0 0.0 0.0
12967.944 -1.6007002035724085 -1.7271001974688929 -2.2029998938189905 -0.8079999128924769 1.5951000452041626 -0.03099996248354131 0.0 0.0 0.0 0.0 0.0 0.0 0.0 0.0 0.0 0.0 0.0 0.0 3.650210433332182e-18 0.5427793678631418 0.5731123298385189 0.2276317208234577 0.0015570708124341278 0.0 4.7927262989651557e-17 7.1266931000430525 5.336936637922256 1.0345861711426152 0.00707688684251311 0.0 -1.6007002035724085 -1.7271001974688929 -2.2029998938189905 -0.8079999128924769 1.5951000452041626 -0.03099996248354131 0.0 0.0 0.0 0.0 0.0 0.0 3.650210317624521e-18 0.5427793860435486 0.5731123089790344 0.22763171792030334 0.0015570707619190216 0.0 3.650210317624521e-18 0.5427793860435486 0.5731123089790344 0.22763171792030334 0.0015570707619190216 0.0 -0.11842706929373131 -0.2680453534302138 0.15727817303169656 -0.0012209830284131572 3.1162764812408956 0.03889191616813326 0.0 0.0 0.0 0.0 0.0 0.0 -7.511218148109654e-07 -1.6948063694212381e-06 -5.227722803655168e-07 8.577250786496456e-08 -6.113140665687394e-08 6.237609692428192e-10 -0.11842706929373131 -0.2680453534302138 0.15727817303169656 -0.0012209830284131572 3.1162764812408956 0.03889191616813326 0.0 0.0 0.0 0.0 0.0 0.0
12967.952 -1.6007002035724085 -1.7271001974688929 -2.2029998938189905 -0.8079999128924769 1.5951000452041626 -0.03099996248354131 0.0 0.0 0.0 0.0 0.0 0.0 0.0 0.0 0.0 0.0 0.0 0.0 3.650210433332182e-18 0.5427793678631418 0.5731123298385189 0.2276317208234577 0.0015570708124341278 0.0 4.7927262989651557e-17 7.1266931000430525 5.336936637922256 1.0345861711426152 0.00707688684251311 0.0 -1.6007002035724085 -1.7271001974688929 -2.2029998938189905 -0.8079999128924769 1.5951000452041626 -0.03099996248354131 0.0 0.0 0.0 0.0 0.0 0.0 3.650210317624521e-18 0.5427793860435486 0.5731123089790344 0.22763171792030334 0.0015570707619190216 0.0 3.650210317624521e-18 0.5427793860435486 0.5731123089790344 0.22763171792030334 0.0015570707619190216 0.0 -0.11842706929373131 -0.2680453534302138 0.15727817303169656 -0.0012209830284131572 3.1162764812408956 0.03889191616813326 0.0 0.0 0.0 0.0 0.0 0.0 -7.511218148109654e-07 -1.6948063694212381e-06 -5.227722803655168e-07 8.577250786496456e-08 -6.113140665687394e-08 6.237609692428192e-10 -0.11842706929373131 -0.2680453534302138 0.15727817303169656 -0.0012209830284131572 3.1162764812408956 0.03889191616813326 0.0 0.0 0.0 0.0 0.0 0.0
12967.96 -1.6007002035724085 -1.7271001974688929 -2.2029998938189905 -0.8079999128924769 1.5951000452041626 -0.03099996248354131 0.0 0.0 0.0 0.0 0.0 0.0 0.0 0.0 0.0 0.0 0.0 0.0 3.650210433332182e-18 0.5427793678631418 0.5731123298385189 0.2276317208234577 0.0015570708124341278 0.0 4.7927262989651557e-17 7.1266931000430525 5.336936637922256 1.0345861711426152 0.00707688684251311 0.0 -1.6007002035724085 -1.7271001974688929 -2.2029998938189905 -0.8079999128924769 1.5951000452041626 -0.03099996248354131 0.0 0.0 0.0 0.0 0.0 0.0 3.650210317624521e-18 0.5427793860435486 0.5731123089790344 0.22763171792030334 0.0015570707619190216 0.0 3.650210317624521e-18 0.5427793860435486 0.5731123089790344 0.22763171792030334 0.0015570707619190216 0.0 -0.11842706929373131 -0.2680453534302138 0.15727817303169656 -0.0012209830284131572 3.1162764812408956 0.03889191616813326 0.0 0.0 0.0 0.0 0.0 0.0 -7.511218148109654e-07 -1.6948063694212381e-06 -5.227722803655168e-07 8.577250786496456e-08 -6.113140665687394e-08 6.237609692428192e-10 -0.11842706929373131 -0.2680453534302138 0.15727817303169656 -0.0012209830284131572 3.1162764812408956 0.03889191616813326 0.0 0.0 0.0 0.0 0.0 0.0
12967.967999999999 -1.6007002035724085 -1.7271001974688929 -2.2029998938189905 -0.8079999128924769 1.5951000452041626 -0.03099996248354131 0.0 0.0 0.0 0.0 0.0 0.0 0.0 0.0 0.0 0.0 0.0 0.0 3.650210433332182e-18 0.5427793678631418 0.5731123298385189 0.2276317208234577 0.0015570708124341278 0.0 4.7927262989651557e-17 7.1266931000430525 5.336936637922256 1.0345861711426152 0.00707688684251311 0.0 -1.6007002035724085 -1.7271001974688929 -2.2029998938189905 -0.8079999128924769 1.5951000452041626 -0.03099996248354131 0.0 0.0 0.0 0.0 0.0 0.0 3.650210317624521e-18 0.5427793860435486 0.5731123089790344 0.22763171792030334 0.0015570707619190216 0.0 3.650210317624521e-18 0.5427793860435486 0.5731123089790344 0.22763171792030334 0.0015570707619190216 0.0 -0.11842706929373131 -0.2680453534302138 0.15727817303169656 -0.0012209830284131572 3.1162764812408956 0.03889191616813326 0.0 0.0 0.0 0.0 0.0 0.0 -7.511218148109654e-07 -1.6948063694212381e-06 -5.227722803655168e-07 8.577250786496456e-08 -6.113140665687394e-08 6.237609692428192e-10 -0.11842706929373131 -0.2680453534302138 0.15727817303169656 -0.0012209830284131572 3.1162764812408956 0.03889191616813326 0.0 0.0 0.0 0.0 0.0 0.0
12967.975999999999 -1.6007002035724085 -1.7271001974688929 -2.2029998938189905 -0.8079999128924769 1.5951000452041626 -0.03099996248354131 0.0 0.0 0.0 0.0 0.0 0.0 0.0 0.0 0.0 0.0 0.0 0.0 3.650210433332182e-18 0.5427793678631418 0.5731123298385189 0.2276317208234577 0.0015570708124341278 0.0 4.7927262989651557e-17 7.1266931000430525 5.336936637922256 1.0345861711426152 0.00707688684251311 0.0 -1.6007002035724085 -1.7271001974688929 -2.2029998938189905 -0.8079999128924769 1.5951000452041626 -0.03099996248354131 0.0 0.0 0.0 0.0 0.0 0.0 3.650210317624521e-18 0.5427793860435486 0.5731123089790344 0.22763171792030334 0.0015570707619190216 0.0 3.650210317624521e-18 0.5427793860435486 0.5731123089790344 0.22763171792030334 0.0015570707619190216 0.0 -0.11842706929373131 -0.2680453534302138 0.15727817303169656 -0.0012209830284131572 3.1162764812408956 0.03889191616813326 0.0 0.0 0.0 0.0 0.0 0.0 -7.511218148109654e-07 -1.6948063694212381e-06 -5.227722803655168e-07 8.577250786496456e-08 -6.113140665687394e-08 6.237609692428192e-10 -0.11842706929373131 -0.2680453534302138 0.15727817303169656 -0.0012209830284131572 3.1162764812408956 0.03889191616813326 0.0 0.0 0.0 0.0 0.0 0.0
12967.983999999999 -1.6007002035724085 -1.7271001974688929 -2.2029998938189905 -0.8079999128924769 1.5951000452041626 -0.03099996248354131 0.0 0.0 0.0 0.0 0.0 0.0 0.0 0.0 0.0 0.0 0.0 0.0 3.650210433332182e-18 0.5427793678631418 0.5731123298385189 0.2276317208234577 0.0015570708124341278 0.0 4.7927262989651557e-17 7.1266931000430525 5.336936637922256 1.0345861711426152 0.00707688684251311 0.0 -1.6007002035724085 -1.7271001974688929 -2.2029998938189905 -0.8079999128924769 1.5951000452041626 -0.03099996248354131 0.0 0.0 0.0 0.0 0.0 0.0 3.650210317624521e-18 0.5427793860435486 0.5731123089790344 0.22763171792030334 0.0015570707619190216 0.0 3.650210317624521e-18 0.5427793860435486 0.5731123089790344 0.22763171792030334 0.0015570707619190216 0.0 -0.11842706929373131 -0.2680453534302138 0.15727817303169656 -0.0012209830284131572 3.1162764812408956 0.03889191616813326 0.0 0.0 0.0 0.0 0.0 0.0 -7.511218148109654e-07 -1.6948063694212381e-06 -5.227722803655168e-07 8.577250786496456e-08 -6.113140665687394e-08 6.237609692428192e-10 -0.11842706929373131 -0.2680453534302138 0.15727817303169656 -0.0012209830284131572 3.1162764812408956 0.03889191616813326 0.0 0.0 0.0 0.0 0.0 0.0
12967.992 -1.6007002035724085 -1.7271001974688929 -2.2029998938189905 -0.8079999128924769 1.5951000452041626 -0.03099996248354131 0.0 0.0 0.0 0.0 0.0 0.0 0.0 0.0 0.0 0.0 0.0 0.0 3.650210433332182e-18 0.5427793678631418 0.5731123298385189 0.2276317208234577 0.0015570708124341278 0.0 4.7927262989651557e-17 7.1266931000430525 5.336936637922256 1.0345861711426152 0.00707688684251311 0.0 -1.6007002035724085 -1.7271001974688929 -2.2029998938189905 -0.8079999128924769 1.5951000452041626 -0.03099996248354131 0.0 0.0 0.0 0.0 0.0 0.0 3.650210317624521e-18 0.5427793860435486 0.5731123089790344 0.22763171792030334 0.0015570707619190216 0.0 3.650210317624521e-18 0.5427793860435486 0.5731123089790344 0.22763171792030334 0.0015570707619190216 0.0 -0.11842706929373131 -0.2680453534302138 0.15727817303169656 -0.0012209830284131572 3.1162764812408956 0.03889191616813326 0.0 0.0 0.0 0.0 0.0 0.0 -7.511218148109654e-07 -1.6948063694212381e-06 -5.227722803655168e-07 8.577250786496456e-08 -6.113140665687394e-08 6.237609692428192e-10 -0.11842706929373131 -0.2680453534302138 0.15727817303169656 -0.0012209830284131572 3.1162764812408956 0.03889191616813326 0.0 0.0 0.0 0.0 0.0 0.0
12968.0 -1.6007002035724085 -1.7271001974688929 -2.2029998938189905 -0.8079999128924769 1.5951000452041626 -0.03099996248354131 0.0 0.0 0.0 0.0 0.0 0.0 0.0 0.0 0.0 0.0 0.0 0.0 3.650210433332182e-18 0.5427793678631418 0.5731123298385189 0.2276317208234577 0.0015570708124341278 0.0 4.7927262989651557e-17 7.1266931000430525 5.336936637922256 1.0345861711426152 0.00707688684251311 0.0 -1.6007002035724085 -1.7271001974688929 -2.2029998938189905 -0.8079999128924769 1.5951000452041626 -0.03099996248354131 0.0 0.0 0.0 0.0 0.0 0.0 3.650210317624521e-18 0.5427793860435486 0.5731123089790344 0.22763171792030334 0.0015570707619190216 0.0 3.650210317624521e-18 0.5427793860435486 0.5731123089790344 0.22763171792030334 0.0015570707619190216 0.0 -0.11842706929373131 -0.2680453534302138 0.15727817303169656 -0.0012209830284131572 3.1162764812408956 0.03889191616813326 0.0 0.0 0.0 0.0 0.0 0.0 -7.511218148109654e-07 -1.6948063694212381e-06 -5.227722803655168e-07 8.577250786496456e-08 -6.113140665687394e-08 6.237609692428192e-10 -0.11842706929373131 -0.2680453534302138 0.15727817303169656 -0.0012209830284131572 3.1162764812408956 0.03889191616813326 0.0 0.0 0.0 0.0 0.0 0.0
12968.008 -1.6007002035724085 -1.7271001974688929 -2.2029998938189905 -0.8079999128924769 1.5951000452041626 -0.03099996248354131 0.0 0.0 0.0 0.0 0.0 0.0 0.0 0.0 0.0 0.0 0.0 0.0 3.650210433332182e-18 0.5427793678631418 0.5731123298385189 0.2276317208234577 0.0015570708124341278 0.0 4.7927262989651557e-17 7.1266931000430525 5.336936637922256 1.0345861711426152 0.00707688684251311 0.0 -1.6007002035724085 -1.7271001974688929 -2.2029998938189905 -0.8079999128924769 1.5951000452041626 -0.03099996248354131 0.0 0.0 0.0 0.0 0.0 0.0 3.650210317624521e-18 0.5427793860435486 0.5731123089790344 0.22763171792030334 0.0015570707619190216 0.0 3.650210317624521e-18 0.5427793860435486 0.5731123089790344 0.22763171792030334 0.0015570707619190216 0.0 -0.11842706929373131 -0.2680453534302138 0.15727817303169656 -0.0012209830284131572 3.1162764812408956 0.03889191616813326 0.0 0.0 0.0 0.0 0.0 0.0 -7.511218148109654e-07 -1.6948063694212381e-06 -5.227722803655168e-07 8.577250786496456e-08 -6.113140665687394e-08 6.237609692428192e-10 -0.11842706929373131 -0.2680453534302138 0.15727817303169656 -0.0012209830284131572 3.1162764812408956 0.03889191616813326 0.0 0.0 0.0 0.0 0.0 0.0
12968.016 -1.6007002035724085 -1.7271001974688929 -2.2029998938189905 -0.8079999128924769 1.5951000452041626 -0.03099996248354131 0.0 0.0 0.0 0.0 0.0 0.0 0.0 0.0 0.0 0.0 0.0 0.0 3.650210433332182e-18 0.5427793678631418 0.5731123298385189 0.2276317208234577 0.0015570708124341278 0.0 4.7927262989651557e-17 7.1266931000430525 5.336936637922256 1.0345861711426152 0.00707688684251311 0.0 -1.6007002035724085 -1.7271001974688929 -2.2029998938189905 -0.8079999128924769 1.5951000452041626 -0.03099996248354131 0.0 0.0 0.0 0.0 0.0 0.0 3.650210317624521e-18 0.5427793860435486 0.5731123089790344 0.22763171792030334 0.0015570707619190216 0.0 3.650210317624521e-18 0.5427793860435486 0.5731123089790344 0.22763171792030334 0.0015570707619190216 0.0 -0.11842706929373131 -0.2680453534302138 0.15727817303169656 -0.0012209830284131572 3.1162764812408956 0.03889191616813326 0.0 0.0 0.0 0.0 0.0 0.0 -7.511218148109654e-07 -1.6948063694212381e-06 -5.227722803655168e-07 8.577250786496456e-08 -6.113140665687394e-08 6.237609692428192e-10 -0.11842706929373131 -0.2680453534302138 0.15727817303169656 -0.0012209830284131572 3.1162764812408956 0.03889191616813326 0.0 0.0 0.0 0.0 0.0 0.0
12968.024 -1.6007002035724085 -1.7271001974688929 -2.2029998938189905 -0.8079999128924769 1.5951000452041626 -0.03099996248354131 0.0 0.0 0.0 0.0 0.0 0.0 0.0 0.0 0.0 0.0 0.0 0.0 3.650210433332182e-18 0.5427793678631418 0.5731123298385189 0.2276317208234577 0.0015570708124341278 0.0 4.7927262989651557e-17 7.1266931000430525 5.336936637922256 1.0345861711426152 0.00707688684251311 0.0 -1.6007002035724085 -1.7271001974688929 -2.2029998938189905 -0.8079999128924769 1.5951000452041626 -0.03099996248354131 0.0 0.0 0.0 0.0 0.0 0.0 3.650210317624521e-18 0.5427793860435486 0.5731123089790344 0.22763171792030334 0.0015570707619190216 0.0 3.650210317624521e-18 0.5427793860435486 0.5731123089790344 0.22763171792030334 0.0015570707619190216 0.0 -0.11842706929373131 -0.2680453534302138 0.15727817303169656 -0.0012209830284131572 3.1162764812408956 0.03889191616813326 0.0 0.0 0.0 0.0 0.0 0.0 -7.511218148109654e-07 -1.6948063694212381e-06 -5.227722803655168e-07 8.577250786496456e-08 -6.113140665687394e-08 6.237609692428192e-10 -0.11842706929373131 -0.2680453534302138 0.15727817303169656 -0.0012209830284131572 3.1162764812408956 0.03889191616813326 0.0 0.0 0.0 0.0 0.0 0.0
12968.032 -1.6007002035724085 -1.7271001974688929 -2.2029998938189905 -0.8079999128924769 1.5951000452041626 -0.03099996248354131 0.0 0.0 0.0 0.0 0.0 0.0 0.0 0.0 0.0 0.0 0.0 0.0 3.650210433332182e-18 0.5427793678631418 0.5731123298385189 0.2276317208234577 0.0015570708124341278 0.0 4.7927262989651557e-17 7.1266931000430525 5.336936637922256 1.0345861711426152 0.00707688684251311 0.0 -1.6007002035724085 -1.7271001974688929 -2.2029998938189905 -0.8079999128924769 1.5951000452041626 -0.03099996248354131 0.0 0.0 0.0 0.0 0.0 0.0 3.650210317624521e-18 0.5427793860435486 0.5731123089790344 0.22763171792030334 0.0015570707619190216 0.0 3.650210317624521e-18 0.5427793860435486 0.5731123089790344 0.22763171792030334 0.0015570707619190216 0.0 -0.11842706929373131 -0.2680453534302138 0.15727817303169656 -0.0012209830284131572 3.1162764812408956 0.03889191616813326 0.0 0.0 0.0 0.0 0.0 0.0 -7.511218148109654e-07 -1.6948063694212381e-06 -5.227722803655168e-07 8.577250786496456e-08 -6.113140665687394e-08 6.237609692428192e-10 -0.11842706929373131 -0.2680453534302138 0.15727817303169656 -0.0012209830284131572 3.1162764812408956 0.03889191616813326 0.0 0.0 0.0 0.0 0.0 0.0
12968.039999999999 -1.6007002035724085 -1.7271001974688929 -2.2029998938189905 -0.8079999128924769 1.5951000452041626 -0.03099996248354131 0.0 0.0 0.0 0.0 0.0 0.0 0.0 0.0 0.0 0.0 0.0 0.0 3.650210433332182e-18 0.5427793678631418 0.5731123298385189 0.2276317208234577 0.0015570708124341278 0.0 4.7927262989651557e-17 7.1266931000430525 5.336936637922256 1.0345861711426152 0.00707688684251311 0.0 -1.6007002035724085 -1.7271001974688929 -2.2029998938189905 -0.8079999128924769 1.5951000452041626 -0.03099996248354131 0.0 0.0 0.0 0.0 0.0 0.0 3.650210317624521e-18 0.5427793860435486 0.5731123089790344 0.22763171792030334 0.0015570707619190216 0.0 3.650210317624521e-18 0.5427793860435486 0.5731123089790344 0.22763171792030334 0.0015570707619190216 0.0 -0.11842706929373131 -0.2680453534302138 0.15727817303169656 -0.0012209830284131572 3.1162764812408956 0.03889191616813326 0.0 0.0 0.0 0.0 0.0 0.0 -7.511218148109654e-07 -1.6948063694212381e-06 -5.227722803655168e-07 8.577250786496456e-08 -6.113140665687394e-08 6.237609692428192e-10 -0.11842706929373131 -0.2680453534302138 0.15727817303169656 -0.0012209830284131572 3.1162764812408956 0.03889191616813326 0.0 0.0 0.0 0.0 0.0 0.0
12968.047999999999 -1.6007002035724085 -1.7271001974688929 -2.2029998938189905 -0.8079999128924769 1.5951000452041626 -0.03099996248354131 0.0 0.0 0.0 0.0 0.0 0.0 0.0 0.0 0.0 0.0 0.0 0.0 3.650210433332182e-18 0.5427793678631418 0.5731123298385189 0.2276317208234577 0.0015570708124341278 0.0 4.7927262989651557e-17 7.1266931000430525 5.336936637922256 1.0345861711426152 0.00707688684251311 0.0 -1.6007002035724085 -1.7271001974688929 -2.2029998938189905 -0.8079999128924769 1.5951000452041626 -0.03099996248354131 0.0 0.0 0.0 0.0 0.0 0.0 3.650210317624521e-18 0.5427793860435486 0.5731123089790344 0.22763171792030334 0.0015570707619190216 0.0 3.650210317624521e-18 0.5427793860435486 0.5731123089790344 0.22763171792030334 0.0015570707619190216 0.0 -0.11842706929373131 -0.2680453534302138 0.15727817303169656 -0.0012209830284131572 3.1162764812408956 0.03889191616813326 0.0 0.0 0.0 0.0 0.0 0.0 -7.511218148109654e-07 -1.6948063694212381e-06 -5.227722803655168e-07 8.577250786496456e-08 -6.113140665687394e-08 6.237609692428192e-10 -0.11842706929373131 -0.2680453534302138 0.15727817303169656 -0.0012209830284131572 3.1162764812408956 0.03889191616813326 0.0 0.0 0.0 0.0 0.0 0.0
