Fleaurent/UniversalRobot/communication/record/robot_data.csv
timestamp target_q_0 target_q_1 target_q_2 target_q_3 target_q_4 target_q_5 target_qd_0 target_qd_1 target_qd_2 target_qd_3 target_qd_4 target_qd_5 target_qdd_0 target_qdd_1 target_qdd_2 target_qdd_3 target_qdd_4 target_qdd_5 target_current_0 target_current_1 target_current_2 target_current_3 target_current_4 target_current_5 target_moment_0 target_moment_1 target_moment_2 target_moment_3 target_moment_4 target_moment_5 actual_q_0 actual_q_1 actual_q_2 actual_q_3 actual_q_4 actual_q_5 actual_qd_0 actual_qd_1 actual_qd_2 actual_qd_3 actual_qd_4 actual_qd_5 actual_current_0 actual_current_1 actual_current_2 actual_current_3 actual_current_4 actual_current_5 joint_control_output_0 joint_control_output_1 joint_control_output_2 joint_control_output_3 joint_control_output_4 joint_control_output_5 actual_TCP_pose_0 actual_TCP_pose_1 actual_TCP_pose_2 actual_TCP_pose_3 actual_TCP_pose_4 actual_TCP_pose_5 actual_TCP_speed_0 actual_TCP_speed_1 actual_TCP_speed_2 actual_TCP_speed_3 actual_TCP_speed_4 actual_TCP_speed_5 actual_TCP_force_0 actual_TCP_force_1 actual_TCP_force_2 actual_TCP_force_3 actual_TCP_force_4 actual_TCP_force_5 target_TCP_pose_0 target_TCP_pose_1 target_TCP_pose_2 target_TCP_pose_3 target_TCP_pose_4 target_TCP_pose_5 target_TCP_speed_0 target_TCP_speed_1 target_TCP_speed_2 target_TCP_speed_3 target_TCP_speed_4 target_TCP_speed_5 actual_digital_input_bits joint_temperatures_0 joint_temperatures_1 joint_temperatures_2 joint_temperatures_3 joint_temperatures_4 joint_temperatures_5 actual_execution_time robot_mode joint_mode_0 joint_mode_1 joint_mode_2 joint_mode_3 joint_mode_4 joint_mode_5 safety_mode actual_tool_accelerometer_0 actual_tool_accelerometer_1 actual_tool_accelerometer_2 speed_scaling target_speed_fraction actual_momentum actual_main_voltage actual_robot_voltage actual_robot_current actual_joint_voltage_0 actual_joint_voltage_1 actual_joint_voltage_2 actual_joint_voltage_3 actual_joint_voltage_4 actual_joint_voltage_5 actual_digital_output_bits runtime_state
10459.576 -8.881784197001252e-16 6.245004513516506e-17 0.0 0.0 0.0 0.0 0.0 0.0 0.0 0.0 0.0 0.0 0.0 0.0 0.0 0.0 0.0 0.0 -7.19816049754143e-27 -1.3404950677837015 -0.6554250499344946 1.4323217392120607e-17 -4.002715375872051e-18 0.0 -9.451184733271898e-26 -17.600700240000002 -6.10344915 6.509902304718816e-17 -1.8192341383338472e-17 0.0 1.7484556025237907e-07 6.245004513516506e-17 0.0 0.0 0.0 0.0 0.0 0.0 0.0 0.0 0.0 0.0 -7.198160856031361e-27 -1.3404951095581055 -0.6554250717163086 1.4323217950229362e-17 -4.002715403615525e-18 0.0 -7.198160856031361e-27 -1.3404951095581055 -0.6554250717163086 1.4323217950229362e-17 -4.002715403615525e-18 0.0 -0.45689996603624294 -0.19425007985192236 0.06654999996015865 1.5707963269999956 1.3732338186929893e-07 1.3732338193922973e-07 0.0 0.0 0.0 0.0 0.0 0.0 -2.2112442861029235e-07 -5.4373710395467885e-08 -1.2056307462159416e-06 1.0329538762433025e-22 -3.7147206332862236e-18 1.811009148180622e-08 -0.4569000000000002 -0.19424999996498832 0.06654999996015865 1.570796327 -9.389889198497584e-16 -8.408926181579869e-16 0.0 0.0 0.0 0.0 0.0 0.0 0 40.0 40.0 40.0 40.0 40.0 40.0 0.54463 7 253 253 253 253 253 253 1 0.0 0.0 0.0 0.0 1.0 0.0 0.0 48.0 -3.991840362548828 0.0 0.0 0.0 0.0 0.0 0.0 0 1
10459.583999999999 -8.881784197001252e-16 6.245004513516506e-17 0.0 0.0 0.0 0.0 0.0 0.0 0.0 0.0 0.0 0.0 0.0 0.0 0.0 0.0 0.0 0.0 -7.19816049754143e-27 -1.3404950677837015 -0.6554250499344946 1.4323217392120607e-17 -4.002715375872051e-18 0.0 -9.451184733271898e-26 -17.600700240000002 -6.10344915 6.509902304718816e-17 -1.8192341383338472e-17 0.0 1.7484556025237907e-07 6.245004513516506e-17 0.0 0.0 0.0 0.0 0.0 0.0 0.0 0.0 0.0 0.0 -7.198160856031361e-27 -1.3404951095581055 -0.6554250717163086 1.4323217950229362e-17 -4.002715403615525e-18 0.0 -7.198160856031361e-27 -1.3404951095581055 -0.6554250717163086 1.4323217950229362e-17 -4.002715403615525e-18 0.0 -0.45689996603624294 -0.19425007985192236 0.06654999996015865 1.5707963269999956 1.3732338186929893e-07 1.3732338193922973e-07 0.0 0.0 0.0 0.0 0.0 0.0 -2.2112442861029235e-07 -5.4373710395467885e-08 -1.2056307462159416e-06 1.0329538762433025e-22 -3.7147206332862236e-18 1.811009148180622e-08 -0.4569000000000002 -0.19424999996498832 0.06654999996015865 1.570796327 -9.389889198497584e-16 -8.408926181579869e-16 0.0 0.0 0.0 0.0 0.0 0.0 0 40.0 40.0 40.0 40.0 40.0 40.0 0.660572 7 253 253 253 253 253 253 1 0.0 0.0 0.0 0.0 1.0 0.0 0.0 48.0 -3.991840362548828 0.0 0.0 0.0 0.0 0.0 0.0 0 1
10459.591999999999 -8.881784197001252e-16 6.245004513516506e-17 0.0 0.0 0.0 0.0 0.0 0.0 0.0 0.0 0.0 0.0 0.0 0.0 0.0 0.0 0.0 0.0 -7.19816049754143e-27 -1.3404950677837015 -0.6554250499344946 1.4323217392120607e-17 -4.002715375872051e-18 0.0 -9.451184733271898e-26 -17.600700240000002 -6.10344915 6.509902304718816e-17 -1.8192341383338472e-17 0.0 1.7484556025237907e-07 6.245004513516506e-17 0.0 0.0 0.0 0.0 0.0 0.0 0.0 0.0 0.0 0.0 -7.198160856031361e-27 -1.3404951095581055 -0.6554250717163086 1.4323217950229362e-17 -4.002715403615525e-18 0.0 -7.198160856031361e-27 -1.3404951095581055 -0.6554250717163086 1.4323217950229362e-17 -4.002715403615525e-18 0.0 -0.45689996603624294 -0.19425007985192236 0.06654999996015865 1.5707963269999956 1.3732338186929893e-07 1.3732338193922973e-07 0.0 0.0 0.0 0.0 0.0 0.0 -2.2112442861029235e-07 -5.4373710395467885e-08 -1.2056307462159416e-06 1.0329538762433025e-22 -3.7147206332862236e-18 1.811009148180622e-08 -0.4569000000000002 -0.19424999996498832 0.06654999996015865 1.570796327 -9.389889198497584e-16 -8.408926181579869e-16 0.0 0.0 0.0 0.0 0.0 0.0 0 40.0 40.0 40.0 40.0 40.0 40.0 0.509354 7 253 253 253 253 253 253 1 0.0 0.0 0.0 0.0 1.0 0.0 0.0 48.0 -3.991840362548828 0.0 0.0 0.0 0.0 0.0 0.0 0 1
10459.6 -8.881784197001252e-16 6.245004513516506e-17 0.0 0.0 0.0 0.0 0.0 0.0 0.0 0.0 0.0 0.0 0.0 0.0 0.0 0.0 0.0 0.0 -7.19816049754143e-27 -1.3404950677837015 -0.6554250499344946 1.4323217392120607e-17 -4.002715375872051e-18 0.0 -9.451184733271898e-26 -17.600700240000002 -6.10344915 6.509902304718816e-17 -1.8192341383338472e-17 0.0 1.7484556025237907e-07 6.245004513516506e-17 0.0 0.0 0.0 0.0 0.0 0.0 0.0 0.0 0.0 0.0 -7.198160856031361e-27 -1.3404951095581055 -0.6554250717163086 1.4323217950229362e-17 -4.002715403615525e-18 0.0 -7.198160856031361e-27 -1.3404951095581055 -0.6554250717163086 1.4323217950229362e-17 -4.002715403615525e-18 0.0 -0.45689996603624294 -0.19425007985192236 0.06654999996015865 1.5707963269999956 1.3732338186929893e-07 1.3732338193922973e-07 0.0 0.0 0.0 0.0 0.0 0.0 -2.2112442861029235e-07 -5.4373710395467885e-08 -1.2056307462159416e-06 1.0329538762433025e-22 -3.7147206332862236e-18 1.811009148180622e-08 -0.4569000000000002 -0.19424999996498832 0.06654999996015865 1.570796327 -9.389889198497584e-16 -8.408926181579869e-16 0.0 0.0 0.0 0.0 0.0 0.0 0 40.0 40.0 40.0 40.0 40.0 40.0 0.450477 7 253 253 253 253 253 253 1 0.0 0.0 0.0 0.0 1.0 0.0 0.0 48.0 -3.991840362548828 0.0 0.0 0.0 0.0 0.0 0.0 0 1
10459.608 -8.881784197001252e-16 6.245004513516506e-17 0.0 0.0 0.0 0.0 0.0 0.0 0.0 0.0 0.0 0.0 0.0 0.0 0.0 0.0 0.0 0.0 -7.19816049754143e-27 -1.3404950677837015 -0.6554250499344946 1.4323217392120607e-17 -4.002715375872051e-18 0.0 -9.451184733271898e-26 -17.600700240000002 -6.10344915 6.509902304718816e-17 -1.8192341383338472e-17 0.0 1.7484556025237907e-07 6.245004513516506e-17 0.0 0.0 0.0 0.0 0.0 0.0 0.0 0.0 0.0 0.0 -7.198160856031361e-27 -1.3404951095581055 -0.6554250717163086 1.4323217950229362e-17 -4.002715403615525e-18 0.0 -7.198160856031361e-27 -1.3404951095581055 -0.6554250717163086 1.4323217950229362e-17 -4.002715403615525e-18 0.0 -0.45689996603624294 -0.19425007985192236 0.06654999996015865 1.5707963269999956 1.3732338186929893e-07 1.3732338193922973e-07 0.0 0.0 0.0 0.0 0.0 0.0 -2.2112442861029235e-07 -5.4373710395467885e-08 -1.2056307462159416e-06 1.0329538762433025e-22 -3.7147206332862236e-18 1.811009148180622e-08 -0.4569000000000002 -0.19424999996498832 0.06654999996015865 1.570796327 -9.389889198497584e-16 -8.408926181579869e-16 0.0 0.0 0.0 0.0 0.0 0.0 0 40.0 40.0 40.0 40.0 40.0 40.0 0.493966 7 253 253 253 253 253 253 1 0.0 0.0 0.0 0.0 1.0 0.0 0.0 48.0 -3.991840362548828 0.0 0.0 0.0 0.0 0.0 0.0 0 1
10459.616 -8.881784197001252e-16 6.245004513516506e-17 0.0 0.0 0.0 0.0 0.0 0.0 0.0 0.0 0.0 0.0 0.0 0.0 0.0 0.0 0.0 0.0 -7.19816049754143e-27 -1.3404950677837015 -0.6554250499344946 1.4323217392120607e-17 -4.002715375872051e-18 0.0 -9.451184733271898e-26 -17.600700240000002 -6.10344915 6.509902304718816e-17 -1.8192341383338472e-17 0.0 1.7484556025237907e-07 6.245004513516506e-17 0.0 0.0 0.0 0.0 0.0 0.0 0.0 0.0 0.0 0.0 -7.198160856031361e-27 -1.3404951095581055 -0.6554250717163086 1.4323217950229362e-17 -4.002715403615525e-18 0.0 -7.198160856031361e-27 -1.3404951095581055 -0.6554250717163086 1.4323217950229362e-17 -4.002715403615525e-18 0.0 -0.45689996603624294 -0.19425007985192236 0.06654999996015865 1.5707963269999956 1.3732338186929893e-07 1.3732338193922973e-07 0.0 0.0 0.0 0.0 0.0 0.0 -2.2112442861029235e-07 -5.4373710395467885e-08 -1.2056307462159416e-06 1.0329538762433025e-22 -3.7147206332862236e-18 1.811009148180622e-08 -0.4569000000000002 -0.19424999996498832 0.06654999996015865 1.570796327 -9.389889198497584e-16 -8.408926181579869e-16 0.0 0.0 0.0 0.0 0.0 0.0 0 40.0 40.0 40.0 40.0 40.0 40.0 0.464765 7 253 253 253 253 253 253 1 0.0 0.0 0.0 0.0 1.0 0.0 0.0 48.0 -3.991840362548828 0.0 0.0 0.0 0.0 0.0 0.0 0 1
10459.624 -8.881784197001252e-16 6.245004513516506e-17 0.0 0.0 0.0 0.0 0.0 0.0 0.0 0.0 0.0 0.0 0.0 0.0 0.0 0.0 0.0 0.0 -7.19816049754143e-27 -1.3404950677837015 -0.6554250499344946 1.4323217392120607e-17 -4.002715375872051e-18 0.0 -9.451184733271898e-26 -17.600700240000002 -6.10344915 6.509902304718816e-17 -1.8192341383338472e-17 0.0 1.7484556025237907e-07 6.245004513516506e-17 0.0 0.0 0.0 0.0 0.0 0.0 0.0 0.0 0.0 0.0 -7.198160856031361e-27 -1.3404951095581055 -0.6554250717163086 1.4323217950229362e-17 -4.002715403615525e-18 0.0 -7.198160856031361e-27 -1.3404951095581055 -0.6554250717163086 1.4323217950229362e-17 -4.002715403615525e-18 0.0 -0.45689996603624294 -0.19425007985192236 0.06654999996015865 1.5707963269999956 1.3732338186929893e-07 1.3732338193922973e-07 0.0 0.0 0.0 0.0 0.0 0.0 -2.2112442861029235e-07 -5.4373710395467885e-08 -1.2056307462159416e-06 1.0329538762433025e-22 -3.7147206332862236e-18 1.811009148180622e-08 -0.4569000000000002 -0.19424999996498832 0.06654999996015865 1.570796327 -9.389889198497584e-16 -8.408926181579869e-16 0.0 0.0 0.0 0.0 0.0 0.0 0 40.0 40.0 40.0 40.0 40.0 40.0 0.809777 7 253 253 253 253 253 253 1 0.0 0.0 0.0 0.0 1.0 0.0 0.0 48.0 -3.991840362548828 0.0 0.0 0.0 0.0 0.0 0.0 0 1
10459.632 -8.881784197001252e-16 6.245004513516506e-17 0.0 0.0 0.0 0.0 0.0 0.0 0.0 0.0 0.0 0.0 0.0 0.0 0.0 0.0 0.0 0.0 -7.19816049754143e-27 -1.3404950677837015 -0.6554250499344946 1.4323217392120607e-17 -4.002715375872051e-18 0.0 -9.451184733271898e-26 -17.600700240000002 -6.10344915 6.509902304718816e-17 -1.8192341383338472e-17 0.0 1.7484556025237907e-07 6.245004513516506e-17 0.0 0.0 0.0 0.0 0.0 0.0 0.0 0.0 0.0 0.0 -7.198160856031361e-27 -1.3404951095581055 -0.6554250717163086 1.4323217950229362e-17 -4.002715403615525e-18 0.0 -7.198160856031361e-27 -1.3404951095581055 -0.6554250717163086 1.4323217950229362e-17 -4.002715403615525e-18 0.0 -0.45689996603624294 -0.19425007985192236 0.06654999996015865 1.5707963269999956 1.3732338186929893e-07 1.3732338193922973e-07 0.0 0.0 0.0 0.0 0.0 0.0 -2.2112442861029235e-07 -5.4373710395467885e-08 -1.2056307462159416e-06 1.0329538762433025e-22 -3.7147206332862236e-18 1.811009148180622e-08 -0.4569000000000002 -0.19424999996498832 0.06654999996015865 1.570796327 -9.389889198497584e-16 -8.408926181579869e-16 0.0 0.0 0.0 0.0 0.0 0.0 0 40.0 40.0 40.0 40.0 40.0 40.0 0.555068 7 253 253 253 253 253 253 1 0.0 0.0 0.0 0.0 1.0 0.0 0.0 48.0 -3.991840362548828 0.0 0.0 0.0 0.0 0.0 0.0 0 1
10459.64 -8.881784197001252e-16 6.245004513516506e-17 0.0 0.0 0.0 0.0 0.0 0.0 0.0 0.0 0.0 0.0 0.0 0.0 0.0 0.0 0.0 0.0 -7.19816049754143e-27 -1.3404950677837015 -0.6554250499344946 1.4323217392120607e-17 -4.002715375872051e-18 0.0 -9.451184733271898e-26 -17.600700240000002 -6.10344915 6.509902304718816e-17 -1.8192341383338472e-17 0.0 1.7484556025237907e-07 6.245004513516506e-17 0.0 0.0 0.0 0.0 0.0 0.0 0.0 0.0 0.0 0.0 -7.198160856031361e-27 -1.3404951095581055 -0.6554250717163086 1.4323217950229362e-17 -4.002715403615525e-18 0.0 -7.198160856031361e-27 -1.3404951095581055 -0.6554250717163086 1.4323217950229362e-17 -4.002715403615525e-18 0.0 -0.45689996603624294 -0.19425007985192236 0.06654999996015865 1.5707963269999956 1.3732338186929893e-07 1.3732338193922973e-07 0.0 0.0 0.0 0.0 0.0 0.0 -2.2112442861029235e-07 -5.4373710395467885e-08 -1.2056307462159416e-06 1.0329538762433025e-22 -3.7147206332862236e-18 1.811009148180622e-08 -0.4569000000000002 -0.19424999996498832 0.06654999996015865 1.570796327 -9.389889198497584e-16 -8.408926181579869e-16 0.0 0.0 0.0 0.0 0.0 0.0 0 40.0 40.0 40.0 40.0 40.0 40.0 0.503479 7 253 253 253 253 253 253 1 0.0 0.0 0.0 0.0 1.0 0.0 0.0 48.0 -3.991840362548828 0.0 0.0 0.0 0.0 0.0 0.0 0 1
10459.648 -8.881784197001252e-16 6.245004513516506e-17 0.0 0.0 0.0 0.0 0.0 0.0 0.0 0.0 0.0 0.0 0.0 0.0 0.0 0.0 0.0 0.0 -7.19816049754143e-27 -1.3404950677837015 -0.6554250499344946 1.4323217392120607e-17 -4.002715375872051e-18 0.0 -9.451184733271898e-26 -17.600700240000002 -6.10344915 6.509902304718816e-17 -1.8192341383338472e-17 0.0 1.7484556025237907e-07 6.245004513516506e-17 0.0 0.0 0.0 0.0 0.0 0.0 0.0 0.0 0.0 0.0 -7.198160856031361e-27 -1.3404951095581055 -0.6554250717163086 1.4323217950229362e-17 -4.002715403615525e-18 0.0 -7.198160856031361e-27 -1.3404951095581055 -0.6554250717163086 1.4323217950229362e-17 -4.002715403615525e-18 0.0 -0.45689996603624294 -0.19425007985192236 0.06654999996015865 1.5707963269999956 1.3732338186929893e-07 1.3732338193922973e-07 0.0 0.0 0.0 0.0 0.0 0.0 -2.2112442861029235e-07 -5.4373710395467885e-08 -1.2056307462159416e-06 1.0329538762433025e-22 -3.7147206332862236e-18 1.811009148180622e-08 -0.4569000000000002 -0.19424999996498832 0.06654999996015865 1.570796327 -9.389889198497584e-16 -8.408926181579869e-16 0.0 0.0 0.0 0.0 0.0 0.0 0 40.0 40.0 40.0 40.0 40.0 40.0 0.511179 7 253 253 253 253 253 253 1 0.0 0.0 0.0 0.0 1.0 0.0 0.0 48.0 -3.991840362548828 0.0 0.0 0.0 0.0 0.0 0.0 0 1
10459.655999999999 -8.881784197001252e-16 6.245004513516506e-17 0.0 0.0 0.0 0.0 0.0 0.0 0.0 0.0 0.0 0.0 0.0 0.0 0.0 0.0 0.0 0.0 -7.19816049754143e-27 -1.3404950677837015 -0.6554250499344946 1.4323217392120607e-17 -4.002715375872051e-18 0.0 -9.451184733271898e-26 -17.600700240000002 -6.10344915 6.509902304718816e-17 -1.8192341383338472e-17 0.0 1.7484556025237907e-07 6.245004513516506e-17 0.0 0.0 0.0 0.0 0.0 0.0 0.0 0.0 0.0 0.0 -7.198160856031361e-27 -1.3404951095581055 -0.6554250717163086 1.4323217950229362e-17 -4.002715403615525e-18 0.0 -7.198160856031361e-27 -1.3404951095581055 -0.6554250717163086 1.4323217950229362e-17 -4.002715403615525e-18 0.0 -0.45689996603624294 -0.19425007985192236 0.06654999996015865 1.5707963269999956 1.3732338186929893e-07 1.3732338193922973e-07 0.0 0.0 0.0 0.0 0.0 0.0 -2.2112442861029235e-07 -5.4373710395467885e-08 -1.2056307462159416e-06 1.0329538762433025e-22 -3.7147206332862236e-18 1.811009148180622e-08 -0.4569000000000002 -0.19424999996498832 0.06654999996015865 1.570796327 -9.389889198497584e-16 -8.408926181579869e-16 0.0 0.0 0.0 0.0 0.0 0.0 0 40.0 40.0 40.0 40.0 40.0 40.0 0.440702 7 253 253 253 253 253 253 1 0.0 0.0 0.0 0.0 1.0 0.0 0.0 48.0 -3.991840362548828 0.0 0.0 0.0 0.0 0.0 0.0 0 1
10459.663999999999 -8.881784197001252e-16 6.245004513516506e-17 0.0 0.0 0.0 0.0 0.0 0.0 0.0 0.0 0.0 0.0 0.0 0.0 0.0 0.0 0.0 0.0 -7.19816049754143e-27 -1.3404950677837015 -0.6554250499344946 1.4323217392120607e-17 -4.002715375872051e-18 0.0 -9.451184733271898e-26 -17.600700240000002 -6.10344915 6.509902304718816e-17 -1.8192341383338472e-17 0.0 1.7484556025237907e-07 6.245004513516506e-17 0.0 0.0 0.0 0.0 0.0 0.0 0.0 0.0 0.0 0.0 -7.198160856031361e-27 -1.3404951095581055 -0.6554250717163086 1.4323217950229362e-17 -4.002715403615525e-18 0.0 -7.198160856031361e-27 -1.3404951095581055 -0.6554250717163086 1.4323217950229362e-17 -4.002715403615525e-18 0.0 -0.45689996603624294 -0.19425007985192236 0.06654999996015865 1.5707963269999956 1.3732338186929893e-07 1.3732338193922973e-07 0.0 0.0 0.0 0.0 0.0 0.0 -2.2112442861029235e-07 -5.4373710395467885e-08 -1.2056307462159416e-06 1.0329538762433025e-22 -3.7147206332862236e-18 1.811009148180622e-08 -0.4569000000000002 -0.19424999996498832 0.06654999996015865 1.570796327 -9.389889198497584e-16 -8.408926181579869e-16 0.0 0.0 0.0 0.0 0.0 0.0 0 40.0 40.0 40.0 40.0 40.0 40.0 0.533992 7 253 253 253 253 253 253 1 0.0 0.0 0.0 0.0 1.0 0.0 0.0 48.0 -3.991840362548828 0.0 0.0 0.0 0.0 0.0 0.0 0 1
10459.671999999999 -8.881784197001252e-16 6.245004513516506e-17 0.0 0.0 0.0 0.0 0.0 0.0 0.0 0.0 0.0 0.0 0.0 0.0 0.0 0.0 0.0 0.0 -7.19816049754143e-27 -1.3404950677837015 -0.6554250499344946 1.4323217392120607e-17 -4.002715375872051e-18 0.0 -9.451184733271898e-26 -17.600700240000002 -6.10344915 6.509902304718816e-17 -1.8192341383338472e-17 0.0 1.7484556025237907e-07 6.245004513516506e-17 0.0 0.0 0.0 0.0 0.0 0.0 0.0 0.0 0.0 0.0 -7.198160856031361e-27 -1.3404951095581055 -0.6554250717163086 1.4323217950229362e-17 -4.002715403615525e-18 0.0 -7.198160856031361e-27 -1.3404951095581055 -0.6554250717163086 1.4323217950229362e-17 -4.002715403615525e-18 0.0 -0.45689996603624294 -0.19425007985192236 0.06654999996015865 1.5707963269999956 1.3732338186929893e-07 1.3732338193922973e-07 0.0 0.0 0.0 0.0 0.0 0.0 -2.2112442861029235e-07 -5.4373710395467885e-08 -1.2056307462159416e-06 1.0329538762433025e-22 -3.7147206332862236e-18 1.811009148180622e-08 -0.4569000000000002 -0.19424999996498832 0.06654999996015865 1.570796327 -9.389889198497584e-16 -8.408926181579869e-16 0.0 0.0 0.0 0.0 0.0 0.0 0 40.0 40.0 40.0 40.0 40.0 40.0 0.505941 7 253 253 253 253 253 253 1 0.0 0.0 0.0 0.0 1.0 0.0 0.0 48.0 -3.991840362548828 0.0 0.0 0.0 0.0 0.0 0.0 0 1
10459.68 -8.881784197001252e-16 6.245004513516506e-17 0.0 0.0 0.0 0.0 0.0 0.0 0.0 0.0 0.0 0.0 0.0 0.0 0.0 0.0 0.0 0.0 -7.19816049754143e-27 -1.3404950677837015 -0.6554250499344946 1.4323217392120607e-17 -4.002715375872051e-18 0.0 -9.451184733271898e-26 -17.600700240000002 -6.10344915 6.509902304718816e-17 -1.8192341383338472e-17 0.0 1.7484556025237907e-07 6.245004513516506e-17 0.0 0.0 0.0 0.0 0.0 0.0 0.0 0.0 0.0 0.0 -7.198160856031361e-27 -1.3404951095581055 -0.6554250717163086 1.4323217950229362e-17 -4.002715403615525e-18 0.0 -7.198160856031361e-27 -1.3404951095581055 -0.6554250717163086 1.4323217950229362e-17 -4.002715403615525e-18 0.0 -0.45689996603624294 -0.19425007985192236 0.06654999996015865 1.5707963269999956 1.3732338186929893e-07 1.3732338193922973e-07 0.0 0.0 0.0 0.0 0.0 0.0 -2.2112442861029235e-07 -5.4373710395467885e-08 -1.2056307462159416e-06 1.0329538762433025e-22 -3.7147206332862236e-18 1.811009148180622e-08 -0.4569000000000002 -0.19424999996498832 0.06654999996015865 1.570796327 -9.389889198497584e-16 -8.408926181579869e-16 0.0 0.0 0.0 0.0 0.0 0.0 0 40.0 40.0 40.0 40.0 40.0 40.0 0.578681 7 253 253 253 253 253 253 1 0.0 0.0 0.0 0.0 1.0 0.0 0.0 48.0 -3.991840362548828 0.0 0.0 0.0 0.0 0.0 0.0 0 1
10459.688 -8.881784197001252e-16 6.245004513516506e-17 0.0 0.0 0.0 0.0 0.0 0.0 0.0 0.0 0.0 0.0 0.0 0.0 0.0 0.0 0.0 0.0 -7.19816049754143e-27 -1.3404950677837015 -0.6554250499344946 1.4323217392120607e-17 -4.002715375872051e-18 0.0 -9.451184733271898e-26 -17.600700240000002 -6.10344915 6.509902304718816e-17 -1.8192341383338472e-17 0.0 1.7484556025237907e-07 6.245004513516506e-17 0.0 0.0 0.0 0.0 0.0 0.0 0.0 0.0 0.0 0.0 -7.198160856031361e-27 -1.3404951095581055 -0.6554250717163086 1.4323217950229362e-17 -4.002715403615525e-18 0.0 -7.198160856031361e-27 -1.3404951095581055 -0.6554250717163086 1.4323217950229362e-17 -4.002715403615525e-18 0.0 -0.45689996603624294 -0.19425007985192236 0.06654999996015865 1.5707963269999956 1.3732338186929893e-07 1.3732338193922973e-07 0.0 0.0 0.0 0.0 0.0 0.0 -2.2112442861029235e-07 -5.4373710395467885e-08 -1.2056307462159416e-06 1.0329538762433025e-22 -3.7147206332862236e-18 1.811009148180622e-08 -0.4569000000000002 -0.19424999996498832 0.06654999996015865 1.570796327 -9.389889198497584e-16 -8.408926181579869e-16 0.0 0.0 0.0 0.0 0.0 0.0 0 40.0 40.0 40.0 40.0 40.0 40.0 0.483078 7 253 253 253 253 253 253 1 0.0 0.0 0.0 0.0 1.0 0.0 0.0 48.0 -3.991840362548828 0.0 0.0 0.0 0.0 0.0 0.0 0 1
10459.696 -8.881784197001252e-16 6.245004513516506e-17 0.0 0.0 0.0 0.0 0.0 0.0 0.0 0.0 0.0 0.0 0.0 0.0 0.0 0.0 0.0 0.0 -7.19816049754143e-27 -1.3404950677837015 -0.6554250499344946 1.4323217392120607e-17 -4.002715375872051e-18 0.0 -9.451184733271898e-26 -17.600700240000002 -6.10344915 6.509902304718816e-17 -1.8192341383338472e-17 0.0 1.7484556025237907e-07 6.245004513516506e-17 0.0 0.0 0.0 0.0 0.0 0.0 0.0 0.0 0.0 0.0 -7.198160856031361e-27 -1.3404951095581055 -0.6554250717163086 1.4323217950229362e-17 -4.002715403615525e-18 0.0 -7.198160856031361e-27 -1.3404951095581055 -0.6554250717163086 1.4323217950229362e-17 -4.002715403615525e-18 0.0 -0.45689996603624294 -0.19425007985192236 0.06654999996015865 1.5707963269999956 1.3732338186929893e-07 1.3732338193922973e-07 0.0 0.0 0.0 0.0 0.0 0.0 -2.2112442861029235e-07 -5.4373710395467885e-08 -1.2056307462159416e-06 1.0329538762433025e-22 -3.7147206332862236e-18 1.811009148180622e-08 -0.4569000000000002 -0.19424999996498832 0.06654999996015865 1.570796327 -9.389889198497584e-16 -8.408926181579869e-16 0.0 0.0 0.0 0.0 0.0 0.0 0 40.0 40.0 40.0 40.0 40.0 40.0 0.448464 7 253 253 253 253 253 253 1 0.0 0.0 0.0 0.0 1.0 0.0 0.0 48.0 -3.991840362548828 0.0 0.0 0.0 0.0 0.0 0.0 0 1
10459.704 -8.881784197001252e-16 6.245004513516506e-17 0.0 0.0 0.0 0.0 0.0 0.0 0.0 0.0 0.0 0.0 0.0 0.0 0.0 0.0 0.0 0.0 -7.19816049754143e-27 -1.3404950677837015 -0.6554250499344946 1.4323217392120607e-17 -4.002715375872051e-18 0.0 -9.451184733271898e-26 -17.600700240000002 -6.10344915 6.509902304718816e-17 -1.8192341383338472e-17 0.0 1.7484556025237907e-07 6.245004513516506e-17 0.0 0.0 0.0 0.0 0.0 0.0 0.0 0.0 0.0 0.0 -7.198160856031361e-27 -1.3404951095581055 -0.6554250717163086 1.4323217950229362e-17 -4.002715403615525e-18 0.0 -7.198160856031361e-27 -1.3404951095581055 -0.6554250717163086 1.4323217950229362e-17 -4.002715403615525e-18 0.0 -0.45689996603624294 -0.19425007985192236 0.06654999996015865 1.5707963269999956 1.3732338186929893e-07 1.3732338193922973e-07 0.0 0.0 0.0 0.0 0.0 0.0 -2.2112442861029235e-07 -5.4373710395467885e-08 -1.2056307462159416e-06 1.0329538762433025e-22 -3.7147206332862236e-18 1.811009148180622e-08 -0.4569000000000002 -0.19424999996498832 0.06654999996015865 1.570796327 -9.389889198497584e-16 -8.408926181579869e-16 0.0 0.0 0.0 0.0 0.0 0.0 0 40.0 40.0 40.0 40.0 40.0 40.0 0.526717 7 253 253 253 253 253 253 1 0.0 0.0 0.0 0.0 1.0 0.0 0.0 48.0 -3.991840362548828 0.0 0.0 0.0 0.0 0.0 0.0 0 1
10459.712 -8.881784197001252e-16 6.245004513516506e-17 0.0 0.0 0.0 0.0 0.0 0.0 0.0 0.0 0.0 0.0 0.0 0.0 0.0 0.0 0.0 0.0 -7.19816049754143e-27 -1.3404950677837015 -0.6554250499344946 1.4323217392120607e-17 -4.002715375872051e-18 0.0 -9.451184733271898e-26 -17.600700240000002 -6.10344915 6.509902304718816e-17 -1.8192341383338472e-17 0.0 1.7484556025237907e-07 6.245004513516506e-17 0.0 0.0 0.0 0.0 0.0 0.0 0.0 0.0 0.0 0.0 -7.198160856031361e-27 -1.3404951095581055 -0.6554250717163086 1.4323217950229362e-17 -4.002715403615525e-18 0.0 -7.198160856031361e-27 -1.3404951095581055 -0.6554250717163086 1.4323217950229362e-17 -4.002715403615525e-18 0.0 -0.45689996603624294 -0.19425007985192236 0.06654999996015865 1.5707963269999956 1.3732338186929893e-07 1.3732338193922973e-07 0.0 0.0 0.0 0.0 0.0 0.0 -2.2112442861029235e-07 -5.4373710395467885e-08 -1.2056307462159416e-06 1.0329538762433025e-22 -3.7147206332862236e-18 1.811009148180622e-08 -0.4569000000000002 -0.19424999996498832 0.06654999996015865 1.570796327 -9.389889198497584e-16 -8.408926181579869e-16 0.0 0.0 0.0 0.0 0.0 0.0 0 40.0 40.0 40.0 40.0 40.0 40.0 0.468552 7 253 253 253 253 253 253 1 0.0 0.0 0.0 0.0 1.0 0.0 0.0 48.0 -3.991840362548828 0.0 0.0 0.0 0.0 0.0 0.0 0 1
10459.72 -8.881784197001252e-16 6.245004513516506e-17 0.0 0.0 0.0 0.0 0.0 0.0 0.0 0.0 0.0 0.0 0.0 0.0 0.0 0.0 0.0 0.0 -7.19816049754143e-27 -1.3404950677837015 -0.6554250499344946 1.4323217392120607e-17 -4.002715375872051e-18 0.0 -9.451184733271898e-26 -17.600700240000002 -6.10344915 6.509902304718816e-17 -1.8192341383338472e-17 0.0 1.7484556025237907e-07 6.245004513516506e-17 0.0 0.0 0.0 0.0 0.0 0.0 0.0 0.0 0.0 0.0 -7.198160856031361e-27 -1.3404951095581055 -0.6554250717163086 1.4323217950229362e-17 -4.002715403615525e-18 0.0 -7.198160856031361e-27 -1.3404951095581055 -0.6554250717163086 1.4323217950229362e-17 -4.002715403615525e-18 0.0 -0.45689996603624294 -0.19425007985192236 0.06654999996015865 1.5707963269999956 1.3732338186929893e-07 1.3732338193922973e-07 0.0 0.0 0.0 0.0 0.0 0.0 -2.2112442861029235e-07 -5.4373710395467885e-08 -1.2056307462159416e-06 1.0329538762433025e-22 -3.7147206332862236e-18 1.811009148180622e-08 -0.4569000000000002 -0.19424999996498832 0.06654999996015865 1.570796327 -9.389889198497584e-16 -8.408926181579869e-16 0.0 0.0 0.0 0.0 0.0 0.0 0 40.0 40.0 40.0 40.0 40.0 40.0 0.436939 7 253 253 253 253 253 253 1 0.0 0.0 0.0 0.0 1.0 0.0 0.0 48.0 -3.991840362548828 0.0 0.0 0.0 0.0 0.0 0.0 0 1
10459.728 -8.881784197001252e-16 6.245004513516506e-17 0.0 0.0 0.0 0.0 0.0 0.0 0.0 0.0 0.0 0.0 0.0 0.0 0.0 0.0 0.0 0.0 -7.19816049754143e-27 -1.3404950677837015 -0.6554250499344946 1.4323217392120607e-17 -4.002715375872051e-18 0.0 -9.451184733271898e-26 -17.600700240000002 -6.10344915 6.509902304718816e-17 -1.8192341383338472e-17 0.0 1.7484556025237907e-07 6.245004513516506e-17 0.0 0.0 0.0 0.0 0.0 0.0 0.0 0.0 0.0 0.0 -7.198160856031361e-27 -1.3404951095581055 -0.6554250717163086 1.4323217950229362e-17 -4.002715403615525e-18 0.0 -7.198160856031361e-27 -1.3404951095581055 -0.6554250717163086 1.4323217950229362e-17 -4.002715403615525e-18 0.0 -0.45689996603624294 -0.19425007985192236 0.06654999996015865 1.5707963269999956 1.3732338186929893e-07 1.3732338193922973e-07 0.0 0.0 0.0 0.0 0.0 0.0 -2.2112442861029235e-07 -5.4373710395467885e-08 -1.2056307462159416e-06 1.0329538762433025e-22 -3.7147206332862236e-18 1.811009148180622e-08 -0.4569000000000002 -0.19424999996498832 0.06654999996015865 1.570796327 -9.389889198497584e-16 -8.408926181579869e-16 0.0 0.0 0.0 0.0 0.0 0.0 0 40.0 40.0 40.0 40.0 40.0 40.0 0.479565 7 253 253 253 253 253 253 1 0.0 0.0 0.0 0.0 1.0 0.0 0.0 48.0 -3.991840362548828 0.0 0.0 0.0 0.0 0.0 0.0 0 1
10459.735999999999 -8.881784197001252e-16 6.245004513516506e-17 0.0 0.0 0.0 0.0 0.0 0.0 0.0 0.0 0.0 0.0 0.0 0.0 0.0 0.0 0.0 0.0 -7.19816049754143e-27 -1.3404950677837015 -0.6554250499344946 1.4323217392120607e-17 -4.002715375872051e-18 0.0 -9.451184733271898e-26 -17.600700240000002 -6.10344915 6.509902304718816e-17 -1.8192341383338472e-17 0.0 1.7484556025237907e-07 6.245004513516506e-17 0.0 0.0 0.0 0.0 0.0 0.0 0.0 0.0 0.0 0.0 -7.198160856031361e-27 -1.3404951095581055 -0.6554250717163086 1.4323217950229362e-17 -4.002715403615525e-18 0.0 -7.198160856031361e-27 -1.3404951095581055 -0.6554250717163086 1.4323217950229362e-17 -4.002715403615525e-18 0.0 -0.45689996603624294 -0.19425007985192236 0.06654999996015865 1.5707963269999956 1.3732338186929893e-07 1.3732338193922973e-07 0.0 0.0 0.0 0.0 0.0 0.0 -2.2112442861029235e-07 -5.4373710395467885e-08 -1.2056307462159416e-06 1.0329538762433025e-22 -3.7147206332862236e-18 1.811009148180622e-08 -0.4569000000000002 -0.19424999996498832 0.06654999996015865 1.570796327 -9.389889198497584e-16 -8.408926181579869e-16 0.0 0.0 0.0 0.0 0.0 0.0 0 40.0 40.0 40.0 40.0 40.0 40.0 0.491479 7 253 253 253 253 253 253 1 0.0 0.0 0.0 0.0 1.0 0.0 0.0 48.0 -3.991840362548828 0.0 0.0 0.0 0.0 0.0 0.0 0 1
10459.743999999999 -8.881784197001252e-16 6.245004513516506e-17 0.0 0.0 0.0 0.0 0.0 0.0 0.0 0.0 0.0 0.0 0.0 0.0 0.0 0.0 0.0 0.0 -7.19816049754143e-27 -1.3404950677837015 -0.6554250499344946 1.4323217392120607e-17 -4.002715375872051e-18 0.0 -9.451184733271898e-26 -17.600700240000002 -6.10344915 6.509902304718816e-17 -1.8192341383338472e-17 0.0 1.7484556025237907e-07 6.245004513516506e-17 0.0 0.0 0.0 0.0 0.0 0.0 0.0 0.0 0.0 0.0 -7.198160856031361e-27 -1.3404951095581055 -0.6554250717163086 1.4323217950229362e-17 -4.002715403615525e-18 0.0 -7.198160856031361e-27 -1.3404951095581055 -0.6554250717163086 1.4323217950229362e-17 -4.002715403615525e-18 0.0 -0.45689996603624294 -0.19425007985192236 0.06654999996015865 1.5707963269999956 1.3732338186929893e-07 1.3732338193922973e-07 0.0 0.0 0.0 0.0 0.0 0.0 -2.2112442861029235e-07 -5.4373710395467885e-08 -1.2056307462159416e-06 1.0329538762433025e-22 -3.7147206332862236e-18 1.811009148180622e-08 -0.4569000000000002 -0.19424999996498832 0.06654999996015865 1.570796327 -9.389889198497584e-16 -8.408926181579869e-16 0.0 0.0 0.0 0.0 0.0 0.0 0 40.0 40.0 40.0 40.0 40.0 40.0 0.461428 7 253 253 253 253 253 253 1 0.0 0.0 0.0 0.0 1.0 0.0 0.0 48.0 -3.991840362548828 0.0 0.0 0.0 0.0 0.0 0.0 0 1
10459.752 -8.881784197001252e-16 6.245004513516506e-17 0.0 0.0 0.0 0.0 0.0 0.0 0.0 0.0 0.0 0.0 0.0 0.0 0.0 0.0 0.0 0.0 -7.19816049754143e-27 -1.3404950677837015 -0.6554250499344946 1.4323217392120607e-17 -4.002715375872051e-18 0.0 -9.451184733271898e-26 -17.600700240000002 -6.10344915 6.509902304718816e-17 -1.8192341383338472e-17 0.0 1.7484556025237907e-07 6.245004513516506e-17 0.0 0.0 0.0 0.0 0.0 0.0 0.0 0.0 0.0 0.0 -7.198160856031361e-27 -1.3404951095581055 -0.6554250717163086 1.4323217950229362e-17 -4.002715403615525e-18 0.0 -7.198160856031361e-27 -1.3404951095581055 -0.6554250717163086 1.4323217950229362e-17 -4.002715403615525e-18 0.0 -0.45689996603624294 -0.19425007985192236 0.06654999996015865 1.5707963269999956 1.3732338186929893e-07 1.3732338193922973e-07 0.0 0.0 0.0 0.0 0.0 0.0 -2.2112442861029235e-07 -5.4373710395467885e-08 -1.2056307462159416e-06 1.0329538762433025e-22 -3.7147206332862236e-18 1.811009148180622e-08 -0.4569000000000002 -0.19424999996498832 0.06654999996015865 1.570796327 -9.389889198497584e-16 -8.408926181579869e-16 0.0 0.0 0.0 0.0 0.0 0.0 0 40.0 40.0 40.0 40.0 40.0 40.0 0.441239 7 253 253 253 253 253 253 1 0.0 0.0 0.0 0.0 1.0 0.0 0.0 48.0 -3.991840362548828 0.0 0.0 0.0 0.0 0.0 0.0 0 1
10459.76 -8.881784197001252e-16 6.245004513516506e-17 0.0 0.0 0.0 0.0 0.0 0.0 0.0 0.0 0.0 0.0 0.0 0.0 0.0 0.0 0.0 0.0 -7.19816049754143e-27 -1.3404950677837015 -0.6554250499344946 1.4323217392120607e-17 -4.002715375872051e-18 0.0 -9.451184733271898e-26 -17.600700240000002 -6.10344915 6.509902304718816e-17 -1.8192341383338472e-17 0.0 1.7484556025237907e-07 6.245004513516506e-17 0.0 0.0 0.0 0.0 0.0 0.0 0.0 0.0 0.0 0.0 -7.198160856031361e-27 -1.3404951095581055 -0.6554250717163086 1.4323217950229362e-17 -4.002715403615525e-18 0.0 -7.198160856031361e-27 -1.3404951095581055 -0.6554250717163086 1.4323217950229362e-17 -4.002715403615525e-18 0.0 -0.45689996603624294 -0.19425007985192236 0.06654999996015865 1.5707963269999956 1.3732338186929893e-07 1.3732338193922973e-07 0.0 0.0 0.0 0.0 0.0 0.0 -2.2112442861029235e-07 -5.4373710395467885e-08 -1.2056307462159416e-06 1.0329538762433025e-22 -3.7147206332862236e-18 1.811009148180622e-08 -0.4569000000000002 -0.19424999996498832 0.06654999996015865 1.570796327 -9.389889198497584e-16 -8.408926181579869e-16 0.0 0.0 0.0 0.0 0.0 0.0 0 40.0 40.0 40.0 40.0 40.0 40.0 0.52633 7 253 253 253 253 253 253 1 0.0 0.0 0.0 0.0 1.0 0.0 0.0 48.0 -3.991840362548828 0.0 0.0 0.0 0.0 0.0 0.0 0 1
10459.768 -8.881784197001252e-16 6.245004513516506e-17 0.0 0.0 0.0 0.0 0.0 0.0 0.0 0.0 0.0 0.0 0.0 0.0 0.0 0.0 0.0 0.0 -7.19816049754143e-27 -1.3404950677837015 -0.6554250499344946 1.4323217392120607e-17 -4.002715375872051e-18 0.0 -9.451184733271898e-26 -17.600700240000002 -6.10344915 6.509902304718816e-17 -1.8192341383338472e-17 0.0 1.7484556025237907e-07 6.245004513516506e-17 0.0 0.0 0.0 0.0 0.0 0.0 0.0 0.0 0.0 0.0 -7.198160856031361e-27 -1.3404951095581055 -0.6554250717163086 1.4323217950229362e-17 -4.002715403615525e-18 0.0 -7.198160856031361e-27 -1.3404951095581055 -0.6554250717163086 1.4323217950229362e-17 -4.002715403615525e-18 0.0 -0.45689996603624294 -0.19425007985192236 0.06654999996015865 1.5707963269999956 1.3732338186929893e-07 1.3732338193922973e-07 0.0 0.0 0.0 0.0 0.0 0.0 -2.2112442861029235e-07 -5.4373710395467885e-08 -1.2056307462159416e-06 1.0329538762433025e-22 -3.7147206332862236e-18 1.811009148180622e-08 -0.4569000000000002 -0.19424999996498832 0.06654999996015865 1.570796327 -9.389889198497584e-16 -8.408926181579869e-16 0.0 0.0 0.0 0.0 0.0 0.0 0 40.0 40.0 40.0 40.0 40.0 40.0 0.446952 7 253 253 253 253 253 253 1 0.0 0.0 0.0 0.0 1.0 0.0 0.0 48.0 -3.991840362548828 0.0 0.0 0.0 0.0 0.0 0.0 0 1
10459.776 -8.881784197001252e-16 6.245004513516506e-17 0.0 0.0 0.0 0.0 0.0 0.0 0.0 0.0 0.0 0.0 0.0 0.0 0.0 0.0 0.0 0.0 -7.19816049754143e-27 -1.3404950677837015 -0.6554250499344946 1.4323217392120607e-17 -4.002715375872051e-18 0.0 -9.451184733271898e-26 -17.600700240000002 -6.10344915 6.509902304718816e-17 -1.8192341383338472e-17 0.0 1.7484556025237907e-07 6.245004513516506e-17 0.0 0.0 0.0 0.0 0.0 0.0 0.0 0.0 0.0 0.0 -7.198160856031361e-27 -1.3404951095581055 -0.6554250717163086 1.4323217950229362e-17 -4.002715403615525e-18 0.0 -7.198160856031361e-27 -1.3404951095581055 -0.6554250717163086 1.4323217950229362e-17 -4.002715403615525e-18 0.0 -0.45689996603624294 -0.19425007985192236 0.06654999996015865 1.5707963269999956 1.3732338186929893e-07 1.3732338193922973e-07 0.0 0.0 0.0 0.0 0.0 0.0 -2.2112442861029235e-07 -5.4373710395467885e-08 -1.2056307462159416e-06 1.0329538762433025e-22 -3.7147206332862236e-18 1.811009148180622e-08 -0.4569000000000002 -0.19424999996498832 0.06654999996015865 1.570796327 -9.389889198497584e-16 -8.408926181579869e-16 0.0 0.0 0.0 0.0 0.0 0.0 0 40.0 40.0 40.0 40.0 40.0 40.0 0.442527 7 253 253 253 253 253 253 1 0.0 0.0 0.0 0.0 1.0 0.0 0.0 48.0 -3.991840362548828 0.0 0.0 0.0 0.0 0.0 0.0 0 1
10459.784 -8.881784197001252e-16 6.245004513516506e-17 0.0 0.0 0.0 0.0 0.0 0.0 0.0 0.0 0.0 0.0 0.0 0.0 0.0 0.0 0.0 0.0 -7.19816049754143e-27 -1.3404950677837015 -0.6554250499344946 1.4323217392120607e-17 -4.002715375872051e-18 0.0 -9.451184733271898e-26 -17.600700240000002 -6.10344915 6.509902304718816e-17 -1.8192341383338472e-17 0.0 1.7484556025237907e-07 6.245004513516506e-17 0.0 0.0 0.0 0.0 0.0 0.0 0.0 0.0 0.0 0.0 -7.198160856031361e-27 -1.3404951095581055 -0.6554250717163086 1.4323217950229362e-17 -4.002715403615525e-18 0.0 -7.198160856031361e-27 -1.3404951095581055 -0.6554250717163086 1.4323217950229362e-17 -4.002715403615525e-18 0.0 -0.45689996603624294 -0.19425007985192236 0.06654999996015865 1.5707963269999956 1.3732338186929893e-07 1.3732338193922973e-07 0.0 0.0 0.0 0.0 0.0 0.0 -2.2112442861029235e-07 -5.4373710395467885e-08 -1.2056307462159416e-06 1.0329538762433025e-22 -3.7147206332862236e-18 1.811009148180622e-08 -0.4569000000000002 -0.19424999996498832 0.06654999996015865 1.570796327 -9.389889198497584e-16 -8.408926181579869e-16 0.0 0.0 0.0 0.0 0.0 0.0 0 40.0 40.0 40.0 40.0 40.0 40.0 0.488865 7 253 253 253 253 253 253 1 0.0 0.0 0.0 0.0 1.0 0.0 0.0 48.0 -3.991840362548828 0.0 0.0 0.0 0.0 0.0 0.0 0 1
10459.792 -8.881784197001252e-16 6.245004513516506e-17 0.0 0.0 0.0 0.0 0.0 0.0 0.0 0.0 0.0 0.0 0.0 0.0 0.0 0.0 0.0 0.0 -7.19816049754143e-27 -1.3404950677837015 -0.6554250499344946 1.4323217392120607e-17 -4.002715375872051e-18 0.0 -9.451184733271898e-26 -17.600700240000002 -6.10344915 6.509902304718816e-17 -1.8192341383338472e-17 0.0 1.7484556025237907e-07 6.245004513516506e-17 0.0 0.0 0.0 0.0 0.0 0.0 0.0 0.0 0.0 0.0 -7.198160856031361e-27 -1.3404951095581055 -0.6554250717163086 1.4323217950229362e-17 -4.002715403615525e-18 0.0 -7.198160856031361e-27 -1.3404951095581055 -0.6554250717163086 1.4323217950229362e-17 -4.002715403615525e-18 0.0 -0.45689996603624294 -0.19425007985192236 0.06654999996015865 1.5707963269999956 1.3732338186929893e-07 1.3732338193922973e-07 0.0 0.0 0.0 0.0 0.0 0.0 -2.2112442861029235e-07 -5.4373710395467885e-08 -1.2056307462159416e-06 1.0329538762433025e-22 -3.7147206332862236e-18 1.811009148180622e-08 -0.4569000000000002 -0.19424999996498832 0.06654999996015865 1.570796327 -9.389889198497584e-16 -8.408926181579869e-16 0.0 0.0 0.0 0.0 0.0 0.0 0 40.0 40.0 40.0 40.0 40.0 40.0 0.499016 7 253 253 253 253 253 253 1 0.0 0.0 0.0 0.0 1.0 0.0 0.0 48.0 -3.991840362548828 0.0 0.0 0.0 0.0 0.0 0.0 0 1
10459.8 -8.881784197001252e-16 6.245004513516506e-17 0.0 0.0 0.0 0.0 0.0 0.0 0.0 0.0 0.0 0.0 0.0 0.0 0.0 0.0 0.0 0.0 -7.19816049754143e-27 -1.3404950677837015 -0.6554250499344946 1.4323217392120607e-17 -4.002715375872051e-18 0.0 -9.451184733271898e-26 -17.600700240000002 -6.10344915 6.509902304718816e-17 -1.8192341383338472e-17 0.0 1.7484556025237907e-07 6.245004513516506e-17 0.0 0.0 0.0 0.0 0.0 0.0 0.0 0.0 0.0 0.0 -7.198160856031361e-27 -1.3404951095581055 -0.6554250717163086 1.4323217950229362e-17 -4.002715403615525e-18 0.0 -7.198160856031361e-27 -1.3404951095581055 -0.6554250717163086 1.4323217950229362e-17 -4.002715403615525e-18 0.0 -0.45689996603624294 -0.19425007985192236 0.06654999996015865 1.5707963269999956 1.3732338186929893e-07 1.3732338193922973e-07 0.0 0.0 0.0 0.0 0.0 0.0 -2.2112442861029235e-07 -5.4373710395467885e-08 -1.2056307462159416e-06 1.0329538762433025e-22 -3.7147206332862236e-18 1.811009148180622e-08 -0.4569000000000002 -0.19424999996498832 0.06654999996015865 1.570796327 -9.389889198497584e-16 -8.408926181579869e-16 0.0 0.0 0.0 0.0 0.0 0.0 0 40.0 40.0 40.0 40.0 40.0 40.0 0.46634 7 253 253 253 253 253 253 1 0.0 0.0 0.0 0.0 1.0 0.0 0.0 48.0 -3.991840362548828 0.0 0.0 0.0 0.0 0.0 0.0 0 1
10459.807999999999 -8.881784197001252e-16 6.245004513516506e-17 0.0 0.0 0.0 0.0 0.0 0.0 0.0 0.0 0.0 0.0 0.0 0.0 0.0 0.0 0.0 0.0 -7.19816049754143e-27 -1.3404950677837015 -0.6554250499344946 1.4323217392120607e-17 -4.002715375872051e-18 0.0 -9.451184733271898e-26 -17.600700240000002 -6.10344915 6.509902304718816e-17 -1.8192341383338472e-17 0.0 1.7484556025237907e-07 6.245004513516506e-17 0.0 0.0 0.0 0.0 0.0 0.0 0.0 0.0 0.0 0.0 -7.198160856031361e-27 -1.3404951095581055 -0.6554250717163086 1.4323217950229362e-17 -4.002715403615525e-18 0.0 -7.198160856031361e-27 -1.3404951095581055 -0.6554250717163086 1.4323217950229362e-17 -4.002715403615525e-18 0.0 -0.45689996603624294 -0.19425007985192236 0.06654999996015865 1.5707963269999956 1.3732338186929893e-07 1.3732338193922973e-07 0.0 0.0 0.0 0.0 0.0 0.0 -2.2112442861029235e-07 -5.4373710395467885e-08 -1.2056307462159416e-06 1.0329538762433025e-22 -3.7147206332862236e-18 1.811009148180622e-08 -0.4569000000000002 -0.19424999996498832 0.06654999996015865 1.570796327 -9.389889198497584e-16 -8.408926181579869e-16 0.0 0.0 0.0 0.0 0.0 0.0 0 40.0 40.0 40.0 40.0 40.0 40.0 0.459465 7 253 253 253 253 253 253 1 0.0 0.0 0.0 0.0 1.0 0.0 0.0 48.0 -3.991840362548828 0.0 0.0 0.0 0.0 0.0 0.0 0 1
10459.815999999999 -8.881784197001252e-16 6.245004513516506e-17 0.0 0.0 0.0 0.0 0.0 0.0 0.0 0.0 0.0 0.0 0.0 0.0 0.0 0.0 0.0 0.0 -7.19816049754143e-27 -1.3404950677837015 -0.6554250499344946 1.4323217392120607e-17 -4.002715375872051e-18 0.0 -9.451184733271898e-26 -17.600700240000002 -6.10344915 6.509902304718816e-17 -1.8192341383338472e-17 0.0 1.7484556025237907e-07 6.245004513516506e-17 0.0 0.0 0.0 0.0 0.0 0.0 0.0 0.0 0.0 0.0 -7.198160856031361e-27 -1.3404951095581055 -0.6554250717163086 1.4323217950229362e-17 -4.002715403615525e-18 0.0 -7.198160856031361e-27 -1.3404951095581055 -0.6554250717163086 1.4323217950229362e-17 -4.002715403615525e-18 0.0 -0.45689996603624294 -0.19425007985192236 0.06654999996015865 1.5707963269999956 1.3732338186929893e-07 1.3732338193922973e-07 0.0 0.0 0.0 0.0 0.0 0.0 -2.2112442861029235e-07 -5.4373710395467885e-08 -1.2056307462159416e-06 1.0329538762433025e-22 -3.7147206332862236e-18 1.811009148180622e-08 -0.4569000000000002 -0.19424999996498832 0.06654999996015865 1.570796327 -9.389889198497584e-16 -8.408926181579869e-16 0.0 0.0 0.0 0.0 0.0 0.0 0 40.0 40.0 40.0 40.0 40.0 40.0 0.399463 7 253 253 253 253 253 253 1 0.0 0.0 0.0 0.0 1.0 0.0 0.0 48.0 -3.991840362548828 0.0 0.0 0.0 0.0 0.0 0.0 0 1
10459.823999999999 -8.881784197001252e-16 6.245004513516506e-17 0.0 0.0 0.0 0.0 0.0 0.0 0.0 0.0 0.0 0.0 0.0 0.0 0.0 0.0 0.0 0.0 -7.19816049754143e-27 -1.3404950677837015 -0.6554250499344946 1.4323217392120607e-17 -4.002715375872051e-18 0.0 -9.451184733271898e-26 -17.600700240000002 -6.10344915 6.509902304718816e-17 -1.8192341383338472e-17 0.0 1.7484556025237907e-07 6.245004513516506e-17 0.0 0.0 0.0 0.0 0.0 0.0 0.0 0.0 0.0 0.0 -7.198160856031361e-27 -1.3404951095581055 -0.6554250717163086 1.4323217950229362e-17 -4.002715403615525e-18 0.0 -7.198160856031361e-27 -1.3404951095581055 -0.6554250717163086 1.4323217950229362e-17 -4.002715403615525e-18 0.0 -0.45689996603624294 -0.19425007985192236 0.06654999996015865 1.5707963269999956 1.3732338186929893e-07 1.3732338193922973e-07 0.0 0.0 0.0 0.0 0.0 0.0 -2.2112442861029235e-07 -5.4373710395467885e-08 -1.2056307462159416e-06 1.0329538762433025e-22 -3.7147206332862236e-18 1.811009148180622e-08 -0.4569000000000002 -0.19424999996498832 0.06654999996015865 1.570796327 -9.389889198497584e-16 -8.408926181579869e-16 0.0 0.0 0.0 0.0 0.0 0.0 0 40.0 40.0 40.0 40.0 40.0 40.0 0.450602 7 253 253 253 253 253 253 1 0.0 0.0 0.0 0.0 1.0 0.0 0.0 48.0 -3.991840362548828 0.0 0.0 0.0 0.0 0.0 0.0 0 1
10459.832 -8.881784197001252e-16 6.245004513516506e-17 0.0 0.0 0.0 0.0 0.0 0.0 0.0 0.0 0.0 0.0 0.0 0.0 0.0 0.0 0.0 0.0 -7.19816049754143e-27 -1.3404950677837015 -0.6554250499344946 1.4323217392120607e-17 -4.002715375872051e-18 0.0 -9.451184733271898e-26 -17.600700240000002 -6.10344915 6.509902304718816e-17 -1.8192341383338472e-17 0.0 1.7484556025237907e-07 6.245004513516506e-17 0.0 0.0 0.0 0.0 0.0 0.0 0.0 0.0 0.0 0.0 -7.198160856031361e-27 -1.3404951095581055 -0.6554250717163086 1.4323217950229362e-17 -4.002715403615525e-18 0.0 -7.198160856031361e-27 -1.3404951095581055 -0.6554250717163086 1.4323217950229362e-17 -4.002715403615525e-18 0.0 -0.45689996603624294 -0.19425007985192236 0.06654999996015865 1.5707963269999956 1.3732338186929893e-07 1.3732338193922973e-07 0.0 0.0 0.0 0.0 0.0 0.0 -2.2112442861029235e-07 -5.4373710395467885e-08 -1.2056307462159416e-06 1.0329538762433025e-22 -3.7147206332862236e-18 1.811009148180622e-08 -0.4569000000000002 -0.19424999996498832 0.06654999996015865 1.570796327 -9.389889198497584e-16 -8.408926181579869e-16 0.0 0.0 0.0 0.0 0.0 0.0 0 40.0 40.0 40.0 40.0 40.0 40.0 0.429576 7 253 253 253 253 253 253 1 0.0 0.0 0.0 0.0 1.0 0.0 0.0 48.0 -3.991840362548828 0.0 0.0 0.0 0.0 0.0 0.0 0 1
10459.84 -8.881784197001252e-16 6.245004513516506e-17 0.0 0.0 0.0 0.0 0.0 0.0 0.0 0.0 0.0 0.0 0.0 0.0 0.0 0.0 0.0 0.0 -7.19816049754143e-27 -1.3404950677837015 -0.6554250499344946 1.4323217392120607e-17 -4.002715375872051e-18 0.0 -9.451184733271898e-26 -17.600700240000002 -6.10344915 6.509902304718816e-17 -1.8192341383338472e-17 0.0 1.7484556025237907e-07 6.245004513516506e-17 0.0 0.0 0.0 0.0 0.0 0.0 0.0 0.0 0.0 0.0 -7.198160856031361e-27 -1.3404951095581055 -0.6554250717163086 1.4323217950229362e-17 -4.002715403615525e-18 0.0 -7.198160856031361e-27 -1.3404951095581055 -0.6554250717163086 1.4323217950229362e-17 -4.002715403615525e-18 0.0 -0.45689996603624294 -0.19425007985192236 0.06654999996015865 1.5707963269999956 1.3732338186929893e-07 1.3732338193922973e-07 0.0 0.0 0.0 0.0 0.0 0.0 -2.2112442861029235e-07 -5.4373710395467885e-08 -1.2056307462159416e-06 1.0329538762433025e-22 -3.7147206332862236e-18 1.811009148180622e-08 -0.4569000000000002 -0.19424999996498832 0.06654999996015865 1.570796327 -9.389889198497584e-16 -8.408926181579869e-16 0.0 0.0 0.0 0.0 0.0 0.0 0 40.0 40.0 40.0 40.0 40.0 40.0 0.422589 7 253 253 253 253 253 253 1 0.0 0.0 0.0 0.0 1.0 0.0 0.0 48.0 -3.991840362548828 0.0 0.0 0.0 0.0 0.0 0.0 0 1
10459.848 -8.881784197001252e-16 6.245004513516506e-17 0.0 0.0 0.0 0.0 0.0 0.0 0.0 0.0 0.0 0.0 0.0 0.0 0.0 0.0 0.0 0.0 -7.19816049754143e-27 -1.3404950677837015 -0.6554250499344946 1.4323217392120607e-17 -4.002715375872051e-18 0.0 -9.451184733271898e-26 -17.600700240000002 -6.10344915 6.509902304718816e-17 -1.8192341383338472e-17 0.0 1.7484556025237907e-07 6.245004513516506e-17 0.0 0.0 0.0 0.0 0.0 0.0 0.0 0.0 0.0 0.0 -7.198160856031361e-27 -1.3404951095581055 -0.6554250717163086 1.4323217950229362e-17 -4.002715403615525e-18 0.0 -7.198160856031361e-27 -1.3404951095581055 -0.6554250717163086 1.4323217950229362e-17 -4.002715403615525e-18 0.0 -0.45689996603624294 -0.19425007985192236 0.06654999996015865 1.5707963269999956 1.3732338186929893e-07 1.3732338193922973e-07 0.0 0.0 0.0 0.0 0.0 0.0 -2.2112442861029235e-07 -5.4373710395467885e-08 -1.2056307462159416e-06 1.0329538762433025e-22 -3.7147206332862236e-18 1.811009148180622e-08 -0.4569000000000002 -0.19424999996498832 0.06654999996015865 1.570796327 -9.389889198497584e-16 -8.408926181579869e-16 0.0 0.0 0.0 0.0 0.0 0.0 0 40.0 40.0 40.0 40.0 40.0 40.0 0.61027 7 253 253 253 253 253 253 1 0.0 0.0 0.0 0.0 1.0 0.0 0.0 48.0 -3.991840362548828 0.0 0.0 0.0 0.0 0.0 0.0 0 1
10459.856 -8.881784197001252e-16 6.245004513516506e-17 0.0 0.0 0.0 0.0 0.0 0.0 0.0 0.0 0.0 0.0 0.0 0.0 0.0 0.0 0.0 0.0 -7.19816049754143e-27 -1.3404950677837015 -0.6554250499344946 1.4323217392120607e-17 -4.002715375872051e-18 0.0 -9.451184733271898e-26 -17.600700240000002 -6.10344915 6.509902304718816e-17 -1.8192341383338472e-17 0.0 1.7484556025237907e-07 6.245004513516506e-17 0.0 0.0 0.0 0.0 0.0 0.0 0.0 0.0 0.0 0.0 -7.198160856031361e-27 -1.3404951095581055 -0.6554250717163086 1.4323217950229362e-17 -4.002715403615525e-18 0.0 -7.198160856031361e-27 -1.3404951095581055 -0.6554250717163086 1.4323217950229362e-17 -4.002715403615525e-18 0.0 -0.45689996603624294 -0.19425007985192236 0.06654999996015865 1.5707963269999956 1.3732338186929893e-07 1.3732338193922973e-07 0.0 0.0 0.0 0.0 0.0 0.0 -2.2112442861029235e-07 -5.4373710395467885e-08 -1.2056307462159416e-06 1.0329538762433025e-22 -3.7147206332862236e-18 1.811009148180622e-08 -0.4569000000000002 -0.19424999996498832 0.06654999996015865 1.570796327 -9.389889198497584e-16 -8.408926181579869e-16 0.0 0.0 0.0 0.0 0.0 0.0 0 40.0 40.0 40.0 40.0 40.0 40.0 0.508279 7 253 253 253 253 253 253 1 0.0 0.0 0.0 0.0 1.0 0.0 0.0 48.0 -3.991840362548828 0.0 0.0 0.0 0.0 0.0 0.0 0 1
10459.864 -8.881784197001252e-16 6.245004513516506e-17 0.0 0.0 0.0 0.0 0.0 0.0 0.0 0.0 0.0 0.0 0.0 0.0 0.0 0.0 0.0 0.0 -7.19816049754143e-27 -1.3404950677837015 -0.6554250499344946 1.4323217392120607e-17 -4.002715375872051e-18 0.0 -9.451184733271898e-26 -17.600700240000002 -6.10344915 6.509902304718816e-17 -1.8192341383338472e-17 0.0 1.7484556025237907e-07 6.245004513516506e-17 0.0 0.0 0.0 0.0 0.0 0.0 0.0 0.0 0.0 0.0 -7.198160856031361e-27 -1.3404951095581055 -0.6554250717163086 1.4323217950229362e-17 -4.002715403615525e-18 0.0 -7.198160856031361e-27 -1.3404951095581055 -0.6554250717163086 1.4323217950229362e-17 -4.002715403615525e-18 0.0 -0.45689996603624294 -0.19425007985192236 0.06654999996015865 1.5707963269999956 1.3732338186929893e-07 1.3732338193922973e-07 0.0 0.0 0.0 0.0 0.0 0.0 -2.2112442861029235e-07 -5.4373710395467885e-08 -1.2056307462159416e-06 1.0329538762433025e-22 -3.7147206332862236e-18 1.811009148180622e-08 -0.4569000000000002 -0.19424999996498832 0.06654999996015865 1.570796327 -9.389889198497584e-16 -8.408926181579869e-16 0.0 0.0 0.0 0.0 0.0 0.0 0 40.0 40.0 40.0 40.0 40.0 40.0 0.633346 7 253 253 253 253 253 253 1 0.0 0.0 0.0 0.0 1.0 0.0 0.0 48.0 -3.991840362548828 0.0 0.0 0.0 0.0 0.0 0.0 0 1
10459.872 -8.881784197001252e-16 6.245004513516506e-17 0.0 0.0 0.0 0.0 0.0 0.0 0.0 0.0 0.0 0.0 0.0 0.0 0.0 0.0 0.0 0.0 -7.19816049754143e-27 -1.3404950677837015 -0.6554250499344946 1.4323217392120607e-17 -4.002715375872051e-18 0.0 -9.451184733271898e-26 -17.600700240000002 -6.10344915 6.509902304718816e-17 -1.8192341383338472e-17 0.0 1.7484556025237907e-07 6.245004513516506e-17 0.0 0.0 0.0 0.0 0.0 0.0 0.0 0.0 0.0 0.0 -7.198160856031361e-27 -1.3404951095581055 -0.6554250717163086 1.4323217950229362e-17 -4.002715403615525e-18 0.0 -7.198160856031361e-27 -1.3404951095581055 -0.6554250717163086 1.4323217950229362e-17 -4.002715403615525e-18 0.0 -0.45689996603624294 -0.19425007985192236 0.06654999996015865 1.5707963269999956 1.3732338186929893e-07 1.3732338193922973e-07 0.0 0.0 0.0 0.0 0.0 0.0 -2.2112442861029235e-07 -5.4373710395467885e-08 -1.2056307462159416e-06 1.0329538762433025e-22 -3.7147206332862236e-18 1.811009148180622e-08 -0.4569000000000002 -0.19424999996498832 0.06654999996015865 1.570796327 -9.389889198497584e-16 -8.408926181579869e-16 0.0 0.0 0.0 0.0 0.0 0.0 0 40.0 40.0 40.0 40.0 40.0 40.0 0.47914 7 253 253 253 253 253 253 1 0.0 0.0 0.0 0.0 1.0 0.0 0.0 48.0 -3.991840362548828 0.0 0.0 0.0 0.0 0.0 0.0 0 1
10459.88 -8.881784197001252e-16 6.245004513516506e-17 0.0 0.0 0.0 0.0 0.0 0.0 0.0 0.0 0.0 0.0 0.0 0.0 0.0 0.0 0.0 0.0 -7.19816049754143e-27 -1.3404950677837015 -0.6554250499344946 1.4323217392120607e-17 -4.002715375872051e-18 0.0 -9.451184733271898e-26 -17.600700240000002 -6.10344915 6.509902304718816e-17 -1.8192341383338472e-17 0.0 1.7484556025237907e-07 6.245004513516506e-17 0.0 0.0 0.0 0.0 0.0 0.0 0.0 0.0 0.0 0.0 -7.198160856031361e-27 -1.3404951095581055 -0.6554250717163086 1.4323217950229362e-17 -4.002715403615525e-18 0.0 -7.198160856031361e-27 -1.3404951095581055 -0.6554250717163086 1.4323217950229362e-17 -4.002715403615525e-18 0.0 -0.45689996603624294 -0.19425007985192236 0.06654999996015865 1.5707963269999956 1.3732338186929893e-07 1.3732338193922973e-07 0.0 0.0 0.0 0.0 0.0 0.0 -2.2112442861029235e-07 -5.4373710395467885e-08 -1.2056307462159416e-06 1.0329538762433025e-22 -3.7147206332862236e-18 1.811009148180622e-08 -0.4569000000000002 -0.19424999996498832 0.06654999996015865 1.570796327 -9.389889198497584e-16 -8.408926181579869e-16 0.0 0.0 0.0 0.0 0.0 0.0 0 40.0 40.0 40.0 40.0 40.0 40.0 0.45384 7 253 253 253 253 253 253 1 0.0 0.0 0.0 0.0 1.0 0.0 0.0 48.0 -3.991840362548828 0.0 0.0 0.0 0.0 0.0 0.0 0 1
10459.887999999999 -8.881784197001252e-16 6.245004513516506e-17 0.0 0.0 0.0 0.0 0.0 0.0 0.0 0.0 0.0 0.0 0.0 0.0 0.0 0.0 0.0 0.0 -7.19816049754143e-27 -1.3404950677837015 -0.6554250499344946 1.4323217392120607e-17 -4.002715375872051e-18 0.0 -9.451184733271898e-26 -17.600700240000002 -6.10344915 6.509902304718816e-17 -1.8192341383338472e-17 0.0 1.7484556025237907e-07 6.245004513516506e-17 0.0 0.0 0.0 0.0 0.0 0.0 0.0 0.0 0.0 0.0 -7.198160856031361e-27 -1.3404951095581055 -0.6554250717163086 1.4323217950229362e-17 -4.002715403615525e-18 0.0 -7.198160856031361e-27 -1.3404951095581055 -0.6554250717163086 1.4323217950229362e-17 -4.002715403615525e-18 0.0 -0.45689996603624294 -0.19425007985192236 0.06654999996015865 1.5707963269999956 1.3732338186929893e-07 1.3732338193922973e-07 0.0 0.0 0.0 0.0 0.0 0.0 -2.2112442861029235e-07 -5.4373710395467885e-08 -1.2056307462159416e-06 1.0329538762433025e-22 -3.7147206332862236e-18 1.811009148180622e-08 -0.4569000000000002 -0.19424999996498832 0.06654999996015865 1.570796327 -9.389889198497584e-16 -8.408926181579869e-16 0.0 0.0 0.0 0.0 0.0 0.0 0 40.0 40.0 40.0 40.0 40.0 40.0 0.468753 7 253 253 253 253 253 253 1 0.0 0.0 0.0 0.0 1.0 0.0 0.0 48.0 -3.991840362548828 0.0 0.0 0.0 0.0 0.0 0.0 0 1
10459.895999999999 -8.881784197001252e-16 6.245004513516506e-17 0.0 0.0 0.0 0.0 0.0 0.0 0.0 0.0 0.0 0.0 0.0 0.0 0.0 0.0 0.0 0.0 -7.19816049754143e-27 -1.3404950677837015 -0.6554250499344946 1.4323217392120607e-17 -4.002715375872051e-18 0.0 -9.451184733271898e-26 -17.600700240000002 -6.10344915 6.509902304718816e-17 -1.8192341383338472e-17 0.0 1.7484556025237907e-07 6.245004513516506e-17 0.0 0.0 0.0 0.0 0.0 0.0 0.0 0.0 0.0 0.0 -7.198160856031361e-27 -1.3404951095581055 -0.6554250717163086 1.4323217950229362e-17 -4.002715403615525e-18 0.0 -7.198160856031361e-27 -1.3404951095581055 -0.6554250717163086 1.4323217950229362e-17 -4.002715403615525e-18 0.0 -0.45689996603624294 -0.19425007985192236 0.06654999996015865 1.5707963269999956 1.3732338186929893e-07 1.3732338193922973e-07 0.0 0.0 0.0 0.0 0.0 0.0 -2.2112442861029235e-07 -5.4373710395467885e-08 -1.2056307462159416e-06 1.0329538762433025e-22 -3.7147206332862236e-18 1.811009148180622e-08 -0.4569000000000002 -0.19424999996498832 0.06654999996015865 1.570796327 -9.389889198497584e-16 -8.408926181579869e-16 0.0 0.0 0.0 0.0 0.0 0.0 0 40.0 40.0 40.0 40.0 40.0 40.0 0.482979 7 253 253 253 253 253 253 1 0.0 0.0 0.0 0.0 1.0 0.0 0.0 48.0 -3.991840362548828 0.0 0.0 0.0 0.0 0.0 0.0 0 1
10459.903999999999 -8.881784197001252e-16 6.245004513516506e-17 0.0 0.0 0.0 0.0 0.0 0.0 0.0 0.0 0.0 0.0 0.0 0.0 0.0 0.0 0.0 0.0 -7.19816049754143e-27 -1.3404950677837015 -0.6554250499344946 1.4323217392120607e-17 -4.002715375872051e-18 0.0 -9.451184733271898e-26 -17.600700240000002 -6.10344915 6.509902304718816e-17 -1.8192341383338472e-17 0.0 1.7484556025237907e-07 6.245004513516506e-17 0.0 0.0 0.0 0.0 0.0 0.0 0.0 0.0 0.0 0.0 -7.198160856031361e-27 -1.3404951095581055 -0.6554250717163086 1.4323217950229362e-17 -4.002715403615525e-18 0.0 -7.198160856031361e-27 -1.3404951095581055 -0.6554250717163086 1.4323217950229362e-17 -4.002715403615525e-18 0.0 -0.45689996603624294 -0.19425007985192236 0.06654999996015865 1.5707963269999956 1.3732338186929893e-07 1.3732338193922973e-07 0.0 0.0 0.0 0.0 0.0 0.0 -2.2112442861029235e-07 -5.4373710395467885e-08 -1.2056307462159416e-06 1.0329538762433025e-22 -3.7147206332862236e-18 1.811009148180622e-08 -0.4569000000000002 -0.19424999996498832 0.06654999996015865 1.570796327 -9.389889198497584e-16 -8.408926181579869e-16 0.0 0.0 0.0 0.0 0.0 0.0 0 40.0 40.0 40.0 40.0 40.0 40.0 0.460327 7 253 253 253 253 253 253 1 0.0 0.0 0.0 0.0 1.0 0.0 0.0 48.0 -3.991840362548828 0.0 0.0 0.0 0.0 0.0 0.0 0 1
10459.912 -8.881784197001252e-16 6.245004513516506e-17 0.0 0.0 0.0 0.0 0.0 0.0 0.0 0.0 0.0 0.0 0.0 0.0 0.0 0.0 0.0 0.0 -7.19816049754143e-27 -1.3404950677837015 -0.6554250499344946 1.4323217392120607e-17 -4.002715375872051e-18 0.0 -9.451184733271898e-26 -17.600700240000002 -6.10344915 6.509902304718816e-17 -1.8192341383338472e-17 0.0 1.7484556025237907e-07 6.245004513516506e-17 0.0 0.0 0.0 0.0 0.0 0.0 0.0 0.0 0.0 0.0 -7.198160856031361e-27 -1.3404951095581055 -0.6554250717163086 1.4323217950229362e-17 -4.002715403615525e-18 0.0 -7.198160856031361e-27 -1.3404951095581055 -0.6554250717163086 1.4323217950229362e-17 -4.002715403615525e-18 0.0 -0.45689996603624294 -0.19425007985192236 0.06654999996015865 1.5707963269999956 1.3732338186929893e-07 1.3732338193922973e-07 0.0 0.0 0.0 0.0 0.0 0.0 -2.2112442861029235e-07 -5.4373710395467885e-08 -1.2056307462159416e-06 1.0329538762433025e-22 -3.7147206332862236e-18 1.811009148180622e-08 -0.4569000000000002 -0.19424999996498832 0.06654999996015865 1.570796327 -9.389889198497584e-16 -8.408926181579869e-16 0.0 0.0 0.0 0.0 0.0 0.0 0 40.0 40.0 40.0 40.0 40.0 40.0 0.447439 7 253 253 253 253 253 253 1 0.0 0.0 0.0 0.0 1.0 0.0 0.0 48.0 -3.991840362548828 0.0 0.0 0.0 0.0 0.0 0.0 0 1
10459.92 -8.881784197001252e-16 6.245004513516506e-17 0.0 0.0 0.0 0.0 0.0 0.0 0.0 0.0 0.0 0.0 0.0 0.0 0.0 0.0 0.0 0.0 -7.19816049754143e-27 -1.3404950677837015 -0.6554250499344946 1.4323217392120607e-17 -4.002715375872051e-18 0.0 -9.451184733271898e-26 -17.600700240000002 -6.10344915 6.509902304718816e-17 -1.8192341383338472e-17 0.0 1.7484556025237907e-07 6.245004513516506e-17 0.0 0.0 0.0 0.0 0.0 0.0 0.0 0.0 0.0 0.0 -7.198160856031361e-27 -1.3404951095581055 -0.6554250717163086 1.4323217950229362e-17 -4.002715403615525e-18 0.0 -7.198160856031361e-27 -1.3404951095581055 -0.6554250717163086 1.4323217950229362e-17 -4.002715403615525e-18 0.0 -0.45689996603624294 -0.19425007985192236 0.06654999996015865 1.5707963269999956 1.3732338186929893e-07 1.3732338193922973e-07 0.0 0.0 0.0 0.0 0.0 0.0 -2.2112442861029235e-07 -5.4373710395467885e-08 -1.2056307462159416e-06 1.0329538762433025e-22 -3.7147206332862236e-18 1.811009148180622e-08 -0.4569000000000002 -0.19424999996498832 0.06654999996015865 1.570796327 -9.389889198497584e-16 -8.408926181579869e-16 0.0 0.0 0.0 0.0 0.0 0.0 0 40.0 40.0 40.0 40.0 40.0 40.0 0.53163 7 253 253 253 253 253 253 1 0.0 0.0 0.0 0.0 1.0 0.0 0.0 48.0 -3.991840362548828 0.0 0.0 0.0 0.0 0.0 0.0 0 1
10459.928 -8.881784197001252e-16 6.245004513516506e-17 0.0 0.0 0.0 0.0 0.0 0.0 0.0 0.0 0.0 0.0 0.0 0.0 0.0 0.0 0.0 0.0 -7.19816049754143e-27 -1.3404950677837015 -0.6554250499344946 1.4323217392120607e-17 -4.002715375872051e-18 0.0 -9.451184733271898e-26 -17.600700240000002 -6.10344915 6.509902304718816e-17 -1.8192341383338472e-17 0.0 1.7484556025237907e-07 6.245004513516506e-17 0.0 0.0 0.0 0.0 0.0 0.0 0.0 0.0 0.0 0.0 -7.198160856031361e-27 -1.3404951095581055 -0.6554250717163086 1.4323217950229362e-17 -4.002715403615525e-18 0.0 -7.198160856031361e-27 -1.3404951095581055 -0.6554250717163086 1.4323217950229362e-17 -4.002715403615525e-18 0.0 -0.45689996603624294 -0.19425007985192236 0.06654999996015865 1.5707963269999956 1.3732338186929893e-07 1.3732338193922973e-07 0.0 0.0 0.0 0.0 0.0 0.0 -2.2112442861029235e-07 -5.4373710395467885e-08 -1.2056307462159416e-06 1.0329538762433025e-22 -3.7147206332862236e-18 1.811009148180622e-08 -0.4569000000000002 -0.19424999996498832 0.06654999996015865 1.570796327 -9.389889198497584e-16 -8.408926181579869e-16 0.0 0.0 0.0 0.0 0.0 0.0 0 40.0 40.0 40.0 40.0 40.0 40.0 0.446352 7 253 253 253 253 253 253 1 0.0 0.0 0.0 0.0 1.0 0.0 0.0 48.0 -3.991840362548828 0.0 0.0 0.0 0.0 0.0 0.0 0 1
10459.936 -8.881784197001252e-16 6.245004513516506e-17 0.0 0.0 0.0 0.0 0.0 0.0 0.0 0.0 0.0 0.0 0.0 0.0 0.0 0.0 0.0 0.0 -7.19816049754143e-27 -1.3404950677837015 -0.6554250499344946 1.4323217392120607e-17 -4.002715375872051e-18 0.0 -9.451184733271898e-26 -17.600700240000002 -6.10344915 6.509902304718816e-17 -1.8192341383338472e-17 0.0 1.7484556025237907e-07 6.245004513516506e-17 0.0 0.0 0.0 0.0 0.0 0.0 0.0 0.0 0.0 0.0 -7.198160856031361e-27 -1.3404951095581055 -0.6554250717163086 1.4323217950229362e-17 -4.002715403615525e-18 0.0 -7.198160856031361e-27 -1.3404951095581055 -0.6554250717163086 1.4323217950229362e-17 -4.002715403615525e-18 0.0 -0.45689996603624294 -0.19425007985192236 0.06654999996015865 1.5707963269999956 1.3732338186929893e-07 1.3732338193922973e-07 0.0 0.0 0.0 0.0 0.0 0.0 -2.2112442861029235e-07 -5.4373710395467885e-08 -1.2056307462159416e-06 1.0329538762433025e-22 -3.7147206332862236e-18 1.811009148180622e-08 -0.4569000000000002 -0.19424999996498832 0.06654999996015865 1.570796327 -9.389889198497584e-16 -8.408926181579869e-16 0.0 0.0 0.0 0.0 0.0 0.0 0 40.0 40.0 40.0 40.0 40.0 40.0 0.440852 7 253 253 253 253 253 253 1 0.0 0.0 0.0 0.0 1.0 0.0 0.0 48.0 -3.991840362548828 0.0 0.0 0.0 0.0 0.0 0.0 0 1
10459.944 -8.881784197001252e-16 6.245004513516506e-17 0.0 0.0 0.0 0.0 0.0 0.0 0.0 0.0 0.0 0.0 0.0 0.0 0.0 0.0 0.0 0.0 -7.19816049754143e-27 -1.3404950677837015 -0.6554250499344946 1.4323217392120607e-17 -4.002715375872051e-18 0.0 -9.451184733271898e-26 -17.600700240000002 -6.10344915 6.509902304718816e-17 -1.8192341383338472e-17 0.0 1.7484556025237907e-07 6.245004513516506e-17 0.0 0.0 0.0 0.0 0.0 0.0 0.0 0.0 0.0 0.0 -7.198160856031361e-27 -1.3404951095581055 -0.6554250717163086 1.4323217950229362e-17 -4.002715403615525e-18 0.0 -7.198160856031361e-27 -1.3404951095581055 -0.6554250717163086 1.4323217950229362e-17 -4.002715403615525e-18 0.0 -0.45689996603624294 -0.19425007985192236 0.06654999996015865 1.5707963269999956 1.3732338186929893e-07 1.3732338193922973e-07 0.0 0.0 0.0 0.0 0.0 0.0 -2.2112442861029235e-07 -5.4373710395467885e-08 -1.2056307462159416e-06 1.0329538762433025e-22 -3.7147206332862236e-18 1.811009148180622e-08 -0.4569000000000002 -0.19424999996498832 0.06654999996015865 1.570796327 -9.389889198497584e-16 -8.408926181579869e-16 0.0 0.0 0.0 0.0 0.0 0.0 0 40.0 40.0 40.0 40.0 40.0 40.0 0.52973 7 253 253 253 253 253 253 1 0.0 0.0 0.0 0.0 1.0 0.0 0.0 48.0 -3.991840362548828 0.0 0.0 0.0 0.0 0.0 0.0 0 1
10459.952 -8.881784197001252e-16 6.245004513516506e-17 0.0 0.0 0.0 0.0 0.0 0.0 0.0 0.0 0.0 0.0 0.0 0.0 0.0 0.0 0.0 0.0 -7.19816049754143e-27 -1.3404950677837015 -0.6554250499344946 1.4323217392120607e-17 -4.002715375872051e-18 0.0 -9.451184733271898e-26 -17.600700240000002 -6.10344915 6.509902304718816e-17 -1.8192341383338472e-17 0.0 1.7484556025237907e-07 6.245004513516506e-17 0.0 0.0 0.0 0.0 0.0 0.0 0.0 0.0 0.0 0.0 -7.198160856031361e-27 -1.3404951095581055 -0.6554250717163086 1.4323217950229362e-17 -4.002715403615525e-18 0.0 -7.198160856031361e-27 -1.3404951095581055 -0.6554250717163086 1.4323217950229362e-17 -4.002715403615525e-18 0.0 -0.45689996603624294 -0.19425007985192236 0.06654999996015865 1.5707963269999956 1.3732338186929893e-07 1.3732338193922973e-07 0.0 0.0 0.0 0.0 0.0 0.0 -2.2112442861029235e-07 -5.4373710395467885e-08 -1.2056307462159416e-06 1.0329538762433025e-22 -3.7147206332862236e-18 1.811009148180622e-08 -0.4569000000000002 -0.19424999996498832 0.06654999996015865 1.570796327 -9.389889198497584e-16 -8.408926181579869e-16 0.0 0.0 0.0 0.0 0.0 0.0 0 40.0 40.0 40.0 40.0 40.0 40.0 0.490504 7 253 253 253 253 253 253 1 0.0 0.0 0.0 0.0 1.0 0.0 0.0 48.0 -3.991840362548828 0.0 0.0 0.0 0.0 0.0 0.0 0 1
10459.96 -8.881784197001252e-16 6.245004513516506e-17 0.0 0.0 0.0 0.0 0.0 0.0 0.0 0.0 0.0 0.0 0.0 0.0 0.0 0.0 0.0 0.0 -7.19816049754143e-27 -1.3404950677837015 -0.6554250499344946 1.4323217392120607e-17 -4.002715375872051e-18 0.0 -9.451184733271898e-26 -17.600700240000002 -6.10344915 6.509902304718816e-17 -1.8192341383338472e-17 0.0 1.7484556025237907e-07 6.245004513516506e-17 0.0 0.0 0.0 0.0 0.0 0.0 0.0 0.0 0.0 0.0 -7.198160856031361e-27 -1.3404951095581055 -0.6554250717163086 1.4323217950229362e-17 -4.002715403615525e-18 0.0 -7.198160856031361e-27 -1.3404951095581055 -0.6554250717163086 1.4323217950229362e-17 -4.002715403615525e-18 0.0 -0.45689996603624294 -0.19425007985192236 0.06654999996015865 1.5707963269999956 1.3732338186929893e-07 1.3732338193922973e-07 0.0 0.0 0.0 0.0 0.0 0.0 -2.2112442861029235e-07 -5.4373710395467885e-08 -1.2056307462159416e-06 1.0329538762433025e-22 -3.7147206332862236e-18 1.811009148180622e-08 -0.4569000000000002 -0.19424999996498832 0.06654999996015865 1.570796327 -9.389889198497584e-16 -8.408926181579869e-16 0.0 0.0 0.0 0.0 0.0 0.0 0 40.0 40.0 40.0 40.0 40.0 40.0 0.485828 7 253 253 253 253 253 253 1 0.0 0.0 0.0 0.0 1.0 0.0 0.0 48.0 -3.991840362548828 0.0 0.0 0.0 0.0 0.0 0.0 0 1
10459.967999999999 -8.881784197001252e-16 6.245004513516506e-17 0.0 0.0 0.0 0.0 0.0 0.0 0.0 0.0 0.0 0.0 0.0 0.0 0.0 0.0 0.0 0.0 -7.19816049754143e-27 -1.3404950677837015 -0.6554250499344946 1.4323217392120607e-17 -4.002715375872051e-18 0.0 -9.451184733271898e-26 -17.600700240000002 -6.10344915 6.509902304718816e-17 -1.8192341383338472e-17 0.0 1.7484556025237907e-07 6.245004513516506e-17 0.0 0.0 0.0 0.0 0.0 0.0 0.0 0.0 0.0 0.0 -7.198160856031361e-27 -1.3404951095581055 -0.6554250717163086 1.4323217950229362e-17 -4.002715403615525e-18 0.0 -7.198160856031361e-27 -1.3404951095581055 -0.6554250717163086 1.4323217950229362e-17 -4.002715403615525e-18 0.0 -0.45689996603624294 -0.19425007985192236 0.06654999996015865 1.5707963269999956 1.3732338186929893e-07 1.3732338193922973e-07 0.0 0.0 0.0 0.0 0.0 0.0 -2.2112442861029235e-07 -5.4373710395467885e-08 -1.2056307462159416e-06 1.0329538762433025e-22 -3.7147206332862236e-18 1.811009148180622e-08 -0.4569000000000002 -0.19424999996498832 0.06654999996015865 1.570796327 -9.389889198497584e-16 -8.408926181579869e-16 0.0 0.0 0.0 0.0 0.0 0.0 0 40.0 40.0 40.0 40.0 40.0 40.0 0.462527 7 253 253 253 253 253 253 1 0.0 0.0 0.0 0.0 1.0 0.0 0.0 48.0 -3.991840362548828 0.0 0.0 0.0 0.0 0.0 0.0 0 1
10459.975999999999 -8.881784197001252e-16 6.245004513516506e-17 0.0 0.0 0.0 0.0 0.0 0.0 0.0 0.0 0.0 0.0 0.0 0.0 0.0 0.0 0.0 0.0 -7.19816049754143e-27 -1.3404950677837015 -0.6554250499344946 1.4323217392120607e-17 -4.002715375872051e-18 0.0 -9.451184733271898e-26 -17.600700240000002 -6.10344915 6.509902304718816e-17 -1.8192341383338472e-17 0.0 1.7484556025237907e-07 6.245004513516506e-17 0.0 0.0 0.0 0.0 0.0 0.0 0.0 0.0 0.0 0.0 -7.198160856031361e-27 -1.3404951095581055 -0.6554250717163086 1.4323217950229362e-17 -4.002715403615525e-18 0.0 -7.198160856031361e-27 -1.3404951095581055 -0.6554250717163086 1.4323217950229362e-17 -4.002715403615525e-18 0.0 -0.45689996603624294 -0.19425007985192236 0.06654999996015865 1.5707963269999956 1.3732338186929893e-07 1.3732338193922973e-07 0.0 0.0 0.0 0.0 0.0 0.0 -2.2112442861029235e-07 -5.4373710395467885e-08 -1.2056307462159416e-06 1.0329538762433025e-22 -3.7147206332862236e-18 1.811009148180622e-08 -0.4569000000000002 -0.19424999996498832 0.06654999996015865 1.570796327 -9.389889198497584e-16 -8.408926181579869e-16 0.0 0.0 0.0 0.0 0.0 0.0 0 40.0 40.0 40.0 40.0 40.0 40.0 0.431302 7 253 253 253 253 253 253 1 0.0 0.0 0.0 0.0 1.0 0.0 0.0 48.0 -3.991840362548828 0.0 0.0 0.0 0.0 0.0 0.0 0 1
10459.984 -8.881784197001252e-16 6.245004513516506e-17 0.0 0.0 0.0 0.0 0.0 0.0 0.0 0.0 0.0 0.0 0.0 0.0 0.0 0.0 0.0 0.0 -7.19816049754143e-27 -1.3404950677837015 -0.6554250499344946 1.4323217392120607e-17 -4.002715375872051e-18 0.0 -9.451184733271898e-26 -17.600700240000002 -6.10344915 6.509902304718816e-17 -1.8192341383338472e-17 0.0 1.7484556025237907e-07 6.245004513516506e-17 0.0 0.0 0.0 0.0 0.0 0.0 0.0 0.0 0.0 0.0 -7.198160856031361e-27 -1.3404951095581055 -0.6554250717163086 1.4323217950229362e-17 -4.002715403615525e-18 0.0 -7.198160856031361e-27 -1.3404951095581055 -0.6554250717163086 1.4323217950229362e-17 -4.002715403615525e-18 0.0 -0.45689996603624294 -0.19425007985192236 0.06654999996015865 1.5707963269999956 1.3732338186929893e-07 1.3732338193922973e-07 0.0 0.0 0.0 0.0 0.0 0.0 -2.2112442861029235e-07 -5.4373710395467885e-08 -1.2056307462159416e-06 1.0329538762433025e-22 -3.7147206332862236e-18 1.811009148180622e-08 -0.4569000000000002 -0.19424999996498832 0.06654999996015865 1.570796327 -9.389889198497584e-16 -8.408926181579869e-16 0.0 0.0 0.0 0.0 0.0 0.0 0 40.0 40.0 40.0 40.0 40.0 40.0 0.469265 7 253 253 253 253 253 253 1 0.0 0.0 0.0 0.0 1.0 0.0 0.0 48.0 -3.991840362548828 0.0 0.0 0.0 0.0 0.0 0.0 0 1
10459.992 -8.881784197001252e-16 6.245004513516506e-17 0.0 0.0 0.0 0.0 0.0 0.0 0.0 0.0 0.0 0.0 0.0 0.0 0.0 0.0 0.0 0.0 -7.19816049754143e-27 -1.3404950677837015 -0.6554250499344946 1.4323217392120607e-17 -4.002715375872051e-18 0.0 -9.451184733271898e-26 -17.600700240000002 -6.10344915 6.509902304718816e-17 -1.8192341383338472e-17 0.0 1.7484556025237907e-07 6.245004513516506e-17 0.0 0.0 0.0 0.0 0.0 0.0 0.0 0.0 0.0 0.0 -7.198160856031361e-27 -1.3404951095581055 -0.6554250717163086 1.4323217950229362e-17 -4.002715403615525e-18 0.0 -7.198160856031361e-27 -1.3404951095581055 -0.6554250717163086 1.4323217950229362e-17 -4.002715403615525e-18 0.0 -0.45689996603624294 -0.19425007985192236 0.06654999996015865 1.5707963269999956 1.3732338186929893e-07 1.3732338193922973e-07 0.0 0.0 0.0 0.0 0.0 0.0 -2.2112442861029235e-07 -5.4373710395467885e-08 -1.2056307462159416e-06 1.0329538762433025e-22 -3.7147206332862236e-18 1.811009148180622e-08 -0.4569000000000002 -0.19424999996498832 0.06654999996015865 1.570796327 -9.389889198497584e-16 -8.408926181579869e-16 0.0 0.0 0.0 0.0 0.0 0.0 0 40.0 40.0 40.0 40.0 40.0 40.0 0.506754 7 253 253 253 253 253 253 1 0.0 0.0 0.0 0.0 1.0 0.0 0.0 48.0 -3.991840362548828 0.0 0.0 0.0 0.0 0.0 0.0 0 1
10460.0 -8.881784197001252e-16 6.245004513516506e-17 0.0 0.0 0.0 0.0 0.0 0.0 0.0 0.0 0.0 0.0 0.0 0.0 0.0 0.0 0.0 0.0 -7.19816049754143e-27 -1.3404950677837015 -0.6554250499344946 1.4323217392120607e-17 -4.002715375872051e-18 0.0 -9.451184733271898e-26 -17.600700240000002 -6.10344915 6.509902304718816e-17 -1.8192341383338472e-17 0.0 1.7484556025237907e-07 6.245004513516506e-17 0.0 0.0 0.0 0.0 0.0 0.0 0.0 0.0 0.0 0.0 -7.198160856031361e-27 -1.3404951095581055 -0.6554250717163086 1.4323217950229362e-17 -4.002715403615525e-18 0.0 -7.198160856031361e-27 -1.3404951095581055 -0.6554250717163086 1.4323217950229362e-17 -4.002715403615525e-18 0.0 -0.45689996603624294 -0.19425007985192236 0.06654999996015865 1.5707963269999956 1.3732338186929893e-07 1.3732338193922973e-07 0.0 0.0 0.0 0.0 0.0 0.0 -2.2112442861029235e-07 -5.4373710395467885e-08 -1.2056307462159416e-06 1.0329538762433025e-22 -3.7147206332862236e-18 1.811009148180622e-08 -0.4569000000000002 -0.19424999996498832 0.06654999996015865 1.570796327 -9.389889198497584e-16 -8.408926181579869e-16 0.0 0.0 0.0 0.0 0.0 0.0 0 40.0 40.0 40.0 40.0 40.0 40.0 0.45324 7 253 253 253 253 253 253 1 0.0 0.0 0.0 0.0 1.0 0.0 0.0 48.0 -3.991840362548828 0.0 0.0 0.0 0.0 0.0 0.0 0 1
10460.008 -8.881784197001252e-16 6.245004513516506e-17 0.0 0.0 0.0 0.0 0.0 0.0 0.0 0.0 0.0 0.0 0.0 0.0 0.0 0.0 0.0 0.0 -7.19816049754143e-27 -1.3404950677837015 -0.6554250499344946 1.4323217392120607e-17 -4.002715375872051e-18 0.0 -9.451184733271898e-26 -17.600700240000002 -6.10344915 6.509902304718816e-17 -1.8192341383338472e-17 0.0 1.7484556025237907e-07 6.245004513516506e-17 0.0 0.0 0.0 0.0 0.0 0.0 0.0 0.0 0.0 0.0 -7.198160856031361e-27 -1.3404951095581055 -0.6554250717163086 1.4323217950229362e-17 -4.002715403615525e-18 0.0 -7.198160856031361e-27 -1.3404951095581055 -0.6554250717163086 1.4323217950229362e-17 -4.002715403615525e-18 0.0 -0.45689996603624294 -0.19425007985192236 0.06654999996015865 1.5707963269999956 1.3732338186929893e-07 1.3732338193922973e-07 0.0 0.0 0.0 0.0 0.0 0.0 -2.2112442861029235e-07 -5.4373710395467885e-08 -1.2056307462159416e-06 1.0329538762433025e-22 -3.7147206332862236e-18 1.811009148180622e-08 -0.4569000000000002 -0.19424999996498832 0.06654999996015865 1.570796327 -9.389889198497584e-16 -8.408926181579869e-16 0.0 0.0 0.0 0.0 0.0 0.0 0 40.0 40.0 40.0 40.0 40.0 40.0 0.505841 7 253 253 253 253 253 253 1 0.0 0.0 0.0 0.0 1.0 0.0 0.0 48.0 -3.991840362548828 0.0 0.0 0.0 0.0 0.0 0.0 0 1
10460.016 -8.881784197001252e-16 6.245004513516506e-17 0.0 0.0 0.0 0.0 0.0 0.0 0.0 0.0 0.0 0.0 0.0 0.0 0.0 0.0 0.0 0.0 -7.19816049754143e-27 -1.3404950677837015 -0.6554250499344946 1.4323217392120607e-17 -4.002715375872051e-18 0.0 -9.451184733271898e-26 -17.600700240000002 -6.10344915 6.509902304718816e-17 -1.8192341383338472e-17 0.0 1.7484556025237907e-07 6.245004513516506e-17 0.0 0.0 0.0 0.0 0.0 0.0 0.0 0.0 0.0 0.0 -7.198160856031361e-27 -1.3404951095581055 -0.6554250717163086 1.4323217950229362e-17 -4.002715403615525e-18 0.0 -7.198160856031361e-27 -1.3404951095581055 -0.6554250717163086 1.4323217950229362e-17 -4.002715403615525e-18 0.0 -0.45689996603624294 -0.19425007985192236 0.06654999996015865 1.5707963269999956 1.3732338186929893e-07 1.3732338193922973e-07 0.0 0.0 0.0 0.0 0.0 0.0 -2.2112442861029235e-07 -5.4373710395467885e-08 -1.2056307462159416e-06 1.0329538762433025e-22 -3.7147206332862236e-18 1.811009148180622e-08 -0.4569000000000002 -0.19424999996498832 0.06654999996015865 1.570796327 -9.389889198497584e-16 -8.408926181579869e-16 0.0 0.0 0.0 0.0 0.0 0.0 0 40.0 40.0 40.0 40.0 40.0 40.0 0.480478 7 253 253 253 253 253 253 1 0.0 0.0 0.0 0.0 1.0 0.0 0.0 48.0 -3.991840362548828 0.0 0.0 0.0 0.0 0.0 0.0 0 1
10460.024 -8.881784197001252e-16 6.245004513516506e-17 0.0 0.0 0.0 0.0 0.0 0.0 0.0 0.0 0.0 0.0 0.0 0.0 0.0 0.0 0.0 0.0 -7.19816049754143e-27 -1.3404950677837015 -0.6554250499344946 1.4323217392120607e-17 -4.002715375872051e-18 0.0 -9.451184733271898e-26 -17.600700240000002 -6.10344915 6.509902304718816e-17 -1.8192341383338472e-17 0.0 1.7484556025237907e-07 6.245004513516506e-17 0.0 0.0 0.0 0.0 0.0 0.0 0.0 0.0 0.0 0.0 -7.198160856031361e-27 -1.3404951095581055 -0.6554250717163086 1.4323217950229362e-17 -4.002715403615525e-18 0.0 -7.198160856031361e-27 -1.3404951095581055 -0.6554250717163086 1.4323217950229362e-17 -4.002715403615525e-18 0.0 -0.45689996603624294 -0.19425007985192236 0.06654999996015865 1.5707963269999956 1.3732338186929893e-07 1.3732338193922973e-07 0.0 0.0 0.0 0.0 0.0 0.0 -2.2112442861029235e-07 -5.4373710395467885e-08 -1.2056307462159416e-06 1.0329538762433025e-22 -3.7147206332862236e-18 1.811009148180622e-08 -0.4569000000000002 -0.19424999996498832 0.06654999996015865 1.570796327 -9.389889198497584e-16 -8.408926181579869e-16 0.0 0.0 0.0 0.0 0.0 0.0 0 40.0 40.0 40.0 40.0 40.0 40.0 1.244215 7 253 253 253 253 253 253 1 0.0 0.0 0.0 0.0 1.0 0.0 0.0 48.0 -3.991840362548828 0.0 0.0 0.0 0.0 0.0 0.0 0 1
10460.032 -8.881784197001252e-16 6.245004513516506e-17 0.0 0.0 0.0 0.0 0.0 0.0 0.0 0.0 0.0 0.0 0.0 0.0 0.0 0.0 0.0 0.0 -7.19816049754143e-27 -1.3404950677837015 -0.6554250499344946 1.4323217392120607e-17 -4.002715375872051e-18 0.0 -9.451184733271898e-26 -17.600700240000002 -6.10344915 6.509902304718816e-17 -1.8192341383338472e-17 0.0 1.7484556025237907e-07 6.245004513516506e-17 0.0 0.0 0.0 0.0 0.0 0.0 0.0 0.0 0.0 0.0 -7.198160856031361e-27 -1.3404951095581055 -0.6554250717163086 1.4323217950229362e-17 -4.002715403615525e-18 0.0 -7.198160856031361e-27 -1.3404951095581055 -0.6554250717163086 1.4323217950229362e-17 -4.002715403615525e-18 0.0 -0.45689996603624294 -0.19425007985192236 0.06654999996015865 1.5707963269999956 1.3732338186929893e-07 1.3732338193922973e-07 0.0 0.0 0.0 0.0 0.0 0.0 -2.2112442861029235e-07 -5.4373710395467885e-08 -1.2056307462159416e-06 1.0329538762433025e-22 -3.7147206332862236e-18 1.811009148180622e-08 -0.4569000000000002 -0.19424999996498832 0.06654999996015865 1.570796327 -9.389889198497584e-16 -8.408926181579869e-16 0.0 0.0 0.0 0.0 0.0 0.0 0 40.0 40.0 40.0 40.0 40.0 40.0 0.433502 7 253 253 253 253 253 253 1 0.0 0.0 0.0 0.0 1.0 0.0 0.0 48.0 -3.991840362548828 0.0 0.0 0.0 0.0 0.0 0.0 0 1
10460.039999999999 -8.881784197001252e-16 6.245004513516506e-17 0.0 0.0 0.0 0.0 0.0 0.0 0.0 0.0 0.0 0.0 0.0 0.0 0.0 0.0 0.0 0.0 -7.19816049754143e-27 -1.3404950677837015 -0.6554250499344946 1.4323217392120607e-17 -4.002715375872051e-18 0.0 -9.451184733271898e-26 -17.600700240000002 -6.10344915 6.509902304718816e-17 -1.8192341383338472e-17 0.0 1.7484556025237907e-07 6.245004513516506e-17 0.0 0.0 0.0 0.0 0.0 0.0 0.0 0.0 0.0 0.0 -7.198160856031361e-27 -1.3404951095581055 -0.6554250717163086 1.4323217950229362e-17 -4.002715403615525e-18 0.0 -7.198160856031361e-27 -1.3404951095581055 -0.6554250717163086 1.4323217950229362e-17 -4.002715403615525e-18 0.0 -0.45689996603624294 -0.19425007985192236 0.06654999996015865 1.5707963269999956 1.3732338186929893e-07 1.3732338193922973e-07 0.0 0.0 0.0 0.0 0.0 0.0 -2.2112442861029235e-07 -5.4373710395467885e-08 -1.2056307462159416e-06 1.0329538762433025e-22 -3.7147206332862236e-18 1.811009148180622e-08 -0.4569000000000002 -0.19424999996498832 0.06654999996015865 1.570796327 -9.389889198497584e-16 -8.408926181579869e-16 0.0 0.0 0.0 0.0 0.0 0.0 0 40.0 40.0 40.0 40.0 40.0 40.0 0.463077 7 253 253 253 253 253 253 1 0.0 0.0 0.0 0.0 1.0 0.0 0.0 48.0 -3.991840362548828 0.0 0.0 0.0 0.0 0.0 0.0 0 1
10460.047999999999 -8.881784197001252e-16 6.245004513516506e-17 0.0 0.0 0.0 0.0 0.0 0.0 0.0 0.0 0.0 0.0 0.0 0.0 0.0 0.0 0.0 0.0 -7.19816049754143e-27 -1.3404950677837015 -0.6554250499344946 1.4323217392120607e-17 -4.002715375872051e-18 0.0 -9.451184733271898e-26 -17.600700240000002 -6.10344915 6.509902304718816e-17 -1.8192341383338472e-17 0.0 1.7484556025237907e-07 6.245004513516506e-17 0.0 0.0 0.0 0.0 0.0 0.0 0.0 0.0 0.0 0.0 -7.198160856031361e-27 -1.3404951095581055 -0.6554250717163086 1.4323217950229362e-17 -4.002715403615525e-18 0.0 -7.198160856031361e-27 -1.3404951095581055 -0.6554250717163086 1.4323217950229362e-17 -4.002715403615525e-18 0.0 -0.45689996603624294 -0.19425007985192236 0.06654999996015865 1.5707963269999956 1.3732338186929893e-07 1.3732338193922973e-07 0.0 0.0 0.0 0.0 0.0 0.0 -2.2112442861029235e-07 -5.4373710395467885e-08 -1.2056307462159416e-06 1.0329538762433025e-22 -3.7147206332862236e-18 1.811009148180622e-08 -0.4569000000000002 -0.19424999996498832 0.06654999996015865 1.570796327 -9.389889198497584e-16 -8.408926181579869e-16 0.0 0.0 0.0 0.0 0.0 0.0 0 40.0 40.0 40.0 40.0 40.0 40.0 1.016971 7 253 253 253 253 253 253 1 0.0 0.0 0.0 0.0 1.0 0.0 0.0 48.0 -3.991840362548828 0.0 0.0 0.0 0.0 0.0 0.0 0 1
10460.055999999999 -8.881784197001252e-16 6.245004513516506e-17 0.0 0.0 0.0 0.0 0.0 0.0 0.0 0.0 0.0 0.0 0.0 0.0 0.0 0.0 0.0 0.0 -7.19816049754143e-27 -1.3404950677837015 -0.6554250499344946 1.4323217392120607e-17 -4.002715375872051e-18 0.0 -9.451184733271898e-26 -17.600700240000002 -6.10344915 6.509902304718816e-17 -1.8192341383338472e-17 0.0 1.7484556025237907e-07 6.245004513516506e-17 0.0 0.0 0.0 0.0 0.0 0.0 0.0 0.0 0.0 0.0 -7.198160856031361e-27 -1.3404951095581055 -0.6554250717163086 1.4323217950229362e-17 -4.002715403615525e-18 0.0 -7.198160856031361e-27 -1.3404951095581055 -0.6554250717163086 1.4323217950229362e-17 -4.002715403615525e-18 0.0 -0.45689996603624294 -0.19425007985192236 0.06654999996015865 1.5707963269999956 1.3732338186929893e-07 1.3732338193922973e-07 0.0 0.0 0.0 0.0 0.0 0.0 -2.2112442861029235e-07 -5.4373710395467885e-08 -1.2056307462159416e-06 1.0329538762433025e-22 -3.7147206332862236e-18 1.811009148180622e-08 -0.4569000000000002 -0.19424999996498832 0.06654999996015865 1.570796327 -9.389889198497584e-16 -8.408926181579869e-16 0.0 0.0 0.0 0.0 0.0 0.0 0 40.0 40.0 40.0 40.0 40.0 40.0 0.512842 7 253 253 253 253 253 253 1 0.0 0.0 0.0 0.0 1.0 0.0 0.0 48.0 -3.991840362548828 0.0 0.0 0.0 0.0 0.0 0.0 0 1
10460.064 -8.881784197001252e-16 6.245004513516506e-17 0.0 0.0 0.0 0.0 0.0 0.0 0.0 0.0 0.0 0.0 0.0 0.0 0.0 0.0 0.0 0.0 -7.19816049754143e-27 -1.3404950677837015 -0.6554250499344946 1.4323217392120607e-17 -4.002715375872051e-18 0.0 -9.451184733271898e-26 -17.600700240000002 -6.10344915 6.509902304718816e-17 -1.8192341383338472e-17 0.0 1.7484556025237907e-07 6.245004513516506e-17 0.0 0.0 0.0 0.0 0.0 0.0 0.0 0.0 0.0 0.0 -7.198160856031361e-27 -1.3404951095581055 -0.6554250717163086 1.4323217950229362e-17 -4.002715403615525e-18 0.0 -7.198160856031361e-27 -1.3404951095581055 -0.6554250717163086 1.4323217950229362e-17 -4.002715403615525e-18 0.0 -0.45689996603624294 -0.19425007985192236 0.06654999996015865 1.5707963269999956 1.3732338186929893e-07 1.3732338193922973e-07 0.0 0.0 0.0 0.0 0.0 0.0 -2.2112442861029235e-07 -5.4373710395467885e-08 -1.2056307462159416e-06 1.0329538762433025e-22 -3.7147206332862236e-18 1.811009148180622e-08 -0.4569000000000002 -0.19424999996498832 0.06654999996015865 1.570796327 -9.389889198497584e-16 -8.408926181579869e-16 0.0 0.0 0.0 0.0 0.0 0.0 0 40.0 40.0 40.0 40.0 40.0 40.0 0.503229 7 253 253 253 253 253 253 1 0.0 0.0 0.0 0.0 1.0 0.0 0.0 48.0 -3.991840362548828 0.0 0.0 0.0 0.0 0.0 0.0 0 1
10460.072 -8.881784197001252e-16 6.245004513516506e-17 0.0 0.0 0.0 0.0 0.0 0.0 0.0 0.0 0.0 0.0 0.0 0.0 0.0 0.0 0.0 0.0 -7.19816049754143e-27 -1.3404950677837015 -0.6554250499344946 1.4323217392120607e-17 -4.002715375872051e-18 0.0 -9.451184733271898e-26 -17.600700240000002 -6.10344915 6.509902304718816e-17 -1.8192341383338472e-17 0.0 1.7484556025237907e-07 6.245004513516506e-17 0.0 0.0 0.0 0.0 0.0 0.0 0.0 0.0 0.0 0.0 -7.198160856031361e-27 -1.3404951095581055 -0.6554250717163086 1.4323217950229362e-17 -4.002715403615525e-18 0.0 -7.198160856031361e-27 -1.3404951095581055 -0.6554250717163086 1.4323217950229362e-17 -4.002715403615525e-18 0.0 -0.45689996603624294 -0.19425007985192236 0.06654999996015865 1.5707963269999956 1.3732338186929893e-07 1.3732338193922973e-07 0.0 0.0 0.0 0.0 0.0 0.0 -2.2112442861029235e-07 -5.4373710395467885e-08 -1.2056307462159416e-06 1.0329538762433025e-22 -3.7147206332862236e-18 1.811009148180622e-08 -0.4569000000000002 -0.19424999996498832 0.06654999996015865 1.570796327 -9.389889198497584e-16 -8.408926181579869e-16 0.0 0.0 0.0 0.0 0.0 0.0 0 40.0 40.0 40.0 40.0 40.0 40.0 0.499466 7 253 253 253 253 253 253 1 0.0 0.0 0.0 0.0 1.0 0.0 0.0 48.0 -3.991840362548828 0.0 0.0 0.0 0.0 0.0 0.0 0 1
10460.08 -8.881784197001252e-16 6.245004513516506e-17 0.0 0.0 0.0 0.0 0.0 0.0 0.0 0.0 0.0 0.0 0.0 0.0 0.0 0.0 0.0 0.0 -7.19816049754143e-27 -1.3404950677837015 -0.6554250499344946 1.4323217392120607e-17 -4.002715375872051e-18 0.0 -9.451184733271898e-26 -17.600700240000002 -6.10344915 6.509902304718816e-17 -1.8192341383338472e-17 0.0 1.7484556025237907e-07 6.245004513516506e-17 0.0 0.0 0.0 0.0 0.0 0.0 0.0 0.0 0.0 0.0 -7.198160856031361e-27 -1.3404951095581055 -0.6554250717163086 1.4323217950229362e-17 -4.002715403615525e-18 0.0 -7.198160856031361e-27 -1.3404951095581055 -0.6554250717163086 1.4323217950229362e-17 -4.002715403615525e-18 0.0 -0.45689996603624294 -0.19425007985192236 0.06654999996015865 1.5707963269999956 1.3732338186929893e-07 1.3732338193922973e-07 0.0 0.0 0.0 0.0 0.0 0.0 -2.2112442861029235e-07 -5.4373710395467885e-08 -1.2056307462159416e-06 1.0329538762433025e-22 -3.7147206332862236e-18 1.811009148180622e-08 -0.4569000000000002 -0.19424999996498832 0.06654999996015865 1.570796327 -9.389889198497584e-16 -8.408926181579869e-16 0.0 0.0 0.0 0.0 0.0 0.0 0 40.0 40.0 40.0 40.0 40.0 40.0 0.476815 7 253 253 253 253 253 253 1 0.0 0.0 0.0 0.0 1.0 0.0 0.0 48.0 -3.991840362548828 0.0 0.0 0.0 0.0 0.0 0.0 0 1
10460.088 -8.881784197001252e-16 6.245004513516506e-17 0.0 0.0 0.0 0.0 0.0 0.0 0.0 0.0 0.0 0.0 0.0 0.0 0.0 0.0 0.0 0.0 -7.19816049754143e-27 -1.3404950677837015 -0.6554250499344946 1.4323217392120607e-17 -4.002715375872051e-18 0.0 -9.451184733271898e-26 -17.600700240000002 -6.10344915 6.509902304718816e-17 -1.8192341383338472e-17 0.0 1.7484556025237907e-07 6.245004513516506e-17 0.0 0.0 0.0 0.0 0.0 0.0 0.0 0.0 0.0 0.0 -7.198160856031361e-27 -1.3404951095581055 -0.6554250717163086 1.4323217950229362e-17 -4.002715403615525e-18 0.0 -7.198160856031361e-27 -1.3404951095581055 -0.6554250717163086 1.4323217950229362e-17 -4.002715403615525e-18 0.0 -0.45689996603624294 -0.19425007985192236 0.06654999996015865 1.5707963269999956 1.3732338186929893e-07 1.3732338193922973e-07 0.0 0.0 0.0 0.0 0.0 0.0 -2.2112442861029235e-07 -5.4373710395467885e-08 -1.2056307462159416e-06 1.0329538762433025e-22 -3.7147206332862236e-18 1.811009148180622e-08 -0.4569000000000002 -0.19424999996498832 0.06654999996015865 1.570796327 -9.389889198497584e-16 -8.408926181579869e-16 0.0 0.0 0.0 0.0 0.0 0.0 0 40.0 40.0 40.0 40.0 40.0 40.0 0.492204 7 253 253 253 253 253 253 1 0.0 0.0 0.0 0.0 1.0 0.0 0.0 48.0 -3.991840362548828 0.0 0.0 0.0 0.0 0.0 0.0 0 1
10460.096 -8.881784197001252e-16 6.245004513516506e-17 0.0 0.0 0.0 0.0 0.0 0.0 0.0 0.0 0.0 0.0 0.0 0.0 0.0 0.0 0.0 0.0 -7.19816049754143e-27 -1.3404950677837015 -0.6554250499344946 1.4323217392120607e-17 -4.002715375872051e-18 0.0 -9.451184733271898e-26 -17.600700240000002 -6.10344915 6.509902304718816e-17 -1.8192341383338472e-17 0.0 1.7484556025237907e-07 6.245004513516506e-17 0.0 0.0 0.0 0.0 0.0 0.0 0.0 0.0 0.0 0.0 -7.198160856031361e-27 -1.3404951095581055 -0.6554250717163086 1.4323217950229362e-17 -4.002715403615525e-18 0.0 -7.198160856031361e-27 -1.3404951095581055 -0.6554250717163086 1.4323217950229362e-17 -4.002715403615525e-18 0.0 -0.45689996603624294 -0.19425007985192236 0.06654999996015865 1.5707963269999956 1.3732338186929893e-07 1.3732338193922973e-07 0.0 0.0 0.0 0.0 0.0 0.0 -2.2112442861029235e-07 -5.4373710395467885e-08 -1.2056307462159416e-06 1.0329538762433025e-22 -3.7147206332862236e-18 1.811009148180622e-08 -0.4569000000000002 -0.19424999996498832 0.06654999996015865 1.570796327 -9.389889198497584e-16 -8.408926181579869e-16 0.0 0.0 0.0 0.0 0.0 0.0 0 40.0 40.0 40.0 40.0 40.0 40.0 0.544405 7 253 253 253 253 253 253 1 0.0 0.0 0.0 0.0 1.0 0.0 0.0 48.0 -3.991840362548828 0.0 0.0 0.0 0.0 0.0 0.0 0 1
10460.104 -8.881784197001252e-16 6.245004513516506e-17 0.0 0.0 0.0 0.0 0.0 0.0 0.0 0.0 0.0 0.0 0.0 0.0 0.0 0.0 0.0 0.0 -7.19816049754143e-27 -1.3404950677837015 -0.6554250499344946 1.4323217392120607e-17 -4.002715375872051e-18 0.0 -9.451184733271898e-26 -17.600700240000002 -6.10344915 6.509902304718816e-17 -1.8192341383338472e-17 0.0 1.7484556025237907e-07 6.245004513516506e-17 0.0 0.0 0.0 0.0 0.0 0.0 0.0 0.0 0.0 0.0 -7.198160856031361e-27 -1.3404951095581055 -0.6554250717163086 1.4323217950229362e-17 -4.002715403615525e-18 0.0 -7.198160856031361e-27 -1.3404951095581055 -0.6554250717163086 1.4323217950229362e-17 -4.002715403615525e-18 0.0 -0.45689996603624294 -0.19425007985192236 0.06654999996015865 1.5707963269999956 1.3732338186929893e-07 1.3732338193922973e-07 0.0 0.0 0.0 0.0 0.0 0.0 -2.2112442861029235e-07 -5.4373710395467885e-08 -1.2056307462159416e-06 1.0329538762433025e-22 -3.7147206332862236e-18 1.811009148180622e-08 -0.4569000000000002 -0.19424999996498832 0.06654999996015865 1.570796327 -9.389889198497584e-16 -8.408926181579869e-16 0.0 0.0 0.0 0.0 0.0 0.0 0 40.0 40.0 40.0 40.0 40.0 40.0 0.427252 7 253 253 253 253 253 253 1 0.0 0.0 0.0 0.0 1.0 0.0 0.0 48.0 -3.991840362548828 0.0 0.0 0.0 0.0 0.0 0.0 0 1
10460.112 -8.881784197001252e-16 6.245004513516506e-17 0.0 0.0 0.0 0.0 0.0 0.0 0.0 0.0 0.0 0.0 0.0 0.0 0.0 0.0 0.0 0.0 -7.19816049754143e-27 -1.3404950677837015 -0.6554250499344946 1.4323217392120607e-17 -4.002715375872051e-18 0.0 -9.451184733271898e-26 -17.600700240000002 -6.10344915 6.509902304718816e-17 -1.8192341383338472e-17 0.0 1.7484556025237907e-07 6.245004513516506e-17 0.0 0.0 0.0 0.0 0.0 0.0 0.0 0.0 0.0 0.0 -7.198160856031361e-27 -1.3404951095581055 -0.6554250717163086 1.4323217950229362e-17 -4.002715403615525e-18 0.0 -7.198160856031361e-27 -1.3404951095581055 -0.6554250717163086 1.4323217950229362e-17 -4.002715403615525e-18 0.0 -0.45689996603624294 -0.19425007985192236 0.06654999996015865 1.5707963269999956 1.3732338186929893e-07 1.3732338193922973e-07 0.0 0.0 0.0 0.0 0.0 0.0 -2.2112442861029235e-07 -5.4373710395467885e-08 -1.2056307462159416e-06 1.0329538762433025e-22 -3.7147206332862236e-18 1.811009148180622e-08 -0.4569000000000002 -0.19424999996498832 0.06654999996015865 1.570796327 -9.389889198497584e-16 -8.408926181579869e-16 0.0 0.0 0.0 0.0 0.0 0.0 0 40.0 40.0 40.0 40.0 40.0 40.0 0.54633 7 253 253 253 253 253 253 1 0.0 0.0 0.0 0.0 1.0 0.0 0.0 48.0 -3.991840362548828 0.0 0.0 0.0 0.0 0.0 0.0 0 1
10460.119999999999 -8.881784197001252e-16 6.245004513516506e-17 0.0 0.0 0.0 0.0 0.0 0.0 0.0 0.0 0.0 0.0 0.0 0.0 0.0 0.0 0.0 0.0 -7.19816049754143e-27 -1.3404950677837015 -0.6554250499344946 1.4323217392120607e-17 -4.002715375872051e-18 0.0 -9.451184733271898e-26 -17.600700240000002 -6.10344915 6.509902304718816e-17 -1.8192341383338472e-17 0.0 1.7484556025237907e-07 6.245004513516506e-17 0.0 0.0 0.0 0.0 0.0 0.0 0.0 0.0 0.0 0.0 -7.198160856031361e-27 -1.3404951095581055 -0.6554250717163086 1.4323217950229362e-17 -4.002715403615525e-18 0.0 -7.198160856031361e-27 -1.3404951095581055 -0.6554250717163086 1.4323217950229362e-17 -4.002715403615525e-18 0.0 -0.45689996603624294 -0.19425007985192236 0.06654999996015865 1.5707963269999956 1.3732338186929893e-07 1.3732338193922973e-07 0.0 0.0 0.0 0.0 0.0 0.0 -2.2112442861029235e-07 -5.4373710395467885e-08 -1.2056307462159416e-06 1.0329538762433025e-22 -3.7147206332862236e-18 1.811009148180622e-08 -0.4569000000000002 -0.19424999996498832 0.06654999996015865 1.570796327 -9.389889198497584e-16 -8.408926181579869e-16 0.0 0.0 0.0 0.0 0.0 0.0 0 40.0 40.0 40.0 40.0 40.0 40.0 0.45429 7 253 253 253 253 253 253 1 0.0 0.0 0.0 0.0 1.0 0.0 0.0 48.0 -3.991840362548828 0.0 0.0 0.0 0.0 0.0 0.0 0 1
10460.127999999999 -8.881784197001252e-16 6.245004513516506e-17 0.0 0.0 0.0 0.0 0.0 0.0 0.0 0.0 0.0 0.0 0.0 0.0 0.0 0.0 0.0 0.0 -7.19816049754143e-27 -1.3404950677837015 -0.6554250499344946 1.4323217392120607e-17 -4.002715375872051e-18 0.0 -9.451184733271898e-26 -17.600700240000002 -6.10344915 6.509902304718816e-17 -1.8192341383338472e-17 0.0 1.7484556025237907e-07 6.245004513516506e-17 0.0 0.0 0.0 0.0 0.0 0.0 0.0 0.0 0.0 0.0 -7.198160856031361e-27 -1.3404951095581055 -0.6554250717163086 1.4323217950229362e-17 -4.002715403615525e-18 0.0 -7.198160856031361e-27 -1.3404951095581055 -0.6554250717163086 1.4323217950229362e-17 -4.002715403615525e-18 0.0 -0.45689996603624294 -0.19425007985192236 0.06654999996015865 1.5707963269999956 1.3732338186929893e-07 1.3732338193922973e-07 0.0 0.0 0.0 0.0 0.0 0.0 -2.2112442861029235e-07 -5.4373710395467885e-08 -1.2056307462159416e-06 1.0329538762433025e-22 -3.7147206332862236e-18 1.811009148180622e-08 -0.4569000000000002 -0.19424999996498832 0.06654999996015865 1.570796327 -9.389889198497584e-16 -8.408926181579869e-16 0.0 0.0 0.0 0.0 0.0 0.0 0 40.0 40.0 40.0 40.0 40.0 40.0 0.429326 7 253 253 253 253 253 253 1 0.0 0.0 0.0 0.0 1.0 0.0 0.0 48.0 -3.991840362548828 0.0 0.0 0.0 0.0 0.0 0.0 0 1
10460.136 -8.881784197001252e-16 6.245004513516506e-17 0.0 0.0 0.0 0.0 0.0 0.0 0.0 0.0 0.0 0.0 0.0 0.0 0.0 0.0 0.0 0.0 -7.19816049754143e-27 -1.3404950677837015 -0.6554250499344946 1.4323217392120607e-17 -4.002715375872051e-18 0.0 -9.451184733271898e-26 -17.600700240000002 -6.10344915 6.509902304718816e-17 -1.8192341383338472e-17 0.0 1.7484556025237907e-07 6.245004513516506e-17 0.0 0.0 0.0 0.0 0.0 0.0 0.0 0.0 0.0 0.0 -7.198160856031361e-27 -1.3404951095581055 -0.6554250717163086 1.4323217950229362e-17 -4.002715403615525e-18 0.0 -7.198160856031361e-27 -1.3404951095581055 -0.6554250717163086 1.4323217950229362e-17 -4.002715403615525e-18 0.0 -0.45689996603624294 -0.19425007985192236 0.06654999996015865 1.5707963269999956 1.3732338186929893e-07 1.3732338193922973e-07 0.0 0.0 0.0 0.0 0.0 0.0 -2.2112442861029235e-07 -5.4373710395467885e-08 -1.2056307462159416e-06 1.0329538762433025e-22 -3.7147206332862236e-18 1.811009148180622e-08 -0.4569000000000002 -0.19424999996498832 0.06654999996015865 1.570796327 -9.389889198497584e-16 -8.408926181579869e-16 0.0 0.0 0.0 0.0 0.0 0.0 0 40.0 40.0 40.0 40.0 40.0 40.0 0.527942 7 253 253 253 253 253 253 1 0.0 0.0 0.0 0.0 1.0 0.0 0.0 48.0 -3.991840362548828 0.0 0.0 0.0 0.0 0.0 0.0 0 1
10460.144 -8.881784197001252e-16 6.245004513516506e-17 0.0 0.0 0.0 0.0 0.0 0.0 0.0 0.0 0.0 0.0 0.0 0.0 0.0 0.0 0.0 0.0 -7.19816049754143e-27 -1.3404950677837015 -0.6554250499344946 1.4323217392120607e-17 -4.002715375872051e-18 0.0 -9.451184733271898e-26 -17.600700240000002 -6.10344915 6.509902304718816e-17 -1.8192341383338472e-17 0.0 1.7484556025237907e-07 6.245004513516506e-17 0.0 0.0 0.0 0.0 0.0 0.0 0.0 0.0 0.0 0.0 -7.198160856031361e-27 -1.3404951095581055 -0.6554250717163086 1.4323217950229362e-17 -4.002715403615525e-18 0.0 -7.198160856031361e-27 -1.3404951095581055 -0.6554250717163086 1.4323217950229362e-17 -4.002715403615525e-18 0.0 -0.45689996603624294 -0.19425007985192236 0.06654999996015865 1.5707963269999956 1.3732338186929893e-07 1.3732338193922973e-07 0.0 0.0 0.0 0.0 0.0 0.0 -2.2112442861029235e-07 -5.4373710395467885e-08 -1.2056307462159416e-06 1.0329538762433025e-22 -3.7147206332862236e-18 1.811009148180622e-08 -0.4569000000000002 -0.19424999996498832 0.06654999996015865 1.570796327 -9.389889198497584e-16 -8.408926181579869e-16 0.0 0.0 0.0 0.0 0.0 0.0 0 40.0 40.0 40.0 40.0 40.0 40.0 0.503353 7 253 253 253 253 253 253 1 0.0 0.0 0.0 0.0 1.0 0.0 0.0 48.0 -3.991840362548828 0.0 0.0 0.0 0.0 0.0 0.0 0 1
10460.152 -8.881784197001252e-16 6.245004513516506e-17 0.0 0.0 0.0 0.0 0.0 0.0 0.0 0.0 0.0 0.0 0.0 0.0 0.0 0.0 0.0 0.0 -7.19816049754143e-27 -1.3404950677837015 -0.6554250499344946 1.4323217392120607e-17 -4.002715375872051e-18 0.0 -9.451184733271898e-26 -17.600700240000002 -6.10344915 6.509902304718816e-17 -1.8192341383338472e-17 0.0 1.7484556025237907e-07 6.245004513516506e-17 0.0 0.0 0.0 0.0 0.0 0.0 0.0 0.0 0.0 0.0 -7.198160856031361e-27 -1.3404951095581055 -0.6554250717163086 1.4323217950229362e-17 -4.002715403615525e-18 0.0 -7.198160856031361e-27 -1.3404951095581055 -0.6554250717163086 1.4323217950229362e-17 -4.002715403615525e-18 0.0 -0.45689996603624294 -0.19425007985192236 0.06654999996015865 1.5707963269999956 1.3732338186929893e-07 1.3732338193922973e-07 0.0 0.0 0.0 0.0 0.0 0.0 -2.2112442861029235e-07 -5.4373710395467885e-08 -1.2056307462159416e-06 1.0329538762433025e-22 -3.7147206332862236e-18 1.811009148180622e-08 -0.4569000000000002 -0.19424999996498832 0.06654999996015865 1.570796327 -9.389889198497584e-16 -8.408926181579869e-16 0.0 0.0 0.0 0.0 0.0 0.0 0 40.0 40.0 40.0 40.0 40.0 40.0 0.479053 7 253 253 253 253 253 253 1 0.0 0.0 0.0 0.0 1.0 0.0 0.0 48.0 -3.991840362548828 0.0 0.0 0.0 0.0 0.0 0.0 0 1
10460.16 -8.881784197001252e-16 6.245004513516506e-17 0.0 0.0 0.0 0.0 0.0 0.0 0.0 0.0 0.0 0.0 0.0 0.0 0.0 0.0 0.0 0.0 -7.19816049754143e-27 -1.3404950677837015 -0.6554250499344946 1.4323217392120607e-17 -4.002715375872051e-18 0.0 -9.451184733271898e-26 -17.600700240000002 -6.10344915 6.509902304718816e-17 -1.8192341383338472e-17 0.0 1.7484556025237907e-07 6.245004513516506e-17 0.0 0.0 0.0 0.0 0.0 0.0 0.0 0.0 0.0 0.0 -7.198160856031361e-27 -1.3404951095581055 -0.6554250717163086 1.4323217950229362e-17 -4.002715403615525e-18 0.0 -7.198160856031361e-27 -1.3404951095581055 -0.6554250717163086 1.4323217950229362e-17 -4.002715403615525e-18 0.0 -0.45689996603624294 -0.19425007985192236 0.06654999996015865 1.5707963269999956 1.3732338186929893e-07 1.3732338193922973e-07 0.0 0.0 0.0 0.0 0.0 0.0 -2.2112442861029235e-07 -5.4373710395467885e-08 -1.2056307462159416e-06 1.0329538762433025e-22 -3.7147206332862236e-18 1.811009148180622e-08 -0.4569000000000002 -0.19424999996498832 0.06654999996015865 1.570796327 -9.389889198497584e-16 -8.408926181579869e-16 0.0 0.0 0.0 0.0 0.0 0.0 0 40.0 40.0 40.0 40.0 40.0 40.0 0.484491 7 253 253 253 253 253 253 1 0.0 0.0 0.0 0.0 1.0 0.0 0.0 48.0 -3.991840362548828 0.0 0.0 0.0 0.0 0.0 0.0 0 1
10460.168 -8.881784197001252e-16 6.245004513516506e-17 0.0 0.0 0.0 0.0 0.0 0.0 0.0 0.0 0.0 0.0 0.0 0.0 0.0 0.0 0.0 0.0 -7.19816049754143e-27 -1.3404950677837015 -0.6554250499344946 1.4323217392120607e-17 -4.002715375872051e-18 0.0 -9.451184733271898e-26 -17.600700240000002 -6.10344915 6.509902304718816e-17 -1.8192341383338472e-17 0.0 1.7484556025237907e-07 6.245004513516506e-17 0.0 0.0 0.0 0.0 0.0 0.0 0.0 0.0 0.0 0.0 -7.198160856031361e-27 -1.3404951095581055 -0.6554250717163086 1.4323217950229362e-17 -4.002715403615525e-18 0.0 -7.198160856031361e-27 -1.3404951095581055 -0.6554250717163086 1.4323217950229362e-17 -4.002715403615525e-18 0.0 -0.45689996603624294 -0.19425007985192236 0.06654999996015865 1.5707963269999956 1.3732338186929893e-07 1.3732338193922973e-07 0.0 0.0 0.0 0.0 0.0 0.0 -2.2112442861029235e-07 -5.4373710395467885e-08 -1.2056307462159416e-06 1.0329538762433025e-22 -3.7147206332862236e-18 1.811009148180622e-08 -0.4569000000000002 -0.19424999996498832 0.06654999996015865 1.570796327 -9.389889198497584e-16 -8.408926181579869e-16 0.0 0.0 0.0 0.0 0.0 0.0 0 40.0 40.0 40.0 40.0 40.0 40.0 0.479903 7 253 253 253 253 253 253 1 0.0 0.0 0.0 0.0 1.0 0.0 0.0 48.0 -3.991840362548828 0.0 0.0 0.0 0.0 0.0 0.0 0 1
10460.184 -8.881784197001252e-16 6.245004513516506e-17 0.0 0.0 0.0 0.0 0.0 0.0 0.0 0.0 0.0 0.0 0.0 0.0 0.0 0.0 0.0 0.0 -7.19816049754143e-27 -1.3404950677837015 -0.6554250499344946 1.4323217392120607e-17 -4.002715375872051e-18 0.0 -9.451184733271898e-26 -17.600700240000002 -6.10344915 6.509902304718816e-17 -1.8192341383338472e-17 0.0 1.7484556025237907e-07 6.245004513516506e-17 0.0 0.0 0.0 0.0 0.0 0.0 0.0 0.0 0.0 0.0 -7.198160856031361e-27 -1.3404951095581055 -0.6554250717163086 1.4323217950229362e-17 -4.002715403615525e-18 0.0 -7.198160856031361e-27 -1.3404951095581055 -0.6554250717163086 1.4323217950229362e-17 -4.002715403615525e-18 0.0 -0.45689996603624294 -0.19425007985192236 0.06654999996015865 1.5707963269999956 1.3732338186929893e-07 1.3732338193922973e-07 0.0 0.0 0.0 0.0 0.0 0.0 -2.2112442861029235e-07 -5.4373710395467885e-08 -1.2056307462159416e-06 1.0329538762433025e-22 -3.7147206332862236e-18 1.811009148180622e-08 -0.4569000000000002 -0.19424999996498832 0.06654999996015865 1.570796327 -9.389889198497584e-16 -8.408926181579869e-16 0.0 0.0 0.0 0.0 0.0 0.0 0 40.0 40.0 40.0 40.0 40.0 40.0 0.465115 7 253 253 253 253 253 253 1 0.0 0.0 0.0 0.0 1.0 0.0 0.0 48.0 -3.991840362548828 0.0 0.0 0.0 0.0 0.0 0.0 0 1
10460.192 -8.881784197001252e-16 6.245004513516506e-17 0.0 0.0 0.0 0.0 0.0 0.0 0.0 0.0 0.0 0.0 0.0 0.0 0.0 0.0 0.0 0.0 -7.19816049754143e-27 -1.3404950677837015 -0.6554250499344946 1.4323217392120607e-17 -4.002715375872051e-18 0.0 -9.451184733271898e-26 -17.600700240000002 -6.10344915 6.509902304718816e-17 -1.8192341383338472e-17 0.0 1.7484556025237907e-07 6.245004513516506e-17 0.0 0.0 0.0 0.0 0.0 0.0 0.0 0.0 0.0 0.0 -7.198160856031361e-27 -1.3404951095581055 -0.6554250717163086 1.4323217950229362e-17 -4.002715403615525e-18 0.0 -7.198160856031361e-27 -1.3404951095581055 -0.6554250717163086 1.4323217950229362e-17 -4.002715403615525e-18 0.0 -0.45689996603624294 -0.19425007985192236 0.06654999996015865 1.5707963269999956 1.3732338186929893e-07 1.3732338193922973e-07 0.0 0.0 0.0 0.0 0.0 0.0 -2.2112442861029235e-07 -5.4373710395467885e-08 -1.2056307462159416e-06 1.0329538762433025e-22 -3.7147206332862236e-18 1.811009148180622e-08 -0.4569000000000002 -0.19424999996498832 0.06654999996015865 1.570796327 -9.389889198497584e-16 -8.408926181579869e-16 0.0 0.0 0.0 0.0 0.0 0.0 0 40.0 40.0 40.0 40.0 40.0 40.0 0.500479 7 253 253 253 253 253 253 1 0.0 0.0 0.0 0.0 1.0 0.0 0.0 48.0 -3.991840362548828 0.0 0.0 0.0 0.0 0.0 0.0 0 1
10460.199999999999 -8.881784197001252e-16 6.245004513516506e-17 0.0 0.0 0.0 0.0 0.0 0.0 0.0 0.0 0.0 0.0 0.0 0.0 0.0 0.0 0.0 0.0 -7.19816049754143e-27 -1.3404950677837015 -0.6554250499344946 1.4323217392120607e-17 -4.002715375872051e-18 0.0 -9.451184733271898e-26 -17.600700240000002 -6.10344915 6.509902304718816e-17 -1.8192341383338472e-17 0.0 1.7484556025237907e-07 6.245004513516506e-17 0.0 0.0 0.0 0.0 0.0 0.0 0.0 0.0 0.0 0.0 -7.198160856031361e-27 -1.3404951095581055 -0.6554250717163086 1.4323217950229362e-17 -4.002715403615525e-18 0.0 -7.198160856031361e-27 -1.3404951095581055 -0.6554250717163086 1.4323217950229362e-17 -4.002715403615525e-18 0.0 -0.45689996603624294 -0.19425007985192236 0.06654999996015865 1.5707963269999956 1.3732338186929893e-07 1.3732338193922973e-07 0.0 0.0 0.0 0.0 0.0 0.0 -2.2112442861029235e-07 -5.4373710395467885e-08 -1.2056307462159416e-06 1.0329538762433025e-22 -3.7147206332862236e-18 1.811009148180622e-08 -0.4569000000000002 -0.19424999996498832 0.06654999996015865 1.570796327 -9.389889198497584e-16 -8.408926181579869e-16 0.0 0.0 0.0 0.0 0.0 0.0 0 40.0 40.0 40.0 40.0 40.0 40.0 0.45574 7 253 253 253 253 253 253 1 0.0 0.0 0.0 0.0 1.0 0.0 0.0 48.0 -3.991840362548828 0.0 0.0 0.0 0.0 0.0 0.0 0 1
10460.207999999999 -8.881784197001252e-16 6.245004513516506e-17 0.0 0.0 0.0 0.0 0.0 0.0 0.0 0.0 0.0 0.0 0.0 0.0 0.0 0.0 0.0 0.0 -7.19816049754143e-27 -1.3404950677837015 -0.6554250499344946 1.4323217392120607e-17 -4.002715375872051e-18 0.0 -9.451184733271898e-26 -17.600700240000002 -6.10344915 6.509902304718816e-17 -1.8192341383338472e-17 0.0 1.7484556025237907e-07 6.245004513516506e-17 0.0 0.0 0.0 0.0 0.0 0.0 0.0 0.0 0.0 0.0 -7.198160856031361e-27 -1.3404951095581055 -0.6554250717163086 1.4323217950229362e-17 -4.002715403615525e-18 0.0 -7.198160856031361e-27 -1.3404951095581055 -0.6554250717163086 1.4323217950229362e-17 -4.002715403615525e-18 0.0 -0.45689996603624294 -0.19425007985192236 0.06654999996015865 1.5707963269999956 1.3732338186929893e-07 1.3732338193922973e-07 0.0 0.0 0.0 0.0 0.0 0.0 -2.2112442861029235e-07 -5.4373710395467885e-08 -1.2056307462159416e-06 1.0329538762433025e-22 -3.7147206332862236e-18 1.811009148180622e-08 -0.4569000000000002 -0.19424999996498832 0.06654999996015865 1.570796327 -9.389889198497584e-16 -8.408926181579869e-16 0.0 0.0 0.0 0.0 0.0 0.0 0 40.0 40.0 40.0 40.0 40.0 40.0 0.494341 7 253 253 253 253 253 253 1 0.0 0.0 0.0 0.0 1.0 0.0 0.0 48.0 -3.991840362548828 0.0 0.0 0.0 0.0 0.0 0.0 0 1
