Fleaurent/UniversalRobot/csv/Achsen1Dreieck.csv
timestamp target_q_0 target_q_1 target_q_2 target_q_3 target_q_4 target_q_5 target_qd_0 target_qd_1 target_qd_2 target_qd_3 target_qd_4 target_qd_5 target_qdd_0 target_qdd_1 target_qdd_2 target_qdd_3 target_qdd_4 target_qdd_5
0.0 0.0 0.0 0.0 0.0 0.0 0.0 0.0 0.0 0.0 0.0 -0.0 0.0 0.15000000000000002 0.13333333333333336 0.11666666666666667 0.1 -0.08333333333333334 0.001666666666666667 
0.008 4.800000000000001e-06 4.266666666666668e-06 3.7333333333333333e-06 3.2e-06 -2.666666666666667e-06 5.333333333333334e-08 0.0012000000000000001 0.001066666666666667 0.0009333333333333333 0.0008 -0.0006666666666666668 1.3333333333333337e-05 0.15000000000000002 0.13333333333333336 0.11666666666666667 0.1 -0.08333333333333334 0.001666666666666667 
0.016 1.9200000000000003e-05 1.706666666666667e-05 1.4933333333333333e-05 1.28e-05 -1.0666666666666667e-05 2.1333333333333336e-07 0.0024000000000000002 0.002133333333333334 0.0018666666666666666 0.0016 -0.0013333333333333335 2.6666666666666673e-05 0.15000000000000002 0.13333333333333336 0.11666666666666667 0.1 -0.08333333333333334 0.001666666666666667 
0.024 4.3200000000000007e-05 3.840000000000001e-05 3.3600000000000004e-05 2.8800000000000002e-05 -2.4000000000000004e-05 4.800000000000001e-07 0.0036000000000000008 0.0032000000000000006 0.0028 0.0024000000000000002 -0.0020000000000000005 4.000000000000001e-05 0.15000000000000002 0.13333333333333336 0.11666666666666667 0.1 -0.08333333333333334 0.001666666666666667 
0.032 7.680000000000001e-05 6.826666666666668e-05 5.973333333333333e-05 5.12e-05 -4.266666666666667e-05 8.533333333333335e-07 0.0048000000000000004 0.004266666666666668 0.0037333333333333333 0.0032 -0.002666666666666667 5.333333333333335e-05 0.15000000000000002 0.13333333333333336 0.11666666666666667 0.1 -0.08333333333333334 0.001666666666666667 
0.04 0.00012000000000000003 0.0001066666666666667 9.333333333333334e-05 8e-05 -6.666666666666668e-05 1.3333333333333336e-06 0.006000000000000001 0.005333333333333335 0.004666666666666667 0.004 -0.003333333333333334 6.666666666666668e-05 0.15000000000000002 0.13333333333333336 0.11666666666666667 0.1 -0.08333333333333334 0.001666666666666667 
0.048 0.00017280000000000003 0.00015360000000000005 0.00013440000000000001 0.00011520000000000001 -9.600000000000002e-05 1.9200000000000003e-06 0.0072000000000000015 0.006400000000000001 0.0056 0.0048000000000000004 -0.004000000000000001 8.000000000000002e-05 0.15000000000000002 0.13333333333333336 0.11666666666666667 0.1 -0.08333333333333334 0.001666666666666667 
0.056 0.00023520000000000005 0.00020906666666666672 0.00018293333333333335 0.00015680000000000002 -0.0001306666666666667 2.6133333333333343e-06 0.008400000000000001 0.007466666666666668 0.006533333333333334 0.005600000000000001 -0.004666666666666667 9.333333333333336e-05 0.15000000000000002 0.13333333333333336 0.11666666666666667 0.1 -0.08333333333333334 0.001666666666666667 
0.064 0.00030720000000000004 0.0002730666666666667 0.00023893333333333333 0.0002048 -0.00017066666666666668 3.413333333333334e-06 0.009600000000000001 0.008533333333333335 0.007466666666666667 0.0064 -0.005333333333333334 0.0001066666666666667 0.15000000000000002 0.13333333333333336 0.11666666666666667 0.1 -0.08333333333333334 0.001666666666666667 
0.072 0.0003888000000000001 0.00034560000000000016 0.0003024000000000001 0.00025920000000000007 -0.00021600000000000007 4.320000000000002e-06 0.010800000000000002 0.009600000000000003 0.008400000000000001 0.0072000000000000015 -0.006000000000000001 0.00012000000000000004 0.15000000000000002 0.13333333333333336 0.11666666666666667 0.1 -0.08333333333333334 0.001666666666666667 
0.08 0.0004800000000000001 0.0004266666666666668 0.0003733333333333334 0.00032 -0.00026666666666666673 5.3333333333333345e-06 0.012000000000000002 0.01066666666666667 0.009333333333333334 0.008 -0.006666666666666668 0.00013333333333333337 0.15000000000000002 0.13333333333333336 0.11666666666666667 0.1 -0.08333333333333334 0.001666666666666667 
0.088 0.0005808 0.0005162666666666667 0.00045173333333333327 0.0003872 -0.0003226666666666667 6.453333333333334e-06 0.013200000000000002 0.011733333333333335 0.010266666666666667 0.0088 -0.007333333333333334 0.0001466666666666667 0.15000000000000002 0.13333333333333336 0.11666666666666667 0.1 -0.08333333333333334 0.001666666666666667 
0.096 0.0006912000000000001 0.0006144000000000002 0.0005376000000000001 0.00046080000000000003 -0.00038400000000000006 7.680000000000001e-06 0.014400000000000003 0.012800000000000002 0.0112 0.009600000000000001 -0.008000000000000002 0.00016000000000000004 0.15000000000000002 0.13333333333333336 0.11666666666666667 0.1 -0.08333333333333334 0.001666666666666667 
0.104 0.0008112000000000003 0.000721066666666667 0.0006309333333333335 0.0005408000000000001 -0.0004506666666666668 9.013333333333337e-06 0.015600000000000004 0.013866666666666671 0.012133333333333335 0.010400000000000001 -0.008666666666666668 0.0001733333333333334 0.15000000000000002 0.13333333333333336 0.11666666666666667 0.1 -0.08333333333333334 0.001666666666666667 
0.112 0.0009408000000000002 0.0008362666666666669 0.0007317333333333334 0.0006272000000000001 -0.0005226666666666668 1.0453333333333337e-05 0.016800000000000002 0.014933333333333337 0.013066666666666667 0.011200000000000002 -0.009333333333333334 0.00018666666666666671 0.15000000000000002 0.13333333333333336 0.11666666666666667 0.1 -0.08333333333333334 0.001666666666666667 
0.12 0.0010800000000000002 0.0009600000000000001 0.00084 0.00072 -0.0006000000000000001 1.2000000000000002e-05 0.018000000000000002 0.016000000000000004 0.014 0.012 -0.01 0.00020000000000000004 0.15000000000000002 0.13333333333333336 0.11666666666666667 0.1 -0.08333333333333334 0.001666666666666667 
0.128 0.0012288000000000002 0.001092266666666667 0.0009557333333333333 0.0008192 -0.0006826666666666667 1.3653333333333335e-05 0.019200000000000002 0.01706666666666667 0.014933333333333333 0.0128 -0.010666666666666668 0.0002133333333333334 0.15000000000000002 0.13333333333333336 0.11666666666666667 0.1 -0.08333333333333334 0.001666666666666667 
0.136 0.0013872000000000003 0.001233066666666667 0.0010789333333333334 0.0009248000000000001 -0.0007706666666666668 1.5413333333333337e-05 0.020400000000000005 0.018133333333333338 0.015866666666666668 0.013600000000000001 -0.011333333333333336 0.00022666666666666674 0.15000000000000002 0.13333333333333336 0.11666666666666667 0.1 -0.08333333333333334 0.001666666666666667 
0.144 0.0015552000000000005 0.0013824000000000006 0.0012096000000000003 0.0010368000000000003 -0.0008640000000000003 1.7280000000000007e-05 0.021600000000000005 0.019200000000000005 0.016800000000000002 0.014400000000000003 -0.012000000000000002 0.0002400000000000001 0.15000000000000002 0.13333333333333336 0.11666666666666667 0.1 -0.08333333333333334 0.001666666666666667 
0.152 0.0017328000000000003 0.001540266666666667 0.0013477333333333334 0.0011552 -0.0009626666666666668 1.9253333333333338e-05 0.022800000000000004 0.02026666666666667 0.017733333333333334 0.0152 -0.012666666666666668 0.0002533333333333334 0.15000000000000002 0.13333333333333336 0.11666666666666667 0.1 -0.08333333333333334 0.001666666666666667 
0.16 0.0019200000000000005 0.001706666666666667 0.0014933333333333335 0.00128 -0.001066666666666667 2.1333333333333338e-05 0.024000000000000004 0.02133333333333334 0.018666666666666668 0.016 -0.013333333333333336 0.00026666666666666673 0.15000000000000002 0.13333333333333336 0.11666666666666667 0.1 -0.08333333333333334 0.001666666666666667 
0.168 0.0021168000000000007 0.0018816000000000006 0.0016464000000000001 0.0014112000000000003 -0.0011760000000000002 2.3520000000000005e-05 0.025200000000000004 0.022400000000000007 0.019600000000000003 0.016800000000000002 -0.014000000000000002 0.0002800000000000001 0.15000000000000002 0.13333333333333336 0.11666666666666667 0.1 -0.08333333333333334 0.001666666666666667 
0.176 0.0023232 0.0020650666666666667 0.001806933333333333 0.0015488 -0.0012906666666666667 2.5813333333333336e-05 0.026400000000000003 0.02346666666666667 0.020533333333333334 0.0176 -0.014666666666666668 0.0002933333333333334 0.15000000000000002 0.13333333333333336 0.11666666666666667 0.1 -0.08333333333333334 0.001666666666666667 
0.184 0.0025392 0.002257066666666667 0.001974933333333333 0.0016928 -0.0014106666666666666 2.8213333333333337e-05 0.027600000000000003 0.024533333333333338 0.021466666666666665 0.0184 -0.015333333333333334 0.00030666666666666673 0.15000000000000002 0.13333333333333336 0.11666666666666667 0.1 -0.08333333333333334 0.001666666666666667 
0.192 0.0027648000000000004 0.0024576000000000008 0.0021504000000000002 0.0018432000000000001 -0.0015360000000000003 3.0720000000000004e-05 0.028800000000000006 0.025600000000000005 0.0224 0.019200000000000002 -0.016000000000000004 0.0003200000000000001 0.15000000000000002 0.13333333333333336 0.11666666666666667 0.1 -0.08333333333333334 0.001666666666666667 
0.2 0.003000000000000001 0.002666666666666668 0.002333333333333334 0.0020000000000000005 -0.0016666666666666672 3.333333333333335e-05 0.030000000000000006 0.026666666666666672 0.023333333333333334 0.020000000000000004 -0.01666666666666667 0.00033333333333333343 0.15000000000000002 0.13333333333333336 0.11666666666666667 0.1 -0.08333333333333334 0.001666666666666667 
0.208 0.0032448000000000012 0.002884266666666668 0.002523733333333334 0.0021632000000000005 -0.0018026666666666673 3.605333333333335e-05 0.03120000000000001 0.027733333333333342 0.02426666666666667 0.020800000000000003 -0.017333333333333336 0.0003466666666666668 0.15000000000000002 0.13333333333333336 0.11666666666666667 0.1 -0.08333333333333334 0.001666666666666667 
0.216 0.0034992 0.0031104 0.0027216 0.0023328 -0.001944 3.888000000000001e-05 0.032400000000000005 0.028800000000000006 0.0252 0.0216 -0.018000000000000002 0.0003600000000000001 0.15000000000000002 0.13333333333333336 0.11666666666666667 0.1 -0.08333333333333334 0.001666666666666667 
0.224 0.003763200000000001 0.0033450666666666675 0.0029269333333333336 0.0025088000000000003 -0.0020906666666666673 4.181333333333335e-05 0.033600000000000005 0.029866666666666673 0.026133333333333335 0.022400000000000003 -0.018666666666666668 0.00037333333333333343 0.15000000000000002 0.13333333333333336 0.11666666666666667 0.1 -0.08333333333333334 0.001666666666666667 
0.232 0.004036800000000001 0.0035882666666666677 0.0031397333333333336 0.0026912000000000004 -0.002242666666666667 4.4853333333333347e-05 0.034800000000000005 0.03093333333333334 0.02706666666666667 0.023200000000000002 -0.019333333333333338 0.0003866666666666668 0.15000000000000002 0.13333333333333336 0.11666666666666667 0.1 -0.08333333333333334 0.001666666666666667 
0.24 0.004320000000000001 0.0038400000000000005 0.00336 0.00288 -0.0024000000000000002 4.800000000000001e-05 0.036000000000000004 0.03200000000000001 0.028 0.024 -0.02 0.0004000000000000001 0.15000000000000002 0.13333333333333336 0.11666666666666667 0.1 -0.08333333333333334 0.001666666666666667 
0.248 0.0046128 0.004100266666666667 0.0035877333333333332 0.0030752 -0.0025626666666666667 5.125333333333334e-05 0.037200000000000004 0.033066666666666675 0.028933333333333335 0.024800000000000003 -0.02066666666666667 0.0004133333333333334 0.15000000000000002 0.13333333333333336 0.11666666666666667 0.1 -0.08333333333333334 0.001666666666666667 
0.256 0.004915200000000001 0.004369066666666668 0.0038229333333333333 0.0032768 -0.002730666666666667 5.461333333333334e-05 0.038400000000000004 0.03413333333333334 0.029866666666666666 0.0256 -0.021333333333333336 0.0004266666666666668 0.15000000000000002 0.13333333333333336 0.11666666666666667 0.1 -0.08333333333333334 0.001666666666666667 
0.264 0.005227200000000001 0.004646400000000001 0.004065600000000001 0.0034848000000000006 -0.0029040000000000008 5.808000000000002e-05 0.03960000000000001 0.03520000000000001 0.0308 0.026400000000000003 -0.022000000000000002 0.0004400000000000001 0.15000000000000002 0.13333333333333336 0.11666666666666667 0.1 -0.08333333333333334 0.001666666666666667 
0.272 0.005548800000000001 0.004932266666666668 0.004315733333333334 0.0036992000000000006 -0.003082666666666667 6.165333333333335e-05 0.04080000000000001 0.036266666666666676 0.031733333333333336 0.027200000000000002 -0.022666666666666672 0.0004533333333333335 0.15000000000000002 0.13333333333333336 0.11666666666666667 0.1 -0.08333333333333334 0.001666666666666667 
0.28 0.0058800000000000015 0.0052266666666666685 0.004573333333333334 0.003920000000000001 -0.0032666666666666677 6.533333333333335e-05 0.04200000000000001 0.03733333333333334 0.03266666666666667 0.028000000000000004 -0.023333333333333338 0.0004666666666666668 0.15000000000000002 0.13333333333333336 0.11666666666666667 0.1 -0.08333333333333334 0.001666666666666667 
0.288 0.006220800000000002 0.005529600000000003 0.004838400000000001 0.004147200000000001 -0.003456000000000001 6.912000000000003e-05 0.04320000000000001 0.03840000000000001 0.033600000000000005 0.028800000000000006 -0.024000000000000004 0.0004800000000000002 0.15000000000000002 0.13333333333333336 0.11666666666666667 0.1 -0.08333333333333334 0.001666666666666667 
0.296 0.0065712 0.005841066666666667 0.005110933333333333 0.0043808 -0.0036506666666666666 7.301333333333333e-05 0.0444 0.03946666666666667 0.03453333333333333 0.0296 -0.024666666666666667 0.0004933333333333334 0.15000000000000002 0.13333333333333336 0.11666666666666667 0.1 -0.08333333333333334 0.001666666666666667 
0.304 0.006931200000000001 0.006161066666666668 0.005390933333333334 0.0046208 -0.003850666666666667 7.701333333333335e-05 0.04560000000000001 0.04053333333333334 0.03546666666666667 0.0304 -0.025333333333333336 0.0005066666666666668 0.15000000000000002 0.13333333333333336 0.11666666666666667 0.1 -0.08333333333333334 0.001666666666666667 
0.312 0.007300800000000001 0.006489600000000002 0.0056784 0.0048672 -0.004056000000000001 8.112000000000001e-05 0.04680000000000001 0.041600000000000005 0.0364 0.031200000000000002 -0.026000000000000002 0.0005200000000000001 0.15000000000000002 0.13333333333333336 0.11666666666666667 0.1 -0.08333333333333334 0.001666666666666667 
0.32 0.007680000000000002 0.006826666666666668 0.005973333333333334 0.00512 -0.004266666666666668 8.533333333333335e-05 0.04800000000000001 0.04266666666666668 0.037333333333333336 0.032 -0.026666666666666672 0.0005333333333333335 0.15000000000000002 0.13333333333333336 0.11666666666666667 0.1 -0.08333333333333334 0.001666666666666667 
0.328 0.008068800000000003 0.007172266666666669 0.006275733333333334 0.005379200000000001 -0.004482666666666668 8.965333333333336e-05 0.04920000000000001 0.043733333333333346 0.03826666666666667 0.0328 -0.027333333333333338 0.0005466666666666668 0.15000000000000002 0.13333333333333336 0.11666666666666667 0.1 -0.08333333333333334 0.001666666666666667 
0.336 0.008467200000000003 0.0075264000000000025 0.0065856000000000005 0.005644800000000001 -0.004704000000000001 9.408000000000002e-05 0.05040000000000001 0.04480000000000001 0.039200000000000006 0.033600000000000005 -0.028000000000000004 0.0005600000000000002 0.15000000000000002 0.13333333333333336 0.11666666666666667 0.1 -0.08333333333333334 0.001666666666666667 
0.344 0.008875200000000003 0.00788906666666667 0.006902933333333335 0.005916800000000002 -0.004930666666666668 9.861333333333337e-05 0.051600000000000014 0.04586666666666668 0.04013333333333334 0.03440000000000001 -0.028666666666666674 0.0005733333333333335 0.15000000000000002 0.13333333333333336 0.11666666666666667 0.1 -0.08333333333333334 0.001666666666666667 
0.352 0.0092928 0.008260266666666667 0.007227733333333332 0.0061952 -0.005162666666666667 0.00010325333333333334 0.05280000000000001 0.04693333333333334 0.04106666666666667 0.0352 -0.029333333333333336 0.0005866666666666668 0.15000000000000002 0.13333333333333336 0.11666666666666667 0.1 -0.08333333333333334 0.001666666666666667 
0.36 0.009720000000000001 0.008640000000000002 0.00756 0.00648 -0.0054 0.00010800000000000001 0.054000000000000006 0.04800000000000001 0.041999999999999996 0.036 -0.030000000000000002 0.0006000000000000001 0.15000000000000002 0.13333333333333336 0.11666666666666667 0.1 -0.08333333333333334 0.001666666666666667 
0.368 0.0101568 0.009028266666666668 0.007899733333333332 0.0067712 -0.0056426666666666665 0.00011285333333333335 0.055200000000000006 0.049066666666666675 0.04293333333333333 0.0368 -0.03066666666666667 0.0006133333333333335 0.15000000000000002 0.13333333333333336 0.11666666666666667 0.1 -0.08333333333333334 0.001666666666666667 
0.376 0.010603200000000002 0.009425066666666669 0.008246933333333333 0.0070688 -0.005890666666666667 0.00011781333333333335 0.056400000000000006 0.05013333333333334 0.043866666666666665 0.0376 -0.03133333333333334 0.0006266666666666668 0.15000000000000002 0.13333333333333336 0.11666666666666667 0.1 -0.08333333333333334 0.001666666666666667 
0.384 0.011059200000000002 0.009830400000000003 0.008601600000000001 0.0073728000000000005 -0.006144000000000001 0.00012288000000000002 0.05760000000000001 0.05120000000000001 0.0448 0.038400000000000004 -0.03200000000000001 0.0006400000000000002 0.15000000000000002 0.13333333333333336 0.11666666666666667 0.1 -0.08333333333333334 0.001666666666666667 
0.392 0.011524800000000003 0.01024426666666667 0.008963733333333335 0.007683200000000001 -0.0064026666666666685 0.0001280533333333334 0.05880000000000001 0.05226666666666668 0.045733333333333334 0.039200000000000006 -0.03266666666666667 0.0006533333333333335 0.15000000000000002 0.13333333333333336 0.11666666666666667 0.1 -0.08333333333333334 0.001666666666666667 
0.4 0.012000000000000004 0.010666666666666672 0.009333333333333336 0.008000000000000002 -0.006666666666666669 0.0001333333333333334 0.06000000000000001 0.053333333333333344 0.04666666666666667 0.04000000000000001 -0.03333333333333334 0.0006666666666666669 0.15000000000000002 0.13333333333333336 0.11666666666666667 0.1 -0.08333333333333334 0.001666666666666667 
0.408 0.012484800000000004 0.011097600000000004 0.009710400000000001 0.008323200000000001 -0.006936000000000002 0.00013872000000000005 0.06120000000000001 0.05440000000000002 0.0476 0.0408 -0.03400000000000001 0.0006800000000000002 0.15000000000000002 0.13333333333333336 0.11666666666666667 0.1 -0.08333333333333334 0.001666666666666667 
0.416 0.012979200000000005 0.011537066666666672 0.010094933333333335 0.008652800000000002 -0.007210666666666669 0.0001442133333333334 0.06240000000000002 0.055466666666666685 0.04853333333333334 0.041600000000000005 -0.03466666666666667 0.0006933333333333336 0.15000000000000002 0.13333333333333336 0.11666666666666667 0.1 -0.08333333333333334 0.001666666666666667 
0.424 0.0134832 0.011985066666666669 0.010486933333333334 0.0089888 -0.007490666666666667 0.00014981333333333334 0.0636 0.056533333333333345 0.049466666666666666 0.0424 -0.035333333333333335 0.0007066666666666667 0.15000000000000002 0.13333333333333336 0.11666666666666667 0.1 -0.08333333333333334 0.001666666666666667 
0.432 0.0139968 0.0124416 0.0108864 0.0093312 -0.007776 0.00015552000000000003 0.06480000000000001 0.05760000000000001 0.0504 0.0432 -0.036000000000000004 0.0007200000000000002 0.15000000000000002 0.13333333333333336 0.11666666666666667 0.1 -0.08333333333333334 0.001666666666666667 
0.44 0.014520000000000002 0.012906666666666669 0.011293333333333334 0.009680000000000001 -0.008066666666666668 0.00016133333333333337 0.06600000000000002 0.05866666666666668 0.051333333333333335 0.044000000000000004 -0.036666666666666674 0.0007333333333333334 0.15000000000000002 0.13333333333333336 0.11666666666666667 0.1 -0.08333333333333334 0.001666666666666667 
0.448 0.015052800000000003 0.01338026666666667 0.011707733333333335 0.010035200000000001 -0.00836266666666667 0.0001672533333333334 0.06720000000000001 0.05973333333333335 0.05226666666666667 0.044800000000000006 -0.037333333333333336 0.0007466666666666669 0.15000000000000002 0.13333333333333336 0.11666666666666667 0.1 -0.08333333333333334 0.001666666666666667 
0.456 0.015595200000000004 0.013862400000000004 0.0121296 0.010396800000000001 -0.008664000000000002 0.00017328000000000005 0.06840000000000002 0.060800000000000014 0.053200000000000004 0.0456 -0.038000000000000006 0.0007600000000000002 0.15000000000000002 0.13333333333333336 0.11666666666666667 0.1 -0.08333333333333334 0.001666666666666667 
0.464 0.016147200000000004 0.014353066666666671 0.012558933333333334 0.010764800000000001 -0.008970666666666668 0.00017941333333333339 0.06960000000000001 0.06186666666666668 0.05413333333333334 0.046400000000000004 -0.038666666666666676 0.0007733333333333336 0.15000000000000002 0.13333333333333336 0.11666666666666667 0.1 -0.08333333333333334 0.001666666666666667 
0.472 0.016708800000000006 0.014852266666666673 0.012995733333333336 0.011139200000000002 -0.00928266666666667 0.0001856533333333334 0.07080000000000002 0.06293333333333335 0.055066666666666673 0.047200000000000006 -0.03933333333333334 0.0007866666666666669 0.15000000000000002 0.13333333333333336 0.11666666666666667 0.1 -0.08333333333333334 0.001666666666666667 
0.48 0.017280000000000004 0.015360000000000002 0.01344 0.01152 -0.009600000000000001 0.00019200000000000003 0.07200000000000001 0.06400000000000002 0.056 0.048 -0.04 0.0008000000000000001 0.15000000000000002 0.13333333333333336 0.11666666666666667 0.1 -0.08333333333333334 0.001666666666666667 
0.488 0.017860800000000003 0.01587626666666667 0.013891733333333333 0.0119072 -0.009922666666666668 0.00019845333333333337 0.07320000000000002 0.06506666666666668 0.056933333333333336 0.0488 -0.04066666666666667 0.0008133333333333334 0.15000000000000002 0.13333333333333336 0.11666666666666667 0.1 -0.08333333333333334 0.001666666666666667 
0.496 0.0184512 0.01640106666666667 0.014350933333333333 0.0123008 -0.010250666666666667 0.00020501333333333336 0.07440000000000001 0.06613333333333335 0.05786666666666667 0.049600000000000005 -0.04133333333333334 0.0008266666666666668 0.15000000000000002 0.13333333333333336 0.11666666666666667 0.1 -0.08333333333333334 0.001666666666666667 
0.504 0.019051200000000004 0.016934400000000006 0.014817600000000002 0.012700800000000002 -0.010584000000000001 0.00021168000000000006 0.07560000000000001 0.06720000000000001 0.0588 0.0504 -0.042 0.0008400000000000001 0.15000000000000002 0.13333333333333336 0.11666666666666667 0.1 -0.08333333333333334 0.001666666666666667 
0.512 0.019660800000000003 0.01747626666666667 0.015291733333333333 0.0131072 -0.010922666666666667 0.00021845333333333337 0.07680000000000001 0.06826666666666668 0.05973333333333333 0.0512 -0.04266666666666667 0.0008533333333333335 0.15000000000000002 0.13333333333333336 0.11666666666666667 0.1 -0.08333333333333334 0.001666666666666667 
0.52 0.020280000000000006 0.018026666666666673 0.015773333333333334 0.013520000000000003 -0.01126666666666667 0.0002253333333333334 0.07800000000000001 0.06933333333333334 0.06066666666666667 0.052000000000000005 -0.04333333333333334 0.0008666666666666668 0.15000000000000002 0.13333333333333336 0.11666666666666667 0.1 -0.08333333333333334 0.001666666666666667 
0.528 0.020908800000000005 0.018585600000000004 0.016262400000000003 0.013939200000000002 -0.011616000000000003 0.00023232000000000008 0.07920000000000002 0.07040000000000002 0.0616 0.05280000000000001 -0.044000000000000004 0.0008800000000000002 0.15000000000000002 0.13333333333333336 0.11666666666666667 0.1 -0.08333333333333334 0.001666666666666667 
0.536 0.021547200000000006 0.019153066666666673 0.016758933333333337 0.014364800000000004 -0.01197066666666667 0.00023941333333333344 0.08040000000000001 0.07146666666666668 0.06253333333333334 0.05360000000000001 -0.044666666666666674 0.0008933333333333335 0.15000000000000002 0.13333333333333336 0.11666666666666667 0.1 -0.08333333333333334 0.001666666666666667 
0.544 0.022195200000000005 0.019729066666666673 0.017262933333333334 0.014796800000000002 -0.012330666666666669 0.0002466133333333334 0.08160000000000002 0.07253333333333335 0.06346666666666667 0.054400000000000004 -0.045333333333333344 0.000906666666666667 0.15000000000000002 0.13333333333333336 0.11666666666666667 0.1 -0.08333333333333334 0.001666666666666667 
0.552 0.022852800000000006 0.020313600000000005 0.017774400000000003 0.015235200000000003 -0.012696000000000002 0.0002539200000000001 0.08280000000000001 0.07360000000000003 0.06440000000000001 0.055200000000000006 -0.046000000000000006 0.0009200000000000002 0.15000000000000002 0.13333333333333336 0.11666666666666667 0.1 -0.08333333333333334 0.001666666666666667 
0.56 0.023520000000000006 0.020906666666666674 0.018293333333333335 0.015680000000000003 -0.013066666666666671 0.0002613333333333334 0.08400000000000002 0.07466666666666669 0.06533333333333334 0.05600000000000001 -0.046666666666666676 0.0009333333333333336 0.15000000000000002 0.13333333333333336 0.11666666666666667 0.1 -0.08333333333333334 0.001666666666666667 
0.568 0.024196800000000008 0.021508266666666675 0.01881973333333334 0.016131200000000005 -0.013442666666666672 0.0002688533333333334 0.08520000000000003 0.07573333333333336 0.06626666666666667 0.05680000000000001 -0.047333333333333345 0.0009466666666666669 0.15000000000000002 0.13333333333333336 0.11666666666666667 0.1 -0.08333333333333334 0.001666666666666667 
0.576 0.024883200000000008 0.02211840000000001 0.019353600000000006 0.016588800000000004 -0.013824000000000005 0.0002764800000000001 0.08640000000000002 0.07680000000000002 0.06720000000000001 0.05760000000000001 -0.04800000000000001 0.0009600000000000003 0.15000000000000002 0.13333333333333336 0.11666666666666667 0.1 -0.08333333333333334 0.001666666666666667 
0.584 0.0255792 0.02273706666666667 0.019894933333333333 0.0170528 -0.014210666666666667 0.0002842133333333334 0.08760000000000001 0.07786666666666668 0.06813333333333332 0.0584 -0.04866666666666667 0.0009733333333333334 0.15000000000000002 0.13333333333333336 0.11666666666666667 0.1 -0.08333333333333334 0.001666666666666667 
0.592 0.0262848 0.023364266666666668 0.020443733333333332 0.0175232 -0.014602666666666667 0.00029205333333333334 0.0888 0.07893333333333334 0.06906666666666667 0.0592 -0.04933333333333333 0.0009866666666666667 0.15000000000000002 0.13333333333333336 0.11666666666666667 0.1 -0.08333333333333334 0.001666666666666667 
0.6 0.027000000000000003 0.024000000000000004 0.020999999999999998 0.018 -0.015000000000000001 0.00030000000000000003 0.09000000000000001 0.08000000000000002 0.06999999999999999 0.06 -0.05 0.0010000000000000002 0.15000000000000002 0.13333333333333336 0.11666666666666667 0.1 -0.08333333333333334 0.001666666666666667 
0.608 0.027724800000000004 0.02464426666666667 0.021563733333333335 0.0184832 -0.015402666666666669 0.0003080533333333334 0.09120000000000002 0.08106666666666668 0.07093333333333333 0.0608 -0.05066666666666667 0.0010133333333333335 0.15000000000000002 0.13333333333333336 0.11666666666666667 0.1 -0.08333333333333334 0.001666666666666667 
0.616 0.028459200000000004 0.025297066666666673 0.022134933333333336 0.0189728 -0.01581066666666667 0.0003162133333333334 0.09240000000000001 0.08213333333333335 0.07186666666666666 0.0616 -0.051333333333333335 0.0010266666666666668 0.15000000000000002 0.13333333333333336 0.11666666666666667 0.1 -0.08333333333333334 0.001666666666666667 
0.624 0.029203200000000006 0.025958400000000006 0.0227136 0.0194688 -0.016224000000000002 0.00032448000000000004 0.09360000000000002 0.08320000000000001 0.0728 0.062400000000000004 -0.052000000000000005 0.0010400000000000001 0.15000000000000002 0.13333333333333336 0.11666666666666667 0.1 -0.08333333333333334 0.001666666666666667 
0.632 0.029956800000000006 0.02662826666666667 0.023299733333333333 0.0199712 -0.01664266666666667 0.0003328533333333334 0.09480000000000001 0.08426666666666668 0.07373333333333333 0.0632 -0.052666666666666674 0.0010533333333333336 0.15000000000000002 0.13333333333333336 0.11666666666666667 0.1 -0.08333333333333334 0.001666666666666667 
0.64 0.030720000000000008 0.027306666666666674 0.023893333333333336 0.02048 -0.01706666666666667 0.0003413333333333334 0.09600000000000002 0.08533333333333336 0.07466666666666667 0.064 -0.053333333333333344 0.001066666666666667 0.15000000000000002 0.13333333333333336 0.11666666666666667 0.1 -0.08333333333333334 0.001666666666666667 
0.648 0.0314928 0.027993600000000004 0.0244944 0.020995200000000002 -0.017496 0.0003499200000000001 0.09720000000000002 0.08640000000000002 0.0756 0.06480000000000001 -0.054000000000000006 0.0010800000000000002 0.15000000000000002 0.13333333333333336 0.11666666666666667 0.1 -0.08333333333333334 0.001666666666666667 
0.656 0.03227520000000001 0.028689066666666676 0.025102933333333338 0.021516800000000003 -0.01793066666666667 0.00035861333333333346 0.09840000000000002 0.08746666666666669 0.07653333333333334 0.0656 -0.054666666666666676 0.0010933333333333335 0.15000000000000002 0.13333333333333336 0.11666666666666667 0.1 -0.08333333333333334 0.001666666666666667 
0.664 0.03306720000000001 0.029393066666666676 0.025718933333333336 0.022044800000000003 -0.01837066666666667 0.00036741333333333346 0.09960000000000002 0.08853333333333335 0.07746666666666667 0.0664 -0.055333333333333345 0.001106666666666667 0.15000000000000002 0.13333333333333336 0.11666666666666667 0.1 -0.08333333333333334 0.001666666666666667 
0.672 0.03386880000000001 0.03010560000000001 0.026342400000000002 0.022579200000000004 -0.018816000000000003 0.0003763200000000001 0.10080000000000001 0.08960000000000003 0.07840000000000001 0.06720000000000001 -0.05600000000000001 0.0011200000000000003 0.15000000000000002 0.13333333333333336 0.11666666666666667 0.1 -0.08333333333333334 0.001666666666666667 
0.68 0.03468000000000001 0.03082666666666668 0.02697333333333334 0.023120000000000005 -0.01926666666666667 0.0003853333333333335 0.10200000000000002 0.09066666666666669 0.07933333333333334 0.068 -0.05666666666666668 0.0011333333333333336 0.15000000000000002 0.13333333333333336 0.11666666666666667 0.1 -0.08333333333333334 0.001666666666666667 
0.688 0.03550080000000001 0.03155626666666668 0.02761173333333334 0.023667200000000006 -0.019722666666666673 0.0003944533333333335 0.10320000000000003 0.09173333333333336 0.08026666666666668 0.06880000000000001 -0.05733333333333335 0.001146666666666667 0.15000000000000002 0.13333333333333336 0.11666666666666667 0.1 -0.08333333333333334 0.001666666666666667 
0.696 0.03633120000000001 0.03229440000000001 0.028257600000000004 0.024220800000000004 -0.020184000000000004 0.0004036800000000001 0.10440000000000002 0.09280000000000002 0.08120000000000001 0.06960000000000001 -0.05800000000000001 0.0011600000000000002 0.15000000000000002 0.13333333333333336 0.11666666666666667 0.1 -0.08333333333333334 0.001666666666666667 
0.704 0.0371712 0.03304106666666667 0.02891093333333333 0.0247808 -0.020650666666666668 0.00041301333333333337 0.10560000000000001 0.09386666666666668 0.08213333333333334 0.0704 -0.05866666666666667 0.0011733333333333335 0.15000000000000002 0.13333333333333336 0.11666666666666667 0.1 -0.08333333333333334 0.001666666666666667 
0.712 0.0380208 0.03379626666666667 0.029571733333333333 0.0253472 -0.021122666666666668 0.00042245333333333336 0.1068 0.09493333333333334 0.08306666666666666 0.0712 -0.059333333333333335 0.0011866666666666668 0.15000000000000002 0.13333333333333336 0.11666666666666667 0.1 -0.08333333333333334 0.001666666666666667 
0.72 0.038880000000000005 0.03456000000000001 0.03024 0.02592 -0.0216 0.00043200000000000004 0.10800000000000001 0.09600000000000002 0.08399999999999999 0.072 -0.060000000000000005 0.0012000000000000001 0.15000000000000002 0.13333333333333336 0.11666666666666667 0.1 -0.08333333333333334 0.001666666666666667 
0.728 0.03974880000000001 0.035332266666666674 0.030915733333333334 0.0264992 -0.02208266666666667 0.00044165333333333345 0.10920000000000002 0.09706666666666668 0.08493333333333333 0.0728 -0.060666666666666674 0.0012133333333333336 0.15000000000000002 0.13333333333333336 0.11666666666666667 0.1 -0.08333333333333334 0.001666666666666667 
0.736 0.0406272 0.03611306666666667 0.03159893333333333 0.0270848 -0.022570666666666666 0.0004514133333333334 0.11040000000000001 0.09813333333333335 0.08586666666666666 0.0736 -0.06133333333333334 0.001226666666666667 0.15000000000000002 0.13333333333333336 0.11666666666666667 0.1 -0.08333333333333334 0.001666666666666667 
0.744 0.04151520000000001 0.03690240000000001 0.0322896 0.0276768 -0.023064000000000005 0.0004612800000000001 0.11160000000000002 0.09920000000000002 0.0868 0.07440000000000001 -0.062000000000000006 0.0012400000000000002 0.15000000000000002 0.13333333333333336 0.11666666666666667 0.1 -0.08333333333333334 0.001666666666666667 
0.752 0.04241280000000001 0.037700266666666676 0.03298773333333333 0.0282752 -0.02356266666666667 0.0004712533333333334 0.11280000000000001 0.10026666666666668 0.08773333333333333 0.0752 -0.06266666666666668 0.0012533333333333335 0.15000000000000002 0.13333333333333336 0.11666666666666667 0.1 -0.08333333333333334 0.001666666666666667 
0.76 0.043320000000000004 0.038506666666666675 0.03369333333333333 0.028880000000000003 -0.02406666666666667 0.00048133333333333345 0.11400000000000002 0.10133333333333336 0.08866666666666667 0.07600000000000001 -0.06333333333333334 0.001266666666666667 0.15000000000000002 0.13333333333333336 0.11666666666666667 0.1 -0.08333333333333334 0.001666666666666667 
0.768 0.04423680000000001 0.03932160000000001 0.034406400000000004 0.029491200000000002 -0.024576000000000004 0.0004915200000000001 0.11520000000000002 0.10240000000000002 0.0896 0.07680000000000001 -0.06400000000000002 0.0012800000000000003 0.15000000000000002 0.13333333333333336 0.11666666666666667 0.1 -0.08333333333333334 0.001666666666666667 
0.776 0.04516320000000001 0.04014506666666668 0.03512693333333334 0.030108800000000005 -0.02509066666666667 0.0005018133333333334 0.11640000000000002 0.10346666666666669 0.09053333333333334 0.0776 -0.06466666666666668 0.0012933333333333336 0.15000000000000002 0.13333333333333336 0.11666666666666667 0.1 -0.08333333333333334 0.001666666666666667 
0.784 0.046099200000000014 0.04097706666666668 0.03585493333333334 0.030732800000000005 -0.025610666666666674 0.0005122133333333336 0.11760000000000002 0.10453333333333335 0.09146666666666667 0.07840000000000001 -0.06533333333333334 0.001306666666666667 0.15000000000000002 0.13333333333333336 0.11666666666666667 0.1 -0.08333333333333334 0.001666666666666667 
0.792 0.04704480000000001 0.04181760000000001 0.0365904 0.0313632 -0.026136000000000006 0.0005227200000000002 0.11880000000000002 0.10560000000000003 0.09240000000000001 0.0792 -0.06600000000000002 0.0013200000000000004 0.15000000000000002 0.13333333333333336 0.11666666666666667 0.1 -0.08333333333333334 0.001666666666666667 
0.8 0.048000000000000015 0.042666666666666686 0.03733333333333334 0.03200000000000001 -0.026666666666666675 0.0005333333333333336 0.12000000000000002 0.10666666666666669 0.09333333333333334 0.08000000000000002 -0.06666666666666668 0.0013333333333333337 0.15000000000000002 0.13333333333333336 0.11666666666666667 0.1 -0.08333333333333334 0.001666666666666667 
0.808 0.04896480000000002 0.04352426666666668 0.03808373333333334 0.032643200000000004 -0.027202666666666674 0.0005440533333333336 0.12120000000000003 0.10773333333333336 0.09426666666666668 0.08080000000000001 -0.06733333333333334 0.001346666666666667 0.15000000000000002 0.13333333333333336 0.11666666666666667 0.1 -0.08333333333333334 0.001666666666666667 
0.816 0.04993920000000002 0.04439040000000002 0.038841600000000004 0.033292800000000004 -0.027744000000000008 0.0005548800000000002 0.12240000000000002 0.10880000000000004 0.0952 0.0816 -0.06800000000000002 0.0013600000000000003 0.15000000000000002 0.13333333333333336 0.11666666666666667 0.1 -0.08333333333333334 0.001666666666666667 
0.824 0.050923200000000016 0.04526506666666669 0.039606933333333344 0.03394880000000001 -0.028290666666666676 0.0005658133333333336 0.12360000000000003 0.1098666666666667 0.09613333333333335 0.08240000000000001 -0.06866666666666668 0.0013733333333333336 0.15000000000000002 0.13333333333333336 0.11666666666666667 0.1 -0.08333333333333334 0.001666666666666667 
0.832 0.05191680000000002 0.04614826666666669 0.04037973333333334 0.03461120000000001 -0.028842666666666676 0.0005768533333333336 0.12480000000000004 0.11093333333333337 0.09706666666666668 0.08320000000000001 -0.06933333333333334 0.0013866666666666671 0.15000000000000002 0.13333333333333336 0.11666666666666667 0.1 -0.08333333333333334 0.001666666666666667 
0.84 0.05292 0.047040000000000005 0.041159999999999995 0.03528 -0.0294 0.000588 0.126 0.11200000000000002 0.098 0.084 -0.07 0.0014000000000000002 0.15000000000000002 0.13333333333333336 0.11666666666666667 0.1 -0.08333333333333334 0.001666666666666667 
0.848 0.0539328 0.047940266666666675 0.041947733333333334 0.0359552 -0.02996266666666667 0.0005992533333333334 0.1272 0.11306666666666669 0.09893333333333333 0.0848 -0.07066666666666667 0.0014133333333333335 0.15000000000000002 0.13333333333333336 0.11666666666666667 0.1 -0.08333333333333334 0.001666666666666667 
0.856 0.0549552 0.04884906666666667 0.04274293333333333 0.0366368 -0.030530666666666668 0.0006106133333333334 0.12840000000000001 0.11413333333333335 0.09986666666666667 0.08560000000000001 -0.07133333333333335 0.001426666666666667 0.15000000000000002 0.13333333333333336 0.11666666666666667 0.1 -0.08333333333333334 0.001666666666666667 
0.864 0.0559872 0.0497664 0.0435456 0.0373248 -0.031104 0.0006220800000000001 0.12960000000000002 0.11520000000000002 0.1008 0.0864 -0.07200000000000001 0.0014400000000000003 0.15000000000000002 0.13333333333333336 0.11666666666666667 0.1 -0.08333333333333334 0.001666666666666667 
0.872 0.057028800000000004 0.05069226666666667 0.044355733333333335 0.0380192 -0.03168266666666667 0.0006336533333333335 0.13080000000000003 0.11626666666666668 0.10173333333333333 0.0872 -0.07266666666666667 0.0014533333333333336 0.15000000000000002 0.13333333333333336 0.11666666666666667 0.1 -0.08333333333333334 0.001666666666666667 
0.88 0.05808000000000001 0.051626666666666675 0.045173333333333336 0.038720000000000004 -0.03226666666666667 0.0006453333333333335 0.13200000000000003 0.11733333333333336 0.10266666666666667 0.08800000000000001 -0.07333333333333335 0.001466666666666667 0.15000000000000002 0.13333333333333336 0.11666666666666667 0.1 -0.08333333333333334 0.001666666666666667 
0.888 0.05914080000000001 0.052569600000000015 0.0459984 0.0394272 -0.032856 0.0006571200000000002 0.1332 0.11840000000000002 0.1036 0.0888 -0.07400000000000001 0.0014800000000000004 0.15000000000000002 0.13333333333333336 0.11666666666666667 0.1 -0.08333333333333334 0.001666666666666667 
0.896 0.06021120000000001 0.05352106666666668 0.04683093333333334 0.040140800000000004 -0.03345066666666668 0.0006690133333333336 0.13440000000000002 0.1194666666666667 0.10453333333333334 0.08960000000000001 -0.07466666666666667 0.0014933333333333337 0.15000000000000002 0.13333333333333336 0.11666666666666667 0.1 -0.08333333333333334 0.001666666666666667 
0.904 0.06129120000000001 0.05448106666666668 0.04767093333333334 0.0408608 -0.034050666666666674 0.0006810133333333335 0.13560000000000003 0.12053333333333335 0.10546666666666667 0.09040000000000001 -0.07533333333333335 0.001506666666666667 0.15000000000000002 0.13333333333333336 0.11666666666666667 0.1 -0.08333333333333334 0.001666666666666667 
0.912 0.062380800000000014 0.055449600000000016 0.0485184 0.041587200000000005 -0.034656000000000006 0.0006931200000000002 0.13680000000000003 0.12160000000000003 0.10640000000000001 0.0912 -0.07600000000000001 0.0015200000000000003 0.15000000000000002 0.13333333333333336 0.11666666666666667 0.1 -0.08333333333333334 0.001666666666666667 
0.92 0.06348000000000001 0.05642666666666668 0.04937333333333334 0.04232 -0.035266666666666675 0.0007053333333333335 0.13800000000000004 0.1226666666666667 0.10733333333333334 0.09200000000000001 -0.07666666666666667 0.0015333333333333336 0.15000000000000002 0.13333333333333336 0.11666666666666667 0.1 -0.08333333333333334 0.001666666666666667 
0.928 0.06458880000000002 0.057412266666666684 0.05023573333333334 0.043059200000000006 -0.035882666666666674 0.0007176533333333335 0.13920000000000002 0.12373333333333336 0.10826666666666668 0.09280000000000001 -0.07733333333333335 0.0015466666666666671 0.15000000000000002 0.13333333333333336 0.11666666666666667 0.1 -0.08333333333333334 0.001666666666666667 
0.936 0.06570720000000002 0.05840640000000002 0.05110560000000001 0.043804800000000005 -0.03650400000000001 0.0007300800000000002 0.14040000000000002 0.12480000000000004 0.1092 0.09360000000000002 -0.07800000000000001 0.0015600000000000004 0.15000000000000002 0.13333333333333336 0.11666666666666667 0.1 -0.08333333333333334 0.001666666666666667 
0.944 0.06683520000000003 0.05940906666666669 0.05198293333333334 0.04455680000000001 -0.03713066666666668 0.0007426133333333336 0.14160000000000003 0.1258666666666667 0.11013333333333335 0.09440000000000001 -0.07866666666666668 0.0015733333333333337 0.15000000000000002 0.13333333333333336 0.11666666666666667 0.1 -0.08333333333333334 0.001666666666666667 
0.952 0.06797280000000001 0.06042026666666669 0.05286773333333334 0.04531520000000001 -0.037762666666666674 0.0007552533333333336 0.14280000000000004 0.12693333333333337 0.11106666666666667 0.0952 -0.07933333333333335 0.001586666666666667 0.15000000000000002 0.13333333333333336 0.11666666666666667 0.1 -0.08333333333333334 0.001666666666666667 
0.96 0.06912000000000001 0.06144000000000001 0.05376 0.04608 -0.038400000000000004 0.0007680000000000001 0.14400000000000002 0.12800000000000003 0.112 0.096 -0.08 0.0016000000000000003 0.15000000000000002 0.13333333333333336 0.11666666666666667 0.1 -0.08333333333333334 0.001666666666666667 
0.968 0.07027680000000001 0.062468266666666675 0.054659733333333335 0.0468512 -0.03904266666666667 0.0007808533333333335 0.14520000000000002 0.1290666666666667 0.11293333333333333 0.0968 -0.08066666666666668 0.0016133333333333336 0.15000000000000002 0.13333333333333336 0.11666666666666667 0.1 -0.08333333333333334 0.001666666666666667 
0.976 0.07144320000000001 0.06350506666666668 0.05556693333333333 0.0476288 -0.03969066666666667 0.0007938133333333335 0.14640000000000003 0.13013333333333335 0.11386666666666667 0.0976 -0.08133333333333334 0.0016266666666666669 0.15000000000000002 0.13333333333333336 0.11666666666666667 0.1 -0.08333333333333334 0.001666666666666667 
0.984 0.07261920000000001 0.06455040000000001 0.0564816 0.048412800000000006 -0.040344000000000005 0.0008068800000000002 0.1476 0.1312 0.1148 0.0984 -0.082 0.0016400000000000004 0.15000000000000002 0.13333333333333336 0.11666666666666667 0.1 -0.08333333333333334 0.001666666666666667 
0.992 0.0738048 0.06560426666666667 0.05740373333333333 0.0492032 -0.041002666666666666 0.0008200533333333334 0.14880000000000002 0.1322666666666667 0.11573333333333334 0.09920000000000001 -0.08266666666666668 0.0016533333333333337 0.15000000000000002 0.13333333333333336 0.11666666666666667 0.1 -0.08333333333333334 0.001666666666666667 
1.0 0.07500000000000001 0.06666666666666668 0.058333333333333334 0.05 -0.04166666666666667 0.0008333333333333335 0.15000000000000002 0.13333333333333336 0.11666666666666667 0.1 -0.08333333333333334 0.001666666666666667 0.15000000000000002 0.13333333333333336 0.11666666666666667 0.1 -0.08333333333333334 0.001666666666666667 
1.008 0.07620480000000002 0.06773760000000002 0.05927040000000001 0.05080320000000001 -0.042336000000000006 0.0008467200000000002 0.15120000000000003 0.13440000000000002 0.1176 0.1008 -0.084 0.0016800000000000003 0.15000000000000002 0.13333333333333336 0.11666666666666667 0.1 -0.08333333333333334 0.001666666666666667 
1.016 0.07741920000000002 0.06881706666666669 0.06021493333333334 0.05161280000000001 -0.043010666666666676 0.0008602133333333336 0.15240000000000004 0.1354666666666667 0.11853333333333334 0.10160000000000001 -0.08466666666666668 0.0016933333333333336 0.15000000000000002 0.13333333333333336 0.11666666666666667 0.1 -0.08333333333333334 0.001666666666666667 
1.024 0.07864320000000001 0.06990506666666668 0.06116693333333333 0.0524288 -0.04369066666666667 0.0008738133333333335 0.15360000000000001 0.13653333333333337 0.11946666666666667 0.1024 -0.08533333333333334 0.001706666666666667 0.15000000000000002 0.13333333333333336 0.11666666666666667 0.1 -0.08333333333333334 0.001666666666666667 
1.032 0.07987680000000001 0.07100160000000001 0.0621264 0.0532512 -0.044376000000000006 0.0008875200000000001 0.15480000000000002 0.13760000000000003 0.12040000000000001 0.10320000000000001 -0.08600000000000001 0.0017200000000000004 0.15000000000000002 0.13333333333333336 0.11666666666666667 0.1 -0.08333333333333334 0.001666666666666667 
1.04 0.08112000000000003 0.0721066666666667 0.06309333333333333 0.05408000000000001 -0.04506666666666668 0.0009013333333333336 0.15600000000000003 0.1386666666666667 0.12133333333333333 0.10400000000000001 -0.08666666666666668 0.0017333333333333337 0.15000000000000002 0.13333333333333336 0.11666666666666667 0.1 -0.08333333333333334 0.001666666666666667 
1.048 0.08237280000000002 0.07322026666666669 0.06406773333333335 0.05491520000000001 -0.04576266666666668 0.0009152533333333337 0.15720000000000003 0.13973333333333338 0.12226666666666668 0.1048 -0.08733333333333335 0.001746666666666667 0.15000000000000002 0.13333333333333336 0.11666666666666667 0.1 -0.08333333333333334 0.001666666666666667 
1.056 0.08363520000000002 0.07434240000000002 0.06504960000000001 0.05575680000000001 -0.04646400000000001 0.0009292800000000003 0.15840000000000004 0.14080000000000004 0.1232 0.10560000000000001 -0.08800000000000001 0.0017600000000000005 0.15000000000000002 0.13333333333333336 0.11666666666666667 0.1 -0.08333333333333334 0.001666666666666667 
1.064 0.08490720000000003 0.0754730666666667 0.06603893333333334 0.05660480000000001 -0.04717066666666668 0.0009434133333333337 0.15960000000000002 0.1418666666666667 0.12413333333333335 0.10640000000000001 -0.08866666666666669 0.0017733333333333338 0.15000000000000002 0.13333333333333336 0.11666666666666667 0.1 -0.08333333333333334 0.001666666666666667 
1.072 0.08618880000000002 0.07661226666666669 0.06703573333333335 0.057459200000000016 -0.04788266666666668 0.0009576533333333337 0.16080000000000003 0.14293333333333336 0.1250666666666667 0.10720000000000002 -0.08933333333333335 0.001786666666666667 0.15000000000000002 0.13333333333333336 0.11666666666666667 0.1 -0.08333333333333334 0.001666666666666667 
1.08 0.08748000000000002 0.07776000000000002 0.06804 0.05832000000000001 -0.04860000000000001 0.0009720000000000003 0.16200000000000003 0.14400000000000004 0.126 0.10800000000000001 -0.09000000000000001 0.0018000000000000004 0.15000000000000002 0.13333333333333336 0.11666666666666667 0.1 -0.08333333333333334 0.001666666666666667 
1.088 0.08878080000000002 0.07891626666666669 0.06905173333333334 0.05918720000000001 -0.049322666666666674 0.0009864533333333336 0.16320000000000004 0.1450666666666667 0.12693333333333334 0.10880000000000001 -0.09066666666666669 0.001813333333333334 0.15000000000000002 0.13333333333333336 0.11666666666666667 0.1 -0.08333333333333334 0.001666666666666667 
1.096 0.09009120000000004 0.0800810666666667 0.07007093333333335 0.06006080000000002 -0.05005066666666668 0.0010010133333333338 0.16440000000000005 0.14613333333333337 0.12786666666666668 0.10960000000000002 -0.09133333333333335 0.0018266666666666672 0.15000000000000002 0.13333333333333336 0.11666666666666667 0.1 -0.08333333333333334 0.001666666666666667 
1.104 0.09141120000000003 0.08125440000000002 0.07109760000000001 0.06094080000000001 -0.05078400000000001 0.0010156800000000004 0.16560000000000002 0.14720000000000005 0.12880000000000003 0.11040000000000001 -0.09200000000000001 0.0018400000000000005 0.15000000000000002 0.13333333333333336 0.11666666666666667 0.1 -0.08333333333333334 0.001666666666666667 
1.112 0.09274080000000004 0.0824362666666667 0.07213173333333335 0.06182720000000002 -0.05152266666666668 0.0010304533333333338 0.16680000000000003 0.1482666666666667 0.12973333333333334 0.11120000000000002 -0.09266666666666669 0.0018533333333333338 0.15000000000000002 0.13333333333333336 0.11666666666666667 0.1 -0.08333333333333334 0.001666666666666667 
1.12 0.09408000000000002 0.0836266666666667 0.07317333333333334 0.06272000000000001 -0.052266666666666683 0.0010453333333333337 0.16800000000000004 0.14933333333333337 0.13066666666666668 0.11200000000000002 -0.09333333333333335 0.0018666666666666673 0.15000000000000002 0.13333333333333336 0.11666666666666667 0.1 -0.08333333333333334 0.001666666666666667 
1.128 0.09542880000000002 0.08482560000000003 0.07422240000000001 0.06361920000000001 -0.053016000000000015 0.0010603200000000004 0.16920000000000004 0.15040000000000003 0.13160000000000002 0.11280000000000001 -0.09400000000000001 0.0018800000000000006 0.15000000000000002 0.13333333333333336 0.11666666666666667 0.1 -0.08333333333333334 0.001666666666666667 
1.136 0.09678720000000003 0.0860330666666667 0.07527893333333335 0.06452480000000002 -0.05377066666666669 0.0010754133333333337 0.17040000000000005 0.15146666666666672 0.13253333333333334 0.11360000000000002 -0.09466666666666669 0.0018933333333333339 0.15000000000000002 0.13333333333333336 0.11666666666666667 0.1 -0.08333333333333334 0.001666666666666667 
1.144 0.09815520000000004 0.08724906666666671 0.07634293333333335 0.06543680000000002 -0.054530666666666686 0.0010906133333333339 0.17160000000000006 0.15253333333333338 0.13346666666666668 0.11440000000000002 -0.09533333333333335 0.0019066666666666672 0.15000000000000002 0.13333333333333336 0.11666666666666667 0.1 -0.08333333333333334 0.001666666666666667 
1.152 0.09953280000000003 0.08847360000000004 0.07741440000000002 0.06635520000000002 -0.05529600000000002 0.0011059200000000005 0.17280000000000004 0.15360000000000004 0.13440000000000002 0.11520000000000002 -0.09600000000000002 0.0019200000000000007 0.15000000000000002 0.13333333333333336 0.11666666666666667 0.1 -0.08333333333333334 0.001666666666666667 
1.16 0.10092000000000001 0.08970666666666668 0.07849333333333333 0.06727999999999999 -0.05606666666666667 0.0011213333333333336 0.17400000000000002 0.15466666666666667 0.13533333333333333 0.11599999999999999 -0.09666666666666666 0.0019333333333333336 0.15000000000000002 0.13333333333333336 0.11666666666666667 0.1 -0.08333333333333334 0.001666666666666667 
1.168 0.1023168 0.09094826666666668 0.07957973333333333 0.0682112 -0.056842666666666666 0.0011368533333333335 0.17520000000000002 0.15573333333333336 0.13626666666666665 0.1168 -0.09733333333333334 0.0019466666666666669 0.15000000000000002 0.13333333333333336 0.11666666666666667 0.1 -0.08333333333333334 0.001666666666666667 
1.176 0.1037232 0.0921984 0.08067359999999998 0.0691488 -0.057623999999999995 0.00115248 0.17640000000000003 0.15680000000000002 0.1372 0.1176 -0.098 0.0019600000000000004 0.15000000000000002 0.13333333333333336 0.11666666666666667 0.1 -0.08333333333333334 0.001666666666666667 
1.184 0.1051392 0.09345706666666667 0.08177493333333333 0.0700928 -0.058410666666666666 0.0011682133333333334 0.1776 0.15786666666666668 0.13813333333333333 0.1184 -0.09866666666666667 0.0019733333333333334 0.15000000000000002 0.13333333333333336 0.11666666666666667 0.1 -0.08333333333333334 0.001666666666666667 
1.192 0.10656480000000002 0.09472426666666668 0.08288373333333333 0.0710432 -0.05920266666666667 0.0011840533333333334 0.17880000000000001 0.15893333333333337 0.13906666666666667 0.1192 -0.09933333333333334 0.001986666666666667 0.15000000000000002 0.13333333333333336 0.11666666666666667 0.1 -0.08333333333333334 0.001666666666666667 
1.2 0.10800000000000001 0.09600000000000002 0.08399999999999999 0.072 -0.060000000000000005 0.0012000000000000001 0.18000000000000002 0.16000000000000003 0.13999999999999999 0.12 -0.1 0.0020000000000000005 0.15000000000000002 0.13333333333333336 0.11666666666666667 0.1 -0.08333333333333334 0.001666666666666667 
1.208 0.10944480000000001 0.09728426666666667 0.08512373333333333 0.07296319999999999 -0.06080266666666667 0.0012160533333333335 0.18120000000000003 0.1610666666666667 0.14093333333333333 0.1208 -0.10066666666666667 0.0020133333333333336 0.15000000000000002 0.13333333333333336 0.11666666666666667 0.1 -0.08333333333333334 0.001666666666666667 
1.216 0.11089920000000002 0.09857706666666669 0.08625493333333334 0.0739328 -0.061610666666666675 0.0012322133333333336 0.18240000000000003 0.16213333333333335 0.14186666666666667 0.1216 -0.10133333333333334 0.002026666666666667 0.15000000000000002 0.13333333333333336 0.11666666666666667 0.1 -0.08333333333333334 0.001666666666666667 
1.224 0.11236320000000001 0.09987840000000002 0.0873936 0.0749088 -0.06242400000000001 0.0012484800000000002 0.1836 0.16320000000000004 0.1428 0.12240000000000001 -0.10200000000000001 0.00204 0.15000000000000002 0.13333333333333336 0.11666666666666667 0.1 -0.08333333333333334 0.001666666666666667 
1.232 0.11383680000000002 0.10118826666666669 0.08853973333333334 0.0758912 -0.06324266666666668 0.0012648533333333336 0.18480000000000002 0.1642666666666667 0.14373333333333332 0.1232 -0.10266666666666667 0.0020533333333333337 0.15000000000000002 0.13333333333333336 0.11666666666666667 0.1 -0.08333333333333334 0.001666666666666667 
1.24 0.11532000000000002 0.10250666666666669 0.08969333333333333 0.07688 -0.06406666666666667 0.0012813333333333335 0.18600000000000003 0.16533333333333336 0.14466666666666667 0.124 -0.10333333333333335 0.002066666666666667 0.15000000000000002 0.13333333333333336 0.11666666666666667 0.1 -0.08333333333333334 0.001666666666666667 
1.248 0.11681280000000002 0.10383360000000003 0.0908544 0.0778752 -0.06489600000000001 0.0012979200000000001 0.18720000000000003 0.16640000000000002 0.1456 0.12480000000000001 -0.10400000000000001 0.0020800000000000003 0.15000000000000002 0.13333333333333336 0.11666666666666667 0.1 -0.08333333333333334 0.001666666666666667 
1.256 0.11831520000000002 0.10516906666666669 0.09202293333333333 0.07887680000000001 -0.06573066666666667 0.0013146133333333337 0.18840000000000004 0.1674666666666667 0.14653333333333335 0.12560000000000002 -0.10466666666666669 0.0020933333333333338 0.15000000000000002 0.13333333333333336 0.11666666666666667 0.1 -0.08333333333333334 0.001666666666666667 
1.264 0.11982720000000002 0.10651306666666668 0.09319893333333333 0.0798848 -0.06657066666666668 0.0013314133333333336 0.18960000000000002 0.16853333333333337 0.14746666666666666 0.1264 -0.10533333333333335 0.0021066666666666673 0.15000000000000002 0.13333333333333336 0.11666666666666667 0.1 -0.08333333333333334 0.001666666666666667 
1.272 0.12134880000000002 0.10786560000000003 0.0943824 0.0808992 -0.06741600000000002 0.0013483200000000003 0.19080000000000003 0.16960000000000003 0.1484 0.1272 -0.10600000000000001 0.0021200000000000004 0.15000000000000002 0.13333333333333336 0.11666666666666667 0.1 -0.08333333333333334 0.001666666666666667 
1.28 0.12288000000000003 0.1092266666666667 0.09557333333333334 0.08192 -0.06826666666666668 0.0013653333333333336 0.19200000000000003 0.17066666666666672 0.14933333333333335 0.128 -0.10666666666666669 0.002133333333333334 0.15000000000000002 0.13333333333333336 0.11666666666666667 0.1 -0.08333333333333334 0.001666666666666667 
1.288 0.12442080000000004 0.1105962666666667 0.09677173333333335 0.08294720000000001 -0.06912266666666668 0.0013824533333333337 0.19320000000000004 0.17173333333333338 0.15026666666666666 0.1288 -0.10733333333333335 0.002146666666666667 0.15000000000000002 0.13333333333333336 0.11666666666666667 0.1 -0.08333333333333334 0.001666666666666667 
1.296 0.1259712 0.11197440000000002 0.0979776 0.08398080000000001 -0.069984 0.0013996800000000004 0.19440000000000004 0.17280000000000004 0.1512 0.12960000000000002 -0.10800000000000001 0.0021600000000000005 0.15000000000000002 0.13333333333333336 0.11666666666666667 0.1 -0.08333333333333334 0.001666666666666667 
1.304 0.12753120000000004 0.1133610666666667 0.09919093333333334 0.08502080000000001 -0.07085066666666669 0.0014170133333333338 0.19560000000000002 0.1738666666666667 0.15213333333333334 0.13040000000000002 -0.10866666666666669 0.002173333333333334 0.15000000000000002 0.13333333333333336 0.11666666666666667 0.1 -0.08333333333333334 0.001666666666666667 
1.312 0.12910080000000004 0.1147562666666667 0.10041173333333335 0.08606720000000001 -0.07172266666666668 0.0014344533333333338 0.19680000000000003 0.17493333333333339 0.15306666666666668 0.1312 -0.10933333333333335 0.002186666666666667 0.15000000000000002 0.13333333333333336 0.11666666666666667 0.1 -0.08333333333333334 0.001666666666666667 
1.32 0.13068000000000002 0.11616000000000003 0.10164000000000001 0.08712000000000002 -0.07260000000000001 0.0014520000000000004 0.19800000000000004 0.17600000000000005 0.154 0.132 -0.11000000000000001 0.0022000000000000006 0.15000000000000002 0.13333333333333336 0.11666666666666667 0.1 -0.08333333333333334 0.001666666666666667 
1.328 0.13226880000000005 0.1175722666666667 0.10287573333333334 0.08817920000000001 -0.07348266666666668 0.0014696533333333338 0.19920000000000004 0.1770666666666667 0.15493333333333334 0.1328 -0.11066666666666669 0.002213333333333334 0.15000000000000002 0.13333333333333336 0.11666666666666667 0.1 -0.08333333333333334 0.001666666666666667 
1.336 0.13386720000000005 0.1189930666666667 0.10411893333333334 0.08924480000000001 -0.07437066666666668 0.0014874133333333337 0.20040000000000005 0.17813333333333337 0.15586666666666668 0.13360000000000002 -0.11133333333333335 0.002226666666666667 0.15000000000000002 0.13333333333333336 0.11666666666666667 0.1 -0.08333333333333334 0.001666666666666667 
1.344 0.13547520000000005 0.12042240000000004 0.10536960000000001 0.09031680000000002 -0.07526400000000001 0.0015052800000000003 0.20160000000000003 0.17920000000000005 0.15680000000000002 0.13440000000000002 -0.11200000000000002 0.0022400000000000007 0.15000000000000002 0.13333333333333336 0.11666666666666667 0.1 -0.08333333333333334 0.001666666666666667 
1.352 0.13709280000000004 0.1218602666666667 0.10662773333333335 0.09139520000000001 -0.07616266666666668 0.0015232533333333338 0.20280000000000004 0.18026666666666671 0.15773333333333334 0.13520000000000001 -0.11266666666666669 0.0022533333333333338 0.15000000000000002 0.13333333333333336 0.11666666666666667 0.1 -0.08333333333333334 0.001666666666666667 
1.36 0.13872000000000004 0.12330666666666672 0.10789333333333335 0.09248000000000002 -0.07706666666666669 0.001541333333333334 0.20400000000000004 0.18133333333333337 0.15866666666666668 0.136 -0.11333333333333336 0.0022666666666666673 0.15000000000000002 0.13333333333333336 0.11666666666666667 0.1 -0.08333333333333334 0.001666666666666667 
1.368 0.14035680000000003 0.12476160000000004 0.10916640000000001 0.09357120000000002 -0.07797600000000002 0.0015595200000000004 0.20520000000000005 0.18240000000000006 0.15960000000000002 0.1368 -0.11400000000000002 0.0022800000000000008 0.15000000000000002 0.13333333333333336 0.11666666666666667 0.1 -0.08333333333333334 0.001666666666666667 
1.376 0.14200320000000005 0.12622506666666672 0.11044693333333336 0.09466880000000003 -0.07889066666666669 0.001577813333333334 0.20640000000000006 0.18346666666666672 0.16053333333333336 0.13760000000000003 -0.1146666666666667 0.002293333333333334 0.15000000000000002 0.13333333333333336 0.11666666666666667 0.1 -0.08333333333333334 0.001666666666666667 
1.384 0.14365920000000004 0.12769706666666672 0.11173493333333336 0.09577280000000002 -0.07981066666666668 0.0015962133333333338 0.20760000000000006 0.18453333333333338 0.16146666666666668 0.13840000000000002 -0.11533333333333336 0.0023066666666666674 0.15000000000000002 0.13333333333333336 0.11666666666666667 0.1 -0.08333333333333334 0.001666666666666667 
1.392 0.14532480000000003 0.12917760000000003 0.11303040000000002 0.09688320000000002 -0.08073600000000002 0.0016147200000000005 0.20880000000000004 0.18560000000000004 0.16240000000000002 0.13920000000000002 -0.11600000000000002 0.0023200000000000004 0.15000000000000002 0.13333333333333336 0.11666666666666667 0.1 -0.08333333333333334 0.001666666666666667 
1.4 0.14700000000000005 0.1306666666666667 0.11433333333333336 0.09800000000000003 -0.08166666666666669 0.001633333333333334 0.21000000000000005 0.18666666666666673 0.16333333333333336 0.14 -0.1166666666666667 0.002333333333333334 0.15000000000000002 0.13333333333333336 0.11666666666666667 0.1 -0.08333333333333334 0.001666666666666667 
1.408 0.1486848 0.13216426666666667 0.11564373333333332 0.0991232 -0.08260266666666667 0.0016520533333333335 0.21120000000000003 0.18773333333333336 0.16426666666666667 0.1408 -0.11733333333333335 0.002346666666666667 0.15000000000000002 0.13333333333333336 0.11666666666666667 0.1 -0.08333333333333334 0.001666666666666667 
1.416 0.1503792 0.1336704 0.11696159999999999 0.10025279999999999 -0.083544 0.00167088 0.21240000000000003 0.18880000000000002 0.16519999999999999 0.1416 -0.11800000000000001 0.00236 0.15000000000000002 0.13333333333333336 0.11666666666666667 0.1 -0.08333333333333334 0.001666666666666667 
1.424 0.1520832 0.1351850666666667 0.11828693333333333 0.1013888 -0.08449066666666667 0.0016898133333333335 0.2136 0.18986666666666668 0.16613333333333333 0.1424 -0.11866666666666667 0.0023733333333333336 0.15000000000000002 0.13333333333333336 0.11666666666666667 0.1 -0.08333333333333334 0.001666666666666667 
1.432 0.1537968 0.1367082666666667 0.11961973333333334 0.1025312 -0.08544266666666668 0.0017088533333333336 0.21480000000000002 0.19093333333333337 0.16706666666666667 0.1432 -0.11933333333333335 0.002386666666666667 0.15000000000000002 0.13333333333333336 0.11666666666666667 0.1 -0.08333333333333334 0.001666666666666667 
1.44 0.15552000000000002 0.13824000000000003 0.12096 0.10368 -0.0864 0.0017280000000000002 0.21600000000000003 0.19200000000000003 0.16799999999999998 0.144 -0.12000000000000001 0.0024000000000000002 0.15000000000000002 0.13333333333333336 0.11666666666666667 0.1 -0.08333333333333334 0.001666666666666667 
1.448 0.15725280000000003 0.13978026666666668 0.12230773333333333 0.1048352 -0.08736266666666667 0.0017472533333333336 0.21720000000000003 0.1930666666666667 0.16893333333333332 0.1448 -0.12066666666666667 0.0024133333333333337 0.15000000000000002 0.13333333333333336 0.11666666666666667 0.1 -0.08333333333333334 0.001666666666666667 
1.456 0.15899520000000003 0.1413290666666667 0.12366293333333334 0.1059968 -0.08833066666666668 0.0017666133333333338 0.21840000000000004 0.19413333333333335 0.16986666666666667 0.1456 -0.12133333333333335 0.0024266666666666672 0.15000000000000002 0.13333333333333336 0.11666666666666667 0.1 -0.08333333333333334 0.001666666666666667 
1.464 0.1607472 0.14288640000000002 0.1250256 0.1071648 -0.08930400000000001 0.0017860800000000002 0.21960000000000002 0.19520000000000004 0.1708 0.1464 -0.12200000000000001 0.0024400000000000003 0.15000000000000002 0.13333333333333336 0.11666666666666667 0.1 -0.08333333333333334 0.001666666666666667 
1.472 0.1625088 0.1444522666666667 0.12639573333333332 0.1083392 -0.09028266666666666 0.0018056533333333335 0.22080000000000002 0.1962666666666667 0.17173333333333332 0.1472 -0.12266666666666667 0.002453333333333334 0.15000000000000002 0.13333333333333336 0.11666666666666667 0.1 -0.08333333333333334 0.001666666666666667 
1.48 0.16428 0.1460266666666667 0.12777333333333332 0.10952 -0.09126666666666668 0.0018253333333333335 0.22200000000000003 0.19733333333333336 0.17266666666666666 0.148 -0.12333333333333335 0.002466666666666667 0.15000000000000002 0.13333333333333336 0.11666666666666667 0.1 -0.08333333333333334 0.001666666666666667 
1.488 0.16606080000000004 0.14760960000000004 0.1291584 0.1107072 -0.09225600000000002 0.0018451200000000004 0.22320000000000004 0.19840000000000005 0.1736 0.14880000000000002 -0.12400000000000001 0.0024800000000000004 0.15000000000000002 0.13333333333333336 0.11666666666666667 0.1 -0.08333333333333334 0.001666666666666667 
1.496 0.16785120000000003 0.1492010666666667 0.13055093333333334 0.11190080000000001 -0.09325066666666668 0.0018650133333333336 0.22440000000000004 0.1994666666666667 0.17453333333333335 0.1496 -0.12466666666666668 0.002493333333333334 0.15000000000000002 0.13333333333333336 0.11666666666666667 0.1 -0.08333333333333334 0.001666666666666667 
1.504 0.16965120000000003 0.1508010666666667 0.13195093333333333 0.1131008 -0.09425066666666668 0.0018850133333333336 0.22560000000000002 0.20053333333333337 0.17546666666666666 0.1504 -0.12533333333333335 0.002506666666666667 0.15000000000000002 0.13333333333333336 0.11666666666666667 0.1 -0.08333333333333334 0.001666666666666667 
1.512 0.17146080000000005 0.15240960000000003 0.13335840000000002 0.11430720000000001 -0.09525600000000002 0.0019051200000000006 0.22680000000000003 0.20160000000000003 0.1764 0.1512 -0.12600000000000003 0.0025200000000000005 0.15000000000000002 0.13333333333333336 0.11666666666666667 0.1 -0.08333333333333334 0.001666666666666667 
1.52 0.17328000000000002 0.1540266666666667 0.13477333333333333 0.11552000000000001 -0.09626666666666668 0.0019253333333333338 0.22800000000000004 0.20266666666666672 0.17733333333333334 0.15200000000000002 -0.12666666666666668 0.002533333333333334 0.15000000000000002 0.13333333333333336 0.11666666666666667 0.1 -0.08333333333333334 0.001666666666666667 
1.528 0.17510880000000004 0.1556522666666667 0.13619573333333335 0.1167392 -0.09728266666666667 0.0019456533333333337 0.22920000000000004 0.20373333333333338 0.17826666666666668 0.15280000000000002 -0.12733333333333335 0.002546666666666667 0.15000000000000002 0.13333333333333336 0.11666666666666667 0.1 -0.08333333333333334 0.001666666666666667 
1.536 0.17694720000000003 0.15728640000000005 0.13762560000000001 0.11796480000000001 -0.09830400000000002 0.0019660800000000003 0.23040000000000005 0.20480000000000004 0.1792 0.15360000000000001 -0.12800000000000003 0.0025600000000000006 0.15000000000000002 0.13333333333333336 0.11666666666666667 0.1 -0.08333333333333334 0.001666666666666667 
1.544 0.17879520000000004 0.15892906666666673 0.13906293333333336 0.11919680000000002 -0.09933066666666669 0.001986613333333334 0.23160000000000003 0.20586666666666673 0.18013333333333334 0.1544 -0.12866666666666668 0.0025733333333333337 0.15000000000000002 0.13333333333333336 0.11666666666666667 0.1 -0.08333333333333334 0.001666666666666667 
1.552 0.18065280000000003 0.16058026666666672 0.14050773333333336 0.12043520000000002 -0.10036266666666668 0.0020072533333333337 0.23280000000000003 0.20693333333333339 0.18106666666666668 0.1552 -0.12933333333333336 0.0025866666666666672 0.15000000000000002 0.13333333333333336 0.11666666666666667 0.1 -0.08333333333333334 0.001666666666666667 
1.56 0.18252000000000004 0.16224000000000005 0.14196 0.12168000000000001 -0.10140000000000002 0.0020280000000000007 0.23400000000000004 0.20800000000000005 0.18200000000000002 0.15600000000000003 -0.13000000000000003 0.0026000000000000007 0.15000000000000002 0.13333333333333336 0.11666666666666667 0.1 -0.08333333333333334 0.001666666666666667 
1.568 0.18439680000000006 0.16390826666666672 0.14341973333333335 0.12293120000000002 -0.1024426666666667 0.0020488533333333342 0.23520000000000005 0.2090666666666667 0.18293333333333334 0.15680000000000002 -0.13066666666666668 0.002613333333333334 0.15000000000000002 0.13333333333333336 0.11666666666666667 0.1 -0.08333333333333334 0.001666666666666667 
1.576 0.18628320000000004 0.16558506666666672 0.14488693333333336 0.12418880000000002 -0.10349066666666669 0.002069813333333334 0.23640000000000005 0.2101333333333334 0.18386666666666668 0.15760000000000002 -0.13133333333333336 0.0026266666666666673 0.15000000000000002 0.13333333333333336 0.11666666666666667 0.1 -0.08333333333333334 0.001666666666666667 
1.584 0.18817920000000005 0.16727040000000004 0.1463616 0.1254528 -0.10454400000000003 0.0020908800000000007 0.23760000000000003 0.21120000000000005 0.18480000000000002 0.1584 -0.13200000000000003 0.002640000000000001 0.15000000000000002 0.13333333333333336 0.11666666666666667 0.1 -0.08333333333333334 0.001666666666666667 
1.592 0.19008480000000005 0.16896426666666672 0.14784373333333334 0.1267232 -0.10560266666666669 0.002112053333333334 0.23880000000000004 0.21226666666666671 0.18573333333333333 0.1592 -0.13266666666666668 0.002653333333333334 0.15000000000000002 0.13333333333333336 0.11666666666666667 0.1 -0.08333333333333334 0.001666666666666667 
1.6 0.19200000000000006 0.17066666666666674 0.14933333333333337 0.12800000000000003 -0.1066666666666667 0.0021333333333333343 0.24000000000000005 0.21333333333333337 0.18666666666666668 0.16000000000000003 -0.13333333333333336 0.0026666666666666674 0.15000000000000002 0.13333333333333336 0.11666666666666667 0.1 -0.08333333333333334 0.001666666666666667 
1.608 0.19392480000000006 0.17237760000000005 0.15083040000000003 0.12928320000000001 -0.10773600000000003 0.0021547200000000006 0.24120000000000005 0.21440000000000006 0.18760000000000002 0.16080000000000003 -0.13400000000000004 0.0026800000000000005 0.15000000000000002 0.13333333333333336 0.11666666666666667 0.1 -0.08333333333333334 0.001666666666666667 
1.616 0.19585920000000007 0.17409706666666672 0.15233493333333337 0.13057280000000002 -0.1088106666666667 0.0021762133333333342 0.24240000000000006 0.21546666666666672 0.18853333333333336 0.16160000000000002 -0.13466666666666668 0.002693333333333334 0.15000000000000002 0.13333333333333336 0.11666666666666667 0.1 -0.08333333333333334 0.001666666666666667 
1.624 0.19780320000000004 0.17582506666666672 0.15384693333333335 0.1318688 -0.10989066666666669 0.002197813333333334 0.24360000000000004 0.21653333333333338 0.18946666666666667 0.16240000000000002 -0.13533333333333336 0.0027066666666666675 0.15000000000000002 0.13333333333333336 0.11666666666666667 0.1 -0.08333333333333334 0.001666666666666667 
1.632 0.19975680000000007 0.17756160000000007 0.15536640000000002 0.13317120000000002 -0.11097600000000003 0.002219520000000001 0.24480000000000005 0.21760000000000007 0.1904 0.1632 -0.13600000000000004 0.0027200000000000006 0.15000000000000002 0.13333333333333336 0.11666666666666667 0.1 -0.08333333333333334 0.001666666666666667 
1.64 0.20172000000000007 0.17930666666666673 0.15689333333333336 0.13448000000000002 -0.1120666666666667 0.0022413333333333343 0.24600000000000005 0.21866666666666673 0.19133333333333336 0.16400000000000003 -0.1366666666666667 0.002733333333333334 0.15000000000000002 0.13333333333333336 0.11666666666666667 0.1 -0.08333333333333334 0.001666666666666667 
1.648 0.20369280000000006 0.18106026666666675 0.15842773333333338 0.13579520000000003 -0.1131626666666667 0.0022632533333333343 0.24720000000000006 0.2197333333333334 0.1922666666666667 0.16480000000000003 -0.13733333333333336 0.0027466666666666672 0.15000000000000002 0.13333333333333336 0.11666666666666667 0.1 -0.08333333333333334 0.001666666666666667 
1.656 0.20567520000000006 0.18282240000000005 0.15996960000000002 0.1371168 -0.11426400000000003 0.0022852800000000006 0.24840000000000007 0.22080000000000005 0.1932 0.16560000000000002 -0.13800000000000004 0.0027600000000000007 0.15000000000000002 0.13333333333333336 0.11666666666666667 0.1 -0.08333333333333334 0.001666666666666667 
1.664 0.20766720000000008 0.18459306666666675 0.16151893333333336 0.13844480000000003 -0.1153706666666667 0.0023074133333333344 0.24960000000000007 0.22186666666666674 0.19413333333333335 0.16640000000000002 -0.1386666666666667 0.0027733333333333342 0.15000000000000002 0.13333333333333336 0.11666666666666667 0.1 -0.08333333333333334 0.001666666666666667 
1.672 0.20966880000000002 0.1863722666666667 0.16307573333333333 0.1397792 -0.11648266666666668 0.0023296533333333337 0.2508 0.22293333333333337 0.19506666666666667 0.16720000000000002 -0.13933333333333334 0.002786666666666667 0.15000000000000002 0.13333333333333336 0.11666666666666667 0.1 -0.08333333333333334 0.001666666666666667 
1.68 0.21168 0.18816000000000002 0.16463999999999998 0.14112 -0.1176 0.002352 0.252 0.22400000000000003 0.196 0.168 -0.14 0.0028000000000000004 0.15000000000000002 0.13333333333333336 0.11666666666666667 0.1 -0.08333333333333334 0.001666666666666667 
1.688 0.21370080000000002 0.1899562666666667 0.16621173333333333 0.1424672 -0.11872266666666667 0.0023744533333333335 0.25320000000000004 0.2250666666666667 0.19693333333333332 0.1688 -0.1406666666666667 0.002813333333333334 0.15000000000000002 0.13333333333333336 0.11666666666666667 0.1 -0.08333333333333334 0.001666666666666667 
1.696 0.2157312 0.1917610666666667 0.16779093333333334 0.1438208 -0.11985066666666667 0.0023970133333333335 0.2544 0.22613333333333338 0.19786666666666666 0.1696 -0.14133333333333334 0.002826666666666667 0.15000000000000002 0.13333333333333336 0.11666666666666667 0.1 -0.08333333333333334 0.001666666666666667 
1.704 0.21777120000000003 0.19357440000000004 0.1693776 0.1451808 -0.12098400000000001 0.0024196800000000004 0.25560000000000005 0.22720000000000004 0.1988 0.1704 -0.14200000000000002 0.0028400000000000005 0.15000000000000002 0.13333333333333336 0.11666666666666667 0.1 -0.08333333333333334 0.001666666666666667 
1.712 0.2198208 0.19539626666666668 0.17097173333333332 0.1465472 -0.12212266666666667 0.0024424533333333334 0.25680000000000003 0.2282666666666667 0.19973333333333335 0.17120000000000002 -0.1426666666666667 0.002853333333333334 0.15000000000000002 0.13333333333333336 0.11666666666666667 0.1 -0.08333333333333334 0.001666666666666667 
1.72 0.22188000000000002 0.1972266666666667 0.17257333333333333 0.14792 -0.12326666666666666 0.0024653333333333337 0.258 0.22933333333333336 0.20066666666666666 0.17200000000000001 -0.14333333333333334 0.002866666666666667 0.15000000000000002 0.13333333333333336 0.11666666666666667 0.1 -0.08333333333333334 0.001666666666666667 
1.728 0.2239488 0.1990656 0.1741824 0.1492992 -0.124416 0.0024883200000000005 0.25920000000000004 0.23040000000000005 0.2016 0.1728 -0.14400000000000002 0.0028800000000000006 0.15000000000000002 0.13333333333333336 0.11666666666666667 0.1 -0.08333333333333334 0.001666666666666667 
1.736 0.22602720000000004 0.2009130666666667 0.17579893333333332 0.1506848 -0.1255706666666667 0.0025114133333333337 0.2604 0.2314666666666667 0.20253333333333334 0.1736 -0.1446666666666667 0.0028933333333333337 0.15000000000000002 0.13333333333333336 0.11666666666666667 0.1 -0.08333333333333334 0.001666666666666667 
1.744 0.22811520000000002 0.2027690666666667 0.17742293333333334 0.1520768 -0.12673066666666669 0.002534613333333334 0.26160000000000005 0.23253333333333337 0.20346666666666666 0.1744 -0.14533333333333334 0.002906666666666667 0.15000000000000002 0.13333333333333336 0.11666666666666667 0.1 -0.08333333333333334 0.001666666666666667 
1.752 0.23021280000000002 0.20463360000000003 0.1790544 0.1534752 -0.127896 0.0025579200000000004 0.26280000000000003 0.23360000000000006 0.2044 0.17520000000000002 -0.14600000000000002 0.0029200000000000007 0.15000000000000002 0.13333333333333336 0.11666666666666667 0.1 -0.08333333333333334 0.001666666666666667 
1.76 0.23232000000000003 0.2065066666666667 0.18069333333333334 0.15488000000000002 -0.1290666666666667 0.002581333333333334 0.26400000000000007 0.23466666666666672 0.20533333333333334 0.17600000000000002 -0.1466666666666667 0.002933333333333334 0.15000000000000002 0.13333333333333336 0.11666666666666667 0.1 -0.08333333333333334 0.001666666666666667 
1.768 0.23443680000000006 0.2083882666666667 0.18233973333333334 0.15629120000000002 -0.1302426666666667 0.002604853333333334 0.26520000000000005 0.23573333333333338 0.20626666666666668 0.1768 -0.14733333333333334 0.0029466666666666673 0.15000000000000002 0.13333333333333336 0.11666666666666667 0.1 -0.08333333333333334 0.001666666666666667 
1.776 0.23656320000000003 0.21027840000000006 0.1839936 0.1577088 -0.131424 0.0026284800000000007 0.2664 0.23680000000000004 0.2072 0.1776 -0.14800000000000002 0.002960000000000001 0.15000000000000002 0.13333333333333336 0.11666666666666667 0.1 -0.08333333333333334 0.001666666666666667 
1.784 0.23869920000000006 0.21217706666666672 0.18565493333333336 0.15913280000000002 -0.13261066666666668 0.002652213333333334 0.26760000000000006 0.23786666666666673 0.20813333333333334 0.1784 -0.1486666666666667 0.002973333333333334 0.15000000000000002 0.13333333333333336 0.11666666666666667 0.1 -0.08333333333333334 0.001666666666666667 
1.792 0.24084480000000005 0.21408426666666672 0.18732373333333335 0.16056320000000002 -0.1338026666666667 0.0026760533333333343 0.26880000000000004 0.2389333333333334 0.20906666666666668 0.17920000000000003 -0.14933333333333335 0.0029866666666666674 0.15000000000000002 0.13333333333333336 0.11666666666666667 0.1 -0.08333333333333334 0.001666666666666667 
1.8 0.24300000000000005 0.21600000000000005 0.18900000000000003 0.16200000000000003 -0.13500000000000004 0.0027000000000000006 0.2700000000000001 0.24000000000000005 0.21000000000000002 0.18000000000000002 -0.15000000000000002 0.0030000000000000005 0.15000000000000002 0.13333333333333336 0.11666666666666667 0.1 -0.08333333333333334 0.001666666666666667 
1.808 0.24516480000000004 0.21792426666666673 0.19068373333333336 0.1634432 -0.1362026666666667 0.002724053333333334 0.27120000000000005 0.2410666666666667 0.21093333333333333 0.18080000000000002 -0.1506666666666667 0.003013333333333334 0.15000000000000002 0.13333333333333336 0.11666666666666667 0.1 -0.08333333333333334 0.001666666666666667 
1.816 0.24733920000000006 0.21985706666666674 0.19237493333333336 0.16489280000000003 -0.1374106666666667 0.0027482133333333342 0.27240000000000003 0.2421333333333334 0.21186666666666668 0.1816 -0.15133333333333335 0.0030266666666666675 0.15000000000000002 0.13333333333333336 0.11666666666666667 0.1 -0.08333333333333334 0.001666666666666667 
1.824 0.24952320000000006 0.22179840000000006 0.1940736 0.16634880000000002 -0.13862400000000002 0.0027724800000000008 0.27360000000000007 0.24320000000000006 0.21280000000000002 0.1824 -0.15200000000000002 0.0030400000000000006 0.15000000000000002 0.13333333333333336 0.11666666666666667 0.1 -0.08333333333333334 0.001666666666666667 
1.832 0.2517168 0.22374826666666672 0.19577973333333334 0.16781120000000002 -0.1398426666666667 0.0027968533333333338 0.27480000000000004 0.24426666666666672 0.21373333333333336 0.18320000000000003 -0.1526666666666667 0.003053333333333334 0.15000000000000002 0.13333333333333336 0.11666666666666667 0.1 -0.08333333333333334 0.001666666666666667 
1.84 0.25392000000000003 0.22570666666666672 0.19749333333333335 0.16928 -0.1410666666666667 0.002821333333333334 0.2760000000000001 0.2453333333333334 0.21466666666666667 0.18400000000000002 -0.15333333333333335 0.003066666666666667 0.15000000000000002 0.13333333333333336 0.11666666666666667 0.1 -0.08333333333333334 0.001666666666666667 
1.848 0.25613280000000005 0.22767360000000006 0.1992144 0.17075520000000002 -0.14229600000000003 0.002845920000000001 0.27720000000000006 0.24640000000000006 0.2156 0.18480000000000002 -0.15400000000000003 0.0030800000000000007 0.15000000000000002 0.13333333333333336 0.11666666666666667 0.1 -0.08333333333333334 0.001666666666666667 
1.856 0.25835520000000006 0.22964906666666673 0.20094293333333335 0.17223680000000002 -0.1435306666666667 0.002870613333333334 0.27840000000000004 0.24746666666666672 0.21653333333333336 0.18560000000000001 -0.1546666666666667 0.0030933333333333342 0.15000000000000002 0.13333333333333336 0.11666666666666667 0.1 -0.08333333333333334 0.001666666666666667 
1.864 0.2605872000000001 0.23163306666666672 0.20267893333333334 0.1737248 -0.1447706666666667 0.002895413333333334 0.27960000000000007 0.24853333333333338 0.21746666666666667 0.1864 -0.15533333333333335 0.0031066666666666673 0.15000000000000002 0.13333333333333336 0.11666666666666667 0.1 -0.08333333333333334 0.001666666666666667 
1.872 0.2628288000000001 0.23362560000000007 0.20442240000000003 0.17521920000000002 -0.14601600000000003 0.002920320000000001 0.28080000000000005 0.24960000000000007 0.2184 0.18720000000000003 -0.15600000000000003 0.003120000000000001 0.15000000000000002 0.13333333333333336 0.11666666666666667 0.1 -0.08333333333333334 0.001666666666666667 
1.88 0.2650800000000001 0.23562666666666676 0.20617333333333338 0.17672000000000004 -0.1472666666666667 0.0029453333333333345 0.2820000000000001 0.2506666666666667 0.21933333333333335 0.18800000000000003 -0.1566666666666667 0.0031333333333333343 0.15000000000000002 0.13333333333333336 0.11666666666666667 0.1 -0.08333333333333334 0.001666666666666667 
1.888 0.2673408000000001 0.23763626666666676 0.20793173333333337 0.17822720000000003 -0.14852266666666672 0.0029704533333333345 0.28320000000000006 0.2517333333333334 0.2202666666666667 0.18880000000000002 -0.15733333333333335 0.0031466666666666674 0.15000000000000002 0.13333333333333336 0.11666666666666667 0.1 -0.08333333333333334 0.001666666666666667 
1.896 0.2696112000000001 0.2396544000000001 0.20969760000000004 0.17974080000000003 -0.14978400000000006 0.002995680000000001 0.28440000000000004 0.2528000000000001 0.2212 0.18960000000000002 -0.15800000000000003 0.003160000000000001 0.15000000000000002 0.13333333333333336 0.11666666666666667 0.1 -0.08333333333333334 0.001666666666666667 
1.904 0.27189120000000006 0.24168106666666675 0.21147093333333336 0.18126080000000003 -0.1510506666666667 0.0030210133333333344 0.2856000000000001 0.25386666666666674 0.22213333333333335 0.1904 -0.1586666666666667 0.003173333333333334 0.15000000000000002 0.13333333333333336 0.11666666666666667 0.1 -0.08333333333333334 0.001666666666666667 
1.912 0.2741808000000001 0.24371626666666676 0.2132517333333334 0.18278720000000004 -0.15232266666666672 0.0030464533333333346 0.28680000000000005 0.2549333333333334 0.2230666666666667 0.19120000000000004 -0.15933333333333335 0.0031866666666666675 0.15000000000000002 0.13333333333333336 0.11666666666666667 0.1 -0.08333333333333334 0.001666666666666667 
1.92 0.27648000000000006 0.24576000000000003 0.21504 0.18432 -0.15360000000000001 0.0030720000000000005 0.28800000000000003 0.25600000000000006 0.224 0.192 -0.16 0.0032000000000000006 0.15000000000000002 0.13333333333333336 0.11666666666666667 0.1 -0.08333333333333334 0.001666666666666667 
1.928 0.2787888 0.2478122666666667 0.2168357333333333 0.1858592 -0.15488266666666667 0.0030976533333333337 0.2892 0.2570666666666667 0.22493333333333332 0.1928 -0.16066666666666668 0.0032133333333333337 0.15000000000000002 0.13333333333333336 0.11666666666666667 0.1 -0.08333333333333334 0.001666666666666667 
1.936 0.28110720000000006 0.2498730666666667 0.21863893333333334 0.1874048 -0.15617066666666668 0.003123413333333334 0.29040000000000005 0.2581333333333334 0.22586666666666666 0.1936 -0.16133333333333336 0.003226666666666667 0.15000000000000002 0.13333333333333336 0.11666666666666667 0.1 -0.08333333333333334 0.001666666666666667 
1.944 0.28343520000000005 0.2519424 0.2204496 0.1889568 -0.15746400000000002 0.0031492800000000004 0.2916 0.25920000000000004 0.2268 0.19440000000000002 -0.162 0.0032400000000000007 0.15000000000000002 0.13333333333333336 0.11666666666666667 0.1 -0.08333333333333334 0.001666666666666667 
1.952 0.28577280000000005 0.2540202666666667 0.22226773333333333 0.1905152 -0.1587626666666667 0.003175253333333334 0.29280000000000006 0.2602666666666667 0.22773333333333334 0.1952 -0.16266666666666668 0.0032533333333333338 0.15000000000000002 0.13333333333333336 0.11666666666666667 0.1 -0.08333333333333334 0.001666666666666667 
1.96 0.28812000000000004 0.2561066666666667 0.2240933333333333 0.19208 -0.16006666666666666 0.003201333333333334 0.29400000000000004 0.26133333333333336 0.22866666666666666 0.196 -0.16333333333333336 0.0032666666666666673 0.15000000000000002 0.13333333333333336 0.11666666666666667 0.1 -0.08333333333333334 0.001666666666666667 
1.968 0.29047680000000003 0.25820160000000003 0.2259264 0.19365120000000002 -0.16137600000000002 0.0032275200000000006 0.2952 0.2624 0.2296 0.1968 -0.164 0.003280000000000001 0.15000000000000002 0.13333333333333336 0.11666666666666667 0.1 -0.08333333333333334 0.001666666666666667 
1.976 0.2928432 0.2603050666666667 0.22776693333333334 0.1952288 -0.16269066666666668 0.003253813333333334 0.29640000000000005 0.26346666666666674 0.23053333333333334 0.1976 -0.16466666666666668 0.003293333333333334 0.15000000000000002 0.13333333333333336 0.11666666666666667 0.1 -0.08333333333333334 0.001666666666666667 
1.984 0.2952192 0.2624170666666667 0.22961493333333333 0.1968128 -0.16401066666666667 0.0032802133333333337 0.29760000000000003 0.2645333333333334 0.23146666666666668 0.19840000000000002 -0.16533333333333336 0.0033066666666666674 0.15000000000000002 0.13333333333333336 0.11666666666666667 0.1 -0.08333333333333334 0.001666666666666667 
1.992 0.29760480000000006 0.26453760000000004 0.2314704 0.1984032 -0.165336 0.003306720000000001 0.29880000000000007 0.26560000000000006 0.2324 0.19920000000000002 -0.166 0.0033200000000000005 0.15000000000000002 0.13333333333333336 0.11666666666666667 0.1 -0.08333333333333334 0.001666666666666667 
2.0 0.30000000000000004 0.2666666666666667 0.23333333333333334 0.2 -0.16666666666666669 0.003333333333333334 0.30000000000000004 0.2666666666666667 0.23333333333333334 0.2 -0.16666666666666669 0.003333333333333334 0.15000000000000002 0.13333333333333336 0.11666666666666667 0.1 -0.08333333333333334 0.001666666666666667 
2.008 0.30240480000000003 0.26880426666666674 0.23520373333333333 0.2016032 -0.1680026666666667 0.003360053333333334 0.3012 0.2677333333333334 0.23426666666666668 0.2008 -0.16733333333333336 0.0033466666666666675 0.15000000000000002 0.13333333333333336 0.11666666666666667 0.1 -0.08333333333333334 0.001666666666666667 
2.016 0.30481920000000007 0.2709504000000001 0.23708160000000003 0.20321280000000003 -0.16934400000000002 0.003386880000000001 0.30240000000000006 0.26880000000000004 0.2352 0.2016 -0.168 0.0033600000000000006 0.15000000000000002 0.13333333333333336 0.11666666666666667 0.1 -0.08333333333333334 0.001666666666666667 
2.024 0.30724320000000005 0.27310506666666673 0.23896693333333333 0.2048288 -0.17069066666666668 0.003413813333333334 0.30360000000000004 0.2698666666666667 0.23613333333333333 0.20240000000000002 -0.1686666666666667 0.003373333333333334 0.15000000000000002 0.13333333333333336 0.11666666666666667 0.1 -0.08333333333333334 0.001666666666666667 
2.032 0.3096768000000001 0.27526826666666676 0.24085973333333335 0.20645120000000003 -0.1720426666666667 0.0034408533333333343 0.30480000000000007 0.2709333333333334 0.23706666666666668 0.20320000000000002 -0.16933333333333336 0.003386666666666667 0.15000000000000002 0.13333333333333336 0.11666666666666667 0.1 -0.08333333333333334 0.001666666666666667 
2.04 0.31212000000000006 0.2774400000000001 0.24276 0.20808000000000001 -0.17340000000000003 0.0034680000000000006 0.30600000000000005 0.2720000000000001 0.23800000000000002 0.20400000000000001 -0.17 0.0034000000000000007 0.15000000000000002 0.13333333333333336 0.11666666666666667 0.1 -0.08333333333333334 0.001666666666666667 
2.048 0.31457280000000004 0.27962026666666673 0.24466773333333333 0.2097152 -0.17476266666666668 0.003495253333333334 0.30720000000000003 0.27306666666666674 0.23893333333333333 0.2048 -0.1706666666666667 0.003413333333333334 0.15000000000000002 0.13333333333333336 0.11666666666666667 0.1 -0.08333333333333334 0.001666666666666667 
2.056 0.3170352 0.2818090666666667 0.24658293333333334 0.2113568 -0.17613066666666669 0.003522613333333334 0.30840000000000006 0.2741333333333334 0.23986666666666667 0.2056 -0.17133333333333337 0.0034266666666666673 0.15000000000000002 0.13333333333333336 0.11666666666666667 0.1 -0.08333333333333334 0.001666666666666667 
2.064 0.31950720000000005 0.28400640000000005 0.2485056 0.2130048 -0.17750400000000002 0.0035500800000000006 0.30960000000000004 0.27520000000000006 0.24080000000000001 0.20640000000000003 -0.17200000000000001 0.0034400000000000008 0.15000000000000002 0.13333333333333336 0.11666666666666667 0.1 -0.08333333333333334 0.001666666666666667 
2.072 0.3219888000000001 0.2862122666666667 0.25043573333333335 0.21465920000000002 -0.1788826666666667 0.003577653333333334 0.3108000000000001 0.2762666666666667 0.24173333333333336 0.20720000000000002 -0.1726666666666667 0.0034533333333333343 0.15000000000000002 0.13333333333333336 0.11666666666666667 0.1 -0.08333333333333334 0.001666666666666667 
2.08 0.3244800000000001 0.2884266666666668 0.25237333333333334 0.21632000000000004 -0.18026666666666671 0.0036053333333333345 0.31200000000000006 0.2773333333333334 0.24266666666666667 0.20800000000000002 -0.17333333333333337 0.0034666666666666674 0.15000000000000002 0.13333333333333336 0.11666666666666667 0.1 -0.08333333333333334 0.001666666666666667 
2.088 0.32698080000000007 0.29064960000000006 0.2543184 0.21798720000000002 -0.181656 0.003633120000000001 0.31320000000000003 0.2784000000000001 0.2436 0.2088 -0.17400000000000002 0.003480000000000001 0.15000000000000002 0.13333333333333336 0.11666666666666667 0.1 -0.08333333333333334 0.001666666666666667 
2.096 0.3294912000000001 0.29288106666666675 0.2562709333333334 0.21966080000000004 -0.18305066666666672 0.0036610133333333347 0.31440000000000007 0.27946666666666675 0.24453333333333335 0.2096 -0.1746666666666667 0.003493333333333334 0.15000000000000002 0.13333333333333336 0.11666666666666667 0.1 -0.08333333333333334 0.001666666666666667 
2.104 0.33201120000000006 0.29512106666666676 0.25823093333333336 0.22134080000000003 -0.1844506666666667 0.0036890133333333346 0.31560000000000005 0.2805333333333334 0.2454666666666667 0.21040000000000003 -0.17533333333333337 0.0035066666666666675 0.15000000000000002 0.13333333333333336 0.11666666666666667 0.1 -0.08333333333333334 0.001666666666666667 
2.112 0.3345408000000001 0.29736960000000007 0.26019840000000005 0.22302720000000004 -0.18585600000000005 0.0037171200000000013 0.3168000000000001 0.2816000000000001 0.2464 0.21120000000000003 -0.17600000000000002 0.003520000000000001 0.15000000000000002 0.13333333333333336 0.11666666666666667 0.1 -0.08333333333333334 0.001666666666666667 
2.12 0.3370800000000001 0.29962666666666676 0.26217333333333337 0.22472000000000003 -0.18726666666666672 0.0037453333333333345 0.31800000000000006 0.28266666666666673 0.24733333333333335 0.21200000000000002 -0.1766666666666667 0.003533333333333334 0.15000000000000002 0.13333333333333336 0.11666666666666667 0.1 -0.08333333333333334 0.001666666666666667 
2.128 0.3396288000000001 0.3018922666666668 0.26415573333333336 0.22641920000000004 -0.18868266666666672 0.003773653333333335 0.31920000000000004 0.2837333333333334 0.2482666666666667 0.21280000000000002 -0.17733333333333337 0.0035466666666666676 0.15000000000000002 0.13333333333333336 0.11666666666666667 0.1 -0.08333333333333334 0.001666666666666667 
2.136 0.3421872000000001 0.30416640000000006 0.26614560000000004 0.22812480000000002 -0.19010400000000002 0.003802080000000001 0.3204000000000001 0.28480000000000005 0.2492 0.2136 -0.17800000000000002 0.003560000000000001 0.15000000000000002 0.13333333333333336 0.11666666666666667 0.1 -0.08333333333333334 0.001666666666666667 
2.144 0.3447552000000001 0.30644906666666677 0.2681429333333334 0.22983680000000006 -0.1915306666666667 0.003830613333333335 0.32160000000000005 0.2858666666666667 0.2501333333333334 0.21440000000000003 -0.1786666666666667 0.003573333333333334 0.15000000000000002 0.13333333333333336 0.11666666666666667 0.1 -0.08333333333333334 0.001666666666666667 
2.152 0.3473328000000001 0.30874026666666676 0.27014773333333336 0.23155520000000004 -0.1929626666666667 0.0038592533333333344 0.3228000000000001 0.28693333333333343 0.25106666666666666 0.21520000000000003 -0.17933333333333337 0.0035866666666666677 0.15000000000000002 0.13333333333333336 0.11666666666666667 0.1 -0.08333333333333334 0.001666666666666667 
2.16 0.34992000000000006 0.3110400000000001 0.27216 0.23328000000000004 -0.19440000000000004 0.0038880000000000013 0.32400000000000007 0.2880000000000001 0.252 0.21600000000000003 -0.18000000000000002 0.0036000000000000008 0.15000000000000002 0.13333333333333336 0.11666666666666667 0.1 -0.08333333333333334 0.001666666666666667 
2.168 0.3525168000000001 0.31334826666666676 0.27417973333333334 0.23501120000000003 -0.1958426666666667 0.0039168533333333345 0.32520000000000004 0.28906666666666675 0.25293333333333334 0.21680000000000002 -0.1806666666666667 0.0036133333333333343 0.15000000000000002 0.13333333333333336 0.11666666666666667 0.1 -0.08333333333333334 0.001666666666666667 
2.176 0.3551232000000001 0.31566506666666677 0.27620693333333335 0.23674880000000004 -0.1972906666666667 0.003945813333333334 0.3264000000000001 0.2901333333333334 0.2538666666666667 0.21760000000000002 -0.18133333333333337 0.003626666666666668 0.15000000000000002 0.13333333333333336 0.11666666666666667 0.1 -0.08333333333333334 0.001666666666666667 
2.184 0.3577392000000001 0.3179904000000001 0.27824160000000003 0.23849280000000006 -0.19874400000000006 0.003974880000000002 0.32760000000000006 0.29120000000000007 0.2548 0.21840000000000004 -0.18200000000000002 0.003640000000000001 0.15000000000000002 0.13333333333333336 0.11666666666666667 0.1 -0.08333333333333334 0.001666666666666667 
2.192 0.36036480000000015 0.3203242666666668 0.2802837333333334 0.24024320000000007 -0.20020266666666672 0.004004053333333335 0.3288000000000001 0.29226666666666673 0.25573333333333337 0.21920000000000003 -0.1826666666666667 0.0036533333333333344 0.15000000000000002 0.13333333333333336 0.11666666666666667 0.1 -0.08333333333333334 0.001666666666666667 
2.2 0.3630000000000001 0.32266666666666677 0.2823333333333334 0.24200000000000005 -0.20166666666666672 0.004033333333333335 0.33000000000000007 0.2933333333333334 0.2566666666666667 0.22000000000000003 -0.18333333333333338 0.0036666666666666675 0.15000000000000002 0.13333333333333336 0.11666666666666667 0.1 -0.08333333333333334 0.001666666666666667 
2.208 0.3656448000000001 0.3250176000000001 0.28439040000000004 0.24376320000000004 -0.20313600000000004 0.0040627200000000014 0.33120000000000005 0.2944000000000001 0.25760000000000005 0.22080000000000002 -0.18400000000000002 0.003680000000000001 0.15000000000000002 0.13333333333333336 0.11666666666666667 0.1 -0.08333333333333334 0.001666666666666667 
2.216 0.36829920000000016 0.3273770666666668 0.2864549333333334 0.24553280000000008 -0.20461066666666675 0.004092213333333335 0.3324000000000001 0.29546666666666677 0.25853333333333334 0.22160000000000002 -0.1846666666666667 0.0036933333333333345 0.15000000000000002 0.13333333333333336 0.11666666666666667 0.1 -0.08333333333333334 0.001666666666666667 
2.224 0.37096320000000016 0.3297450666666668 0.2885269333333334 0.24730880000000008 -0.20609066666666673 0.004121813333333335 0.33360000000000006 0.2965333333333334 0.2594666666666667 0.22240000000000004 -0.18533333333333338 0.0037066666666666676 0.15000000000000002 0.13333333333333336 0.11666666666666667 0.1 -0.08333333333333334 0.001666666666666667 
2.232 0.37363680000000016 0.33212160000000013 0.2906064000000001 0.24909120000000007 -0.20757600000000007 0.004151520000000002 0.3348000000000001 0.2976000000000001 0.2604 0.22320000000000004 -0.18600000000000003 0.003720000000000001 0.15000000000000002 0.13333333333333336 0.11666666666666667 0.1 -0.08333333333333334 0.001666666666666667 
2.24 0.3763200000000001 0.3345066666666668 0.29269333333333336 0.25088000000000005 -0.20906666666666673 0.004181333333333335 0.3360000000000001 0.29866666666666675 0.26133333333333336 0.22400000000000003 -0.1866666666666667 0.0037333333333333346 0.15000000000000002 0.13333333333333336 0.11666666666666667 0.1 -0.08333333333333334 0.001666666666666667 
2.248 0.37901280000000015 0.3369002666666668 0.2947877333333334 0.25267520000000004 -0.21056266666666673 0.004211253333333335 0.33720000000000006 0.2997333333333334 0.2622666666666667 0.22480000000000003 -0.18733333333333338 0.0037466666666666677 0.15000000000000002 0.13333333333333336 0.11666666666666667 0.1 -0.08333333333333334 0.001666666666666667 
2.256 0.3817152000000001 0.3393024000000001 0.29688960000000003 0.25447680000000006 -0.21206400000000006 0.004241280000000002 0.3384000000000001 0.30080000000000007 0.26320000000000005 0.22560000000000002 -0.18800000000000003 0.003760000000000001 0.15000000000000002 0.13333333333333336 0.11666666666666667 0.1 -0.08333333333333334 0.001666666666666667 
2.264 0.38442720000000014 0.34171306666666684 0.29899893333333344 0.2562848000000001 -0.21357066666666674 0.004271413333333336 0.33960000000000007 0.3018666666666668 0.2641333333333334 0.22640000000000005 -0.1886666666666667 0.0037733333333333343 0.15000000000000002 0.13333333333333336 0.11666666666666667 0.1 -0.08333333333333334 0.001666666666666667 
2.272 0.3871488000000001 0.3441322666666668 0.3011157333333334 0.2580992000000001 -0.21508266666666676 0.004301653333333335 0.3408000000000001 0.30293333333333344 0.2650666666666667 0.22720000000000004 -0.18933333333333338 0.0037866666666666678 0.15000000000000002 0.13333333333333336 0.11666666666666667 0.1 -0.08333333333333334 0.001666666666666667 
2.28 0.38988000000000017 0.34656000000000015 0.30324000000000007 0.2599200000000001 -0.21660000000000007 0.004332000000000002 0.3420000000000001 0.3040000000000001 0.266 0.22800000000000004 -0.19000000000000003 0.0038000000000000013 0.15000000000000002 0.13333333333333336 0.11666666666666667 0.1 -0.08333333333333334 0.001666666666666667 
2.288 0.39262080000000016 0.34899626666666683 0.3053717333333334 0.26174720000000007 -0.21812266666666674 0.004362453333333335 0.3432000000000001 0.30506666666666676 0.26693333333333336 0.22880000000000003 -0.1906666666666667 0.0038133333333333344 0.15000000000000002 0.13333333333333336 0.11666666666666667 0.1 -0.08333333333333334 0.001666666666666667 
2.296 0.3953712000000002 0.35144106666666686 0.30751093333333346 0.2635808000000001 -0.21965066666666677 0.004393013333333335 0.3444000000000001 0.3061333333333334 0.2678666666666667 0.22960000000000003 -0.19133333333333338 0.003826666666666668 0.15000000000000002 0.13333333333333336 0.11666666666666667 0.1 -0.08333333333333334 0.001666666666666667 
2.304 0.39813120000000013 0.35389440000000016 0.3096576000000001 0.26542080000000007 -0.22118400000000007 0.004423680000000002 0.3456000000000001 0.3072000000000001 0.26880000000000004 0.23040000000000005 -0.19200000000000003 0.0038400000000000014 0.15000000000000002 0.13333333333333336 0.11666666666666667 0.1 -0.08333333333333334 0.001666666666666667 
2.312 0.4009008 0.35635626666666664 0.3118117333333333 0.2672672 -0.22272266666666665 0.004454453333333334 0.34680000000000005 0.3082666666666667 0.2697333333333333 0.2312 -0.19266666666666668 0.0038533333333333336 0.15000000000000002 0.13333333333333336 0.11666666666666667 0.1 -0.08333333333333334 0.001666666666666667 
2.32 0.40368000000000004 0.35882666666666674 0.3139733333333333 0.26911999999999997 -0.22426666666666667 0.004485333333333334 0.34800000000000003 0.30933333333333335 0.27066666666666667 0.23199999999999998 -0.19333333333333333 0.003866666666666667 0.15000000000000002 0.13333333333333336 0.11666666666666667 0.1 -0.08333333333333334 0.001666666666666667 
2.328 0.4064688 0.36130560000000006 0.3161424 0.2709792 -0.22581600000000002 0.004516320000000001 0.3492 0.31040000000000006 0.2716 0.2328 -0.194 0.0038800000000000006 0.15000000000000002 0.13333333333333336 0.11666666666666667 0.1 -0.08333333333333334 0.001666666666666667 
2.336 0.4092672 0.3637930666666667 0.31831893333333333 0.2728448 -0.22737066666666667 0.004547413333333334 0.35040000000000004 0.3114666666666667 0.2725333333333333 0.2336 -0.19466666666666668 0.0038933333333333337 0.15000000000000002 0.13333333333333336 0.11666666666666667 0.1 -0.08333333333333334 0.001666666666666667 
