Fleaurent/UniversalRobot/csv/Achsen3Trapez25.csv
timestamp target_q_0 target_q_1 target_q_2 target_q_3 target_q_4 target_q_5 target_qd_0 target_qd_1 target_qd_2 target_qd_3 target_qd_4 target_qd_5 target_qdd_0 target_qdd_1 target_qdd_2 target_qdd_3 target_qdd_4 target_qdd_5
0.0 0.0 0.0 0.0 0.0 0.0 0.0 0.0 0.0 0.0 0.0 -0.0 0.0 1.2857142857142858 1.1428571428571428 1.0 0.8571428571428571 -0.7142857142857143 0.014285714285714287 
0.008 4.1142857142857146e-05 3.657142857142857e-05 3.2e-05 2.7428571428571425e-05 -2.2857142857142858e-05 4.5714285714285715e-07 0.010285714285714287 0.009142857142857142 0.008 0.006857142857142857 -0.005714285714285714 0.0001142857142857143 1.2857142857142858 1.1428571428571428 1.0 0.8571428571428571 -0.7142857142857143 0.014285714285714287 
0.016 0.00016457142857142858 0.00014628571428571428 0.000128 0.0001097142857142857 -9.142857142857143e-05 1.8285714285714286e-06 0.020571428571428574 0.018285714285714284 0.016 0.013714285714285714 -0.011428571428571429 0.0002285714285714286 1.2857142857142858 1.1428571428571428 1.0 0.8571428571428571 -0.7142857142857143 0.014285714285714287 
0.024 0.0003702857142857143 0.0003291428571428571 0.000288 0.00024685714285714285 -0.00020571428571428572 4.114285714285715e-06 0.03085714285714286 0.027428571428571427 0.024 0.02057142857142857 -0.017142857142857144 0.0003428571428571429 1.2857142857142858 1.1428571428571428 1.0 0.8571428571428571 -0.7142857142857143 0.014285714285714287 
0.032 0.0006582857142857143 0.0005851428571428571 0.000512 0.0004388571428571428 -0.00036571428571428573 7.3142857142857144e-06 0.04114285714285715 0.03657142857142857 0.032 0.027428571428571427 -0.022857142857142857 0.0004571428571428572 1.2857142857142858 1.1428571428571428 1.0 0.8571428571428571 -0.7142857142857143 0.014285714285714287 
0.04 0.0010285714285714286 0.0009142857142857143 0.0008 0.0006857142857142857 -0.0005714285714285715 1.142857142857143e-05 0.051428571428571435 0.045714285714285714 0.04 0.03428571428571429 -0.028571428571428574 0.0005714285714285715 1.2857142857142858 1.1428571428571428 1.0 0.8571428571428571 -0.7142857142857143 0.014285714285714287 
0.048 0.0014811428571428573 0.0013165714285714284 0.001152 0.0009874285714285714 -0.0008228571428571429 1.645714285714286e-05 0.06171428571428572 0.054857142857142854 0.048 0.04114285714285714 -0.03428571428571429 0.0006857142857142858 1.2857142857142858 1.1428571428571428 1.0 0.8571428571428571 -0.7142857142857143 0.014285714285714287 
0.056 0.0020160000000000004 0.0017920000000000002 0.0015680000000000002 0.0013440000000000001 -0.0011200000000000001 2.2400000000000006e-05 0.07200000000000001 0.064 0.056 0.048 -0.04 0.0008 1.2857142857142858 1.1428571428571428 1.0 0.8571428571428571 -0.7142857142857143 0.014285714285714287 
0.064 0.0026331428571428573 0.0023405714285714284 0.002048 0.0017554285714285712 -0.001462857142857143 2.9257142857142858e-05 0.0822857142857143 0.07314285714285713 0.064 0.054857142857142854 -0.045714285714285714 0.0009142857142857144 1.2857142857142858 1.1428571428571428 1.0 0.8571428571428571 -0.7142857142857143 0.014285714285714287 
0.072 0.0033325714285714295 0.0029622857142857146 0.0025920000000000006 0.002221714285714286 -0.0018514285714285718 3.702857142857144e-05 0.09257142857142858 0.0822857142857143 0.07200000000000001 0.06171428571428572 -0.051428571428571435 0.0010285714285714288 1.2857142857142858 1.1428571428571428 1.0 0.8571428571428571 -0.7142857142857143 0.014285714285714287 
0.08 0.004114285714285714 0.003657142857142857 0.0032 0.002742857142857143 -0.002285714285714286 4.571428571428572e-05 0.10285714285714287 0.09142857142857143 0.08 0.06857142857142857 -0.05714285714285715 0.001142857142857143 1.2857142857142858 1.1428571428571428 1.0 0.8571428571428571 -0.7142857142857143 0.014285714285714287 
0.088 0.004978285714285714 0.004425142857142857 0.0038719999999999996 0.0033188571428571425 -0.0027657142857142854 5.531428571428571e-05 0.11314285714285714 0.10057142857142856 0.088 0.07542857142857141 -0.06285714285714286 0.0012571428571428573 1.2857142857142858 1.1428571428571428 1.0 0.8571428571428571 -0.7142857142857143 0.014285714285714287 
0.096 0.005924571428571429 0.005266285714285714 0.004608 0.003949714285714286 -0.0032914285714285715 6.582857142857143e-05 0.12342857142857144 0.10971428571428571 0.096 0.08228571428571428 -0.06857142857142857 0.0013714285714285716 1.2857142857142858 1.1428571428571428 1.0 0.8571428571428571 -0.7142857142857143 0.014285714285714287 
0.104 0.006953142857142859 0.006180571428571429 0.005408000000000001 0.0046354285714285725 -0.003862857142857144 7.725714285714289e-05 0.13371428571428573 0.11885714285714286 0.10400000000000001 0.08914285714285715 -0.07428571428571429 0.001485714285714286 1.2857142857142858 1.1428571428571428 1.0 0.8571428571428571 -0.7142857142857143 0.014285714285714287 
0.112 0.008064000000000002 0.007168000000000001 0.006272000000000001 0.005376000000000001 -0.0044800000000000005 8.960000000000002e-05 0.14400000000000002 0.128 0.112 0.096 -0.08 0.0016 1.2857142857142858 1.1428571428571428 1.0 0.8571428571428571 -0.7142857142857143 0.014285714285714287 
0.12 0.009257142857142858 0.008228571428571427 0.0072 0.006171428571428571 -0.005142857142857143 0.00010285714285714286 0.1542857142857143 0.13714285714285712 0.12 0.10285714285714284 -0.08571428571428572 0.0017142857142857144 1.2857142857142858 1.1428571428571428 1.0 0.8571428571428571 -0.7142857142857143 0.014285714285714287 
0.128 0.01053257142857143 0.009362285714285714 0.008192 0.007021714285714285 -0.005851428571428572 0.00011702857142857143 0.1645714285714286 0.14628571428571427 0.128 0.10971428571428571 -0.09142857142857143 0.0018285714285714288 1.2857142857142858 1.1428571428571428 1.0 0.8571428571428571 -0.7142857142857143 0.014285714285714287 
0.136 0.011890285714285716 0.010569142857142859 0.009248000000000001 0.007926857142857143 -0.006605714285714287 0.00013211428571428574 0.17485714285714288 0.15542857142857144 0.136 0.11657142857142858 -0.09714285714285716 0.001942857142857143 1.2857142857142858 1.1428571428571428 1.0 0.8571428571428571 -0.7142857142857143 0.014285714285714287 
0.144 0.013330285714285718 0.011849142857142858 0.010368000000000002 0.008886857142857144 -0.007405714285714287 0.00014811428571428575 0.18514285714285716 0.1645714285714286 0.14400000000000002 0.12342857142857144 -0.10285714285714287 0.0020571428571428576 1.2857142857142858 1.1428571428571428 1.0 0.8571428571428571 -0.7142857142857143 0.014285714285714287 
0.152 0.014852571428571429 0.013202285714285713 0.011552 0.009901714285714285 -0.008251428571428571 0.00016502857142857143 0.19542857142857145 0.1737142857142857 0.152 0.13028571428571428 -0.10857142857142857 0.0021714285714285715 1.2857142857142858 1.1428571428571428 1.0 0.8571428571428571 -0.7142857142857143 0.014285714285714287 
0.16 0.016457142857142858 0.014628571428571428 0.0128 0.010971428571428571 -0.009142857142857144 0.0001828571428571429 0.20571428571428574 0.18285714285714286 0.16 0.13714285714285715 -0.1142857142857143 0.002285714285714286 1.2857142857142858 1.1428571428571428 1.0 0.8571428571428571 -0.7142857142857143 0.014285714285714287 
0.168 0.018144000000000004 0.016128 0.014112000000000001 0.012096 -0.01008 0.00020160000000000005 0.21600000000000003 0.192 0.168 0.144 -0.12000000000000001 0.0024000000000000002 1.2857142857142858 1.1428571428571428 1.0 0.8571428571428571 -0.7142857142857143 0.014285714285714287 
0.176 0.019913142857142855 0.017700571428571427 0.015487999999999998 0.01327542857142857 -0.011062857142857142 0.00022125714285714285 0.22628571428571428 0.20114285714285712 0.176 0.15085714285714283 -0.12571428571428572 0.0025142857142857146 1.2857142857142858 1.1428571428571428 1.0 0.8571428571428571 -0.7142857142857143 0.014285714285714287 
0.184 0.021764571428571428 0.01934628571428571 0.016928 0.014509714285714284 -0.01209142857142857 0.00024182857142857143 0.23657142857142857 0.21028571428571427 0.184 0.1577142857142857 -0.13142857142857142 0.002628571428571429 1.2857142857142858 1.1428571428571428 1.0 0.8571428571428571 -0.7142857142857143 0.014285714285714287 
0.192 0.023698285714285717 0.021065142857142855 0.018432 0.015798857142857142 -0.013165714285714286 0.00026331428571428573 0.24685714285714289 0.21942857142857142 0.192 0.16457142857142856 -0.13714285714285715 0.0027428571428571432 1.2857142857142858 1.1428571428571428 1.0 0.8571428571428571 -0.7142857142857143 0.014285714285714287 
0.2 0.02571428571428572 0.02285714285714286 0.020000000000000004 0.017142857142857144 -0.014285714285714289 0.0002857142857142858 0.2571428571428572 0.22857142857142856 0.2 0.17142857142857143 -0.14285714285714288 0.0028571428571428576 1.2857142857142858 1.1428571428571428 1.0 0.8571428571428571 -0.7142857142857143 0.014285714285714287 
0.208 0.027812571428571436 0.024722285714285717 0.021632000000000005 0.01854171428571429 -0.015451428571428576 0.00030902857142857154 0.26742857142857146 0.2377142857142857 0.20800000000000002 0.1782857142857143 -0.14857142857142858 0.002971428571428572 1.2857142857142858 1.1428571428571428 1.0 0.8571428571428571 -0.7142857142857143 0.014285714285714287 
0.216 0.029993142857142857 0.026660571428571426 0.023327999999999998 0.01999542857142857 -0.016662857142857142 0.00033325714285714283 0.27771428571428575 0.24685714285714283 0.216 0.18514285714285714 -0.15428571428571428 0.003085714285714286 1.2857142857142858 1.1428571428571428 1.0 0.8571428571428571 -0.7142857142857143 0.014285714285714287 
0.224 0.03225600000000001 0.028672000000000003 0.025088000000000003 0.021504000000000002 -0.017920000000000002 0.0003584000000000001 0.28800000000000003 0.256 0.224 0.192 -0.16 0.0032 1.2857142857142858 1.1428571428571428 1.0 0.8571428571428571 -0.7142857142857143 0.014285714285714287 
0.232 0.034601142857142865 0.030756571428571428 0.026912000000000002 0.023067428571428572 -0.019222857142857146 0.00038445714285714294 0.2982857142857143 0.2651428571428571 0.232 0.19885714285714284 -0.16571428571428573 0.003314285714285715 1.2857142857142858 1.1428571428571428 1.0 0.8571428571428571 -0.7142857142857143 0.014285714285714287 
0.24 0.03702857142857143 0.03291428571428571 0.0288 0.024685714285714283 -0.02057142857142857 0.00041142857142857143 0.3085714285714286 0.27428571428571424 0.24 0.20571428571428568 -0.17142857142857143 0.003428571428571429 1.2857142857142858 1.1428571428571428 1.0 0.8571428571428571 -0.7142857142857143 0.014285714285714287 
0.248 0.03953828571428571 0.035145142857142854 0.030751999999999998 0.02635885714285714 -0.021965714285714286 0.00043931428571428573 0.3188571428571429 0.2834285714285714 0.248 0.21257142857142855 -0.17714285714285716 0.003542857142857143 1.2857142857142858 1.1428571428571428 1.0 0.8571428571428571 -0.7142857142857143 0.014285714285714287 
0.256 0.04213028571428572 0.037449142857142854 0.032768 0.02808685714285714 -0.023405714285714287 0.0004681142857142857 0.3291428571428572 0.29257142857142854 0.256 0.21942857142857142 -0.18285714285714286 0.0036571428571428575 1.2857142857142858 1.1428571428571428 1.0 0.8571428571428571 -0.7142857142857143 0.014285714285714287 
0.264 0.04480457142857144 0.03982628571428572 0.034848000000000004 0.029869714285714288 -0.024891428571428575 0.0004978285714285715 0.33942857142857147 0.3017142857142857 0.264 0.22628571428571428 -0.18857142857142858 0.003771428571428572 1.2857142857142858 1.1428571428571428 1.0 0.8571428571428571 -0.7142857142857143 0.014285714285714287 
0.272 0.047561142857142864 0.042276571428571434 0.036992000000000004 0.031707428571428574 -0.026422857142857147 0.000528457142857143 0.34971428571428576 0.3108571428571429 0.272 0.23314285714285715 -0.1942857142857143 0.003885714285714286 1.2857142857142858 1.1428571428571428 1.0 0.8571428571428571 -0.7142857142857143 0.014285714285714287 
0.28 0.050400000000000014 0.044800000000000006 0.039200000000000006 0.033600000000000005 -0.028000000000000004 0.0005600000000000002 0.36000000000000004 0.32 0.28 0.24000000000000002 -0.2 0.004000000000000001 1.2857142857142858 1.1428571428571428 1.0 0.8571428571428571 -0.7142857142857143 0.014285714285714287 
0.288 0.05332114285714287 0.047396571428571434 0.04147200000000001 0.03554742857142858 -0.02962285714285715 0.000592457142857143 0.37028571428571433 0.3291428571428572 0.28800000000000003 0.24685714285714289 -0.20571428571428574 0.004114285714285715 1.2857142857142858 1.1428571428571428 1.0 0.8571428571428571 -0.7142857142857143 0.014285714285714287 
0.296 0.056324571428571425 0.0500662857142857 0.04380799999999999 0.03754971428571428 -0.03129142857142857 0.0006258285714285714 0.38057142857142856 0.33828571428571425 0.296 0.25371428571428567 -0.2114285714285714 0.004228571428571429 1.2857142857142858 1.1428571428571428 1.0 0.8571428571428571 -0.7142857142857143 0.014285714285714287 
0.304 0.059410285714285714 0.05280914285714285 0.046208 0.03960685714285714 -0.033005714285714284 0.0006601142857142857 0.3908571428571429 0.3474285714285714 0.304 0.26057142857142856 -0.21714285714285714 0.004342857142857143 1.2857142857142858 1.1428571428571428 1.0 0.8571428571428571 -0.7142857142857143 0.014285714285714287 
0.312 0.06257828571428573 0.05562514285714285 0.048672 0.04171885714285714 -0.03476571428571429 0.0006953142857142858 0.4011428571428572 0.35657142857142854 0.312 0.2674285714285714 -0.22285714285714286 0.0044571428571428574 1.2857142857142858 1.1428571428571428 1.0 0.8571428571428571 -0.7142857142857143 0.014285714285714287 
0.32 0.06582857142857143 0.05851428571428571 0.0512 0.043885714285714285 -0.036571428571428574 0.0007314285714285716 0.4114285714285715 0.3657142857142857 0.32 0.2742857142857143 -0.2285714285714286 0.004571428571428572 1.2857142857142858 1.1428571428571428 1.0 0.8571428571428571 -0.7142857142857143 0.014285714285714287 
0.328 0.06916114285714287 0.061476571428571436 0.053792000000000006 0.04610742857142858 -0.03842285714285715 0.0007684571428571431 0.42171428571428576 0.37485714285714283 0.328 0.28114285714285714 -0.2342857142857143 0.004685714285714286 1.2857142857142858 1.1428571428571428 1.0 0.8571428571428571 -0.7142857142857143 0.014285714285714287 
0.336 0.07257600000000002 0.064512 0.056448000000000005 0.048384 -0.04032 0.0008064000000000002 0.43200000000000005 0.384 0.336 0.288 -0.24000000000000002 0.0048000000000000004 1.2857142857142858 1.1428571428571428 1.0 0.8571428571428571 -0.7142857142857143 0.014285714285714287 
0.344 0.07607314285714288 0.06762057142857143 0.05916800000000001 0.05071542857142858 -0.04226285714285715 0.0008452571428571431 0.44228571428571434 0.3931428571428571 0.34400000000000003 0.2948571428571429 -0.24571428571428575 0.004914285714285715 1.2857142857142858 1.1428571428571428 1.0 0.8571428571428571 -0.7142857142857143 0.014285714285714287 
0.352 0.07965257142857142 0.0708022857142857 0.06195199999999999 0.05310171428571428 -0.04425142857142857 0.0008850285714285714 0.45257142857142857 0.40228571428571425 0.352 0.30171428571428566 -0.25142857142857145 0.005028571428571429 1.2857142857142858 1.1428571428571428 1.0 0.8571428571428571 -0.7142857142857143 0.014285714285714287 
0.36 0.08331428571428572 0.07405714285714285 0.0648 0.05554285714285714 -0.046285714285714284 0.0009257142857142858 0.46285714285714286 0.41142857142857137 0.36 0.30857142857142855 -0.2571428571428571 0.0051428571428571435 1.2857142857142858 1.1428571428571428 1.0 0.8571428571428571 -0.7142857142857143 0.014285714285714287 
0.368 0.08705828571428571 0.07738514285714285 0.067712 0.058038857142857135 -0.04836571428571428 0.0009673142857142857 0.47314285714285714 0.42057142857142854 0.368 0.3154285714285714 -0.26285714285714284 0.005257142857142858 1.2857142857142858 1.1428571428571428 1.0 0.8571428571428571 -0.7142857142857143 0.014285714285714287 
0.376 0.09088457142857144 0.08078628571428571 0.070688 0.06058971428571428 -0.050491428571428576 0.0010098285714285715 0.4834285714285715 0.4297142857142857 0.376 0.3222857142857143 -0.26857142857142857 0.005371428571428572 1.2857142857142858 1.1428571428571428 1.0 0.8571428571428571 -0.7142857142857143 0.014285714285714287 
0.384 0.09479314285714287 0.08426057142857142 0.073728 0.06319542857142857 -0.05266285714285714 0.001053257142857143 0.49371428571428577 0.43885714285714283 0.384 0.3291428571428571 -0.2742857142857143 0.0054857142857142865 1.2857142857142858 1.1428571428571428 1.0 0.8571428571428571 -0.7142857142857143 0.014285714285714287 
0.392 0.09878400000000002 0.08780800000000001 0.07683200000000001 0.06585600000000001 -0.05488000000000001 0.0010976000000000002 0.504 0.448 0.392 0.336 -0.28 0.005600000000000001 1.2857142857142858 1.1428571428571428 1.0 0.8571428571428571 -0.7142857142857143 0.014285714285714287 
0.4 0.10285714285714288 0.09142857142857144 0.08000000000000002 0.06857142857142857 -0.057142857142857155 0.0011428571428571432 0.5142857142857143 0.45714285714285713 0.4 0.34285714285714286 -0.28571428571428575 0.005714285714285715 1.2857142857142858 1.1428571428571428 1.0 0.8571428571428571 -0.7142857142857143 0.014285714285714287 
0.408 0.10701257142857146 0.09512228571428573 0.08323200000000001 0.0713417142857143 -0.059451428571428586 0.0011890285714285717 0.5245714285714287 0.4662857142857143 0.40800000000000003 0.3497142857142857 -0.2914285714285715 0.0058285714285714295 1.2857142857142858 1.1428571428571428 1.0 0.8571428571428571 -0.7142857142857143 0.014285714285714287 
0.416 0.11125028571428575 0.09888914285714287 0.08652800000000002 0.07416685714285716 -0.061805714285714304 0.0012361142857142862 0.5348571428571429 0.4754285714285714 0.41600000000000004 0.3565714285714286 -0.29714285714285715 0.005942857142857144 1.2857142857142858 1.1428571428571428 1.0 0.8571428571428571 -0.7142857142857143 0.014285714285714287 
0.424 0.11557028571428572 0.10272914285714285 0.089888 0.07704685714285714 -0.06420571428571428 0.0012841142857142858 0.5451428571428572 0.48457142857142854 0.424 0.3634285714285714 -0.3028571428571429 0.006057142857142857 1.2857142857142858 1.1428571428571428 1.0 0.8571428571428571 -0.7142857142857143 0.014285714285714287 
0.432 0.11997257142857143 0.1066422857142857 0.09331199999999999 0.07998171428571428 -0.06665142857142857 0.0013330285714285713 0.5554285714285715 0.49371428571428566 0.432 0.3702857142857143 -0.30857142857142855 0.006171428571428572 1.2857142857142858 1.1428571428571428 1.0 0.8571428571428571 -0.7142857142857143 0.014285714285714287 
0.44 0.12445714285714286 0.11062857142857142 0.0968 0.08297142857142857 -0.06914285714285714 0.001382857142857143 0.5657142857142857 0.5028571428571428 0.44 0.3771428571428571 -0.3142857142857143 0.006285714285714286 1.2857142857142858 1.1428571428571428 1.0 0.8571428571428571 -0.7142857142857143 0.014285714285714287 
0.448 0.12902400000000003 0.11468800000000001 0.10035200000000001 0.08601600000000001 -0.07168000000000001 0.0014336000000000004 0.5760000000000001 0.512 0.448 0.384 -0.32 0.0064 1.2857142857142858 1.1428571428571428 1.0 0.8571428571428571 -0.7142857142857143 0.014285714285714287 
0.456 0.13367314285714288 0.11882057142857143 0.103968 0.08911542857142857 -0.07426285714285714 0.001485257142857143 0.5862857142857143 0.5211428571428571 0.456 0.39085714285714285 -0.32571428571428573 0.0065142857142857155 1.2857142857142858 1.1428571428571428 1.0 0.8571428571428571 -0.7142857142857143 0.014285714285714287 
0.464 0.13840457142857146 0.12302628571428571 0.10764800000000001 0.09226971428571429 -0.07689142857142858 0.0015378285714285718 0.5965714285714286 0.5302857142857142 0.464 0.3977142857142857 -0.33142857142857146 0.00662857142857143 1.2857142857142858 1.1428571428571428 1.0 0.8571428571428571 -0.7142857142857143 0.014285714285714287 
0.472 0.14321828571428574 0.12730514285714287 0.11139200000000002 0.09547885714285716 -0.0795657142857143 0.0015913142857142861 0.606857142857143 0.5394285714285715 0.47200000000000003 0.4045714285714286 -0.3371428571428572 0.006742857142857144 1.2857142857142858 1.1428571428571428 1.0 0.8571428571428571 -0.7142857142857143 0.014285714285714287 
0.48 0.14811428571428573 0.13165714285714283 0.1152 0.09874285714285713 -0.08228571428571428 0.0016457142857142857 0.6171428571428572 0.5485714285714285 0.48 0.41142857142857137 -0.34285714285714286 0.006857142857142858 1.2857142857142858 1.1428571428571428 1.0 0.8571428571428571 -0.7142857142857143 0.014285714285714287 
0.488 0.15309257142857144 0.1360822857142857 0.119072 0.10206171428571428 -0.08505142857142857 0.0017010285714285716 0.6274285714285714 0.5577142857142857 0.488 0.41828571428571426 -0.3485714285714286 0.006971428571428572 1.2857142857142858 1.1428571428571428 1.0 0.8571428571428571 -0.7142857142857143 0.014285714285714287 
0.496 0.15815314285714285 0.14058057142857142 0.12300799999999999 0.10543542857142855 -0.08786285714285715 0.001757257142857143 0.6377142857142858 0.5668571428571428 0.496 0.4251428571428571 -0.3542857142857143 0.007085714285714286 1.2857142857142858 1.1428571428571428 1.0 0.8571428571428571 -0.7142857142857143 0.014285714285714287 
0.504 0.16329600000000002 0.145152 0.127008 0.108864 -0.09072000000000001 0.0018144000000000003 0.648 0.576 0.504 0.432 -0.36 0.007200000000000001 1.2857142857142858 1.1428571428571428 1.0 0.8571428571428571 -0.7142857142857143 0.014285714285714287 
0.512 0.16852114285714287 0.14979657142857142 0.131072 0.11234742857142856 -0.09362285714285715 0.001872457142857143 0.6582857142857144 0.5851428571428571 0.512 0.43885714285714283 -0.3657142857142857 0.007314285714285715 1.2857142857142858 1.1428571428571428 1.0 0.8571428571428571 -0.7142857142857143 0.014285714285714287 
0.52 0.17382857142857147 0.15451428571428572 0.13520000000000001 0.11588571428571429 -0.09657142857142859 0.0019314285714285718 0.6685714285714286 0.5942857142857143 0.52 0.44571428571428573 -0.37142857142857144 0.007428571428571429 1.2857142857142858 1.1428571428571428 1.0 0.8571428571428571 -0.7142857142857143 0.014285714285714287 
0.528 0.17921828571428575 0.15930514285714287 0.13939200000000002 0.11947885714285715 -0.0995657142857143 0.001991314285714286 0.6788571428571429 0.6034285714285714 0.528 0.45257142857142857 -0.37714285714285717 0.007542857142857144 1.2857142857142858 1.1428571428571428 1.0 0.8571428571428571 -0.7142857142857143 0.014285714285714287 
0.536 0.18469028571428575 0.16416914285714287 0.14364800000000003 0.12312685714285716 -0.1026057142857143 0.0020521142857142863 0.6891428571428573 0.6125714285714285 0.536 0.4594285714285714 -0.3828571428571429 0.007657142857142858 1.2857142857142858 1.1428571428571428 1.0 0.8571428571428571 -0.7142857142857143 0.014285714285714287 
0.544 0.19024457142857146 0.16910628571428574 0.14796800000000002 0.1268297142857143 -0.10569142857142859 0.002113828571428572 0.6994285714285715 0.6217142857142858 0.544 0.4662857142857143 -0.3885714285714286 0.007771428571428572 1.2857142857142858 1.1428571428571428 1.0 0.8571428571428571 -0.7142857142857143 0.014285714285714287 
0.552 0.1958811428571429 0.17411657142857143 0.15235200000000002 0.13058742857142858 -0.10882285714285715 0.0021764571428571433 0.7097142857142859 0.6308571428571429 0.552 0.47314285714285714 -0.39428571428571435 0.007885714285714288 1.2857142857142858 1.1428571428571428 1.0 0.8571428571428571 -0.7142857142857143 0.014285714285714287 
0.56 0.20160000000000006 0.17920000000000003 0.15680000000000002 0.13440000000000002 -0.11200000000000002 0.0022400000000000007 0.7200000000000001 0.64 0.56 0.48000000000000004 -0.4 0.008000000000000002 1.2857142857142858 1.1428571428571428 1.0 0.8571428571428571 -0.7142857142857143 0.014285714285714287 
0.568 0.20740114285714292 0.18435657142857145 0.16131200000000004 0.1382674285714286 -0.11522285714285717 0.0023044571428571434 0.7302857142857144 0.6491428571428571 0.5680000000000001 0.4868571428571429 -0.40571428571428575 0.008114285714285716 1.2857142857142858 1.1428571428571428 1.0 0.8571428571428571 -0.7142857142857143 0.014285714285714287 
0.576 0.2132845714285715 0.18958628571428573 0.16588800000000004 0.1421897142857143 -0.1184914285714286 0.002369828571428572 0.7405714285714287 0.6582857142857144 0.5760000000000001 0.49371428571428577 -0.4114285714285715 0.00822857142857143 1.2857142857142858 1.1428571428571428 1.0 0.8571428571428571 -0.7142857142857143 0.014285714285714287 
0.584 0.2192502857142857 0.19488914285714282 0.17052799999999999 0.14616685714285713 -0.12180571428571428 0.0024361142857142856 0.7508571428571429 0.6674285714285714 0.584 0.5005714285714286 -0.41714285714285715 0.008342857142857143 1.2857142857142858 1.1428571428571428 1.0 0.8571428571428571 -0.7142857142857143 0.014285714285714287 
0.592 0.2252982857142857 0.2002651428571428 0.17523199999999997 0.1501988571428571 -0.12516571428571427 0.0025033142857142855 0.7611428571428571 0.6765714285714285 0.592 0.5074285714285713 -0.4228571428571428 0.008457142857142858 1.2857142857142858 1.1428571428571428 1.0 0.8571428571428571 -0.7142857142857143 0.014285714285714287 
0.6 0.23142857142857143 0.20571428571428568 0.18 0.15428571428571428 -0.12857142857142856 0.0025714285714285717 0.7714285714285715 0.6857142857142856 0.6 0.5142857142857142 -0.42857142857142855 0.008571428571428572 1.2857142857142858 1.1428571428571428 1.0 0.8571428571428571 -0.7142857142857143 0.014285714285714287 
0.608 0.23764114285714286 0.2112365714285714 0.184832 0.15842742857142855 -0.13202285714285714 0.002640457142857143 0.7817142857142858 0.6948571428571428 0.608 0.5211428571428571 -0.4342857142857143 0.008685714285714286 1.2857142857142858 1.1428571428571428 1.0 0.8571428571428571 -0.7142857142857143 0.014285714285714287 
0.616 0.24393600000000004 0.216832 0.189728 0.162624 -0.13552 0.0027104000000000004 0.792 0.704 0.616 0.5279999999999999 -0.44 0.0088 1.2857142857142858 1.1428571428571428 1.0 0.8571428571428571 -0.7142857142857143 0.014285714285714287 
0.624 0.2503131428571429 0.2225005714285714 0.194688 0.16687542857142856 -0.13906285714285715 0.0027812571428571433 0.8022857142857144 0.7131428571428571 0.624 0.5348571428571428 -0.44571428571428573 0.008914285714285715 1.2857142857142858 1.1428571428571428 1.0 0.8571428571428571 -0.7142857142857143 0.014285714285714287 
0.632 0.25677257142857146 0.2282422857142857 0.199712 0.17118171428571427 -0.14265142857142857 0.0028530285714285716 0.8125714285714286 0.7222857142857142 0.632 0.5417142857142857 -0.45142857142857146 0.00902857142857143 1.2857142857142858 1.1428571428571428 1.0 0.8571428571428571 -0.7142857142857143 0.014285714285714287 
0.64 0.2633142857142857 0.23405714285714285 0.2048 0.17554285714285714 -0.1462857142857143 0.0029257142857142863 0.822857142857143 0.7314285714285714 0.64 0.5485714285714286 -0.4571428571428572 0.009142857142857144 1.2857142857142858 1.1428571428571428 1.0 0.8571428571428571 -0.7142857142857143 0.014285714285714287 
0.6461563 0.2683632814034998 0.2385451390253331 0.2087269966471665 0.17890885426899986 -0.1490907118908332 0.0029818142378166645 0.820486700543794 0.7293215115944834 0.6381563226451731 0.5469911336958626 -0.4558259447465522 0.009116518894931045 0.0 0.0 0.0 0.0 0.0 0.0 
0.6541563 0.2749271750078502 0.24437971111808898 0.2138322472283279 0.18328478333856676 -0.15273731944880561 0.0030547463889761127 0.820486700543794 0.7293215115944834 0.6381563226451731 0.5469911336958626 -0.4558259447465522 0.009116518894931045 0.0 0.0 0.0 0.0 0.0 0.0 
0.66215634 0.2814910686122005 0.2502142832108449 0.2189374978094893 0.18766071240813367 -0.15638392700677806 0.0031276785401355613 0.820486700543794 0.7293215115944834 0.6381563226451731 0.5469911336958626 -0.4558259447465522 0.009116518894931045 0.0 0.0 0.0 0.0 0.0 0.0 
0.6701563 0.2880549622165509 0.2560488553036007 0.22404274839065066 0.19203664147770055 -0.16003053456475047 0.0032006106912950095 0.820486700543794 0.7293215115944834 0.6381563226451731 0.5469911336958626 -0.4558259447465522 0.009116518894931045 0.0 0.0 0.0 0.0 0.0 0.0 
0.6781563 0.29461885582090125 0.2618834273963566 0.22914799897181207 0.19641257054726746 -0.16367714212272289 0.003273542842454458 0.820486700543794 0.7293215115944834 0.6381563226451731 0.5469911336958626 -0.4558259447465522 0.009116518894931045 0.0 0.0 0.0 0.0 0.0 0.0 
0.68615633 0.3011827494252516 0.26771799948911246 0.23425324955297344 0.20078849961683437 -0.1673237496806953 0.0033464749936139063 0.820486700543794 0.7293215115944834 0.6381563226451731 0.5469911336958626 -0.4558259447465522 0.009116518894931045 0.0 0.0 0.0 0.0 0.0 0.0 
0.69415635 0.307746643029602 0.27355257158186835 0.23935850013413484 0.20516442868640128 -0.17097035723866774 0.003419407144773355 0.820486700543794 0.7293215115944834 0.6381563226451731 0.5469911336958626 -0.4558259447465522 0.009116518894931045 0.0 0.0 0.0 0.0 0.0 0.0 
0.7021563 0.3143105366339523 0.27938714367462425 0.24446375071529622 0.2095403577559682 -0.17461696479664016 0.003492339295932803 0.820486700543794 0.7293215115944834 0.6381563226451731 0.5469911336958626 -0.4558259447465522 0.009116518894931045 0.0 0.0 0.0 0.0 0.0 0.0 
0.7101563 0.3208744302383027 0.2852217157673801 0.24956900129645762 0.2139162868255351 -0.17826357235461257 0.0035652714470922517 0.820486700543794 0.7293215115944834 0.6381563226451731 0.5469911336958626 -0.4558259447465522 0.009116518894931045 0.0 0.0 0.0 0.0 0.0 0.0 
0.71815634 0.32743832384265303 0.291056287860136 0.254674251877619 0.218292215895102 -0.18191017991258498 0.0036382035982517004 0.820486700543794 0.7293215115944834 0.6381563226451731 0.5469911336958626 -0.4558259447465522 0.009116518894931045 0.0 0.0 0.0 0.0 0.0 0.0 
0.7261563 0.3340022174470034 0.29689085995289183 0.2597795024587804 0.2226681449646689 -0.18555678747055743 0.0037111357494111485 0.820486700543794 0.7293215115944834 0.6381563226451731 0.5469911336958626 -0.4558259447465522 0.009116518894931045 0.0 0.0 0.0 0.0 0.0 0.0 
0.7341563 0.34056611105135376 0.3027254320456477 0.2648847530399418 0.22704407403423582 -0.18920339502852984 0.0037840679005705967 0.820486700543794 0.7293215115944834 0.6381563226451731 0.5469911336958626 -0.4558259447465522 0.009116518894931045 0.0 0.0 0.0 0.0 0.0 0.0 
0.7421563 0.3471300046557041 0.30856000413840357 0.26999000362110315 0.2314200031038027 -0.19285000258650226 0.0038570000517300453 0.820486700543794 0.7293215115944834 0.6381563226451731 0.5469911336958626 -0.4558259447465522 0.009116518894931045 0.0 0.0 0.0 0.0 0.0 0.0 
0.75015634 0.3536938982600545 0.31439457623115946 0.27509525420226455 0.2357959321733696 -0.19649661014447467 0.003929932202889494 0.820486700543794 0.7293215115944834 0.6381563226451731 0.5469911336958626 -0.4558259447465522 0.009116518894931045 0.0 0.0 0.0 0.0 0.0 0.0 
0.7581563 0.3602577918644048 0.32022914832391536 0.28020050478342595 0.24017186124293652 -0.20014321770244708 0.004002864354048942 0.820486700543794 0.7293215115944834 0.6381563226451731 0.5469911336958626 -0.4558259447465522 0.009116518894931045 0.0 0.0 0.0 0.0 0.0 0.0 
0.7661563 0.3668216854687552 0.3260637204166712 0.28530575536458735 0.24454779031250343 -0.20378982526041953 0.00407579650520839 0.820486700543794 0.7293215115944834 0.6381563226451731 0.5469911336958626 -0.4558259447465522 0.009116518894931045 0.0 0.0 0.0 0.0 0.0 0.0 
0.77415633 0.37338557907310554 0.3318982925094271 0.29041100594574876 0.24892371938207034 -0.20743643281839194 0.004148728656367839 0.820486700543794 0.7293215115944834 0.6381563226451731 0.5469911336958626 -0.4558259447465522 0.009116518894931045 0.0 0.0 0.0 0.0 0.0 0.0 
0.78215635 0.37994947267745593 0.33773286460218294 0.2955162565269101 0.2532996484516372 -0.21108304037636436 0.004221660807527288 0.820486700543794 0.7293215115944834 0.6381563226451731 0.5469911336958626 -0.4558259447465522 0.009116518894931045 0.0 0.0 0.0 0.0 0.0 0.0 
0.7901563 0.38651336628180627 0.34356743669493883 0.3006215071080715 0.2576755775212041 -0.2147296479343368 0.004294592958686736 0.820486700543794 0.7293215115944834 0.6381563226451731 0.5469911336958626 -0.4558259447465522 0.009116518894931045 0.0 0.0 0.0 0.0 0.0 0.0 
0.7981563 0.3930772598861566 0.3494020087876947 0.3057267576892329 0.26205150659077103 -0.2183762554923092 0.004367525109846185 0.820486700543794 0.7293215115944834 0.6381563226451731 0.5469911336958626 -0.4558259447465522 0.009116518894931045 0.0 0.0 0.0 0.0 0.0 0.0 
0.80615634 0.399641153490507 0.35523658088045057 0.31083200827039426 0.26642743566033794 -0.22202286305028163 0.004440457261005633 0.820486700543794 0.7293215115944834 0.6381563226451731 0.5469911336958626 -0.4558259447465522 0.009116518894931045 0.0 0.0 0.0 0.0 0.0 0.0 
0.8141563 0.40620504709485733 0.36107115297320647 0.31593725885155566 0.27080336472990485 -0.22566947060825404 0.004513389412165081 0.820486700543794 0.7293215115944834 0.6381563226451731 0.5469911336958626 -0.4558259447465522 0.009116518894931045 0.0 0.0 0.0 0.0 0.0 0.0 
0.8221563 0.41276894069920766 0.3669057250659623 0.32104250943271706 0.27517929379947176 -0.22931607816622646 0.004586321563324529 0.820486700543794 0.7293215115944834 0.6381563226451731 0.5469911336958626 -0.4558259447465522 0.009116518894931045 0.0 0.0 0.0 0.0 0.0 0.0 
0.8301563 0.41933283430355806 0.3727402971587182 0.32614776001387846 0.27955522286903867 -0.23296268572419887 0.0046592537144839775 0.820486700543794 0.7293215115944834 0.6381563226451731 0.5469911336958626 -0.4558259447465522 0.009116518894931045 0.0 0.0 0.0 0.0 0.0 0.0 
0.83815634 0.42589672790790845 0.3785748692514741 0.33125301059503987 0.2839311519386056 -0.23660929328217128 0.004732185865643427 0.820486700543794 0.7293215115944834 0.6381563226451731 0.5469911336958626 -0.4558259447465522 0.009116518894931045 0.0 0.0 0.0 0.0 0.0 0.0 
0.8461563 0.4324606215122588 0.38440944134422994 0.33635826117620127 0.2883070810081725 -0.24025590084014373 0.004805118016802875 0.820486700543794 0.7293215115944834 0.6381563226451731 0.5469911336958626 -0.4558259447465522 0.009116518894931045 0.0 0.0 0.0 0.0 0.0 0.0 
0.8541563 0.4390245151166091 0.3902440134369858 0.3414635117573626 0.2926830100777394 -0.24390250839811614 0.004878050167962323 0.820486700543794 0.7293215115944834 0.6381563226451731 0.5469911336958626 -0.4558259447465522 0.009116518894931045 0.0 0.0 0.0 0.0 0.0 0.0 
0.86215633 0.4455884087209595 0.3960785855297417 0.346568762338524 0.2970589391473063 -0.24754911595608858 0.004950982319121772 0.820486700543794 0.7293215115944834 0.6381563226451731 0.5469911336958626 -0.4558259447465522 0.009116518894931045 0.0 0.0 0.0 0.0 0.0 0.0 
0.87015635 0.45215230232530984 0.4019131576224976 0.35167401291968536 0.30143486821687315 -0.251195723514061 0.00502391447028122 0.820486700543794 0.7293215115944834 0.6381563226451731 0.5469911336958626 -0.4558259447465522 0.009116518894931045 0.0 0.0 0.0 0.0 0.0 0.0 
0.8781563 0.4587161959296602 0.4077477297152534 0.35677926350084677 0.3058107972864401 -0.2548423310720334 0.005096846621440668 0.820486700543794 0.7293215115944834 0.6381563226451731 0.5469911336958626 -0.4558259447465522 0.009116518894931045 0.0 0.0 0.0 0.0 0.0 0.0 
0.8861563 0.46528008953401057 0.4135823018080093 0.36188451408200817 0.31018672635600697 -0.2584889386300058 0.0051697787726001174 0.820486700543794 0.7293215115944834 0.6381563226451731 0.5469911336958626 -0.4558259447465522 0.009116518894931045 0.0 0.0 0.0 0.0 0.0 0.0 
0.89415634 0.47184398313836096 0.4194168739007652 0.36698976466316957 0.31456265542557393 -0.26213554618797824 0.005242710923759566 0.820486700543794 0.7293215115944834 0.6381563226451731 0.5469911336958626 -0.4558259447465522 0.009116518894931045 0.0 0.0 0.0 0.0 0.0 0.0 
0.9021563 0.4784078767427113 0.42525144599352105 0.372095015244331 0.3189385844951408 -0.26578215374595066 0.005315643074919014 0.820486700543794 0.7293215115944834 0.6381563226451731 0.5469911336958626 -0.4558259447465522 0.009116518894931045 0.0 0.0 0.0 0.0 0.0 0.0 
0.9101563 0.4849717703470616 0.4310860180862769 0.3772002658254924 0.32331451356470775 -0.2694287613039231 0.005388575226078463 0.820486700543794 0.7293215115944834 0.6381563226451731 0.5469911336958626 -0.4558259447465522 0.009116518894931045 0.0 0.0 0.0 0.0 0.0 0.0 
0.9181563 0.491535663951412 0.4369205901790328 0.3823055164066537 0.3276904426342746 -0.27307536886189554 0.00546150737723791 0.820486700543794 0.7293215115944834 0.6381563226451731 0.5469911336958626 -0.4558259447465522 0.009116518894931045 0.0 0.0 0.0 0.0 0.0 0.0 
0.92615634 0.49809955755576235 0.4427551622717887 0.3874107669878151 0.3320663717038415 -0.27672197641986795 0.005534439528397359 0.820486700543794 0.7293215115944834 0.6381563226451731 0.5469911336958626 -0.4558259447465522 0.009116518894931045 0.0 0.0 0.0 0.0 0.0 0.0 
0.9341563 0.5046634511601127 0.4485897343645445 0.39251601756897647 0.3364423007734084 -0.28036858397784037 0.005607371679556807 0.820486700543794 0.7293215115944834 0.6381563226451731 0.5469911336958626 -0.4558259447465522 0.009116518894931045 0.0 0.0 0.0 0.0 0.0 0.0 
0.9421563 0.5112273447644631 0.4544243064573004 0.3976212681501379 0.34081822984297533 -0.2840151915358128 0.005680303830716256 0.820486700543794 0.7293215115944834 0.6381563226451731 0.5469911336958626 -0.4558259447465522 0.009116518894931045 0.0 0.0 0.0 0.0 0.0 0.0 
0.95015633 0.5177912383688135 0.4602588785500563 0.4027265187312993 0.34519415891254224 -0.2876617990937852 0.005753235981875705 0.820486700543794 0.7293215115944834 0.6381563226451731 0.5469911336958626 -0.4558259447465522 0.009116518894931045 0.0 0.0 0.0 0.0 0.0 0.0 
0.95815635 0.5243551319731639 0.46609345064281216 0.4078317693124607 0.34957008798210915 -0.2913084066517576 0.005826168133035153 0.820486700543794 0.7293215115944834 0.6381563226451731 0.5469911336958626 -0.4558259447465522 0.009116518894931045 0.0 0.0 0.0 0.0 0.0 0.0 
0.9661563 0.5309190255775141 0.471928022735568 0.4129370198936221 0.35394601705167605 -0.29495501420973 0.005899100284194601 0.820486700543794 0.7293215115944834 0.6381563226451731 0.5469911336958626 -0.4558259447465522 0.009116518894931045 0.0 0.0 0.0 0.0 0.0 0.0 
0.9741563 0.5374829191818645 0.4777625948283239 0.4180422704747835 0.3583219461212429 -0.29860162176770244 0.00597203243535405 0.820486700543794 0.7293215115944834 0.6381563226451731 0.5469911336958626 -0.4558259447465522 0.009116518894931045 0.0 0.0 0.0 0.0 0.0 0.0 
0.98215634 0.5440468127862148 0.4835971669210798 0.4231475210559449 0.36269787519080987 -0.30224822932567486 0.006044964586513498 0.820486700543794 0.7293215115944834 0.6381563226451731 0.5469911336958626 -0.4558259447465522 0.009116518894931045 0.0 0.0 0.0 0.0 0.0 0.0 
0.9901563 0.5506107063905652 0.48943173901383563 0.42825277163710623 0.3670738042603767 -0.30589483688364727 0.0061178967376729464 0.820486700543794 0.7293215115944834 0.6381563226451731 0.5469911336958626 -0.4558259447465522 0.009116518894931045 0.0 0.0 0.0 0.0 0.0 0.0 
0.9981563 0.5571745999949156 0.49526631110659153 0.43335802221826764 0.3714497333299437 -0.3095414444416197 0.0061908288888323955 0.820486700543794 0.7293215115944834 0.6381563226451731 0.5469911336958626 -0.4558259447465522 0.009116518894931045 0.0 0.0 0.0 0.0 0.0 0.0 
1.0061563 0.563738493599266 0.5011008831993475 0.4384632727994291 0.37582566239951065 -0.3131880519995922 0.0062637610399918445 0.820486700543794 0.7293215115944834 0.6381563226451731 0.5469911336958626 -0.4558259447465522 0.009116518894931045 0.0 0.0 0.0 0.0 0.0 0.0 
1.0141563 0.5703023872036164 0.5069354552921033 0.4435685233805905 0.3802015914690775 -0.3168346595575646 0.006336693191151293 0.820486700543794 0.7293215115944834 0.6381563226451731 0.5469911336958626 -0.4558259447465522 0.009116518894931045 0.0 0.0 0.0 0.0 0.0 0.0 
1.0221564 0.5768662808079668 0.5127700273848592 0.4486737739617519 0.38457752053864447 -0.32048126711553704 0.006409625342310741 0.820486700543794 0.7293215115944834 0.6381563226451731 0.5469911336958626 -0.4558259447465522 0.009116518894931045 0.0 0.0 0.0 0.0 0.0 0.0 
1.0301564 0.5834301744123171 0.5186045994776152 0.4537790245429133 0.3889534496082113 -0.32412787467350945 0.00648255749347019 0.820486700543794 0.7293215115944834 0.6381563226451731 0.5469911336958626 -0.4558259447465522 0.009116518894931045 0.0 0.0 0.0 0.0 0.0 0.0 
1.0381563 0.5899940680166674 0.5244391715703709 0.4588842751240746 0.3933293786777783 -0.32777448223148187 0.006555489644629638 0.820486700543794 0.7293215115944834 0.6381563226451731 0.5469911336958626 -0.4558259447465522 0.009116518894931045 0.0 0.0 0.0 0.0 0.0 0.0 
1.0461563 0.5965579616210178 0.5302737436631269 0.463989525705236 0.39770530774734514 -0.3314210897894543 0.006628421795789086 0.820486700543794 0.7293215115944834 0.6381563226451731 0.5469911336958626 -0.4558259447465522 0.009116518894931045 0.0 0.0 0.0 0.0 0.0 0.0 
1.0541563 0.6031218552253681 0.5361083157558827 0.4690947762863974 0.40208123681691205 -0.3350676973474267 0.006701353946948535 0.820486700543794 0.7293215115944834 0.6381563226451731 0.5469911336958626 -0.4558259447465522 0.009116518894931045 0.0 0.0 0.0 0.0 0.0 0.0 
1.0621563 0.6096857488297185 0.5419428878486385 0.4742000268675588 0.40645716588647895 -0.3387143049053991 0.006774286098107983 0.820486700543794 0.7293215115944834 0.6381563226451731 0.5469911336958626 -0.4558259447465522 0.009116518894931045 0.0 0.0 0.0 0.0 0.0 0.0 
1.0701563 0.6162496424340689 0.5477774599413945 0.4793052774487202 0.41083309495604586 -0.3423609124633715 0.006847218249267432 0.820486700543794 0.7293215115944834 0.6381563226451731 0.5469911336958626 -0.4558259447465522 0.009116518894931045 0.0 0.0 0.0 0.0 0.0 0.0 
1.0781564 0.6228135360384193 0.5536120320341503 0.4844105280298816 0.41520902402561277 -0.34600752002134394 0.00692015040042688 0.820486700543794 0.7293215115944834 0.6381563226451731 0.5469911336958626 -0.4558259447465522 0.009116518894931045 0.0 0.0 0.0 0.0 0.0 0.0 
1.0861564 0.6293774296427697 0.5594466041269062 0.489515778611043 0.4195849530951797 -0.3496541275793164 0.006993082551586329 0.820486700543794 0.7293215115944834 0.6381563226451731 0.5469911336958626 -0.4558259447465522 0.009116518894931045 0.0 0.0 0.0 0.0 0.0 0.0 
1.0941563 0.6359413232471199 0.5652811762196621 0.4946210291922044 0.4239608821647466 -0.3533007351372888 0.007066014702745777 0.820486700543794 0.7293215115944834 0.6381563226451731 0.5469911336958626 -0.4558259447465522 0.009116518894931045 0.0 0.0 0.0 0.0 0.0 0.0 
1.1021563 0.6425052168514703 0.571115748312418 0.4997262797733657 0.42833681123431344 -0.35694734269526124 0.007138946853905225 0.820486700543794 0.7293215115944834 0.6381563226451731 0.5469911336958626 -0.4558259447465522 0.009116518894931045 0.0 0.0 0.0 0.0 0.0 0.0 
1.1101563 0.6490691104558206 0.5769503204051738 0.5048315303545271 0.4327127403038804 -0.36059395025323365 0.0072118790050646735 0.820486700543794 0.7293215115944834 0.6381563226451731 0.5469911336958626 -0.4558259447465522 0.009116518894931045 0.0 0.0 0.0 0.0 0.0 0.0 
1.1181563 0.655633004060171 0.5827848924979298 0.5099367809356885 0.43708866937344726 -0.3642405578112061 0.007284811156224123 0.820486700543794 0.7293215115944834 0.6381563226451731 0.5469911336958626 -0.4558259447465522 0.009116518894931045 0.0 0.0 0.0 0.0 0.0 0.0 
1.1261563 0.6621968976645214 0.5886194645906855 0.5150420315168499 0.4414645984430142 -0.36788716536917854 0.007357743307383571 0.820486700543794 0.7293215115944834 0.6381563226451731 0.5469911336958626 -0.4558259447465522 0.009116518894931045 0.0 0.0 0.0 0.0 0.0 0.0 
1.1341563 0.6687607912688718 0.5944540366834414 0.5201472820980113 0.4458405275125811 -0.37153377292715095 0.007430675458543019 0.820486700543794 0.7293215115944834 0.6381563226451731 0.5469911336958626 -0.4558259447465522 0.009116518894931045 0.0 0.0 0.0 0.0 0.0 0.0 
1.1421564 0.6753246848732222 0.6002886087761974 0.5252525326791727 0.45021645658214804 -0.37518038048512337 0.007503607609702467 0.820486700543794 0.7293215115944834 0.6381563226451731 0.5469911336958626 -0.4558259447465522 0.009116518894931045 0.0 0.0 0.0 0.0 0.0 0.0 
1.1501564 0.6818885784775724 0.6061231808689531 0.5303577832603341 0.4545923856517149 -0.3788269880430958 0.007576539760861916 0.820486700543794 0.7293215115944834 0.6381563226451731 0.5469911336958626 -0.4558259447465522 0.009116518894931045 0.0 0.0 0.0 0.0 0.0 0.0 
1.1581563 0.6884524720819228 0.6119577529617091 0.5354630338414955 0.45896831472128186 -0.3824735956010682 0.007649471912021364 0.820486700543794 0.7293215115944834 0.6381563226451731 0.5469911336958626 -0.4558259447465522 0.009116518894931045 0.0 0.0 0.0 0.0 0.0 0.0 
1.1661563 0.6950163656862731 0.6177923250544649 0.5405682844226569 0.4633442437908487 -0.3861202031590406 0.0077224040631808126 0.820486700543794 0.7293215115944834 0.6381563226451731 0.5469911336958626 -0.4558259447465522 0.009116518894931045 0.0 0.0 0.0 0.0 0.0 0.0 
1.1741563 0.7015802592906235 0.6236268971472207 0.5456735350038182 0.4677201728604157 -0.389766810717013 0.007795336214340262 0.820486700543794 0.7293215115944834 0.6381563226451731 0.5469911336958626 -0.4558259447465522 0.009116518894931045 0.0 0.0 0.0 0.0 0.0 0.0 
1.1821563 0.7081441528949739 0.6294614692399767 0.5507787855849796 0.4720961019299825 -0.39341341827498544 0.00786826836549971 0.820486700543794 0.7293215115944834 0.6381563226451731 0.5469911336958626 -0.4558259447465522 0.009116518894931045 0.0 0.0 0.0 0.0 0.0 0.0 
1.1901563 0.7147080464993243 0.6352960413327325 0.555884036166141 0.4764720309995495 -0.39706002583295785 0.007941200516659159 0.820486700543794 0.7293215115944834 0.6381563226451731 0.5469911336958626 -0.4558259447465522 0.009116518894931045 0.0 0.0 0.0 0.0 0.0 0.0 
1.1981564 0.7212719401036747 0.6411306134254884 0.5609892867473024 0.48084796006911634 -0.40070663339093027 0.008014132667818606 0.820486700543794 0.7293215115944834 0.6381563226451731 0.5469911336958626 -0.4558259447465522 0.009116518894931045 0.0 0.0 0.0 0.0 0.0 0.0 
1.2061564 0.727835833708025 0.6469651855182443 0.5660945373284638 0.4852238891386832 -0.4043532409489027 0.008087064818978055 0.820486700543794 0.7293215115944834 0.6381563226451731 0.5469911336958626 -0.4558259447465522 0.009116518894931045 0.0 0.0 0.0 0.0 0.0 0.0 
1.2141563 0.7343997273123753 0.6527997576110002 0.5711997879096252 0.48959981820825016 -0.4079998485068751 0.008159996970137504 0.820486700543794 0.7293215115944834 0.6381563226451731 0.5469911336958626 -0.4558259447465522 0.009116518894931045 0.0 0.0 0.0 0.0 0.0 0.0 
1.2221563 0.7409636209167256 0.658634329703756 0.5763050384907866 0.493975747277817 -0.4116464560648475 0.008232929121296952 0.820486700543794 0.7293215115944834 0.6381563226451731 0.5469911336958626 -0.4558259447465522 0.009116518894931045 0.0 0.0 0.0 0.0 0.0 0.0 
1.2301563 0.747527514521076 0.664468901796512 0.581410289071948 0.498351676347384 -0.4152930636228199 0.008305861272456399 0.820486700543794 0.7293215115944834 0.6381563226451731 0.5469911336958626 -0.4558259447465522 0.009116518894931045 0.0 0.0 0.0 0.0 0.0 0.0 
1.2381563 0.7540914081254264 0.6703034738892677 0.5865155396531093 0.5027276054169508 -0.41893967118079234 0.00837879342361585 0.820486700543794 0.7293215115944834 0.6381563226451731 0.5469911336958626 -0.4558259447465522 0.009116518894931045 0.0 0.0 0.0 0.0 0.0 0.0 
1.2461563 0.7606553017297768 0.6761380459820236 0.5916207902342707 0.5071035344865178 -0.42258627873876486 0.008451725574775297 0.820486700543794 0.7293215115944834 0.6381563226451731 0.5469911336958626 -0.4558259447465522 0.009116518894931045 0.0 0.0 0.0 0.0 0.0 0.0 
1.2541564 0.7672191953341271 0.6819726180747796 0.5967260408154321 0.5114794635560846 -0.4262328862967373 0.008524657725934744 0.820486700543794 0.7293215115944834 0.6381563226451731 0.5469911336958626 -0.4558259447465522 0.009116518894931045 0.0 0.0 0.0 0.0 0.0 0.0 
1.2621564 0.7737830889384775 0.6878071901675353 0.6018312913965935 0.5158553926256516 -0.4298794938547097 0.008597589877094195 0.820486700543794 0.7293215115944834 0.6381563226451731 0.5469911336958626 -0.4558259447465522 0.009116518894931045 0.0 0.0 0.0 0.0 0.0 0.0 
1.2701563 0.7803469825428279 0.6936417622602913 0.6069365419777549 0.5202313216952185 -0.4335261014126821 0.008670522028253642 0.820486700543794 0.7293215115944834 0.6381563226451731 0.5469911336958626 -0.4558259447465522 0.009116518894931045 0.0 0.0 0.0 0.0 0.0 0.0 
1.2781563 0.7869108761471783 0.6994763343530471 0.6120417925589163 0.5246072507647854 -0.4371727089706545 0.00874345417941309 0.820486700543794 0.7293215115944834 0.6381563226451731 0.5469911336958626 -0.4558259447465522 0.009116518894931045 0.0 0.0 0.0 0.0 0.0 0.0 
1.2861563 0.7934747697515285 0.705310906445803 0.6171470431400777 0.5289831798343523 -0.44081931652862694 0.008816386330572539 0.820486700543794 0.7293215115944834 0.6381563226451731 0.5469911336958626 -0.4558259447465522 0.009116518894931045 0.0 0.0 0.0 0.0 0.0 0.0 
1.2941563 0.8000386633558789 0.7111454785385589 0.6222522937212391 0.5333591089039192 -0.44446592408659935 0.008889318481731988 0.820486700543794 0.7293215115944834 0.6381563226451731 0.5469911336958626 -0.4558259447465522 0.009116518894931045 0.0 0.0 0.0 0.0 0.0 0.0 
1.3021563 0.8066025569602293 0.7169800506313148 0.6273575443024004 0.5377350379734861 -0.44811253164457177 0.008962250632891435 0.820486700543794 0.7293215115944834 0.6381563226451731 0.5469911336958626 -0.4558259447465522 0.009116518894931045 0.0 0.0 0.0 0.0 0.0 0.0 
1.3101563 0.8131664505645796 0.7228146227240706 0.6324627948835618 0.5421109670430531 -0.4517591392025442 0.009035182784050884 0.820486700543794 0.7293215115944834 0.6381563226451731 0.5469911336958626 -0.4558259447465522 0.009116518894931045 0.0 0.0 0.0 0.0 0.0 0.0 
1.3181564 0.81973034416893 0.7286491948168266 0.6375680454647232 0.5464868961126199 -0.4554057467605166 0.009108114935210333 0.820486700543794 0.7293215115944834 0.6381563226451731 0.5469911336958626 -0.4558259447465522 0.009116518894931045 0.0 0.0 0.0 0.0 0.0 0.0 
1.3261564 0.8262942377732804 0.7344837669095823 0.6426732960458846 0.5508628251821868 -0.459052354318489 0.00918104708636978 0.820486700543794 0.7293215115944834 0.6381563226451731 0.5469911336958626 -0.4558259447465522 0.009116518894931045 0.0 0.0 0.0 0.0 0.0 0.0 
1.3341563 0.8328581313776307 0.7403183390023382 0.647778546627046 0.5552387542517537 -0.4626989618764614 0.00925397923752923 0.820486700543794 0.7293215115944834 0.6381563226451731 0.5469911336958626 -0.4558259447465522 0.009116518894931045 0.0 0.0 0.0 0.0 0.0 0.0 
1.3421563 0.839422024981981 0.7461529110950942 0.6528837972082074 0.5596146833213206 -0.46634556943443384 0.009326911388688679 0.820486700543794 0.7293215115944834 0.6381563226451731 0.5469911336958626 -0.4558259447465522 0.009116518894931045 0.0 0.0 0.0 0.0 0.0 0.0 
1.3501563 0.8459859185863314 0.7519874831878499 0.6579890477893688 0.5639906123908875 -0.46999217699240625 0.009399843539848126 0.820486700543794 0.7293215115944834 0.6381563226451731 0.5469911336958626 -0.4558259447465522 0.009116518894931045 0.0 0.0 0.0 0.0 0.0 0.0 
1.3581563 0.8525498121906818 0.7578220552806059 0.6630942983705302 0.5683665414604544 -0.47363878455037867 0.009472775691007575 0.820486700543794 0.7293215115944834 0.6381563226451731 0.5469911336958626 -0.4558259447465522 0.009116518894931045 0.0 0.0 0.0 0.0 0.0 0.0 
1.3661563 0.8591137057950321 0.7636566273733618 0.6681995489516916 0.5727424705300214 -0.4772853921083511 0.009545707842167024 0.820486700543794 0.7293215115944834 0.6381563226451731 0.5469911336958626 -0.4558259447465522 0.009116518894931045 0.0 0.0 0.0 0.0 0.0 0.0 
1.3741564 0.8656775993993825 0.7694911994661175 0.6733047995328529 0.5771183995995882 -0.4809319996663235 0.009618639993326471 0.820486700543794 0.7293215115944834 0.6381563226451731 0.5469911336958626 -0.4558259447465522 0.009116518894931045 0.0 0.0 0.0 0.0 0.0 0.0 
1.3821564 0.8722414930037329 0.7753257715588735 0.6784100501140143 0.5814943286691552 -0.484578607224296 0.00969157214448592 0.820486700543794 0.7293215115944834 0.6381563226451731 0.5469911336958626 -0.4558259447465522 0.009116518894931045 0.0 0.0 0.0 0.0 0.0 0.0 
1.3901563 0.8788053866080832 0.7811603436516295 0.6835153006951757 0.585870257738722 -0.48822521478226844 0.00976450429564537 0.820486700543794 0.7293215115944834 0.6381563226451731 0.5469911336958626 -0.4558259447465522 0.009116518894931045 0.0 0.0 0.0 0.0 0.0 0.0 
1.3981563 0.8853692802124336 0.7869949157443852 0.6886205512763371 0.590246186808289 -0.49187182234024085 0.009837436446804817 0.820486700543794 0.7293215115944834 0.6381563226451731 0.5469911336958626 -0.4558259447465522 0.009116518894931045 0.0 0.0 0.0 0.0 0.0 0.0 
1.4061563 0.8919331738167839 0.7928294878371411 0.6937258018574985 0.5946221158778559 -0.49551842989821326 0.009910368597964266 0.820486700543794 0.7293215115944834 0.6381563226451731 0.5469911336958626 -0.4558259447465522 0.009116518894931045 0.0 0.0 0.0 0.0 0.0 0.0 
1.4141563 0.8984970674211343 0.7986640599298971 0.69883105243866 0.5989980449474228 -0.4991650374561857 0.009983300749123715 0.820486700543794 0.7293215115944834 0.6381563226451731 0.5469911336958626 -0.4558259447465522 0.009116518894931045 0.0 0.0 0.0 0.0 0.0 0.0 
1.4221563 0.9050609610254846 0.8044986320226528 0.7039363030198214 0.6033739740169897 -0.5028116450141581 0.010056232900283162 0.820486700543794 0.7293215115944834 0.6381563226451731 0.5469911336958626 -0.4558259447465522 0.009116518894931045 0.0 0.0 0.0 0.0 0.0 0.0 
1.4301564 0.911624854629835 0.8103332041154088 0.7090415536009828 0.6077499030865566 -0.5064582525721305 0.01012916505144261 0.820486700543794 0.7293215115944834 0.6381563226451731 0.5469911336958626 -0.4558259447465522 0.009116518894931045 0.0 0.0 0.0 0.0 0.0 0.0 
1.4381564 0.9181887482341854 0.8161677762081645 0.7141468041821442 0.6121258321561235 -0.5101048601301029 0.01020209720260206 0.820486700543794 0.7293215115944834 0.6381563226451731 0.5469911336958626 -0.4558259447465522 0.009116518894931045 0.0 0.0 0.0 0.0 0.0 0.0 
1.4461563 0.9247526418385357 0.8220023483009204 0.7192520547633056 0.6165017612256903 -0.5137514676880753 0.010275029353761508 0.820486700543794 0.7293215115944834 0.6381563226451731 0.5469911336958626 -0.4558259447465522 0.009116518894931045 0.0 0.0 0.0 0.0 0.0 0.0 
1.4541563 0.9313165354428861 0.8278369203936764 0.7243573053444669 0.6208776902952573 -0.5173980752460478 0.010347961504920955 0.820486700543794 0.7293215115944834 0.6381563226451731 0.5469911336958626 -0.4558259447465522 0.009116518894931045 0.0 0.0 0.0 0.0 0.0 0.0 
1.4621563 0.9378804290472365 0.8336714924864321 0.7294625559256283 0.6252536193648242 -0.5210446828040202 0.010420893656080404 0.820486700543794 0.7293215115944834 0.6381563226451731 0.5469911336958626 -0.4558259447465522 0.009116518894931045 0.0 0.0 0.0 0.0 0.0 0.0 
1.4701563 0.9444443226515868 0.8395060645791881 0.7345678065067897 0.6296295484343911 -0.5246912903619926 0.010493825807239853 0.820486700543794 0.7293215115944834 0.6381563226451731 0.5469911336958626 -0.4558259447465522 0.009116518894931045 0.0 0.0 0.0 0.0 0.0 0.0 
1.4781563 0.9510082162559371 0.845340636671944 0.7396730570879511 0.634005477503958 -0.528337897919965 0.0105667579583993 0.820486700543794 0.7293215115944834 0.6381563226451731 0.5469911336958626 -0.4558259447465522 0.009116518894931045 0.0 0.0 0.0 0.0 0.0 0.0 
1.4861563 0.9575721098602875 0.8511752087646998 0.7447783076691125 0.6383814065735249 -0.5319845054779374 0.01063969010955875 0.820486700543794 0.7293215115944834 0.6381563226451731 0.5469911336958626 -0.4558259447465522 0.009116518894931045 0.0 0.0 0.0 0.0 0.0 0.0 
1.4941564 0.9641360034646379 0.8570097808574557 0.7498835582502739 0.6427573356430918 -0.5356311130359098 0.010712622260718199 0.820486700543794 0.7293215115944834 0.6381563226451731 0.5469911336958626 -0.4558259447465522 0.009116518894931045 0.0 0.0 0.0 0.0 0.0 0.0 
1.5021564 0.9706998970689882 0.8628443529502117 0.7549888088314353 0.6471332647126588 -0.5392777205938822 0.010785554411877646 0.820486700543794 0.7293215115944834 0.6381563226451731 0.5469911336958626 -0.4558259447465522 0.009116518894931045 0.0 0.0 0.0 0.0 0.0 0.0 
1.5101563 0.9772637906733386 0.8686789250429674 0.7600940594125967 0.6515091937822256 -0.5429243281518547 0.010858486563037095 0.820486700543794 0.7293215115944834 0.6381563226451731 0.5469911336958626 -0.4558259447465522 0.009116518894931045 0.0 0.0 0.0 0.0 0.0 0.0 
1.5181563 0.983827684277689 0.8745134971357233 0.7651993099937581 0.6558851228517926 -0.5465709357098271 0.010931418714196544 0.820486700543794 0.7293215115944834 0.6381563226451731 0.5469911336958626 -0.4558259447465522 0.009116518894931045 0.0 0.0 0.0 0.0 0.0 0.0 
1.5261563 0.9903915778820392 0.8803480692284793 0.7703045605749194 0.6602610519213594 -0.5502175432677996 0.011004350865355991 0.820486700543794 0.7293215115944834 0.6381563226451731 0.5469911336958626 -0.4558259447465522 0.009116518894931045 0.0 0.0 0.0 0.0 0.0 0.0 
1.5341563 0.9969554714863896 0.886182641321235 0.7754098111560808 0.6646369809909264 -0.553864150825772 0.01107728301651544 0.820486700543794 0.7293215115944834 0.6381563226451731 0.5469911336958626 -0.4558259447465522 0.009116518894931045 0.0 0.0 0.0 0.0 0.0 0.0 
1.5421563 1.0035193650907401 0.892017213413991 0.7805150617372422 0.6690129100604932 -0.5575107583837444 0.01115021516767489 0.820486700543794 0.7293215115944834 0.6381563226451731 0.5469911336958626 -0.4558259447465522 0.009116518894931045 0.0 0.0 0.0 0.0 0.0 0.0 
1.5501564 1.0100832586950905 0.8978517855067467 0.7856203123184036 0.6733888391300602 -0.5611573659417168 0.011223147318834337 0.820486700543794 0.7293215115944834 0.6381563226451731 0.5469911336958626 -0.4558259447465522 0.009116518894931045 0.0 0.0 0.0 0.0 0.0 0.0 
1.5581564 1.0166471522994407 0.9036863575995027 0.790725562899565 0.677764768199627 -0.5648039734996892 0.011296079469993786 0.820486700543794 0.7293215115944834 0.6381563226451731 0.5469911336958626 -0.4558259447465522 0.009116518894931045 0.0 0.0 0.0 0.0 0.0 0.0 
1.5661563 1.023211045903791 0.9095209296922586 0.7958308134807264 0.682140697269194 -0.5684505810576617 0.011369011621153235 0.820486700543794 0.7293215115944834 0.6381563226451731 0.5469911336958626 -0.4558259447465522 0.009116518894931045 0.0 0.0 0.0 0.0 0.0 0.0 
1.5741563 1.0297749395081415 0.9153555017850143 0.8009360640618878 0.6865166263387609 -0.5720971886156341 0.011441943772312682 0.820486700543794 0.7293215115944834 0.6381563226451731 0.5469911336958626 -0.4558259447465522 0.009116518894931045 0.0 0.0 0.0 0.0 0.0 0.0 
1.5821563 1.0363388331124916 0.9211900738777703 0.8060413146430492 0.6908925554083278 -0.5757437961736065 0.011514875923472131 0.820486700543794 0.7293215115944834 0.6381563226451731 0.5469911336958626 -0.4558259447465522 0.009116518894931045 0.0 0.0 0.0 0.0 0.0 0.0 
1.5901563 1.042902726716842 0.9270246459705263 0.8111465652242105 0.6952684844778947 -0.5793904037315789 0.011587808074631578 0.820486700543794 0.7293215115944834 0.6381563226451731 0.5469911336958626 -0.4558259447465522 0.009116518894931045 0.0 0.0 0.0 0.0 0.0 0.0 
1.5981563 1.0494666203211924 0.932859218063282 0.8162518158053719 0.6996444135474617 -0.5830370112895513 0.011660740225791028 0.820486700543794 0.7293215115944834 0.6381563226451731 0.5469911336958626 -0.4558259447465522 0.009116518894931045 0.0 0.0 0.0 0.0 0.0 0.0 
1.6061563 1.0560305139255428 0.9386937901560379 0.8213570663865333 0.7040203426170285 -0.5866836188475237 0.011733672376950477 0.820486700543794 0.7293215115944834 0.6381563226451731 0.5469911336958626 -0.4558259447465522 0.009116518894931045 0.0 0.0 0.0 0.0 0.0 0.0 
1.6141564 1.0625944075298932 0.9445283622487939 0.8264623169676947 0.7083962716865955 -0.5903302264054962 0.011806604528109924 0.820486700543794 0.7293215115944834 0.6381563226451731 0.5469911336958626 -0.4558259447465522 0.009116518894931045 0.0 0.0 0.0 0.0 0.0 0.0 
1.6221564 1.0691583011342436 0.9503629343415496 0.8315675675488561 0.7127722007561623 -0.5939768339634686 0.011879536679269373 0.820486700543794 0.7293215115944834 0.6381563226451731 0.5469911336958626 -0.4558259447465522 0.009116518894931045 0.0 0.0 0.0 0.0 0.0 0.0 
1.6301563 1.075722194738594 0.9561975064343056 0.8366728181300175 0.7171481298257292 -0.597623441521441 0.011952468830428822 0.820486700543794 0.7293215115944834 0.6381563226451731 0.5469911336958626 -0.4558259447465522 0.009116518894931045 0.0 0.0 0.0 0.0 0.0 0.0 
1.6381563 1.0822860883429444 0.9620320785270613 0.8417780687111788 0.721524058895296 -0.6012700490794134 0.01202540098158827 0.820486700543794 0.7293215115944834 0.6381563226451731 0.5469911336958626 -0.4558259447465522 0.009116518894931045 0.0 0.0 0.0 0.0 0.0 0.0 
1.6461563 1.0888499819472945 0.9678666506198172 0.8468833192923402 0.725899987964863 -0.6049166566373858 0.012098333132747717 0.820486700543794 0.7293215115944834 0.6381563226451731 0.5469911336958626 -0.4558259447465522 0.009116518894931045 0.0 0.0 0.0 0.0 0.0 0.0 
1.6541563 1.095413875551645 0.973701222712573 0.8519885698735016 0.7302759170344298 -0.6085632641953582 0.012171265283907166 0.820486700543794 0.7293215115944834 0.6381563226451731 0.5469911336958626 -0.4558259447465522 0.009116518894931045 0.0 0.0 0.0 0.0 0.0 0.0 
1.6621563 1.1019777691559953 0.9795357948053289 0.857093820454663 0.7346518461039968 -0.6122098717533306 0.012244197435066615 0.820486700543794 0.7293215115944834 0.6381563226451731 0.5469911336958626 -0.4558259447465522 0.009116518894931045 0.0 0.0 0.0 0.0 0.0 0.0 
1.6701564 1.1085416627603455 0.9853703668980849 0.8621990710358244 0.7390277751735637 -0.615856479311303 0.012317129586226062 0.820486700543794 0.7293215115944834 0.6381563226451731 0.5469911336958626 -0.4558259447465522 0.009116518894931045 0.0 0.0 0.0 0.0 0.0 0.0 
1.6781564 1.1151055563646959 0.9912049389908406 0.8673043216169858 0.7434037042431306 -0.6195030868692755 0.012390061737385511 0.820486700543794 0.7293215115944834 0.6381563226451731 0.5469911336958626 -0.4558259447465522 0.009116518894931045 0.0 0.0 0.0 0.0 0.0 0.0 
1.6861563 1.1216694499690463 0.9970395110835966 0.8724095721981471 0.7477796333126975 -0.6231496944272479 0.012462993888544958 0.820486700543794 0.7293215115944834 0.6381563226451731 0.5469911336958626 -0.4558259447465522 0.009116518894931045 0.0 0.0 0.0 0.0 0.0 0.0 
1.6941563 1.1282333435733967 1.0028740831763525 0.8775148227793085 0.7521555623822644 -0.6267963019852203 0.012535926039704407 0.820486700543794 0.7293215115944834 0.6381563226451731 0.5469911336958626 -0.4558259447465522 0.009116518894931045 0.0 0.0 0.0 0.0 0.0 0.0 
1.7021563 1.134797237177747 1.0087086552691082 0.8826200733604699 0.7565314914518313 -0.6304429095431927 0.012608858190863857 0.820486700543794 0.7293215115944834 0.6381563226451731 0.5469911336958626 -0.4558259447465522 0.009116518894931045 0.0 0.0 0.0 0.0 0.0 0.0 
1.7101563 1.1413611307820974 1.0145432273618642 0.8877253239416313 0.7609074205213983 -0.6340895171011651 0.012681790342023304 0.820486700543794 0.7293215115944834 0.6381563226451731 0.5469911336958626 -0.4558259447465522 0.009116518894931045 0.0 0.0 0.0 0.0 0.0 0.0 
1.7181563 1.1479250243864478 1.0203777994546201 0.8928305745227927 0.7652833495909651 -0.6377361246591375 0.012754722493182753 0.820486700543794 0.7293215115944834 0.6381563226451731 0.5469911336958626 -0.4558259447465522 0.009116518894931045 0.0 0.0 0.0 0.0 0.0 0.0 
1.7261564 1.1544889179907982 1.0262123715473759 0.8979358251039541 0.7696592786605321 -0.6413827322171101 0.012827654644342202 0.820486700543794 0.7293215115944834 0.6381563226451731 0.5469911336958626 -0.4558259447465522 0.009116518894931045 0.0 0.0 0.0 0.0 0.0 0.0 
1.7341564 1.1610528115951486 1.0320469436401318 0.9030410756851155 0.7740352077300989 -0.6450293397750825 0.01290058679550165 0.820486700543794 0.7293215115944834 0.6381563226451731 0.5469911336958626 -0.4558259447465522 0.009116518894931045 0.0 0.0 0.0 0.0 0.0 0.0 
1.7421563 1.167616705199499 1.0378815157328878 0.9081463262662769 0.7784111367996658 -0.6486759473330549 0.012973518946661098 0.820486700543794 0.7293215115944834 0.6381563226451731 0.5469911336958626 -0.4558259447465522 0.009116518894931045 0.0 0.0 0.0 0.0 0.0 0.0 
1.7501563 1.1741805988038492 1.0437160878256435 0.9132515768474382 0.7827870658692327 -0.6523225548910273 0.013046451097820547 0.820486700543794 0.7293215115944834 0.6381563226451731 0.5469911336958626 -0.4558259447465522 0.009116518894931045 0.0 0.0 0.0 0.0 0.0 0.0 
1.7581563 1.1807444924081996 1.0495506599183995 0.9183568274285996 0.7871629949387996 -0.6559691624489997 0.013119383248979995 0.820486700543794 0.7293215115944834 0.6381563226451731 0.5469911336958626 -0.4558259447465522 0.009116518894931045 0.0 0.0 0.0 0.0 0.0 0.0 
1.7661563 1.18730838601255 1.0553852320111552 0.923462078009761 0.7915389240083666 -0.6596157700069721 0.013192315400139444 0.820486700543794 0.7293215115944834 0.6381563226451731 0.5469911336958626 -0.4558259447465522 0.009116518894931045 0.0 0.0 0.0 0.0 0.0 0.0 
1.7741563 1.1938722796169003 1.0612198041039111 0.9285673285909224 0.7959148530779334 -0.6632623775649445 0.013265247551298893 0.820486700543794 0.7293215115944834 0.6381563226451731 0.5469911336958626 -0.4558259447465522 0.009116518894931045 0.0 0.0 0.0 0.0 0.0 0.0 
1.7821563 1.2004361732212505 1.067054376196667 0.9336725791720838 0.8002907821475004 -0.666908985122917 0.01333817970245834 0.820486700543794 0.7293215115944834 0.6381563226451731 0.5469911336958626 -0.4558259447465522 0.009116518894931045 0.0 0.0 0.0 0.0 0.0 0.0 
1.7901564 1.207000066825601 1.0728889482894228 0.9387778297532452 0.8046667112170672 -0.6705555926808894 0.01341111185361779 0.820486700543794 0.7293215115944834 0.6381563226451731 0.5469911336958626 -0.4558259447465522 0.009116518894931045 0.0 0.0 0.0 0.0 0.0 0.0 
1.7981564 1.2135639604299513 1.0787235203821788 0.9438830803344066 0.8090426402866342 -0.6742022002388618 0.013484044004777236 0.820486700543794 0.7293215115944834 0.6381563226451731 0.5469911336958626 -0.4558259447465522 0.009116518894931045 0.0 0.0 0.0 0.0 0.0 0.0 
1.8061563 1.2201278540343017 1.0845580924749347 0.948988330915568 0.813418569356201 -0.6778488077968342 0.013556976155936686 0.820486700543794 0.7293215115944834 0.6381563226451731 0.5469911336958626 -0.4558259447465522 0.009116518894931045 0.0 0.0 0.0 0.0 0.0 0.0 
1.8141563 1.226691747638652 1.0903926645676905 0.9540935814967293 0.817794498425768 -0.6814954153548066 0.013629908307096135 0.820486700543794 0.7293215115944834 0.6381563226451731 0.5469911336958626 -0.4558259447465522 0.009116518894931045 0.0 0.0 0.0 0.0 0.0 0.0 
1.8221563 1.2332556412430025 1.0962272366604464 0.9591988320778907 0.8221704274953349 -0.685142022912779 0.013702840458255582 0.820486700543794 0.7293215115944834 0.6381563226451731 0.5469911336958626 -0.4558259447465522 0.009116518894931045 0.0 0.0 0.0 0.0 0.0 0.0 
1.8301563 1.2398195348473529 1.1020618087532024 0.9643040826590521 0.8265463565649018 -0.6887886304707516 0.013775772609415031 0.820486700543794 0.7293215115944834 0.6381563226451731 0.5469911336958626 -0.4558259447465522 0.009116518894931045 0.0 0.0 0.0 0.0 0.0 0.0 
1.8381563 1.2463834284517032 1.107896380845958 0.9694093332402135 0.8309222856344687 -0.692435238028724 0.01384870476057448 0.820486700543794 0.7293215115944834 0.6381563226451731 0.5469911336958626 -0.4558259447465522 0.009116518894931045 0.0 0.0 0.0 0.0 0.0 0.0 
1.8461564 1.2529473220560536 1.113730952938714 0.9745145838213749 0.8352982147040356 -0.6960818455866964 0.013921636911733927 0.820486700543794 0.7293215115944834 0.6381563226451731 0.5469911336958626 -0.4558259447465522 0.009116518894931045 0.0 0.0 0.0 0.0 0.0 0.0 
1.8541564 1.259511215660404 1.11956552503147 0.9796198344025363 0.8396741437736025 -0.6997284531446688 0.013994569062893376 0.820486700543794 0.7293215115944834 0.6381563226451731 0.5469911336958626 -0.4558259447465522 0.009116518894931045 0.0 0.0 0.0 0.0 0.0 0.0 
1.8621563 1.2660751092647544 1.1254000971242257 0.9847250849836977 0.8440500728431694 -0.7033750607026412 0.014067501214052825 0.820486700543794 0.7293215115944834 0.6381563226451731 0.5469911336958626 -0.4558259447465522 0.009116518894931045 0.0 0.0 0.0 0.0 0.0 0.0 
1.8701563 1.2726390028691048 1.1312346692169817 0.9898303355648591 0.8484260019127363 -0.7070216682606136 0.014140433365212273 0.820486700543794 0.7293215115944834 0.6381563226451731 0.5469911336958626 -0.4558259447465522 0.009116518894931045 0.0 0.0 0.0 0.0 0.0 0.0 
1.8781563 1.2792028964734548 1.1370692413097374 0.9949355861460205 0.8528019309823032 -0.710668275818586 0.014213365516371722 0.820486700543794 0.7293215115944834 0.6381563226451731 0.5469911336958626 -0.4558259447465522 0.009116518894931045 0.0 0.0 0.0 0.0 0.0 0.0 
1.8861563 1.2857667900778051 1.1429038134024934 1.0000408367271818 0.8571778600518701 -0.7143148833765585 0.014286297667531169 0.820486700543794 0.7293215115944834 0.6381563226451731 0.5469911336958626 -0.4558259447465522 0.009116518894931045 0.0 0.0 0.0 0.0 0.0 0.0 
1.8941563 1.2923306836821555 1.1487383854952493 1.005146087308343 0.861553789121437 -0.7179614909345309 0.014359229818690618 0.820486700543794 0.7293215115944834 0.6381563226451731 0.5469911336958626 -0.4558259447465522 0.009116518894931045 0.0 0.0 0.0 0.0 0.0 0.0 
1.9021564 1.298894577286506 1.154572957588005 1.0102513378895046 0.865929718191004 -0.7216080984925033 0.014432161969850067 0.820486700543794 0.7293215115944834 0.6381563226451731 0.5469911336958626 -0.4558259447465522 0.009116518894931045 0.0 0.0 0.0 0.0 0.0 0.0 
1.9101564 1.3054584708908563 1.160407529680761 1.015356588470666 0.8703056472605708 -0.7252547060504757 0.014505094121009515 0.820486700543794 0.7293215115944834 0.6381563226451731 0.5469911336958626 -0.4558259447465522 0.009116518894931045 0.0 0.0 0.0 0.0 0.0 0.0 
1.9181563 1.3120223644952067 1.166242101773517 1.0204618390518274 0.8746815763301378 -0.7289013136084481 0.014578026272168964 0.820486700543794 0.7293215115944834 0.6381563226451731 0.5469911336958626 -0.4558259447465522 0.009116518894931045 0.0 0.0 0.0 0.0 0.0 0.0 
1.922469 1.3155196897429544 1.169350835327071 1.023181980911187 0.877013126495303 -0.7308442720794193 0.014616885441588387 0.8102009862580792 0.7201786544516264 0.6301563226451732 0.5401339908387197 -0.45011165903226646 0.009002233180645327 -1.2857142857142858 -1.1428571428571428 -1.0 -0.8571428571428571 0.7142857142857143 -0.014285714285714287 
1.9304689 1.3219601547758764 1.1750756931341122 1.0281912314923485 0.8813067698505842 -0.7344223082088202 0.014688446164176404 0.799915271972365 0.7110357973087691 0.6221563226451732 0.5332768479815768 -0.4443973733179807 0.008887947466359614 -1.2857142857142858 -1.1428571428571428 -1.0 -0.8571428571428571 0.7142857142857143 -0.014285714285714287 
1.9384689 1.3283183340945122 1.180727408084011 1.0331364820735096 0.8855455560630082 -0.7379546300525069 0.014759092601050138 0.7896295576866508 0.7018929401659122 0.6141563226451732 0.5264197051244339 -0.4386830876036951 0.008773661752073902 -1.2857142857142858 -1.1428571428571428 -1.0 -0.8571428571428571 0.7142857142857143 -0.014285714285714287 
1.946469 1.3345942276988627 1.1863059801767668 1.0380177326546711 0.8897294851325752 -0.7414412376104793 0.014828824752209589 0.7793438434009365 0.6927500830230549 0.6061563226451732 0.519562562267291 -0.43296880188940934 0.008659376037788189 -1.2857142857142858 -1.1428571428571428 -1.0 -0.8571428571428571 0.7142857142857143 -0.014285714285714287 
1.954469 1.3407878355889273 1.19181140941238 1.0428349832358326 0.8938585570592849 -0.7448821308827375 0.014897642617654751 0.7690581291152223 0.6836072258801975 0.5981563226451732 0.5127054194101481 -0.42725451617512356 0.00854509032350247 -1.2857142857142858 -1.1428571428571428 -1.0 -0.8571428571428571 0.7142857142857143 -0.014285714285714287 
1.962469 1.346899157764706 1.1972436957908499 1.047588233816994 0.8979327718431375 -0.7482773098692812 0.014965546197385625 0.7587724148295081 0.6744643687373406 0.5901563226451731 0.5058482765530052 -0.421540230460838 0.008430804609216757 -1.2857142857142858 -1.1428571428571428 -1.0 -0.8571428571428571 0.7142857142857143 -0.014285714285714287 
1.970469 1.3529281942261995 1.2026028393121775 1.0522774843981553 0.9019521294841331 -0.751626774570111 0.015032535491402217 0.7484867005437938 0.6653215115944833 0.5821563226451731 0.49899113369586234 -0.4158259447465522 0.008316518894931044 -1.2857142857142858 -1.1428571428571428 -1.0 -0.8571428571428571 0.7142857142857143 -0.014285714285714287 
1.978469 1.358874944973407 1.207888839976362 1.0569027349793167 0.9059166299822715 -0.7549305249852263 0.015098610499704526 0.7382009862580792 0.6561786544516264 0.5741563226451731 0.49213399083871967 -0.41011165903226643 0.008202233180645332 -1.2857142857142858 -1.1428571428571428 -1.0 -0.8571428571428571 0.7142857142857143 -0.014285714285714287 
1.9864689 1.3647394100063288 1.2131016977834035 1.0614639855604782 0.9098262733375525 -0.7581885611146272 0.015163771222292545 0.7279152719723649 0.647035797308769 0.5661563226451731 0.4852768479815768 -0.40439737331798065 0.008087947466359612 -1.2857142857142858 -1.1428571428571428 -1.0 -0.8571428571428571 0.7142857142857143 -0.014285714285714287 
1.9944689 1.3705215893249647 1.218241412733302 1.0659612361416395 0.9136810595499765 -0.7614008829583138 0.015228017659166277 0.7176295576866507 0.6378929401659121 0.5581563226451731 0.4784197051244339 -0.3986830876036951 0.0079736617520739 -1.2857142857142858 -1.1428571428571428 -1.0 -0.8571428571428571 0.7142857142857143 -0.014285714285714287 
2.002469 1.3762214829293156 1.2233079848260582 1.070394486722801 0.9174809886195436 -0.7645674905162864 0.015291349810325731 0.7073438434009365 0.6287500830230548 0.5501563226451731 0.471562562267291 -0.3929688018894093 0.007859376037788187 -1.2857142857142858 -1.1428571428571428 -1.0 -0.8571428571428571 0.7142857142857143 -0.014285714285714287 
2.010469 1.3818390908193798 1.228301414061671 1.0747637373039622 0.9212260605462532 -0.7676883837885444 0.01535376767577089 0.6970581291152222 0.6196072258801975 0.5421563226451731 0.4647054194101481 -0.3872545161751235 0.007745090323502474 -1.2857142857142858 -1.1428571428571428 -1.0 -0.8571428571428571 0.7142857142857143 -0.014285714285714287 
2.0184689 1.3873744129951588 1.2332217004401413 1.0790689878851238 0.924916275330106 -0.7707635627750884 0.015415271255501769 0.686772414829508 0.6104643687373406 0.5341563226451731 0.4578482765530052 -0.38154023046083796 0.007630804609216755 -1.2857142857142858 -1.1428571428571428 -1.0 -0.8571428571428571 0.7142857142857143 -0.014285714285714287 
2.026469 1.392827449456652 1.2380688439614682 1.083310238466285 0.9285516329711012 -0.7737930274759177 0.015475860549518354 0.6764867005437938 0.6013215115944832 0.5261563226451731 0.4509911336958623 -0.3758259447465522 0.007516518894931042 -1.2857142857142858 -1.1428571428571428 -1.0 -0.8571428571428571 0.7142857142857143 -0.014285714285714287 
2.034469 1.3981982002038593 1.242842844625653 1.0874874890474462 0.9321321334692395 -0.776776777891033 0.015535535557820659 0.6662009862580791 0.5921786544516263 0.5181563226451731 0.44413399083871963 -0.3701116590322664 0.00740223318064533 -1.2857142857142858 -1.1428571428571428 -1.0 -0.8571428571428571 0.7142857142857143 -0.014285714285714287 
2.042469 1.4034866652367808 1.2475437024326943 1.0916007396286076 0.9356577768245207 -0.779714814020434 0.015594296280408681 0.6559152719723649 0.583035797308769 0.5101563226451731 0.43727684798157673 -0.3643973733179806 0.007287947466359617 -1.2857142857142858 -1.1428571428571428 -1.0 -0.8571428571428571 0.7142857142857143 -0.014285714285714287 
2.050469 1.4086928445554174 1.2521714173825935 1.0956499902097694 0.939128563036945 -0.7826071358641209 0.01565214271728242 0.6456295576866506 0.5738929401659121 0.5021563226451731 0.43041970512443384 -0.35868308760369505 0.0071736617520738975 -1.2857142857142858 -1.1428571428571428 -1.0 -0.8571428571428571 0.7142857142857143 -0.014285714285714287 
2.058469 1.4138167381597677 1.256725989475349 1.0996352407909307 0.9425444921065118 -0.7854537434220932 0.015709074868441864 0.6353438434009364 0.5647500830230547 0.49415632264517306 0.42356256226729094 -0.35296880188940927 0.007059376037788185 -1.2857142857142858 -1.1428571428571428 -1.0 -0.8571428571428571 0.7142857142857143 -0.014285714285714287 
2.066469 1.4188583460498325 1.2612074187109625 1.1035564913720923 0.9459055640332219 -0.7882546366943515 0.015765092733887032 0.6250581291152222 0.5556072258801974 0.48615632264517306 0.41670541941014805 -0.3472545161751235 0.006945090323502472 -1.2857142857142858 -1.1428571428571428 -1.0 -0.8571428571428571 0.7142857142857143 -0.014285714285714287 
2.0744689 1.4238176682256112 1.265615705089432 1.1074137419532533 0.9492117788170742 -0.7910098156808951 0.015820196313617904 0.614772414829508 0.5464643687373405 0.47815632264517305 0.40984827655300515 -0.3415402304608379 0.00683080460921676 -1.2857142857142858 -1.1428571428571428 -1.0 -0.8571428571428571 0.7142857142857143 -0.014285714285714287 
2.082469 1.4286947046871046 1.2699508486107596 1.1112069925344148 0.9524631364580698 -0.793719280381725 0.015874385607634496 0.6044867005437937 0.5373215115944832 0.47015632264517304 0.40299113369586226 -0.33582594474655214 0.00671651889493104 -1.2857142857142858 -1.1428571428571428 -1.0 -0.8571428571428571 0.7142857142857143 -0.014285714285714287 
2.090469 1.433489455434312 1.2742128492749443 1.1149362431155763 0.9556596369562079 -0.7963830307968403 0.015927660615936805 0.594200986258079 0.5281786544516263 0.46215632264517303 0.3961339908387196 -0.33011165903226636 0.006602233180645328 -1.2857142857142858 -1.1428571428571428 -1.0 -0.8571428571428571 0.7142857142857143 -0.014285714285714287 
2.098469 1.4382019204672338 1.2784017070819855 1.1186014936967374 0.9588012803114894 -0.7990010669262412 0.015980021338524823 0.5839152719723648 0.5190357973087689 0.454156322645173 0.3892768479815767 -0.3243973733179806 0.006487947466359615 -1.2857142857142858 -1.1428571428571428 -1.0 -0.8571428571428571 0.7142857142857143 -0.014285714285714287 
2.106469 1.44283209978587 1.2825174220318845 1.1222027442778988 0.9618880665239131 -0.8015733887699278 0.016031467775398555 0.5736295576866506 0.509892940165912 0.446156322645173 0.3824197051244338 -0.318683087603695 0.006373661752073895 -1.2857142857142858 -1.1428571428571428 -1.0 -0.8571428571428571 0.7142857142857143 -0.014285714285714287 
2.114469 1.4473799933902205 1.2865599941246406 1.1257399948590605 0.9649199955934802 -0.8040999963279003 0.016081999926558007 0.5633438434009364 0.5007500830230547 0.438156322645173 0.3755625622672909 -0.31296880188940923 0.006259376037788183 -1.2857142857142858 -1.1428571428571428 -1.0 -0.8571428571428571 0.7142857142857143 -0.014285714285714287 
2.122469 1.4518456012802847 1.2905294233602533 1.1292132454402217 0.9678970675201899 -0.8065808896001583 0.01613161779200317 0.5530581291152221 0.49160722588019734 0.430156322645173 0.368705419410148 -0.30725451617512345 0.00614509032350247 -1.2857142857142858 -1.1428571428571428 -1.0 -0.8571428571428571 0.7142857142857143 -0.014285714285714287 
2.130469 1.456228923456064 1.2944257097387235 1.1326224960213833 0.9708192823040426 -0.8090160685867023 0.016180321371734047 0.5427724148295079 0.48246436873734044 0.422156322645173 0.3618482765530051 -0.3015402304608379 0.006030804609216758 -1.2857142857142858 -1.1428571428571428 -1.0 -0.8571428571428571 0.7142857142857143 -0.014285714285714287 
2.138469 1.460529959917557 1.298248853260051 1.1359677466025448 0.9736866399450381 -0.8114055332875318 0.01622811066575064 0.5324867005437937 0.4733215115944831 0.414156322645173 0.3549911336958622 -0.2958259447465521 0.005916518894931038 -1.2857142857142858 -1.1428571428571428 -1.0 -0.8571428571428571 0.7142857142857143 -0.014285714285714287 
2.1464689 1.464748710664764 1.301998853924235 1.1392489971837056 0.9764991404431762 -0.8137492837026468 0.016274985674052937 0.522200986258079 0.4641786544516262 0.406156322645173 0.34813399083871954 -0.2901116590322663 0.0058022331806453255 -1.2857142857142858 -1.1428571428571428 -1.0 -0.8571428571428571 0.7142857142857143 -0.014285714285714287 
2.154469 1.4688851756976864 1.305675711731277 1.1424662477648675 0.9792567837984577 -0.816047319832048 0.016320946396640966 0.5119152719723647 0.45503579730876886 0.398156322645173 0.34127684798157665 -0.28439737331798054 0.005687947466359613 -1.2857142857142858 -1.1428571428571428 -1.0 -0.8571428571428571 0.7142857142857143 -0.014285714285714287 
2.162469 1.4729393550163226 1.3092794266811756 1.1456194983460286 0.9819595700108816 -0.8182996416757347 0.016365992833514698 0.5016295576866505 0.44589294016591197 0.39015632264517297 0.33441970512443375 -0.278683087603695 0.0055736617520739 -1.2857142857142858 -1.1428571428571428 -1.0 -0.8571428571428571 0.7142857142857143 -0.014285714285714287 
2.170469 1.4769112486206728 1.3128099987739312 1.1487087489271899 0.9846074990804484 -0.8205062492337072 0.016410124984674142 0.4913438434009363 0.4367500830230546 0.38215632264517296 0.32756256226729086 -0.2729688018894092 0.005459376037788181 -1.2857142857142858 -1.1428571428571428 -1.0 -0.8571428571428571 0.7142857142857143 -0.014285714285714287 
2.178469 1.4808008565107373 1.3162674280095445 1.1517339995083515 0.9872005710071584 -0.8226671425059654 0.01645334285011931 0.48105812911522206 0.4276072258801973 0.37415632264517296 0.32070541941014796 -0.2672545161751234 0.005345090323502468 -1.2857142857142858 -1.1428571428571428 -1.0 -0.8571428571428571 0.7142857142857143 -0.014285714285714287 
2.186469 1.484608178686516 1.3196517143880142 1.1546952500895127 0.9897387857910107 -0.824782321492509 0.01649564642985018 0.4707724148295078 0.4184643687373404 0.36615632264517295 0.31384827655300507 -0.26154023046083785 0.0052308046092167555 -1.2857142857142858 -1.1428571428571428 -1.0 -0.8571428571428571 0.7142857142857143 -0.014285714285714287 
2.194469 1.488333215148009 1.3229628579093418 1.1575925006706742 0.9922221434320061 -0.8268517861933387 0.01653703572386677 0.4604867005437936 0.40932151159448305 0.35815632264517294 0.3069911336958622 -0.25582594474655207 0.005116518894931036 -1.2857142857142858 -1.1428571428571428 -1.0 -0.8571428571428571 0.7142857142857143 -0.014285714285714287 
2.2024689 1.4919759658952167 1.326200858573526 1.1604257512518357 0.9946506439301447 -0.8288755366084539 0.01657751073216908 0.4502009862580789 0.40017865445162615 0.35015632264517293 0.3001339908387195 -0.2501116590322663 0.005002233180645323 -1.2857142857142858 -1.1428571428571428 -1.0 -0.8571428571428571 0.7142857142857143 -0.014285714285714287 
2.210469 1.4955364309281385 1.3293657163805677 1.1631950018329968 0.9970242872854257 -0.8308535727378548 0.016617071454757097 0.4399152719723647 0.3910357973087688 0.34215632264517293 0.2932768479815766 -0.2443973733179805 0.004887947466359611 -1.2857142857142858 -1.1428571428571428 -1.0 -0.8571428571428571 0.7142857142857143 -0.014285714285714287 
2.218469 1.4990146102467747 1.3324574313304662 1.1659002524141582 0.9993430734978498 -0.8327858945815416 0.016655717891630832 0.42962955768665045 0.3818929401659119 0.3341563226451729 0.2864197051244337 -0.23868308760369494 0.004773661752073898 -1.2857142857142858 -1.1428571428571428 -1.0 -0.8571428571428571 0.7142857142857143 -0.014285714285714287 
2.226469 1.5024105038511255 1.3354760034232227 1.1685415029953197 1.0016070025674169 -0.8346725021395143 0.016693450042790284 0.4193438434009362 0.37275008302305457 0.3261563226451729 0.2795625622672908 -0.23296880188940916 0.004659376037788179 -1.2857142857142858 -1.1428571428571428 -1.0 -0.8571428571428571 0.7142857142857143 -0.014285714285714287 
2.234469 1.5057241117411895 1.3384214326588353 1.1711187535764809 1.0038160744941265 -0.8365133954117722 0.01673026790823544 0.409058129115222 0.3636072258801972 0.3181563226451729 0.2727054194101479 -0.22725451617512338 0.004545090323502466 -1.2857142857142858 -1.1428571428571428 -1.0 -0.8571428571428571 0.7142857142857143 -0.014285714285714287 
2.242469 1.5089554339169684 1.3412937190373055 1.1736320041576425 1.005970289277979 -0.8383085743983161 0.016766171487966323 0.39877241482950776 0.35446436873734033 0.3101563226451729 0.265848276553005 -0.22154023046083782 0.004430804609216753 -1.2857142857142858 -1.1428571428571428 -1.0 -0.8571428571428571 0.7142857142857143 -0.014285714285714287 
2.250469 1.5121044703784619 1.3440928625586333 1.176081254738804 1.0080696469189747 -0.8400580390991457 0.01680116078198291 0.38848670054379353 0.345321511594483 0.3021563226451729 0.25899113369586213 -0.21582594474655203 0.004316518894931041 -1.2857142857142858 -1.1428571428571428 -1.0 -0.8571428571428571 0.7142857142857143 -0.014285714285714287 
2.2584689 1.5151712211256694 1.3468188632228175 1.1784665053199654 1.010114147417113 -0.841761789514261 0.016835235790285216 0.37820098625807885 0.3361786544516261 0.2941563226451729 0.25213399083871946 -0.21011165903226625 0.004202233180645321 -1.2857142857142858 -1.1428571428571428 -1.0 -0.8571428571428571 0.7142857142857143 -0.014285714285714287 
2.266469 1.5181556861585914 1.3494717210298588 1.1807877559011268 1.0121037907723942 -0.8434198256436619 0.01686839651287324 0.3679152719723646 0.32703579730876875 0.2861563226451729 0.24527684798157656 -0.20439737331798047 0.004087947466359609 -1.2857142857142858 -1.1428571428571428 -1.0 -0.8571428571428571 0.7142857142857143 -0.014285714285714287 
2.274469 1.5210578654772273 1.352051435979758 1.1830450064822882 1.0140385769848181 -0.8450321474873485 0.016900642949746972 0.3576295576866504 0.31789294016591185 0.27815632264517287 0.23841970512443367 -0.1986830876036949 0.003973661752073896 -1.2857142857142858 -1.1428571428571428 -1.0 -0.8571428571428571 0.7142857142857143 -0.014285714285714287 
2.282469 1.523877759081577 1.3545580080725128 1.1852382570634492 1.015918506054385 -0.8465987550453208 0.016931975100906417 0.34734384340093616 0.3087500830230545 0.27015632264517286 0.23156256226729077 -0.19296880188940913 0.0038593760377881835 -1.2857142857142858 -1.1428571428571428 -1.0 -0.8571428571428571 0.7142857142857143 -0.014285714285714287 
2.290469 1.5266153669716422 1.3569914373081264 1.1873675076446109 1.0177435779810948 -0.848119648317579 0.016962392966351585 0.3370581291152219 0.29960722588019717 0.26215632264517286 0.22470541941014788 -0.18725451617512334 0.003745090323502464 -1.2857142857142858 -1.1428571428571428 -1.0 -0.8571428571428571 0.7142857142857143 -0.014285714285714287 
2.298469 1.529270689147421 1.359351723686597 1.1894327582257722 1.0195137927649476 -0.849594827304123 0.01699189654608246 0.3267724148295077 0.2904643687373403 0.25415632264517285 0.21784827655300498 -0.18154023046083778 0.0036308046092167513 -1.2857142857142858 -1.1428571428571428 -1.0 -0.8571428571428571 0.7142857142857143 -0.014285714285714287 
2.306469 1.5318437256089144 1.3616388672079238 1.1914340088069337 1.0212291504059432 -0.8510242920049526 0.017020485840099055 0.31648670054379346 0.28132151159448293 0.24615632264517284 0.2109911336958621 -0.175825944746552 0.0035165188949310387 -1.2857142857142858 -1.1428571428571428 -1.0 -0.8571428571428571 0.7142857142857143 -0.014285714285714287 
2.3144689 1.5343344763561215 1.3638528678721082 1.1933712593880947 1.022889650904081 -0.8524080424200675 0.017048160848401352 0.3062009862580788 0.27217865445162603 0.23815632264517284 0.20413399083871941 -0.17011165903226622 0.003402233180645326 -1.2857142857142858 -1.1428571428571428 -1.0 -0.8571428571428571 0.7142857142857143 -0.014285714285714287 
2.322469 1.5367429413890439 1.3659937256791501 1.1952445099692566 1.0244952942593626 -0.8537460785494689 0.017074921570989377 0.29591527197236456 0.2630357973087687 0.23015632264517283 0.19727684798157652 -0.16439737331798043 0.0032879474663596066 -1.2857142857142858 -1.1428571428571428 -1.0 -0.8571428571428571 0.7142857142857143 -0.014285714285714287 
2.330469 1.5390691207076799 1.3680614406290486 1.197053760550418 1.0260460804717866 -0.8550384003931555 0.017100768007863112 0.2856295576866503 0.2538929401659118 0.22215632264517282 0.19041970512443362 -0.15868308760369487 0.003173661752073894 -1.2857142857142858 -1.1428571428571428 -1.0 -0.8571428571428571 0.7142857142857143 -0.014285714285714287 
2.338469 1.5413130143120297 1.3700560127218047 1.1987990111315787 1.0275420095413534 -0.8562850079511278 0.01712570015902256 0.2753438434009361 0.24475008302305445 0.21415632264517281 0.18356256226729095 -0.1529688018894091 0.0030593760377881814 -1.2857142857142858 -1.1428571428571428 -1.0 -0.8571428571428571 0.7142857142857143 -0.014285714285714287 
2.346469 1.5434746222020947 1.3719774419574178 1.2004802617127408 1.0289830814680632 -0.8574859012233861 0.01714971802446772 0.26505812911522186 0.2356072258801971 0.2061563226451728 0.17670541941014783 -0.1472545161751233 0.002945090323502462 -1.2857142857142858 -1.1428571428571428 -1.0 -0.8571428571428571 0.7142857142857143 -0.014285714285714287 
2.354469 1.545553944377873 1.3738257283358875 1.2020975122939015 1.0303692962519158 -0.8586410802099299 0.0171728216041986 0.25477241482950763 0.22646436873734022 0.1981563226451728 0.16984827655300516 -0.14154023046083775 0.0028308046092167492 -1.2857142857142858 -1.1428571428571428 -1.0 -0.8571428571428571 0.7142857142857143 -0.014285714285714287 
2.362469 1.5475509808393664 1.375600871857215 1.2036507628750635 1.0317006538929112 -0.8597505449107594 0.017195010898215186 0.24448670054379296 0.21732151159448287 0.1901563226451728 0.16299113369586204 -0.13582594474655196 0.0027165188949310366 -1.2857142857142858 -1.1428571428571428 -1.0 -0.8571428571428571 0.7142857142857143 -0.014285714285714287 
2.3704689 1.549465731586574 1.3773028725213994 1.2051400134562245 1.0329771543910495 -0.8608142953258747 0.01721628590651749 0.23420098625807872 0.20817865445162598 0.18215632264517279 0.15613399083871937 -0.13011165903226618 0.002602233180645324 -1.2857142857142858 -1.1428571428571428 -1.0 -0.8571428571428571 0.7142857142857143 -0.014285714285714287 
2.378469 1.5512981966194959 1.3789317303284407 1.2065652640373858 1.0341987977463307 -0.8618323314552756 0.017236646629105512 0.2239152719723645 0.19903579730876864 0.17415632264517278 0.14927684798157626 -0.1243973733179804 0.0024879474663596045 -1.2857142857142858 -1.1428571428571428 -1.0 -0.8571428571428571 0.7142857142857143 -0.014285714285714287 
2.386469 1.5530483759381326 1.3804874452783402 1.2079265146185476 1.0353655839587548 -0.8628046532989626 0.01725609306597925 0.21362955768665026 0.18989294016591174 0.16615632264517277 0.14241970512443358 -0.11868308760369484 0.002373661752073892 -1.2857142857142858 -1.1428571428571428 -1.0 -0.8571428571428571 0.7142857142857143 -0.014285714285714287 
2.394469 1.5547162695424823 1.3819700173710954 1.2092237651997089 1.0364775130283217 -0.8637312608569349 0.017274625217138698 0.20334384340093603 0.1807500830230544 0.15815632264517276 0.1355625622672909 -0.11296880188940905 0.0022593760377881793 -1.2857142857142858 -1.1428571428571428 -1.0 -0.8571428571428571 0.7142857142857143 -0.014285714285714287 
2.402469 1.556301877432547 1.3833794466067089 1.2104570157808705 1.0375345849550315 -0.8646121541291931 0.017292243082583866 0.1930581291152218 0.17160722588019706 0.15015632264517276 0.1287054194101478 -0.10725451617512327 0.0021450903235024667 -1.2857142857142858 -1.1428571428571428 -1.0 -0.8571428571428571 0.7142857142857143 -0.014285714285714287 
2.410469 1.5578051996083255 1.384715732985179 1.2116262663620312 1.0385367997388841 -0.8654473331157366 0.017308946662314733 0.18277241482950757 0.16246436873734016 0.14215632264517275 0.12184827655300512 -0.10154023046083771 0.002030804609216747 -1.2857142857142858 -1.1428571428571428 -1.0 -0.8571428571428571 0.7142857142857143 -0.014285714285714287 
2.418469 1.559226236069819 1.3859788765065058 1.2127315169431931 1.0394841573798796 -0.8662367978165663 0.017324735956331327 0.1724867005437929 0.15332151159448282 0.13415632264517274 0.114991133695862 -0.09582594474655193 0.0019165188949310345 -1.2857142857142858 -1.1428571428571428 -1.0 -0.8571428571428571 0.7142857142857143 -0.014285714285714287 
2.4264688 1.5605649868170266 1.3871688771706905 1.2137727675243541 1.040376657878018 -0.8669805482316815 0.017339610964633635 0.16220098625807866 0.14417865445162592 0.12615632264517274 0.10813399083871933 -0.09011165903226614 0.001802233180645322 -1.2857142857142858 -1.1428571428571428 -1.0 -0.8571428571428571 0.7142857142857143 -0.014285714285714287 
2.434469 1.5618214518499485 1.388285734977732 1.214750018105516 1.0412143012332988 -0.8676785843610825 0.01735357168722165 0.15191527197236443 0.13503579730876858 0.11815632264517273 0.10127684798157621 -0.08439737331798036 0.0016879474663596093 -1.2857142857142858 -1.1428571428571428 -1.0 -0.8571428571428571 0.7142857142857143 -0.014285714285714287 
2.442469 1.5629956311685842 1.3893294499276303 1.2156632686866768 1.041997087445723 -0.868330906204769 0.017366618124095387 0.1416295576866502 0.12589294016591168 0.11015632264517272 0.09441970512443354 -0.0786830876036948 0.0015736617520738898 -1.2857142857142858 -1.1428571428571428 -1.0 -0.8571428571428571 0.7142857142857143 -0.014285714285714287 
2.450469 1.564087524772935 1.390300022020387 1.2165125192678385 1.0427250165152904 -0.8689375137627416 0.017378750275254835 0.13134384340093597 0.11675008302305434 0.10215632264517271 0.08756256226729087 -0.07296880188940902 0.0014593760377881772 -1.2857142857142858 -1.1428571428571428 -1.0 -0.8571428571428571 0.7142857142857143 -0.014285714285714287 
2.458469 1.565097132662999 1.3911974512559995 1.2172977698489997 1.0433980884419998 -0.8694984070349998 0.017389968140699995 0.12105812911522174 0.107607225880197 0.09415632264517271 0.08070541941014775 -0.06725451617512324 0.0013450903235024646 -1.2857142857142858 -1.1428571428571428 -1.0 -0.8571428571428571 0.7142857142857143 -0.014285714285714287 
2.466469 1.566024454838778 1.3920217376344697 1.2180190204301613 1.0440163032258523 -0.8700135860215437 0.017400271720430877 0.1107724148295075 0.0984643687373401 0.0861563226451727 0.07384827655300508 -0.061540230460837675 0.001230804609216752 -1.2857142857142858 -1.1428571428571428 -1.0 -0.8571428571428571 0.7142857142857143 -0.014285714285714287 
2.474469 1.5668694913002716 1.3927728811557973 1.2186762710113228 1.0445796608668476 -0.8704830507223733 0.017409661014447464 0.10048670054379283 0.08932151159448276 0.0781563226451727 0.06699113369586196 -0.05582594474655189 0.0011165188949310324 -1.2857142857142858 -1.1428571428571428 -1.0 -0.8571428571428571 0.7142857142857143 -0.014285714285714287 
2.482469 1.567632242047479 1.3934508818199816 1.2192695215924838 1.045088161364986 -0.8709068011374885 0.01741813602274977 0.0902009862580786 0.08017865445162586 0.07015632264517269 0.06013399083871929 -0.05011165903226611 0.0010022331806453198 -1.2857142857142858 -1.1428571428571428 -1.0 -0.8571428571428571 0.7142857142857143 -0.014285714285714287 
2.490469 1.568312707080401 1.394055739627023 1.2197987721736456 1.0455418047202676 -0.8712848372668894 0.017425696745337792 0.07991527197236437 0.07103579730876852 0.06215632264517268 0.05327684798157617 -0.044397373317980326 0.0008879474663596072 -1.2857142857142858 -1.1428571428571428 -1.0 -0.8571428571428571 0.7142857142857143 -0.014285714285714287 
2.4984689 1.5689108863990366 1.394587454576922 1.2202640227548065 1.0459405909326913 -0.871617159110576 0.01743234318221152 0.06962955768665013 0.061892940165911625 0.05415632264517267 0.0464197051244335 -0.038683087603694766 0.0007736617520738946 -1.2857142857142858 -1.1428571428571428 -1.0 -0.8571428571428571 0.7142857142857143 -0.014285714285714287 
2.506469 1.5694267800033874 1.3950460266696776 1.2206652733359682 1.0462845200022581 -0.8719037666685486 0.017438075333370977 0.0593438434009359 0.052750083023054284 0.046156322645172665 0.039562562267290824 -0.03296880188940898 0.0006593760377881751 -1.2857142857142858 -1.1428571428571428 -1.0 -0.8571428571428571 0.7142857142857143 -0.014285714285714287 
2.514469 1.5698603878934514 1.3954314559052905 1.2210025239171294 1.0465735919289678 -0.8721446599408067 0.017442893198816138 0.04905812911522167 0.04360722588019739 0.03815632264517266 0.03270541941014771 -0.0272545161751232 0.0005450903235024625 -1.2857142857142858 -1.1428571428571428 -1.0 -0.8571428571428571 0.7142857142857143 -0.014285714285714287 
2.522469 1.5702117100692305 1.395743742283761 1.221275774498291 1.0468078067128208 -0.8723398389273507 0.017446796778547012 0.03877241482950744 0.034464368737340045 0.03015632264517265 0.025848276553005034 -0.02154023046083764 0.0004308046092167499 -1.2857142857142858 -1.1428571428571428 -1.0 -0.8571428571428571 0.7142857142857143 -0.014285714285714287 
2.530469 1.570480746530724 1.395982885805088 1.2214850250794524 1.0469871643538162 -0.8724893036281802 0.017449786072563606 0.028486700543792765 0.025321511594482704 0.022156322645172644 0.018991133695861917 -0.015825944746551857 0.00031651889493103727 -1.2857142857142858 -1.1428571428571428 -1.0 -0.8571428571428571 0.7142857142857143 -0.014285714285714287 
2.538469 1.5706674972779318 1.3961488864692728 1.2216302756606134 1.0471116648519543 -0.8725930540432955 0.017451861080865907 0.018200986258078533 0.016178654451625807 0.014156322645172636 0.012133990838719244 -0.010111659032266074 0.00020223318064531773 -1.2857142857142858 -1.1428571428571428 -1.0 -0.8571428571428571 0.7142857142857143 -0.014285714285714287 
2.546469 1.5707719623108531 1.3962417442763142 1.2217115262417753 1.0471813082072357 -0.8726510901726965 0.017453021803453928 0.007915271972364302 0.0070357973087684655 0.006156322645172629 0.005276847981576127 -0.004397373317980291 8.794746635960513e-05 -1.2857142857142858 -1.1428571428571428 -1.0 -0.8571428571428571 0.7142857142857143 -0.014285714285714287 
2.5544689 1.570794141629489 1.3962614592262126 1.2217287768229361 1.0471960944196599 -0.872663412016383 0.017453268240327665 -0.0023704423133499297 -0.0021070598340884317 -0.0018436773548273777 -0.0015802948755665458 0.0013169123963052698 -2.6338247926107478e-05 -1.2857142857142858 -1.1428571428571428 -1.0 -0.8571428571428571 0.7142857142857143 -0.014285714285714287 
