Fleaurent/UniversalRobot/csv/achse1Dreieck.csv
timestamp target_q_0 target_qd_0 target_qdd_0
0.0 -0.7714355293814937 0.0 1.4 
0.008 -0.7713907293814938 0.0112 1.4 
0.016 -0.7712563293814937 0.0224 1.4 
0.024 -0.7710323293814937 0.0336 1.4 
0.032 -0.7707187293814938 0.0448 1.4 
0.04 -0.7703155293814937 0.055999999999999994 1.4 
0.048 -0.7698227293814938 0.0672 1.4 
0.056 -0.7692403293814938 0.0784 1.4 
0.064 -0.7685683293814938 0.0896 1.4 
0.072 -0.7678067293814937 0.1008 1.4 
0.08 -0.7669555293814937 0.11199999999999999 1.4 
0.088 -0.7660147293814937 0.12319999999999999 1.4 
0.096 -0.7649843293814937 0.1344 1.4 
0.104 -0.7638643293814937 0.1456 1.4 
0.112 -0.7626547293814937 0.1568 1.4 
0.12 -0.7613555293814938 0.16799999999999998 1.4 
0.128 -0.7599667293814938 0.1792 1.4 
0.136 -0.7584883293814937 0.1904 1.4 
0.144 -0.7569203293814938 0.2016 1.4 
0.152 -0.7552627293814937 0.2128 1.4 
0.16 -0.7535155293814937 0.22399999999999998 1.4 
0.168 -0.7516787293814937 0.2352 1.4 
0.176 -0.7497523293814937 0.24639999999999998 1.4 
0.184 -0.7477363293814937 0.2576 1.4 
0.192 -0.7456307293814938 0.2688 1.4 
0.2 -0.7434355293814937 0.27999999999999997 1.4 
0.208 -0.7411507293814937 0.2912 1.4 
0.216 -0.7387763293814937 0.3024 1.4 
0.224 -0.7363123293814937 0.3136 1.4 
0.232 -0.7337587293814938 0.3248 1.4 
0.24 -0.7311155293814937 0.33599999999999997 1.4 
0.248 -0.7283827293814937 0.34719999999999995 1.4 
0.256 -0.7255603293814937 0.3584 1.4 
0.264 -0.7226483293814937 0.3696 1.4 
0.272 -0.7196467293814938 0.3808 1.4 
0.28 -0.7165555293814937 0.392 1.4 
0.288 -0.7133747293814937 0.4032 1.4 
0.296 -0.7101043293814937 0.41439999999999994 1.4 
0.304 -0.7067443293814938 0.4256 1.4 
0.312 -0.7032947293814937 0.43679999999999997 1.4 
0.32 -0.6997555293814938 0.44799999999999995 1.4 
0.328 -0.6961267293814937 0.4592 1.4 
0.336 -0.6924083293814938 0.4704 1.4 
0.344 -0.6886003293814937 0.48160000000000003 1.4 
0.352 -0.6847027293814938 0.49279999999999996 1.4 
0.36 -0.6807155293814937 0.504 1.4 
0.368 -0.6766387293814937 0.5152 1.4 
0.376 -0.6724723293814937 0.5264 1.4 
0.384 -0.6682163293814938 0.5376 1.4 
0.392 -0.6638707293814937 0.5488 1.4 
0.4 -0.6594355293814937 0.5599999999999999 1.4 
0.408 -0.6549107293814938 0.5712 1.4 
0.416 -0.6502963293814937 0.5824 1.4 
0.424 -0.6455923293814938 0.5935999999999999 1.4 
0.432 -0.6407987293814937 0.6048 1.4 
0.44 -0.6359155293814938 0.616 1.4 
0.448 -0.6309427293814938 0.6272 1.4 
0.456 -0.6258803293814937 0.6384 1.4 
0.464 -0.6207283293814937 0.6496 1.4 
0.472 -0.6154867293814937 0.6608 1.4 
0.48 -0.6101555293814938 0.6719999999999999 1.4 
0.488 -0.6047347293814938 0.6831999999999999 1.4 
0.496 -0.5992243293814937 0.6943999999999999 1.4 
0.504 -0.5936243293814938 0.7056 1.4 
0.512 -0.5879347293814937 0.7168 1.4 
0.52 -0.5821555293814937 0.728 1.4 
0.528 -0.5762867293814937 0.7392 1.4 
0.536 -0.5703283293814937 0.7504 1.4 
0.544 -0.5642803293814938 0.7616 1.4 
0.552 -0.5581427293814938 0.7728 1.4 
0.56 -0.5519155293814937 0.784 1.4 
0.568 -0.5455987293814937 0.7952 1.4 
0.576 -0.5391923293814938 0.8064 1.4 
0.584 -0.5326963293814938 0.8175999999999999 1.4 
0.592 -0.5261107293814937 0.8287999999999999 1.4 
0.6 -0.5194355293814937 0.84 1.4 
0.608 -0.5126707293814938 0.8512 1.4 
0.616 -0.5058163293814937 0.8623999999999999 1.4 
0.624 -0.49887232938149373 0.8735999999999999 1.4 
0.632 -0.49183872938149376 0.8847999999999999 1.4 
0.64 -0.48471552938149376 0.8959999999999999 1.4 
0.648 -0.47750272938149374 0.9072 1.4 
0.656 -0.4702003293814937 0.9184 1.4 
0.664 -0.4628083293814937 0.9296 1.4 
0.672 -0.4553267293814937 0.9408 1.4 
0.68 -0.4477555293814937 0.952 1.4 
0.688 -0.4400947293814937 0.9632000000000001 1.4 
0.696 -0.4323443293814937 0.9744 1.4 
0.704 -0.4245043293814938 0.9855999999999999 1.4 
0.712 -0.4165747293814938 0.9967999999999999 1.4 
0.72 -0.40855552938149375 1.008 1.4 
0.728 -0.4004467293814937 1.0191999999999999 1.4 
0.736 -0.3922483293814938 1.0304 1.4 
0.744 -0.3839603293814937 1.0415999999999999 1.4 
0.75031084 -0.37744868332085824 1.0280351712360831 -1.4 
0.75831085 -0.36926920195096957 1.0168351712360832 -1.4 
0.7663108 -0.3611793205810809 1.0056351712360831 -1.4 
0.7743108 -0.35317903921119226 0.9944351712360832 -1.4 
0.78231084 -0.34526835784130355 0.9832351712360832 -1.4 
0.79031086 -0.3374472764714149 0.9720351712360832 -1.4 
0.7983108 -0.3297157951015262 0.9608351712360832 -1.4 
0.80631083 -0.3220739137316376 0.9496351712360831 -1.4 
0.81431085 -0.31452163236174885 0.9384351712360831 -1.4 
0.82231086 -0.30705895099186015 0.9272351712360831 -1.4 
0.8303108 -0.2996858696219715 0.9160351712360831 -1.4 
0.83831084 -0.29240238825208287 0.9048351712360831 -1.4 
0.84631085 -0.2852085068821942 0.893635171236083 -1.4 
0.8543108 -0.2781042255123055 0.8824351712360831 -1.4 
0.8623108 -0.27108954414241687 0.8712351712360831 -1.4 
0.87031084 -0.26416446277252814 0.8600351712360831 -1.4 
0.87831086 -0.2573289814026395 0.8488351712360831 -1.4 
0.8863108 -0.2505831000327508 0.837635171236083 -1.4 
0.89431083 -0.24392681866286214 0.826435171236083 -1.4 
0.90231085 -0.23736013729297348 0.815235171236083 -1.4 
0.91031086 -0.23088305592308483 0.804035171236083 -1.4 
0.9183108 -0.22449557455319616 0.792835171236083 -1.4 
0.92631084 -0.21819769318330748 0.781635171236083 -1.4 
0.93431085 -0.21198941181341882 0.7704351712360831 -1.4 
0.9423108 -0.20587073044353016 0.759235171236083 -1.4 
0.9503108 -0.19984164907364146 0.748035171236083 -1.4 
0.95831084 -0.1939021677037528 0.736835171236083 -1.4 
0.96631086 -0.18805228633386412 0.7256351712360829 -1.4 
0.9743108 -0.18229200496397546 0.714435171236083 -1.4 
0.98231083 -0.1766213235940868 0.7032351712360829 -1.4 
0.99031085 -0.1710402422241981 0.6920351712360829 -1.4 
0.99831086 -0.16554876085430945 0.680835171236083 -1.4 
1.0063108 -0.16014687948442075 0.6696351712360827 -1.4 
1.0143108 -0.15483459811453204 0.6584351712360828 -1.4 
1.0223109 -0.14961191674464341 0.6472351712360828 -1.4 
1.0303109 -0.1444788353747547 0.6360351712360828 -1.4 
1.0383109 -0.13943535400486606 0.6248351712360827 -1.4 
1.0463108 -0.1344814726349774 0.6136351712360827 -1.4 
1.0543108 -0.12961719126508875 0.6024351712360827 -1.4 
1.0623108 -0.12484250989520006 0.5912351712360827 -1.4 
1.0703108 -0.12015742852531136 0.5800351712360827 -1.4 
1.0783108 -0.11556194715542273 0.5688351712360826 -1.4 
1.0863109 -0.11105606578553404 0.5576351712360827 -1.4 
1.0943109 -0.1066397844156454 0.5464351712360827 -1.4 
1.1023109 -0.1023131030457567 0.5352351712360827 -1.4 
1.1103108 -0.09807602167586808 0.5240351712360827 -1.4 
1.1183108 -0.09392854030597939 0.5128351712360827 -1.4 
1.1263108 -0.08987065893609075 0.5016351712360826 -1.4 
1.1343108 -0.08590237756620206 0.4904351712360826 -1.4 
1.1423109 -0.08202369619631338 0.4792351712360826 -1.4 
1.1503109 -0.07823461482642474 0.4680351712360826 -1.4 
1.1583109 -0.07453513345653606 0.45683517123608264 -1.4 
1.1663108 -0.0709252520866474 0.44563517123608254 -1.4 
1.1743108 -0.06740497071675874 0.43443517123608255 -1.4 
1.1823108 -0.0639742893468701 0.42323517123608256 -1.4 
1.1903108 -0.06063320797698141 0.4120351712360826 -1.4 
1.1983109 -0.05738172660709279 0.4008351712360826 -1.4 
1.2063109 -0.05421984523720408 0.3896351712360825 -1.4 
1.2143109 -0.051147563867315476 0.3784351712360825 -1.4 
1.2223108 -0.048164882497426786 0.3672351712360825 -1.4 
1.2303108 -0.045271801127538064 0.3560351712360825 -1.4 
1.2383108 -0.04246831975764945 0.34483517123608254 -1.4 
1.2463108 -0.039754438387760827 0.33363517123608244 -1.4 
1.2543108 -0.03713015701787209 0.32243517123608245 -1.4 
1.2623109 -0.03459547564798343 0.31123517123608246 -1.4 
1.2703109 -0.032150394278094796 0.3000351712360825 -1.4 
1.2783109 -0.029794912908206156 0.2888351712360825 -1.4 
1.2863108 -0.027529031538317428 0.2776351712360824 -1.4 
1.2943108 -0.025352750168428806 0.2664351712360824 -1.4 
1.3023108 -0.02326606879854015 0.2552351712360824 -1.4 
1.3103108 -0.021268987428651437 0.24403517123608243 -1.4 
1.3183109 -0.01936150605876283 0.23283517123608244 -1.4 
1.3263109 -0.017543624688874188 0.22163517123608234 -1.4 
1.3343109 -0.01581534331898557 0.21043517123608235 -1.4 
1.3423108 -0.01417666194909678 0.19923517123608236 -1.4 
1.3503108 -0.012627580579208153 0.18803517123608238 -1.4 
1.3583108 -0.011168099209319549 0.1768351712360824 -1.4 
1.3663108 -0.009798217839430912 0.1656351712360823 -1.4 
1.3743109 -0.008517936469542187 0.1544351712360823 -1.4 
1.3823109 -0.00732725509965354 0.14323517123608231 -1.4 
1.3903109 -0.006226173729764917 0.13203517123608233 -1.4 
1.3983108 -0.00521469235987615 0.12083517123608234 -1.4 
1.4063108 -0.004292810989987572 0.10963517123608235 -1.4 
1.4143108 -0.0034605296200989066 0.09843517123608225 -1.4 
1.4223108 -0.0027178482502103196 0.08723517123608227 -1.4 
1.4303108 -0.0020647668803215335 0.07603517123608228 -1.4 
1.4383109 -0.001501285510432937 0.06483517123608229 -1.4 
1.4463109 -0.001027404140544308 0.0536351712360823 -1.4 
1.4543109 -0.0006431227706556464 0.0424351712360822 -1.4 
1.4623108 -0.0003484414007669523 0.031235171236082326 -1.4 
1.4703108 -0.0001433600308783367 0.020035171236082228 -1.4 
1.4783108 -2.787866098968861e-05 0.008835171236082129 -1.4 
1.4863108 -1.9972911009524807e-06 -0.002364828763917748 -1.4 
