Fleaurent/UniversalRobot/csv/achse2Trapez.csv
timestamp target_q_0 target_qd_0 target_qdd_0
0.0 -1.5707963267948966 0.0 1.4 
0.008 -1.5707515267948966 0.0112 1.4 
0.016 -1.5706171267948965 0.0224 1.4 
0.024 -1.5703931267948965 0.0336 1.4 
0.032 -1.5700795267948966 0.0448 1.4 
0.04 -1.5696763267948965 0.055999999999999994 1.4 
0.048 -1.5691835267948966 0.0672 1.4 
0.056 -1.5686011267948965 0.0784 1.4 
0.064 -1.5679291267948965 0.0896 1.4 
0.072 -1.5671675267948966 0.1008 1.4 
0.08 -1.5663163267948965 0.11199999999999999 1.4 
0.088 -1.5653755267948966 0.12319999999999999 1.4 
0.096 -1.5643451267948965 0.1344 1.4 
0.104 -1.5632251267948964 0.1456 1.4 
0.112 -1.5620155267948965 0.1568 1.4 
0.12 -1.5607163267948965 0.16799999999999998 1.4 
0.128 -1.5593275267948965 0.1792 1.4 
0.136 -1.5578491267948966 0.1904 1.4 
0.144 -1.5562811267948966 0.2016 1.4 
0.152 -1.5546235267948965 0.2128 1.4 
0.16 -1.5528763267948966 0.22399999999999998 1.4 
0.168 -1.5510395267948967 0.2352 1.4 
0.176 -1.5491131267948965 0.24639999999999998 1.4 
0.184 -1.5470971267948965 0.2576 1.4 
0.192 -1.5449915267948966 0.2688 1.4 
0.2 -1.5427963267948965 0.27999999999999997 1.4 
0.208 -1.5405115267948966 0.2912 1.4 
0.216 -1.5381371267948967 0.3024 1.4 
0.224 -1.5356731267948966 0.3136 1.4 
0.232 -1.5331195267948965 0.3248 1.4 
0.24 -1.5304763267948966 0.33599999999999997 1.4 
0.248 -1.5277435267948967 0.34719999999999995 1.4 
0.256 -1.5249211267948966 0.3584 1.4 
0.264 -1.5220091267948965 0.3696 1.4 
0.272 -1.5190075267948966 0.3808 1.4 
0.28 -1.5159163267948965 0.392 1.4 
0.288 -1.5127355267948965 0.4032 1.4 
0.296 -1.5094651267948966 0.41439999999999994 1.4 
0.304 -1.5061051267948966 0.4256 1.4 
0.312 -1.5026555267948964 0.43679999999999997 1.4 
0.32 -1.4991163267948966 0.44799999999999995 1.4 
0.328 -1.4954875267948966 0.4592 1.4 
0.336 -1.4917691267948965 0.4704 1.4 
0.344 -1.4879611267948964 0.48160000000000003 1.4 
0.352 -1.4840635267948965 0.49279999999999996 1.4 
0.36 -1.4800763267948966 0.504 1.4 
0.368 -1.4759995267948967 0.5152 1.4 
0.376 -1.4718331267948965 0.5264 1.4 
0.384 -1.4675771267948965 0.5376 1.4 
0.392 -1.4632315267948965 0.5488 1.4 
0.4 -1.4587963267948965 0.5599999999999999 1.4 
0.408 -1.4542715267948965 0.5712 1.4 
0.416 -1.4496571267948966 0.5824 1.4 
0.424 -1.4449531267948965 0.5935999999999999 1.4 
0.432 -1.4401595267948966 0.6048 1.4 
0.44 -1.4352763267948965 0.616 1.4 
0.448 -1.4303035267948965 0.6272 1.4 
0.456 -1.4252411267948966 0.6384 1.4 
0.464 -1.4200891267948965 0.6496 1.4 
0.472 -1.4148475267948966 0.6608 1.4 
0.48 -1.4095163267948965 0.6719999999999999 1.4 
0.488 -1.4040955267948965 0.6831999999999999 1.4 
0.496 -1.3985851267948965 0.6943999999999999 1.4 
0.504 -1.3929851267948965 0.7056 1.4 
0.512 -1.3872955267948965 0.7168 1.4 
0.52 -1.3815163267948964 0.728 1.4 
0.528 -1.3756475267948964 0.7392 1.4 
0.536 -1.3696891267948965 0.7504 1.4 
0.544 -1.3636411267948965 0.7616 1.4 
0.552 -1.3575035267948965 0.7728 1.4 
0.56 -1.3512763267948966 0.784 1.4 
0.568 -1.3449595267948966 0.7952 1.4 
0.576 -1.3385531267948965 0.8064 1.4 
0.584 -1.3320571267948966 0.8175999999999999 1.4 
0.592 -1.3254715267948967 0.8287999999999999 1.4 
0.6 -1.3187963267948966 0.84 1.4 
0.608 -1.3120315267948965 0.8512 1.4 
0.616 -1.3051771267948966 0.8623999999999999 1.4 
0.624 -1.2982331267948966 0.8735999999999999 1.4 
0.632 -1.2911995267948966 0.8847999999999999 1.4 
0.64 -1.2840763267948967 0.8959999999999999 1.4 
0.648 -1.2768635267948967 0.9072 1.4 
0.656 -1.2695611267948965 0.9184 1.4 
0.664 -1.2621691267948965 0.9296 1.4 
0.672 -1.2546875267948965 0.9408 1.4 
0.68 -1.2471163267948966 0.952 1.4 
0.688 -1.2394555267948966 0.9632000000000001 1.4 
0.696 -1.2317051267948966 0.9744 1.4 
0.704 -1.2238651267948966 0.9855999999999999 1.4 
0.712 -1.2159355267948966 0.9967999999999999 1.4 
0.72 -1.2079163267948965 1.008 1.4 
0.728 -1.1998075267948964 1.0191999999999999 1.4 
0.736 -1.1916091267948965 1.0304 1.4 
0.744 -1.1833211267948966 1.0415999999999999 1.4 
0.7508571 -1.176190612509182 1.04 0.0 
0.75885713 -1.1678706125091822 1.04 0.0 
0.76685715 -1.1595506125091821 1.04 0.0 
0.77485716 -1.1512306125091822 1.04 0.0 
0.7828571 -1.1429106125091821 1.04 0.0 
0.79085714 -1.1345906125091823 1.04 0.0 
0.79885715 -1.1262706125091821 1.04 0.0 
0.80685717 -1.117950612509182 1.04 0.0 
0.8148571 -1.1096306125091822 1.04 0.0 
0.82285714 -1.101310612509182 1.04 0.0 
0.83085716 -1.0929906125091822 1.04 0.0 
0.8388571 -1.084670612509182 1.04 0.0 
0.84685713 -1.0763506125091822 1.04 0.0 
0.85485715 -1.068030612509182 1.04 0.0 
0.86285716 -1.0597106125091822 1.04 0.0 
0.8708571 -1.051390612509182 1.04 0.0 
0.87885714 -1.0430706125091822 1.04 0.0 
0.88685715 -1.034750612509182 1.04 0.0 
0.89485717 -1.026430612509182 1.04 0.0 
0.9028571 -1.0181106125091821 1.04 0.0 
0.91085714 -1.009790612509182 1.04 0.0 
0.91885716 -1.0014706125091821 1.04 0.0 
0.9268571 -0.993150612509182 1.04 0.0 
0.93485713 -0.984830612509182 1.04 0.0 
0.94285715 -0.976510612509182 1.04 0.0 
0.95085716 -0.968190612509182 1.04 0.0 
0.9588571 -0.959870612509182 1.04 0.0 
0.96685714 -0.9515506125091819 1.04 0.0 
0.97485715 -0.943230612509182 1.04 0.0 
0.98285717 -0.934910612509182 1.04 0.0 
0.9908571 -0.926590612509182 1.04 0.0 
0.99885714 -0.918270612509182 1.04 0.0 
1.0068572 -0.909950612509182 1.04 0.0 
1.0148572 -0.901630612509182 1.04 0.0 
1.0228572 -0.8933106125091819 1.04 0.0 
1.0308571 -0.884990612509182 1.04 0.0 
1.0388571 -0.8766706125091819 1.04 0.0 
1.0468571 -0.868350612509182 1.04 0.0 
1.0548571 -0.8600306125091819 1.04 0.0 
1.0628572 -0.8517106125091819 1.04 0.0 
1.0708572 -0.8433906125091819 1.04 0.0 
1.0788572 -0.8350706125091819 1.04 0.0 
1.0868572 -0.8267506125091819 1.04 0.0 
1.0948571 -0.8184306125091818 1.04 0.0 
1.1028571 -0.8101106125091819 1.04 0.0 
1.1108571 -0.8017906125091818 1.04 0.0 
1.1188571 -0.7934706125091818 1.04 0.0 
1.1268572 -0.7851506125091818 1.04 0.0 
1.1348572 -0.7768306125091818 1.04 0.0 
1.1428572 -0.7685106125091818 1.04 0.0 
1.1508571 -0.7601906125091817 1.04 0.0 
1.1588571 -0.7518706125091819 1.04 0.0 
1.1668571 -0.7435506125091818 1.04 0.0 
1.1748571 -0.7352306125091819 1.04 0.0 
1.1828572 -0.7269106125091818 1.04 0.0 
1.1908572 -0.7185906125091818 1.04 0.0 
1.1988572 -0.7102706125091818 1.04 0.0 
1.2068571 -0.7019506125091818 1.04 0.0 
1.2148571 -0.6936306125091818 1.04 0.0 
1.2228571 -0.6853106125091817 1.04 0.0 
1.2308571 -0.6769906125091818 1.04 0.0 
1.2388572 -0.6686706125091817 1.04 0.0 
1.2468572 -0.6603506125091817 1.04 0.0 
1.2548572 -0.6520306125091817 1.04 0.0 
1.2628572 -0.6437106125091817 1.04 0.0 
1.2708571 -0.6353906125091817 1.04 0.0 
1.2788571 -0.6270706125091817 1.04 0.0 
1.2868571 -0.6187506125091817 1.04 0.0 
1.2948571 -0.6104306125091817 1.04 0.0 
1.3028572 -0.6021106125091816 1.04 0.0 
1.3108572 -0.5937906125091816 1.04 0.0 
1.3188572 -0.5854706125091816 1.04 0.0 
1.3268571 -0.5771506125091816 1.04 0.0 
1.3348571 -0.5688306125091817 1.04 0.0 
1.3428571 -0.5605106125091817 1.04 0.0 
1.3508571 -0.5521906125091817 1.04 0.0 
1.3588572 -0.5438706125091817 1.04 0.0 
1.3668572 -0.5355506125091816 1.04 0.0 
1.3748572 -0.5272306125091816 1.04 0.0 
1.3828571 -0.5189106125091816 1.04 0.0 
1.3908571 -0.5105906125091816 1.04 0.0 
1.3988571 -0.5022706125091816 1.04 0.0 
1.4068571 -0.4939506125091816 1.04 0.0 
1.4148571 -0.4856306125091816 1.04 0.0 
1.4228572 -0.4773106125091816 1.04 0.0 
1.4308572 -0.4689906125091815 1.04 0.0 
1.4388572 -0.4606706125091815 1.04 0.0 
1.4468571 -0.4523506125091815 1.04 0.0 
1.4548571 -0.4440306125091815 1.04 0.0 
1.4628571 -0.4357106125091815 1.04 0.0 
1.4708571 -0.42739061250918153 1.04 0.0 
1.4788572 -0.41907061250918154 1.04 0.0 
1.4868572 -0.41075061250918155 1.04 0.0 
1.4948572 -0.40243061250918144 1.04 0.0 
1.5028571 -0.39411061250918145 1.04 0.0 
1.5108571 -0.38579061250918145 1.04 0.0 
1.5188571 -0.37747061250918146 1.04 0.0 
1.5268571 -0.36915061250918146 1.04 0.0 
1.5348572 -0.36083061250918147 1.04 0.0 
1.5428572 -0.3525106125091815 1.04 0.0 
1.5508572 -0.3441906125091815 1.04 0.0 
1.5588571 -0.3358706125091814 1.04 0.0 
1.5668571 -0.3275506125091814 1.04 0.0 
1.5748571 -0.3192306125091814 1.04 0.0 
1.5828571 -0.3109106125091814 1.04 0.0 
1.5908571 -0.3025906125091814 1.04 0.0 
1.5988572 -0.2942706125091814 1.04 0.0 
1.6068572 -0.2859506125091814 1.04 0.0 
1.6148572 -0.2776306125091814 1.04 0.0 
1.6228571 -0.2693106125091814 1.04 0.0 
1.6308571 -0.2609906125091813 1.04 0.0 
1.6388571 -0.2526706125091813 1.04 0.0 
1.6468571 -0.24435061250918133 1.04 0.0 
1.6548572 -0.23603061250918134 1.04 0.0 
1.6628572 -0.22771061250918134 1.04 0.0 
1.6708572 -0.21939061250918135 1.04 0.0 
1.6788571 -0.21107061250918135 1.04 0.0 
1.6868571 -0.20275061250918136 1.04 0.0 
1.6948571 -0.19443061250918126 1.04 0.0 
1.7028571 -0.18611061250918126 1.04 0.0 
1.7108572 -0.17779061250918127 1.04 0.0 
1.7188572 -0.16947061250918138 1.04 0.0 
1.7268572 -0.16115061250918128 1.04 0.0 
1.7348572 -0.15283061250918117 1.04 0.0 
1.7428571 -0.1445106125091813 1.04 0.0 
1.7508571 -0.13619061250918119 1.04 0.0 
1.7588571 -0.1278706125091813 1.04 0.0 
1.7668571 -0.1195506125091812 1.04 0.0 
1.7748572 -0.11123061250918131 1.04 0.0 
1.7828572 -0.10291061250918121 1.04 0.0 
1.7908572 -0.0945906125091811 1.04 0.0 
1.7988571 -0.08627061250918122 1.04 0.0 
1.8068571 -0.07795061250918112 1.04 0.0 
1.8148571 -0.06963061250918123 1.04 0.0 
1.8228571 -0.06131061250918113 1.04 0.0 
1.8308572 -0.052990612509181245 1.04 0.0 
1.8388572 -0.04467061250918114 1.04 0.0 
1.8468572 -0.03635061250918126 1.04 0.0 
1.8548571 -0.028030612509181152 1.04 0.0 
1.8628571 -0.019710612509181047 1.04 0.0 
1.8708571 -0.011390612509181164 1.04 0.0 
1.8788571 -0.0030706125091810588 1.04 0.0 
1.8868572 0.005249387490818824 1.04 0.0 
1.8948572 0.01356938749081893 1.04 0.0 
1.9028572 0.021889387490818812 1.04 0.0 
1.9108572 0.030209387490818917 1.04 0.0 
1.9188571 0.03852938749081902 1.04 0.0 
1.9268571 0.046849387490818906 1.04 0.0 
1.9348571 0.05516938749081901 1.04 0.0 
1.9428571 0.0634893874908189 1.04 0.0 
1.9508572 0.071809387490819 1.04 0.0 
1.9588572 0.08012938749081888 1.04 0.0 
1.9668572 0.08844938749081899 1.04 0.0 
1.9748571 0.09676938749081887 1.04 0.0 
1.9828571 0.10508938749081898 1.04 0.0 
1.9908571 0.11340938749081908 1.04 0.0 
1.9988571 0.12172938749081896 1.04 0.0 
2.0068572 0.13004938749081907 1.04 0.0 
2.014857 0.13836938749081895 1.04 0.0 
2.0228572 0.14668938749081906 1.04 0.0 
2.030857 0.15500938749081894 1.04 0.0 
2.0388572 0.16332938749081904 1.04 0.0 
2.046857 0.17164938749081893 1.04 0.0 
2.0548573 0.17996938749081903 1.04 0.0 
2.0628572 0.18828938749081914 1.04 0.0 
2.070857 0.19660938749081902 1.04 0.0 
2.0788572 0.20492938749081913 1.04 0.0 
2.086857 0.213249387490819 1.04 0.0 
2.0948572 0.22156938749081911 1.04 0.0 
2.102857 0.229889387490819 1.04 0.0 
2.1108572 0.2382093874908191 1.04 0.0 
2.1188571 0.2465293874908192 1.04 0.0 
2.126857 0.2548493874908191 1.04 0.0 
2.1348572 0.2631693874908192 1.04 0.0 
2.142857 0.2714893874908191 1.04 0.0 
2.1508572 0.2798093874908192 1.04 0.0 
2.158857 0.28812938749081907 1.04 0.0 
2.1668572 0.29644938749081917 1.04 0.0 
2.1748571 0.30476938749081905 1.04 0.0 
2.182857 0.31308938749081916 1.04 0.0 
2.1908572 0.32140938749081926 1.04 0.0 
2.198857 0.32972938749081915 1.04 0.0 
2.2068572 0.33804938749081925 1.04 0.0 
2.214857 0.34636938749081914 1.04 0.0 
2.2228572 0.35468938749081924 1.04 0.0 
2.2308571 0.3630093874908191 1.04 0.0 
2.238857 0.37132938749081923 1.04 0.0 
2.2468572 0.37964938749081933 1.04 0.0 
2.254857 0.3879693874908192 1.04 0.0 
2.2628572 0.3962893874908193 1.04 0.0 
2.270857 0.4046093874908192 1.04 0.0 
2.2788572 0.4129293874908193 1.04 0.0 
2.2868571 0.4212493874908192 1.04 0.0 
2.294857 0.4295693874908193 1.04 0.0 
2.3028572 0.4378893874908192 1.04 0.0 
2.310857 0.4462093874908193 1.04 0.0 
2.3188572 0.4545293874908194 1.04 0.0 
2.326857 0.4628493874908193 1.04 0.0 
2.3348572 0.4711693874908194 1.04 0.0 
2.3428571 0.47948938749081926 1.04 0.0 
2.3508573 0.48780938749081937 1.04 0.0 
2.3588572 0.49612938749081925 1.04 0.0 
2.366857 0.5044493874908194 1.04 0.0 
2.3748572 0.5127693874908195 1.04 0.0 
2.382857 0.5210893874908193 1.04 0.0 
2.3908572 0.5294093874908194 1.04 0.0 
2.398857 0.5377293874908193 1.04 0.0 
2.4068573 0.5460493874908194 1.04 0.0 
2.4148571 0.5543693874908193 1.04 0.0 
2.422857 0.5626893874908194 1.04 0.0 
2.4308572 0.5710093874908193 1.04 0.0 
2.438857 0.5793293874908194 1.04 0.0 
2.4468572 0.5876493874908195 1.04 0.0 
2.454857 0.5959693874908194 1.04 0.0 
2.4628572 0.6042893874908195 1.04 0.0 
2.4708571 0.6126093874908194 1.04 0.0 
2.478857 0.6209293874908195 1.04 0.0 
2.4868572 0.6292493874908194 1.04 0.0 
2.494857 0.6375693874908195 1.04 0.0 
2.5028572 0.6458893874908194 1.04 0.0 
2.510857 0.6542093874908195 1.04 0.0 
2.5188572 0.6625293874908196 1.04 0.0 
2.5268571 0.6708493874908195 1.04 0.0 
2.534857 0.6791693874908196 1.04 0.0 
2.5428572 0.6874893874908194 1.04 0.0 
2.550857 0.6958093874908196 1.04 0.0 
2.5588572 0.7041293874908194 1.04 0.0 
2.566857 0.7124493874908195 1.04 0.0 
2.5748572 0.7207693874908196 1.04 0.0 
2.5828571 0.7290893874908195 1.04 0.0 
2.590857 0.7374093874908196 1.04 0.0 
2.5988572 0.7457293874908195 1.04 0.0 
2.606857 0.7540493874908196 1.04 0.0 
2.6148572 0.7623693874908195 1.04 0.0 
2.622857 0.7706893874908196 1.04 0.0 
2.6308572 0.7790093874908195 1.04 0.0 
2.6388571 0.7873293874908196 1.04 0.0 
2.6468573 0.7956493874908197 1.04 0.0 
2.6548572 0.8039693874908196 1.04 0.0 
2.662857 0.8122893874908197 1.04 0.0 
2.6708572 0.8206093874908198 1.04 0.0 
2.678857 0.8289293874908197 1.04 0.0 
2.6868572 0.8372493874908196 1.04 0.0 
2.6948571 0.8455693874908194 1.04 0.0 
2.7028573 0.8538893874908198 1.04 0.0 
2.7108572 0.8622093874908197 1.04 0.0 
2.718857 0.8705293874908195 1.04 0.0 
2.7268572 0.8788493874908199 1.04 0.0 
2.734857 0.8871693874908197 1.04 0.0 
2.7428572 0.8954893874908196 1.04 0.0 
2.750857 0.9038093874908195 1.04 0.0 
2.7588573 0.9121293874908198 1.04 0.0 
2.7668571 0.9204493874908197 1.04 0.0 
2.774857 0.9287693874908196 1.04 0.0 
2.7828572 0.9370893874908199 1.04 0.0 
2.790857 0.9454093874908198 1.04 0.0 
2.7988572 0.9537293874908197 1.04 0.0 
2.806857 0.9620493874908196 1.04 0.0 
2.8148572 0.9703693874908199 1.04 0.0 
2.8228571 0.9786893874908198 1.04 0.0 
2.830857 0.9870093874908197 1.04 0.0 
2.8388572 0.99532938749082 1.04 0.0 
2.846857 1.0036493874908199 1.04 0.0 
2.8548572 1.0119693874908198 1.04 0.0 
2.862857 1.0202893874908197 1.04 0.0 
2.8708572 1.02860938749082 1.04 0.0 
2.8788571 1.0369293874908199 1.04 0.0 
2.886857 1.0452493874908197 1.04 0.0 
2.8948572 1.0535693874908196 1.04 0.0 
2.902857 1.06188938749082 1.04 0.0 
2.9108572 1.0702093874908198 1.04 0.0 
2.918857 1.0785293874908197 1.04 0.0 
2.9268572 1.08684938749082 1.04 0.0 
2.9348571 1.09516938749082 1.04 0.0 
2.942857 1.1034893874908198 1.04 0.0 
2.9508572 1.1118093874908197 1.04 0.0 
2.958857 1.12012938749082 1.04 0.0 
2.9668572 1.12844938749082 1.04 0.0 
2.974857 1.1367693874908198 1.04 0.0 
2.9828572 1.1450893874908201 1.04 0.0 
2.9908571 1.15340938749082 1.04 0.0 
2.9988573 1.1617293874908199 1.04 0.0 
3.0068572 1.1700493874908198 1.04 0.0 
3.014857 1.17836938749082 1.04 0.0 
3.0228572 1.18668938749082 1.04 0.0 
3.028762 1.1927858125091821 1.0287999999999995 -1.4 
3.0367622 1.200971412509182 1.0175999999999998 -1.4 
3.0447621 1.2090674125091816 1.0063999999999993 -1.4 
3.0527623 1.2170738125091825 0.9951999999999996 -1.4 
3.0607622 1.224990612509182 0.984 -1.4 
3.068762 1.2328178125091815 0.9727999999999994 -1.4 
3.0767622 1.240555412509182 0.9615999999999998 -1.4 
3.084762 1.2482034125091825 0.9503999999999992 -1.4 
3.0927622 1.2557618125091818 0.9391999999999996 -1.4 
3.1007621 1.2632306125091821 0.9279999999999999 -1.4 
3.1087623 1.2706098125091823 0.9167999999999994 -1.4 
3.1167622 1.2778994125091825 0.9055999999999997 -1.4 
3.124762 1.2850994125091826 0.8943999999999992 -1.4 
3.1327622 1.2922098125091825 0.8831999999999995 -1.4 
3.140762 1.2992306125091821 0.8719999999999999 -1.4 
3.1487622 1.306161812509182 0.8607999999999993 -1.4 
3.1567621 1.3130034125091818 0.8495999999999997 -1.4 
3.1647623 1.3197554125091815 0.8383999999999991 -1.4 
3.1727622 1.3264178125091823 0.8271999999999995 -1.4 
3.180762 1.3329906125091817 0.8159999999999998 -1.4 
3.1887622 1.3394738125091825 0.8047999999999993 -1.4 
3.196762 1.3458674125091816 0.7935999999999996 -1.4 
3.2047622 1.3521714125091822 0.7823999999999991 -1.4 
3.212762 1.3583858125091823 0.7711999999999994 -1.4 
3.2207623 1.3645106125091826 0.7599999999999998 -1.4 
3.2287621 1.370545812509183 0.7487999999999992 -1.4 
3.2367623 1.3764914125091816 0.7375999999999996 -1.4 
3.2447622 1.382347412509183 0.726399999999999 -1.4 
3.252762 1.388113812509183 0.7151999999999994 -1.4 
3.2607622 1.3937906125091823 0.7039999999999997 -1.4 
3.268762 1.399377812509182 0.6927999999999992 -1.4 
3.2767622 1.4048754125091816 0.6815999999999995 -1.4 
3.2847621 1.4102834125091825 0.670399999999999 -1.4 
3.2927623 1.4156018125091818 0.6591999999999993 -1.4 
3.3007622 1.4208306125091825 0.6479999999999997 -1.4 
3.308762 1.4259698125091818 0.6367999999999991 -1.4 
3.3167622 1.4310194125091817 0.6255999999999995 -1.4 
3.324762 1.435979412509182 0.614399999999999 -1.4 
3.3327622 1.4408498125091824 0.6031999999999993 -1.4 
3.3407621 1.4456306125091813 0.5919999999999996 -1.4 
3.3487623 1.4503218125091815 0.5807999999999991 -1.4 
3.3567622 1.4549234125091814 0.5695999999999994 -1.4 
3.364762 1.4594354125091824 0.5583999999999989 -1.4 
3.3727622 1.4638578125091823 0.5471999999999992 -1.4 
3.380762 1.468190612509182 0.5359999999999996 -1.4 
3.3887622 1.4724338125091816 0.524799999999999 -1.4 
3.3967621 1.4765874125091825 0.5135999999999994 -1.4 
3.4047623 1.4806514125091819 0.5023999999999988 -1.4 
3.4127622 1.4846258125091825 0.4911999999999992 -1.4 
3.420762 1.4885106125091818 0.47999999999999954 -1.4 
3.4287622 1.4923058125091822 0.468799999999999 -1.4 
3.436762 1.4960114125091826 0.45759999999999934 -1.4 
3.4447622 1.4996274125091829 0.4463999999999988 -1.4 
3.4527621 1.503153812509183 0.43519999999999914 -1.4 
3.4607623 1.506590612509183 0.4239999999999995 -1.4 
3.4687622 1.509937812509183 0.41279999999999895 -1.4 
3.476762 1.5131954125091829 0.4015999999999993 -1.4 
3.4847622 1.5163634125091825 0.39039999999999875 -1.4 
3.492762 1.5194418125091822 0.3791999999999991 -1.4 
3.5007622 1.522430612509181 0.36799999999999944 -1.4 
3.5087621 1.5253298125091819 0.3567999999999989 -1.4 
3.5167623 1.5281394125091814 0.34559999999999924 -1.4 
3.5247622 1.530859412509182 0.3343999999999987 -1.4 
3.532762 1.5334898125091825 0.32319999999999904 -1.4 
3.5407622 1.5360306125091814 0.3119999999999994 -1.4 
3.548762 1.5384818125091817 0.30079999999999885 -1.4 
3.5567622 1.540843412509182 0.2895999999999992 -1.4 
3.564762 1.5431154125091822 0.27839999999999865 -1.4 
3.5727623 1.5452978125091823 0.267199999999999 -1.4 
3.5807621 1.547390612509182 0.25599999999999934 -1.4 
3.5887623 1.549393812509182 0.2447999999999988 -1.4 
3.5967622 1.551307412509182 0.23359999999999914 -1.4 
3.604762 1.5531314125091815 0.2223999999999986 -1.4 
3.6127622 1.5548658125091825 0.21119999999999894 -1.4 
3.620762 1.5565106125091819 0.1999999999999993 -1.4 
3.6287622 1.5580658125091826 0.18879999999999875 -1.4 
3.6367621 1.5595314125091821 0.1775999999999991 -1.4 
3.6447623 1.5609074125091826 0.16639999999999855 -1.4 
3.6527622 1.5621938125091814 0.1551999999999989 -1.4 
3.660762 1.563390612509182 0.14399999999999924 -1.4 
3.6687622 1.564497812509182 0.1327999999999987 -1.4 
3.676762 1.5655154125091824 0.12159999999999904 -1.4 
3.6847622 1.5664434125091824 0.1103999999999985 -1.4 
3.6927621 1.567281812509182 0.09919999999999884 -1.4 
3.7007623 1.5680306125091823 0.08799999999999919 -1.4 
3.7087622 1.5686898125091808 0.07679999999999865 -1.4 
3.716762 1.569259412509182 0.06559999999999899 -1.4 
3.7247622 1.5697394125091817 0.05439999999999845 -1.4 
3.732762 1.570129812509181 0.043199999999998795 -1.4 
3.7407622 1.5704306125091816 0.03199999999999914 -1.4 
3.7487621 1.570641812509181 0.020799999999998597 -1.4 
3.7567623 1.5707634125091814 0.009599999999998943 -1.4 
3.7647622 1.5707954125091819 -0.0016000000000016001 -1.4 
