Fleaurent/UniversalRobot/csv/Achsen2Trapez.csv
timestamp target_q_0 target_q_1 target_q_2 target_q_3 target_q_4 target_q_5 target_qd_0 target_qd_1 target_qd_2 target_qd_3 target_qd_4 target_qd_5 target_qdd_0 target_qdd_1 target_qdd_2 target_qdd_3 target_qdd_4 target_qdd_5
0.0 0.0 0.0 0.0 0.0 0.0 0.0 0.0 0.0 0.0 0.0 -0.0 0.0 1.4 1.2444444444444445 1.0 0.9333333333333332 -0.7777777777777778 0.015555555555555555 
0.008 4.48e-05 3.9822222222222224e-05 3.2e-05 2.9866666666666663e-05 -2.488888888888889e-05 4.977777777777777e-07 0.0112 0.009955555555555556 0.008 0.007466666666666666 -0.006222222222222223 0.00012444444444444444 1.4 1.2444444444444445 1.0 0.9333333333333332 -0.7777777777777778 0.015555555555555555 
0.016 0.0001792 0.0001592888888888889 0.000128 0.00011946666666666665 -9.955555555555556e-05 1.991111111111111e-06 0.0224 0.019911111111111112 0.016 0.014933333333333331 -0.012444444444444445 0.0002488888888888889 1.4 1.2444444444444445 1.0 0.9333333333333332 -0.7777777777777778 0.015555555555555555 
0.024 0.0004032 0.00035840000000000004 0.000288 0.0002688 -0.000224 4.48e-06 0.0336 0.029866666666666666 0.024 0.0224 -0.018666666666666668 0.0003733333333333333 1.4 1.2444444444444445 1.0 0.9333333333333332 -0.7777777777777778 0.015555555555555555 
0.032 0.0007168 0.0006371555555555556 0.000512 0.0004778666666666666 -0.00039822222222222223 7.964444444444443e-06 0.0448 0.039822222222222224 0.032 0.029866666666666663 -0.02488888888888889 0.0004977777777777778 1.4 1.2444444444444445 1.0 0.9333333333333332 -0.7777777777777778 0.015555555555555555 
0.04 0.00112 0.0009955555555555555 0.0008 0.0007466666666666666 -0.0006222222222222223 1.2444444444444445e-05 0.055999999999999994 0.04977777777777778 0.04 0.03733333333333333 -0.031111111111111114 0.0006222222222222223 1.4 1.2444444444444445 1.0 0.9333333333333332 -0.7777777777777778 0.015555555555555555 
0.048 0.0016128 0.0014336000000000002 0.001152 0.0010752 -0.000896 1.792e-05 0.0672 0.05973333333333333 0.048 0.0448 -0.037333333333333336 0.0007466666666666666 1.4 1.2444444444444445 1.0 0.9333333333333332 -0.7777777777777778 0.015555555555555555 
0.056 0.0021952 0.0019512888888888892 0.0015680000000000002 0.0014634666666666666 -0.0012195555555555558 2.4391111111111113e-05 0.0784 0.0696888888888889 0.056 0.05226666666666666 -0.043555555555555556 0.0008711111111111111 1.4 1.2444444444444445 1.0 0.9333333333333332 -0.7777777777777778 0.015555555555555555 
0.064 0.0028672 0.0025486222222222223 0.002048 0.0019114666666666664 -0.001592888888888889 3.1857777777777774e-05 0.0896 0.07964444444444445 0.064 0.059733333333333326 -0.04977777777777778 0.0009955555555555555 1.4 1.2444444444444445 1.0 0.9333333333333332 -0.7777777777777778 0.015555555555555555 
0.072 0.0036288000000000006 0.0032256000000000008 0.0025920000000000006 0.0024192000000000003 -0.0020160000000000004 4.032000000000001e-05 0.1008 0.08960000000000001 0.07200000000000001 0.0672 -0.05600000000000001 0.0011200000000000001 1.4 1.2444444444444445 1.0 0.9333333333333332 -0.7777777777777778 0.015555555555555555 
0.08 0.00448 0.003982222222222222 0.0032 0.0029866666666666665 -0.002488888888888889 4.977777777777778e-05 0.11199999999999999 0.09955555555555556 0.08 0.07466666666666666 -0.06222222222222223 0.0012444444444444445 1.4 1.2444444444444445 1.0 0.9333333333333332 -0.7777777777777778 0.015555555555555555 
0.088 0.005420799999999999 0.004818488888888889 0.0038719999999999996 0.0036138666666666657 -0.003011555555555555 6.02311111111111e-05 0.12319999999999999 0.1095111111111111 0.088 0.08213333333333332 -0.06844444444444445 0.0013688888888888887 1.4 1.2444444444444445 1.0 0.9333333333333332 -0.7777777777777778 0.015555555555555555 
0.096 0.0064512 0.005734400000000001 0.004608 0.0043008 -0.003584 7.168e-05 0.1344 0.11946666666666667 0.096 0.0896 -0.07466666666666667 0.0014933333333333333 1.4 1.2444444444444445 1.0 0.9333333333333332 -0.7777777777777778 0.015555555555555555 
0.104 0.007571200000000001 0.006729955555555557 0.005408000000000001 0.005047466666666668 -0.004206222222222223 8.412444444444446e-05 0.1456 0.12942222222222224 0.10400000000000001 0.09706666666666666 -0.0808888888888889 0.0016177777777777779 1.4 1.2444444444444445 1.0 0.9333333333333332 -0.7777777777777778 0.015555555555555555 
0.112 0.0087808 0.007805155555555557 0.006272000000000001 0.005853866666666666 -0.004878222222222223 9.756444444444445e-05 0.1568 0.1393777777777778 0.112 0.10453333333333333 -0.08711111111111111 0.0017422222222222223 1.4 1.2444444444444445 1.0 0.9333333333333332 -0.7777777777777778 0.015555555555555555 
0.12 0.010079999999999999 0.00896 0.0072 0.006719999999999999 -0.0056 0.000112 0.16799999999999998 0.14933333333333332 0.12 0.11199999999999999 -0.09333333333333334 0.0018666666666666666 1.4 1.2444444444444445 1.0 0.9333333333333332 -0.7777777777777778 0.015555555555555555 
0.128 0.0114688 0.01019448888888889 0.008192 0.007645866666666666 -0.006371555555555556 0.0001274311111111111 0.1792 0.1592888888888889 0.128 0.11946666666666665 -0.09955555555555556 0.001991111111111111 1.4 1.2444444444444445 1.0 0.9333333333333332 -0.7777777777777778 0.015555555555555555 
0.136 0.0129472 0.011508622222222223 0.009248000000000001 0.008631466666666667 -0.00719288888888889 0.00014385777777777779 0.1904 0.16924444444444445 0.136 0.12693333333333334 -0.10577777777777779 0.002115555555555556 1.4 1.2444444444444445 1.0 0.9333333333333332 -0.7777777777777778 0.015555555555555555 
0.144 0.014515200000000002 0.012902400000000003 0.010368000000000002 0.009676800000000001 -0.008064000000000002 0.00016128000000000003 0.2016 0.17920000000000003 0.14400000000000002 0.1344 -0.11200000000000002 0.0022400000000000002 1.4 1.2444444444444445 1.0 0.9333333333333332 -0.7777777777777778 0.015555555555555555 
0.152 0.016172799999999998 0.014375822222222221 0.011552 0.010781866666666666 -0.00898488888888889 0.00017969777777777777 0.2128 0.18915555555555555 0.152 0.14186666666666664 -0.11822222222222221 0.002364444444444444 1.4 1.2444444444444445 1.0 0.9333333333333332 -0.7777777777777778 0.015555555555555555 
0.16 0.01792 0.015928888888888888 0.0128 0.011946666666666666 -0.009955555555555556 0.00019911111111111111 0.22399999999999998 0.19911111111111113 0.16 0.14933333333333332 -0.12444444444444445 0.002488888888888889 1.4 1.2444444444444445 1.0 0.9333333333333332 -0.7777777777777778 0.015555555555555555 
0.168 0.0197568 0.017561600000000004 0.014112000000000001 0.0131712 -0.010976000000000001 0.00021952 0.2352 0.20906666666666668 0.168 0.1568 -0.13066666666666668 0.0026133333333333334 1.4 1.2444444444444445 1.0 0.9333333333333332 -0.7777777777777778 0.015555555555555555 
0.176 0.021683199999999996 0.019273955555555555 0.015487999999999998 0.014455466666666663 -0.01204622222222222 0.0002409244444444444 0.24639999999999998 0.2190222222222222 0.176 0.16426666666666664 -0.1368888888888889 0.0027377777777777773 1.4 1.2444444444444445 1.0 0.9333333333333332 -0.7777777777777778 0.015555555555555555 
0.184 0.023699199999999997 0.021065955555555554 0.016928 0.015799466666666664 -0.013166222222222222 0.0002633244444444444 0.2576 0.22897777777777778 0.184 0.17173333333333332 -0.1431111111111111 0.002862222222222222 1.4 1.2444444444444445 1.0 0.9333333333333332 -0.7777777777777778 0.015555555555555555 
0.192 0.0258048 0.022937600000000002 0.018432 0.0172032 -0.014336 0.00028672 0.2688 0.23893333333333333 0.192 0.1792 -0.14933333333333335 0.0029866666666666665 1.4 1.2444444444444445 1.0 0.9333333333333332 -0.7777777777777778 0.015555555555555555 
0.2 0.028000000000000004 0.024888888888888894 0.020000000000000004 0.018666666666666668 -0.015555555555555559 0.0003111111111111112 0.27999999999999997 0.2488888888888889 0.2 0.18666666666666665 -0.15555555555555556 0.0031111111111111114 1.4 1.2444444444444445 1.0 0.9333333333333332 -0.7777777777777778 0.015555555555555555 
0.208 0.030284800000000004 0.02691982222222223 0.021632000000000005 0.02018986666666667 -0.016824888888888893 0.00033649777777777784 0.2912 0.2588444444444445 0.20800000000000002 0.19413333333333332 -0.1617777777777778 0.0032355555555555558 1.4 1.2444444444444445 1.0 0.9333333333333332 -0.7777777777777778 0.015555555555555555 
0.216 0.03265919999999999 0.029030399999999998 0.023327999999999998 0.021772799999999995 -0.018144 0.00036287999999999994 0.3024 0.2688 0.216 0.20159999999999997 -0.168 0.0033599999999999997 1.4 1.2444444444444445 1.0 0.9333333333333332 -0.7777777777777778 0.015555555555555555 
0.224 0.0351232 0.031220622222222227 0.025088000000000003 0.023415466666666666 -0.019512888888888892 0.0003902577777777778 0.3136 0.2787555555555556 0.224 0.20906666666666665 -0.17422222222222222 0.0034844444444444445 1.4 1.2444444444444445 1.0 0.9333333333333332 -0.7777777777777778 0.015555555555555555 
0.232 0.0376768 0.03349048888888889 0.026912000000000002 0.025117866666666665 -0.020931555555555557 0.0004186311111111111 0.3248 0.28871111111111114 0.232 0.21653333333333333 -0.18044444444444446 0.003608888888888889 1.4 1.2444444444444445 1.0 0.9333333333333332 -0.7777777777777778 0.015555555555555555 
0.24 0.040319999999999995 0.03584 0.0288 0.026879999999999998 -0.0224 0.000448 0.33599999999999997 0.29866666666666664 0.24 0.22399999999999998 -0.18666666666666668 0.0037333333333333333 1.4 1.2444444444444445 1.0 0.9333333333333332 -0.7777777777777778 0.015555555555555555 
0.248 0.043052799999999995 0.03826915555555555 0.030751999999999998 0.028701866666666662 -0.023918222222222223 0.0004783644444444444 0.34719999999999995 0.30862222222222224 0.248 0.23146666666666665 -0.1928888888888889 0.0038577777777777777 1.4 1.2444444444444445 1.0 0.9333333333333332 -0.7777777777777778 0.015555555555555555 
0.256 0.0458752 0.04077795555555556 0.032768 0.030583466666666663 -0.025486222222222223 0.0005097244444444444 0.3584 0.3185777777777778 0.256 0.2389333333333333 -0.19911111111111113 0.003982222222222222 1.4 1.2444444444444445 1.0 0.9333333333333332 -0.7777777777777778 0.015555555555555555 
0.264 0.0487872 0.043366400000000006 0.034848000000000004 0.0325248 -0.027104000000000003 0.00054208 0.3696 0.32853333333333334 0.264 0.24639999999999998 -0.20533333333333334 0.0041066666666666665 1.4 1.2444444444444445 1.0 0.9333333333333332 -0.7777777777777778 0.015555555555555555 
0.272 0.0517888 0.04603448888888889 0.036992000000000004 0.03452586666666667 -0.02877155555555556 0.0005754311111111111 0.3808 0.3384888888888889 0.272 0.2538666666666667 -0.21155555555555558 0.004231111111111112 1.4 1.2444444444444445 1.0 0.9333333333333332 -0.7777777777777778 0.015555555555555555 
0.28 0.054880000000000005 0.04878222222222223 0.039200000000000006 0.03658666666666667 -0.030488888888888895 0.0006097777777777779 0.392 0.3484444444444445 0.28 0.2613333333333333 -0.2177777777777778 0.004355555555555556 1.4 1.2444444444444445 1.0 0.9333333333333332 -0.7777777777777778 0.015555555555555555 
0.288 0.05806080000000001 0.05160960000000001 0.04147200000000001 0.038707200000000004 -0.03225600000000001 0.0006451200000000001 0.4032 0.35840000000000005 0.28800000000000003 0.2688 -0.22400000000000003 0.0044800000000000005 1.4 1.2444444444444445 1.0 0.9333333333333332 -0.7777777777777778 0.015555555555555555 
0.296 0.06133119999999999 0.054516622222222214 0.04380799999999999 0.04088746666666666 -0.03407288888888888 0.0006814577777777776 0.41439999999999994 0.36835555555555555 0.296 0.2762666666666666 -0.23022222222222222 0.004604444444444444 1.4 1.2444444444444445 1.0 0.9333333333333332 -0.7777777777777778 0.015555555555555555 
0.304 0.06469119999999999 0.057503288888888886 0.046208 0.04312746666666666 -0.03593955555555556 0.0007187911111111111 0.4256 0.3783111111111111 0.304 0.2837333333333333 -0.23644444444444443 0.004728888888888888 1.4 1.2444444444444445 1.0 0.9333333333333332 -0.7777777777777778 0.015555555555555555 
0.312 0.0681408 0.0605696 0.048672 0.045427199999999994 -0.037856 0.00075712 0.43679999999999997 0.38826666666666665 0.312 0.29119999999999996 -0.24266666666666667 0.004853333333333333 1.4 1.2444444444444445 1.0 0.9333333333333332 -0.7777777777777778 0.015555555555555555 
0.32 0.07168 0.06371555555555555 0.0512 0.047786666666666665 -0.039822222222222224 0.0007964444444444445 0.44799999999999995 0.39822222222222226 0.32 0.29866666666666664 -0.2488888888888889 0.004977777777777778 1.4 1.2444444444444445 1.0 0.9333333333333332 -0.7777777777777778 0.015555555555555555 
0.328 0.07530880000000001 0.06694115555555556 0.053792000000000006 0.05020586666666667 -0.04183822222222223 0.0008367644444444445 0.4592 0.4081777777777778 0.328 0.3061333333333333 -0.2551111111111111 0.005102222222222222 1.4 1.2444444444444445 1.0 0.9333333333333332 -0.7777777777777778 0.015555555555555555 
0.336 0.0790272 0.07024640000000001 0.056448000000000005 0.0526848 -0.043904000000000006 0.00087808 0.4704 0.41813333333333336 0.336 0.3136 -0.26133333333333336 0.005226666666666667 1.4 1.2444444444444445 1.0 0.9333333333333332 -0.7777777777777778 0.015555555555555555 
0.344 0.08283520000000001 0.07363128888888891 0.05916800000000001 0.05522346666666667 -0.046019555555555564 0.0009203911111111113 0.48160000000000003 0.4280888888888889 0.34400000000000003 0.32106666666666667 -0.2675555555555556 0.005351111111111111 1.4 1.2444444444444445 1.0 0.9333333333333332 -0.7777777777777778 0.015555555555555555 
0.352 0.08673279999999998 0.07709582222222222 0.06195199999999999 0.05782186666666665 -0.04818488888888888 0.0009636977777777776 0.49279999999999996 0.4380444444444444 0.352 0.3285333333333333 -0.2737777777777778 0.005475555555555555 1.4 1.2444444444444445 1.0 0.9333333333333332 -0.7777777777777778 0.015555555555555555 
0.36 0.09072 0.08064 0.0648 0.06047999999999999 -0.0504 0.001008 0.504 0.448 0.36 0.33599999999999997 -0.27999999999999997 0.0056 1.4 1.2444444444444445 1.0 0.9333333333333332 -0.7777777777777778 0.015555555555555555 
0.368 0.09479679999999999 0.08426382222222221 0.067712 0.06319786666666666 -0.052664888888888886 0.0010532977777777776 0.5152 0.45795555555555556 0.368 0.34346666666666664 -0.2862222222222222 0.005724444444444444 1.4 1.2444444444444445 1.0 0.9333333333333332 -0.7777777777777778 0.015555555555555555 
0.376 0.0989632 0.0879672888888889 0.070688 0.06597546666666666 -0.05497955555555556 0.001099591111111111 0.5264 0.4679111111111111 0.376 0.3509333333333333 -0.29244444444444445 0.005848888888888889 1.4 1.2444444444444445 1.0 0.9333333333333332 -0.7777777777777778 0.015555555555555555 
0.384 0.1032192 0.09175040000000001 0.073728 0.0688128 -0.057344 0.00114688 0.5376 0.47786666666666666 0.384 0.3584 -0.2986666666666667 0.005973333333333333 1.4 1.2444444444444445 1.0 0.9333333333333332 -0.7777777777777778 0.015555555555555555 
0.392 0.10756480000000002 0.09561315555555557 0.07683200000000001 0.07170986666666666 -0.05975822222222223 0.0011951644444444447 0.5488 0.48782222222222227 0.392 0.3658666666666666 -0.30488888888888893 0.0060977777777777775 1.4 1.2444444444444445 1.0 0.9333333333333332 -0.7777777777777778 0.015555555555555555 
0.4 0.11200000000000002 0.09955555555555558 0.08000000000000002 0.07466666666666667 -0.062222222222222234 0.0012444444444444447 0.5599999999999999 0.4977777777777778 0.4 0.3733333333333333 -0.3111111111111111 0.006222222222222223 1.4 1.2444444444444445 1.0 0.9333333333333332 -0.7777777777777778 0.015555555555555555 
0.408 0.11652480000000001 0.10357760000000002 0.08323200000000001 0.07768320000000001 -0.06473600000000002 0.0012947200000000003 0.5712 0.5077333333333334 0.40800000000000003 0.38079999999999997 -0.31733333333333336 0.006346666666666667 1.4 1.2444444444444445 1.0 0.9333333333333332 -0.7777777777777778 0.015555555555555555 
0.416 0.12113920000000002 0.10767928888888892 0.08652800000000002 0.08075946666666668 -0.06729955555555557 0.0013459911111111114 0.5824 0.517688888888889 0.41600000000000004 0.38826666666666665 -0.3235555555555556 0.0064711111111111115 1.4 1.2444444444444445 1.0 0.9333333333333332 -0.7777777777777778 0.015555555555555555 
0.424 0.1258432 0.11186062222222222 0.089888 0.08389546666666665 -0.06991288888888889 0.0013982577777777777 0.5935999999999999 0.5276444444444445 0.424 0.39573333333333327 -0.3297777777777778 0.006595555555555555 1.4 1.2444444444444445 1.0 0.9333333333333332 -0.7777777777777778 0.015555555555555555 
0.432 0.13063679999999997 0.11612159999999999 0.09331199999999999 0.08709119999999998 -0.072576 0.0014515199999999998 0.6048 0.5376 0.432 0.40319999999999995 -0.336 0.006719999999999999 1.4 1.2444444444444445 1.0 0.9333333333333332 -0.7777777777777778 0.015555555555555555 
0.44 0.13551999999999997 0.12046222222222222 0.0968 0.09034666666666666 -0.07528888888888889 0.0015057777777777778 0.616 0.5475555555555556 0.44 0.4106666666666666 -0.3422222222222222 0.006844444444444445 1.4 1.2444444444444445 1.0 0.9333333333333332 -0.7777777777777778 0.015555555555555555 
0.448 0.1404928 0.1248824888888889 0.10035200000000001 0.09366186666666666 -0.07805155555555557 0.0015610311111111112 0.6272 0.5575111111111112 0.448 0.4181333333333333 -0.34844444444444445 0.006968888888888889 1.4 1.2444444444444445 1.0 0.9333333333333332 -0.7777777777777778 0.015555555555555555 
0.456 0.1455552 0.1293824 0.103968 0.09703679999999999 -0.080864 0.00161728 0.6384 0.5674666666666667 0.456 0.4256 -0.3546666666666667 0.0070933333333333334 1.4 1.2444444444444445 1.0 0.9333333333333332 -0.7777777777777778 0.015555555555555555 
0.464 0.1507072 0.13396195555555557 0.10764800000000001 0.10047146666666666 -0.08372622222222223 0.0016745244444444445 0.6496 0.5774222222222223 0.464 0.43306666666666666 -0.3608888888888889 0.007217777777777778 1.4 1.2444444444444445 1.0 0.9333333333333332 -0.7777777777777778 0.015555555555555555 
0.472 0.15594880000000003 0.13862115555555557 0.11139200000000002 0.10396586666666667 -0.08663822222222224 0.0017327644444444447 0.6608 0.5873777777777778 0.47200000000000003 0.44053333333333333 -0.36711111111111117 0.007342222222222222 1.4 1.2444444444444445 1.0 0.9333333333333332 -0.7777777777777778 0.015555555555555555 
0.48 0.16127999999999998 0.14336 0.1152 0.10751999999999999 -0.0896 0.001792 0.6719999999999999 0.5973333333333333 0.48 0.44799999999999995 -0.37333333333333335 0.007466666666666667 1.4 1.2444444444444445 1.0 0.9333333333333332 -0.7777777777777778 0.015555555555555555 
0.488 0.16670079999999998 0.14817848888888888 0.119072 0.11113386666666665 -0.09261155555555556 0.001852231111111111 0.6831999999999999 0.6072888888888889 0.488 0.45546666666666663 -0.37955555555555553 0.007591111111111111 1.4 1.2444444444444445 1.0 0.9333333333333332 -0.7777777777777778 0.015555555555555555 
0.496 0.17221119999999998 0.1530766222222222 0.12300799999999999 0.11480746666666665 -0.09567288888888889 0.0019134577777777776 0.6943999999999999 0.6172444444444445 0.496 0.4629333333333333 -0.3857777777777778 0.007715555555555555 1.4 1.2444444444444445 1.0 0.9333333333333332 -0.7777777777777778 0.015555555555555555 
0.504 0.1778112 0.1580544 0.127008 0.1185408 -0.09878400000000001 0.00197568 0.7056 0.6272 0.504 0.47039999999999993 -0.392 0.00784 1.4 1.2444444444444445 1.0 0.9333333333333332 -0.7777777777777778 0.015555555555555555 
0.512 0.1835008 0.16311182222222223 0.131072 0.12233386666666665 -0.10194488888888889 0.0020388977777777775 0.7168 0.6371555555555556 0.512 0.4778666666666666 -0.39822222222222226 0.007964444444444444 1.4 1.2444444444444445 1.0 0.9333333333333332 -0.7777777777777778 0.015555555555555555 
0.52 0.18928 0.16824888888888892 0.13520000000000001 0.12618666666666667 -0.10515555555555557 0.002103111111111111 0.728 0.6471111111111112 0.52 0.4853333333333333 -0.40444444444444444 0.008088888888888889 1.4 1.2444444444444445 1.0 0.9333333333333332 -0.7777777777777778 0.015555555555555555 
0.528 0.1951488 0.17346560000000003 0.13939200000000002 0.1300992 -0.10841600000000001 0.00216832 0.7392 0.6570666666666667 0.528 0.49279999999999996 -0.4106666666666667 0.008213333333333333 1.4 1.2444444444444445 1.0 0.9333333333333332 -0.7777777777777778 0.015555555555555555 
0.536 0.2011072 0.1787619555555556 0.14364800000000003 0.13407146666666667 -0.11172622222222224 0.0022345244444444447 0.7504 0.6670222222222223 0.536 0.5002666666666666 -0.4168888888888889 0.008337777777777777 1.4 1.2444444444444445 1.0 0.9333333333333332 -0.7777777777777778 0.015555555555555555 
0.544 0.2071552 0.18413795555555557 0.14796800000000002 0.13810346666666667 -0.11508622222222224 0.0023017244444444446 0.7616 0.6769777777777778 0.544 0.5077333333333334 -0.42311111111111116 0.008462222222222223 1.4 1.2444444444444445 1.0 0.9333333333333332 -0.7777777777777778 0.015555555555555555 
0.552 0.2132928 0.18959360000000003 0.15235200000000002 0.1421952 -0.11849600000000002 0.00236992 0.7728 0.6869333333333334 0.552 0.5152 -0.4293333333333334 0.008586666666666668 1.4 1.2444444444444445 1.0 0.9333333333333332 -0.7777777777777778 0.015555555555555555 
0.56 0.21952000000000002 0.1951288888888889 0.15680000000000002 0.14634666666666668 -0.12195555555555558 0.0024391111111111115 0.784 0.696888888888889 0.56 0.5226666666666666 -0.4355555555555556 0.008711111111111112 1.4 1.2444444444444445 1.0 0.9333333333333332 -0.7777777777777778 0.015555555555555555 
0.568 0.22583680000000003 0.20074382222222228 0.16131200000000004 0.15055786666666668 -0.12546488888888893 0.002509297777777778 0.7952 0.7068444444444445 0.5680000000000001 0.5301333333333333 -0.4417777777777778 0.008835555555555557 1.4 1.2444444444444445 1.0 0.9333333333333332 -0.7777777777777778 0.015555555555555555 
0.576 0.23224320000000004 0.20643840000000005 0.16588800000000004 0.15482880000000002 -0.12902400000000003 0.0025804800000000004 0.8064 0.7168000000000001 0.5760000000000001 0.5376 -0.44800000000000006 0.008960000000000001 1.4 1.2444444444444445 1.0 0.9333333333333332 -0.7777777777777778 0.015555555555555555 
0.584 0.23873919999999996 0.2122126222222222 0.17052799999999999 0.15915946666666664 -0.13263288888888888 0.0026526577777777776 0.8175999999999999 0.7267555555555555 0.584 0.5450666666666666 -0.4542222222222222 0.009084444444444444 1.4 1.2444444444444445 1.0 0.9333333333333332 -0.7777777777777778 0.015555555555555555 
0.592 0.24532479999999995 0.21806648888888885 0.17523199999999997 0.16354986666666663 -0.13629155555555553 0.0027258311111111105 0.8287999999999999 0.7367111111111111 0.592 0.5525333333333332 -0.46044444444444443 0.009208888888888888 1.4 1.2444444444444445 1.0 0.9333333333333332 -0.7777777777777778 0.015555555555555555 
0.6 0.252 0.224 0.18 0.16799999999999998 -0.13999999999999999 0.0028 0.84 0.7466666666666667 0.6 0.5599999999999999 -0.4666666666666667 0.009333333333333332 1.4 1.2444444444444445 1.0 0.9333333333333332 -0.7777777777777778 0.015555555555555555 
0.608 0.25876479999999996 0.23001315555555554 0.184832 0.17250986666666665 -0.14375822222222223 0.0028751644444444443 0.8512 0.7566222222222222 0.608 0.5674666666666666 -0.47288888888888886 0.009457777777777777 1.4 1.2444444444444445 1.0 0.9333333333333332 -0.7777777777777778 0.015555555555555555 
0.616 0.2656192 0.23610595555555558 0.189728 0.17707946666666666 -0.14756622222222224 0.0029513244444444443 0.8623999999999999 0.7665777777777778 0.616 0.5749333333333333 -0.4791111111111111 0.009582222222222221 1.4 1.2444444444444445 1.0 0.9333333333333332 -0.7777777777777778 0.015555555555555555 
0.624 0.2725632 0.2422784 0.194688 0.18170879999999998 -0.151424 0.00302848 0.8735999999999999 0.7765333333333333 0.624 0.5823999999999999 -0.48533333333333334 0.009706666666666666 1.4 1.2444444444444445 1.0 0.9333333333333332 -0.7777777777777778 0.015555555555555555 
0.632 0.2795968 0.2485304888888889 0.199712 0.18639786666666666 -0.15533155555555556 0.003106631111111111 0.8847999999999999 0.7864888888888889 0.632 0.5898666666666667 -0.4915555555555556 0.009831111111111112 1.4 1.2444444444444445 1.0 0.9333333333333332 -0.7777777777777778 0.015555555555555555 
0.64 0.28672 0.2548622222222222 0.2048 0.19114666666666666 -0.1592888888888889 0.003185777777777778 0.8959999999999999 0.7964444444444445 0.64 0.5973333333333333 -0.4977777777777778 0.009955555555555556 1.4 1.2444444444444445 1.0 0.9333333333333332 -0.7777777777777778 0.015555555555555555 
0.648 0.2939328 0.2612736 0.209952 0.19595519999999997 -0.163296 0.00326592 0.9072 0.8064 0.648 0.6048 -0.504 0.01008 1.4 1.2444444444444445 1.0 0.9333333333333332 -0.7777777777777778 0.015555555555555555 
0.656 0.30123520000000004 0.26776462222222225 0.21516800000000003 0.20082346666666667 -0.1673528888888889 0.003347057777777778 0.9184 0.8163555555555556 0.656 0.6122666666666666 -0.5102222222222222 0.010204444444444445 1.4 1.2444444444444445 1.0 0.9333333333333332 -0.7777777777777778 0.015555555555555555 
0.664 0.30862720000000005 0.2743352888888889 0.22044800000000003 0.2057514666666667 -0.1714595555555556 0.0034291911111111115 0.9296 0.8263111111111112 0.664 0.6197333333333332 -0.5164444444444445 0.01032888888888889 1.4 1.2444444444444445 1.0 0.9333333333333332 -0.7777777777777778 0.015555555555555555 
0.672 0.3161088 0.28098560000000006 0.22579200000000002 0.2107392 -0.17561600000000002 0.00351232 0.9408 0.8362666666666667 0.672 0.6272 -0.5226666666666667 0.010453333333333334 1.4 1.2444444444444445 1.0 0.9333333333333332 -0.7777777777777778 0.015555555555555555 
0.68 0.32368 0.2877155555555556 0.23120000000000004 0.21578666666666668 -0.17982222222222227 0.003596444444444445 0.952 0.8462222222222223 0.68 0.6346666666666666 -0.528888888888889 0.010577777777777778 1.4 1.2444444444444445 1.0 0.9333333333333332 -0.7777777777777778 0.015555555555555555 
0.688 0.33134080000000005 0.29452515555555564 0.23667200000000005 0.2208938666666667 -0.18407822222222225 0.0036815644444444452 0.9632000000000001 0.8561777777777778 0.6880000000000001 0.6421333333333333 -0.5351111111111112 0.010702222222222222 1.4 1.2444444444444445 1.0 0.9333333333333332 -0.7777777777777778 0.015555555555555555 
0.696 0.33909120000000004 0.3014144 0.24220800000000003 0.2260608 -0.18838400000000002 0.0037676800000000002 0.9744 0.8661333333333334 0.6960000000000001 0.6496 -0.5413333333333334 0.010826666666666667 1.4 1.2444444444444445 1.0 0.9333333333333332 -0.7777777777777778 0.015555555555555555 
0.704 0.34693119999999994 0.3083832888888889 0.24780799999999997 0.2312874666666666 -0.19273955555555553 0.0038547911111111105 0.9855999999999999 0.8760888888888888 0.704 0.6570666666666666 -0.5475555555555556 0.01095111111111111 1.4 1.2444444444444445 1.0 0.9333333333333332 -0.7777777777777778 0.015555555555555555 
0.712 0.3548607999999999 0.3154318222222222 0.253472 0.23657386666666663 -0.19714488888888887 0.003942897777777777 0.9967999999999999 0.8860444444444444 0.712 0.6645333333333332 -0.5537777777777778 0.011075555555555556 1.4 1.2444444444444445 1.0 0.9333333333333332 -0.7777777777777778 0.015555555555555555 
0.72 0.36288 0.32256 0.2592 0.24191999999999997 -0.2016 0.004032 1.008 0.896 0.72 0.6719999999999999 -0.5599999999999999 0.0112 1.4 1.2444444444444445 1.0 0.9333333333333332 -0.7777777777777778 0.015555555555555555 
0.728 0.3709888 0.32976782222222223 0.264992 0.24732586666666664 -0.2061048888888889 0.004122097777777778 1.0191999999999999 0.9059555555555555 0.728 0.6794666666666666 -0.5662222222222222 0.011324444444444444 1.4 1.2444444444444445 1.0 0.9333333333333332 -0.7777777777777778 0.015555555555555555 
0.736 0.37918719999999995 0.33705528888888886 0.270848 0.25279146666666663 -0.21065955555555554 0.004213191111111111 1.0304 0.9159111111111111 0.736 0.6869333333333333 -0.5724444444444444 0.011448888888888889 1.4 1.2444444444444445 1.0 0.9333333333333332 -0.7777777777777778 0.015555555555555555 
0.744 0.3874752 0.3444224 0.276768 0.2583168 -0.215264 0.00430528 1.0415999999999999 0.9258666666666667 0.744 0.6943999999999999 -0.5786666666666667 0.011573333333333333 1.4 1.2444444444444445 1.0 0.9333333333333332 -0.7777777777777778 0.015555555555555555 
0.7508571 0.3946057142857143 0.350760634920635 0.282752 0.2630704761904762 -0.21922539682539685 0.004384507936507937 1.04 0.9244444444444445 0.752 0.6933333333333332 -0.5777777777777778 0.011555555555555555 0.0 0.0 1.0 0.0 0.0 0.0 
0.75885713 0.40292571428571433 0.3581561904761906 0.2888 0.2686171428571429 -0.22384761904761907 0.004476952380952382 1.04 0.9244444444444445 0.76 0.6933333333333332 -0.5777777777777778 0.011555555555555555 0.0 0.0 1.0 0.0 0.0 0.0 
0.76685715 0.4112457142857143 0.3655517460317461 0.294912 0.27416380952380953 -0.22846984126984132 0.004569396825396826 1.04 0.9244444444444445 0.768 0.6933333333333332 -0.5777777777777778 0.011555555555555555 0.0 0.0 1.0 0.0 0.0 0.0 
0.77485716 0.4195657142857143 0.37294730158730166 0.301088 0.27971047619047623 -0.23309206349206354 0.004661841269841271 1.04 0.9244444444444445 0.776 0.6933333333333332 -0.5777777777777778 0.011555555555555555 0.0 0.0 1.0 0.0 0.0 0.0 
0.7828571 0.4278857142857143 0.38034285714285726 0.30732800000000005 0.2852571428571429 -0.23771428571428577 0.004754285714285715 1.04 0.9244444444444445 0.784 0.6933333333333332 -0.5777777777777778 0.011555555555555555 0.0 0.0 1.0 0.0 0.0 0.0 
0.79085714 0.4362057142857143 0.3877384126984128 0.313632 0.2908038095238096 -0.242336507936508 0.00484673015873016 1.04 0.9244444444444445 0.792 0.6933333333333332 -0.5777777777777778 0.011555555555555555 0.0 0.0 1.0 0.0 0.0 0.0 
0.79885715 0.44452571428571436 0.39513396825396835 0.32000000000000006 0.2963504761904762 -0.2469587301587302 0.004939174603174604 1.04 0.9244444444444445 0.8 0.6933333333333332 -0.5777777777777778 0.011555555555555555 0.0 0.0 1.0 0.0 0.0 0.0 
0.80685717 0.45284571428571435 0.40252952380952395 0.32643200000000006 0.3018971428571429 -0.25158095238095246 0.005031619047619049 1.04 0.9244444444444445 0.808 0.6933333333333332 -0.5777777777777778 0.011555555555555555 0.0 0.0 1.0 0.0 0.0 0.0 
0.8148571 0.46116571428571435 0.4099250793650795 0.33292800000000006 0.30744380952380956 -0.25620317460317465 0.005124063492063494 1.04 0.9244444444444445 0.8160000000000001 0.6933333333333332 -0.5777777777777778 0.011555555555555555 0.0 0.0 1.0 0.0 0.0 0.0 
0.82285714 0.4694857142857144 0.41732063492063504 0.33948800000000007 0.31299047619047626 -0.2608253968253969 0.005216507936507938 1.04 0.9244444444444445 0.8240000000000001 0.6933333333333332 -0.5777777777777778 0.011555555555555555 0.0 0.0 1.0 0.0 0.0 0.0 
0.83085716 0.4778057142857144 0.42471619047619064 0.3461120000000001 0.3185371428571429 -0.26544761904761915 0.005308952380952383 1.04 0.9244444444444445 0.8320000000000001 0.6933333333333332 -0.5777777777777778 0.011555555555555555 0.0 0.0 1.0 0.0 0.0 0.0 
0.8388571 0.4861257142857144 0.4321117460317462 0.35279999999999995 0.3240838095238096 -0.27006984126984135 0.005401396825396827 1.04 0.9244444444444445 0.84 0.6933333333333332 -0.5777777777777778 0.011555555555555555 0.0 0.0 1.0 0.0 0.0 0.0 
0.84685713 0.4944457142857144 0.4395073015873017 0.359552 0.32963047619047625 -0.2746920634920636 0.005493841269841272 1.04 0.9244444444444445 0.848 0.6933333333333332 -0.5777777777777778 0.011555555555555555 0.0 0.0 1.0 0.0 0.0 0.0 
0.85485715 0.5027657142857144 0.4469028571428573 0.36636799999999997 0.33517714285714295 -0.2793142857142858 0.005586285714285716 1.04 0.9244444444444445 0.856 0.6933333333333332 -0.5777777777777778 0.011555555555555555 0.0 0.0 1.0 0.0 0.0 0.0 
0.86285716 0.5110857142857144 0.45429841269841287 0.37324799999999997 0.3407238095238096 -0.28393650793650804 0.005678730158730161 1.04 0.9244444444444445 0.864 0.6933333333333332 -0.5777777777777778 0.011555555555555555 0.0 0.0 1.0 0.0 0.0 0.0 
0.8708571 0.5194057142857145 0.4616939682539684 0.380192 0.3462704761904763 -0.28855873015873024 0.005771174603174605 1.04 0.9244444444444445 0.872 0.6933333333333332 -0.5777777777777778 0.011555555555555555 0.0 0.0 1.0 0.0 0.0 0.0 
0.87885714 0.5277257142857144 0.46908952380952396 0.3872 0.35181714285714294 -0.2931809523809525 0.00586361904761905 1.04 0.9244444444444445 0.88 0.6933333333333332 -0.5777777777777778 0.011555555555555555 0.0 0.0 1.0 0.0 0.0 0.0 
0.88685715 0.5360457142857145 0.47648507936507956 0.394272 0.35736380952380964 -0.29780317460317474 0.005956063492063494 1.04 0.9244444444444445 0.888 0.6933333333333332 -0.5777777777777778 0.011555555555555555 0.0 0.0 1.0 0.0 0.0 0.0 
0.89485717 0.5443657142857145 0.48388063492063516 0.40140800000000004 0.3629104761904763 -0.30242539682539693 0.006048507936507939 1.04 0.9244444444444445 0.896 0.6933333333333332 -0.5777777777777778 0.011555555555555555 0.0 0.0 1.0 0.0 0.0 0.0 
0.9028571 0.5526857142857144 0.49127619047619064 0.408608 0.3684571428571429 -0.3070476190476192 0.006140952380952383 1.04 0.9244444444444445 0.904 0.6933333333333332 -0.5777777777777778 0.011555555555555555 0.0 0.0 1.0 0.0 0.0 0.0 
0.91085714 0.5610057142857144 0.49867174603174624 0.415872 0.3740038095238096 -0.3116698412698414 0.006233396825396828 1.04 0.9244444444444445 0.912 0.6933333333333332 -0.5777777777777778 0.011555555555555555 0.0 0.0 1.0 0.0 0.0 0.0 
0.91885716 0.5693257142857144 0.5060673015873018 0.4200293506812517 0.3795504761904763 -0.3162920634920636 0.006325841269841272 1.04 0.9244444444444445 0.908582075627984 0.6933333333333332 -0.5777777777777778 0.011555555555555555 0.0 0.0 0.0 0.0 0.0 0.0 
0.9268571 0.5776457142857144 0.5134628571428573 0.42729800728627554 0.38509714285714297 -0.3209142857142858 0.006418285714285717 1.04 0.9244444444444445 0.908582075627984 0.6933333333333332 -0.5777777777777778 0.011555555555555555 0.0 0.0 0.0 0.0 0.0 0.0 
0.93485713 0.5859657142857144 0.5208584126984129 0.43456666389129944 0.3906438095238096 -0.32553650793650807 0.006510730158730162 1.04 0.9244444444444445 0.908582075627984 0.6933333333333332 -0.5777777777777778 0.011555555555555555 0.0 0.0 0.0 0.0 0.0 0.0 
0.94285715 0.5942857142857145 0.5282539682539685 0.4418353204963233 0.3961904761904763 -0.3301587301587303 0.006603174603174606 1.04 0.9244444444444445 0.908582075627984 0.6933333333333332 -0.5777777777777778 0.011555555555555555 0.0 0.0 0.0 0.0 0.0 0.0 
0.95085716 0.6026057142857145 0.535649523809524 0.4491039771013472 0.401737142857143 -0.3347809523809525 0.006695619047619051 1.04 0.9244444444444445 0.908582075627984 0.6933333333333332 -0.5777777777777778 0.011555555555555555 0.0 0.0 0.0 0.0 0.0 0.0 
0.9588571 0.6109257142857145 0.5430450793650796 0.45637263370637104 0.40728380952380966 -0.33940317460317476 0.0067880634920634945 1.04 0.9244444444444445 0.908582075627984 0.6933333333333332 -0.5777777777777778 0.011555555555555555 0.0 0.0 0.0 0.0 0.0 0.0 
0.96685714 0.6192457142857145 0.5504406349206352 0.46364129031139495 0.4128304761904763 -0.344025396825397 0.00688050793650794 1.04 0.9244444444444445 0.908582075627984 0.6933333333333332 -0.5777777777777778 0.011555555555555555 0.0 0.0 0.0 0.0 0.0 0.0 
0.97485715 0.6275657142857145 0.5578361904761907 0.4709099469164188 0.418377142857143 -0.3486476190476192 0.0069729523809523835 1.04 0.9244444444444445 0.908582075627984 0.6933333333333332 -0.5777777777777778 0.011555555555555555 0.0 0.0 0.0 0.0 0.0 0.0 
0.98285717 0.6358857142857145 0.5652317460317463 0.4781786035214427 0.4239238095238097 -0.3532698412698414 0.007065396825396829 1.04 0.9244444444444445 0.908582075627984 0.6933333333333332 -0.5777777777777778 0.011555555555555555 0.0 0.0 0.0 0.0 0.0 0.0 
0.9908571 0.6442057142857145 0.5726273015873019 0.48544726012646655 0.42947047619047635 -0.35789206349206365 0.0071578412698412724 1.04 0.9244444444444445 0.908582075627984 0.6933333333333332 -0.5777777777777778 0.011555555555555555 0.0 0.0 0.0 0.0 0.0 0.0 
0.99885714 0.6525257142857146 0.5800228571428574 0.49271591673149046 0.435017142857143 -0.3625142857142859 0.007250285714285718 1.04 0.9244444444444445 0.908582075627984 0.6933333333333332 -0.5777777777777778 0.011555555555555555 0.0 0.0 0.0 0.0 0.0 0.0 
1.0068572 0.6608457142857145 0.587418412698413 0.49998457333651425 0.4405638095238097 -0.3671365079365081 0.007342730158730162 1.04 0.9244444444444445 0.908582075627984 0.6933333333333332 -0.5777777777777778 0.011555555555555555 0.0 0.0 0.0 0.0 0.0 0.0 
1.0148572 0.6691657142857146 0.5948139682539686 0.5072532299415381 0.4461104761904764 -0.37175873015873034 0.007435174603174607 1.04 0.9244444444444445 0.908582075627984 0.6933333333333332 -0.5777777777777778 0.011555555555555555 0.0 0.0 0.0 0.0 0.0 0.0 
1.0228572 0.6774857142857146 0.6022095238095242 0.514521886546562 0.45165714285714303 -0.3763809523809526 0.007527619047619051 1.04 0.9244444444444445 0.908582075627984 0.6933333333333332 -0.5777777777777778 0.011555555555555555 0.0 0.0 0.0 0.0 0.0 0.0 
1.0308571 0.6858057142857146 0.6096050793650797 0.5217905431515859 0.4572038095238097 -0.3810031746031748 0.007620063492063496 1.04 0.9244444444444445 0.908582075627984 0.6933333333333332 -0.5777777777777778 0.011555555555555555 0.0 0.0 0.0 0.0 0.0 0.0 
1.0388571 0.6941257142857146 0.6170006349206352 0.5290591997566098 0.4627504761904764 -0.385625396825397 0.00771250793650794 1.04 0.9244444444444445 0.908582075627984 0.6933333333333332 -0.5777777777777778 0.011555555555555555 0.0 0.0 0.0 0.0 0.0 0.0 
1.0468571 0.7024457142857146 0.6243961904761908 0.5363278563616336 0.4682971428571431 -0.3902476190476193 0.007804952380952385 1.04 0.9244444444444445 0.908582075627984 0.6933333333333332 -0.5777777777777778 0.011555555555555555 0.0 0.0 0.0 0.0 0.0 0.0 
1.0548571 0.7107657142857147 0.6317917460317464 0.5435965129666576 0.47384380952380967 -0.3948698412698415 0.007897396825396828 1.04 0.9244444444444445 0.908582075627984 0.6933333333333332 -0.5777777777777778 0.011555555555555555 0.0 0.0 0.0 0.0 0.0 0.0 
1.0628572 0.7190857142857146 0.639187301587302 0.5508651695716814 0.47939047619047637 -0.3994920634920637 0.007989841269841274 1.04 0.9244444444444445 0.908582075627984 0.6933333333333332 -0.5777777777777778 0.011555555555555555 0.0 0.0 0.0 0.0 0.0 0.0 
1.0708572 0.7274057142857147 0.6465828571428576 0.5581338261767053 0.48493714285714307 -0.4041142857142859 0.008082285714285719 1.04 0.9244444444444445 0.908582075627984 0.6933333333333332 -0.5777777777777778 0.011555555555555555 0.0 0.0 0.0 0.0 0.0 0.0 
1.0788572 0.7357257142857145 0.6539784126984131 0.5654024827817291 0.4904838095238097 -0.4087365079365082 0.008174730158730163 1.04 0.9244444444444445 0.908582075627984 0.6933333333333332 -0.5777777777777778 0.011555555555555555 0.0 0.0 0.0 0.0 0.0 0.0 
1.0868572 0.7440457142857146 0.6613739682539685 0.572671139386753 0.49603047619047635 -0.41335873015873037 0.008267174603174606 1.04 0.9244444444444445 0.908582075627984 0.6933333333333332 -0.5777777777777778 0.011555555555555555 0.0 0.0 0.0 0.0 0.0 0.0 
1.0948571 0.7523657142857146 0.6687695238095241 0.5799397959917769 0.501577142857143 -0.4179809523809526 0.008359619047619051 1.04 0.9244444444444445 0.908582075627984 0.6933333333333332 -0.5777777777777778 0.011555555555555555 0.0 0.0 0.0 0.0 0.0 0.0 
1.1028571 0.7606857142857146 0.6761650793650797 0.5872084525968008 0.5071238095238098 -0.42260317460317487 0.008452063492063497 1.04 0.9244444444444445 0.908582075627984 0.6933333333333332 -0.5777777777777778 0.011555555555555555 0.0 0.0 0.0 0.0 0.0 0.0 
1.1108571 0.7690057142857146 0.6835606349206353 0.5944771092018246 0.5126704761904763 -0.42722539682539706 0.00854450793650794 1.04 0.9244444444444445 0.908582075627984 0.6933333333333332 -0.5777777777777778 0.011555555555555555 0.0 0.0 0.0 0.0 0.0 0.0 
1.1188571 0.7773257142857146 0.690956190476191 0.6017457658068486 0.5182171428571432 -0.43184761904761926 0.008636952380952386 1.04 0.9244444444444445 0.908582075627984 0.6933333333333332 -0.5777777777777778 0.011555555555555555 0.0 0.0 0.0 0.0 0.0 0.0 
1.1268572 0.7856457142857147 0.6983517460317464 0.6090144224118724 0.5237638095238097 -0.4364698412698415 0.008729396825396831 1.04 0.9244444444444445 0.908582075627984 0.6933333333333332 -0.5777777777777778 0.011555555555555555 0.0 0.0 0.0 0.0 0.0 0.0 
1.1348572 0.7939657142857146 0.7057473015873019 0.6162830790168963 0.5293104761904764 -0.44109206349206376 0.008821841269841275 1.04 0.9244444444444445 0.908582075627984 0.6933333333333332 -0.5777777777777778 0.011555555555555555 0.0 0.0 0.0 0.0 0.0 0.0 
1.1428572 0.8022857142857147 0.7131428571428575 0.6235517356219201 0.5348571428571431 -0.44571428571428595 0.008914285714285718 1.04 0.9244444444444445 0.908582075627984 0.6933333333333332 -0.5777777777777778 0.011555555555555555 0.0 0.0 0.0 0.0 0.0 0.0 
1.1508571 0.8106057142857147 0.7205384126984131 0.630820392226944 0.5404038095238097 -0.4503365079365082 0.009006730158730164 1.04 0.9244444444444445 0.908582075627984 0.6933333333333332 -0.5777777777777778 0.011555555555555555 0.0 0.0 0.0 0.0 0.0 0.0 
1.1588571 0.8189257142857147 0.7279339682539687 0.6380890488319679 0.5459504761904764 -0.45495873015873045 0.009099174603174609 1.04 0.9244444444444445 0.908582075627984 0.6933333333333332 -0.5777777777777778 0.011555555555555555 0.0 0.0 0.0 0.0 0.0 0.0 
1.1668571 0.8272457142857147 0.7353295238095243 0.6453577054369918 0.5514971428571431 -0.45958095238095265 0.009191619047619053 1.04 0.9244444444444445 0.908582075627984 0.6933333333333332 -0.5777777777777778 0.011555555555555555 0.0 0.0 0.0 0.0 0.0 0.0 
1.1748571 0.8355657142857147 0.7427250793650798 0.6526263620420156 0.5570438095238097 -0.46420317460317484 0.009284063492063496 1.04 0.9244444444444445 0.908582075627984 0.6933333333333332 -0.5777777777777778 0.011555555555555555 0.0 0.0 0.0 0.0 0.0 0.0 
1.1828572 0.8438857142857147 0.7501206349206353 0.6598950186470396 0.5625904761904764 -0.4688253968253971 0.009376507936507942 1.04 0.9244444444444445 0.908582075627984 0.6933333333333332 -0.5777777777777778 0.011555555555555555 0.0 0.0 0.0 0.0 0.0 0.0 
1.1908572 0.8522057142857147 0.7575161904761909 0.6671636752520634 0.5681371428571431 -0.47344761904761934 0.009468952380952387 1.04 0.9244444444444445 0.908582075627984 0.6933333333333332 -0.5777777777777778 0.011555555555555555 0.0 0.0 0.0 0.0 0.0 0.0 
1.1988572 0.8605257142857148 0.7649117460317465 0.6744323318570873 0.5736838095238097 -0.47806984126984153 0.00956139682539683 1.04 0.9244444444444445 0.908582075627984 0.6933333333333332 -0.5777777777777778 0.011555555555555555 0.0 0.0 0.0 0.0 0.0 0.0 
1.2068571 0.8688457142857147 0.7723073015873021 0.6817009884621112 0.5792304761904765 -0.4826920634920638 0.009653841269841274 1.04 0.9244444444444445 0.908582075627984 0.6933333333333332 -0.5777777777777778 0.011555555555555555 0.0 0.0 0.0 0.0 0.0 0.0 
1.2148571 0.8771657142857148 0.7797028571428577 0.688969645067135 0.5847771428571431 -0.48731428571428603 0.00974628571428572 1.04 0.9244444444444445 0.908582075627984 0.6933333333333332 -0.5777777777777778 0.011555555555555555 0.0 0.0 0.0 0.0 0.0 0.0 
1.2228571 0.8854857142857148 0.7870984126984132 0.6962383016721589 0.5903238095238098 -0.4919365079365082 0.009838730158730165 1.04 0.9244444444444445 0.908582075627984 0.6933333333333332 -0.5777777777777778 0.011555555555555555 0.0 0.0 0.0 0.0 0.0 0.0 
1.2308571 0.8938057142857148 0.7944939682539687 0.7035069582771828 0.5958704761904765 -0.4965587301587305 0.009931174603174608 1.04 0.9244444444444445 0.908582075627984 0.6933333333333332 -0.5777777777777778 0.011555555555555555 0.0 0.0 0.0 0.0 0.0 0.0 
1.2388572 0.9021257142857149 0.8018895238095243 0.7107756148822066 0.6014171428571431 -0.5011809523809527 0.010023619047619052 1.04 0.9244444444444445 0.908582075627984 0.6933333333333332 -0.5777777777777778 0.011555555555555555 0.0 0.0 0.0 0.0 0.0 0.0 
1.2468572 0.9104457142857147 0.8092850793650799 0.7180442714872306 0.6069638095238098 -0.5058031746031749 0.010116063492063497 1.04 0.9244444444444445 0.908582075627984 0.6933333333333332 -0.5777777777777778 0.011555555555555555 0.0 0.0 0.0 0.0 0.0 0.0 
1.2548572 0.9187657142857149 0.8166806349206355 0.7253129280922544 0.6125104761904765 -0.5104253968253971 0.010208507936507943 1.04 0.9244444444444445 0.908582075627984 0.6933333333333332 -0.5777777777777778 0.011555555555555555 0.0 0.0 0.0 0.0 0.0 0.0 
1.2628572 0.9270857142857147 0.8240761904761911 0.7325815846972783 0.6180571428571431 -0.5150476190476194 0.010300952380952386 1.04 0.9244444444444445 0.908582075627984 0.6933333333333332 -0.5777777777777778 0.011555555555555555 0.0 0.0 0.0 0.0 0.0 0.0 
1.2708571 0.9354057142857148 0.8314717460317466 0.7398502413023023 0.6236038095238099 -0.5196698412698416 0.010393396825396832 1.04 0.9244444444444445 0.908582075627984 0.6933333333333332 -0.5777777777777778 0.011555555555555555 0.0 0.0 0.0 0.0 0.0 0.0 
1.2788571 0.9437257142857147 0.838867301587302 0.7471188979073261 0.6291504761904765 -0.5242920634920638 0.010485841269841277 1.04 0.9244444444444445 0.908582075627984 0.6933333333333332 -0.5777777777777778 0.011555555555555555 0.0 0.0 0.0 0.0 0.0 0.0 
1.2868571 0.9520457142857148 0.8462628571428576 0.75438755451235 0.6346971428571432 -0.5289142857142861 0.01057828571428572 1.04 0.9244444444444445 0.908582075627984 0.6933333333333332 -0.5777777777777778 0.011555555555555555 0.0 0.0 0.0 0.0 0.0 0.0 
1.2948571 0.9603657142857147 0.8536584126984132 0.7616562111173739 0.6402438095238099 -0.5335365079365082 0.010670730158730164 1.04 0.9244444444444445 0.908582075627984 0.6933333333333332 -0.5777777777777778 0.011555555555555555 0.0 0.0 0.0 0.0 0.0 0.0 
1.3028572 0.9686857142857148 0.8610539682539688 0.7689248677223977 0.6457904761904765 -0.5381587301587305 0.01076317460317461 1.04 0.9244444444444445 0.908582075627984 0.6933333333333332 -0.5777777777777778 0.011555555555555555 0.0 0.0 0.0 0.0 0.0 0.0 
1.3108572 0.9770057142857149 0.8684495238095243 0.7761935243274216 0.6513371428571432 -0.5427809523809528 0.010855619047619055 1.04 0.9244444444444445 0.908582075627984 0.6933333333333332 -0.5777777777777778 0.011555555555555555 0.0 0.0 0.0 0.0 0.0 0.0 
1.3188572 0.9853257142857148 0.8758450793650799 0.7834621809324455 0.6568838095238099 -0.5474031746031749 0.010948063492063499 1.04 0.9244444444444445 0.908582075627984 0.6933333333333332 -0.5777777777777778 0.011555555555555555 0.0 0.0 0.0 0.0 0.0 0.0 
1.3268571 0.9936457142857149 0.8832406349206355 0.7907308375374693 0.6624304761904765 -0.5520253968253972 0.011040507936507942 1.04 0.9244444444444445 0.908582075627984 0.6933333333333332 -0.5777777777777778 0.011555555555555555 0.0 0.0 0.0 0.0 0.0 0.0 
1.3348571 1.0019657142857148 0.890636190476191 0.7979994941424933 0.6679771428571433 -0.5566476190476194 0.011132952380952387 1.04 0.9244444444444445 0.908582075627984 0.6933333333333332 -0.5777777777777778 0.011555555555555555 0.0 0.0 0.0 0.0 0.0 0.0 
1.3428571 1.010285714285715 0.8980317460317466 0.8052681507475171 0.6735238095238099 -0.5612698412698416 0.011225396825396833 1.04 0.9244444444444445 0.908582075627984 0.6933333333333332 -0.5777777777777778 0.011555555555555555 0.0 0.0 0.0 0.0 0.0 0.0 
1.3508571 1.0186057142857148 0.9054273015873022 0.812536807352541 0.6790704761904766 -0.5658920634920639 0.011317841269841276 1.04 0.9244444444444445 0.908582075627984 0.6933333333333332 -0.5777777777777778 0.011555555555555555 0.0 0.0 0.0 0.0 0.0 0.0 
1.3588572 1.0269257142857149 0.9128228571428577 0.8162064389248267 0.6846171428571433 -0.5705142857142861 0.01141028571428572 1.04 0.9244444444444445 0.9005820756279838 0.6933333333333332 -0.5777777777777778 0.011555555555555555 0.0 0.0 -1.0 0.0 0.0 0.0 
1.3668572 1.035245714285715 0.9202184126984133 0.8233790955298506 0.6901638095238098 -0.5751365079365083 0.011502730158730165 1.04 0.9244444444444445 0.8925820756279838 0.6933333333333332 -0.5777777777777778 0.011555555555555555 0.0 0.0 -1.0 0.0 0.0 0.0 
1.3748572 1.0435657142857149 0.9276139682539689 0.8304877521348745 0.6957104761904765 -0.5797587301587306 0.01159517460317461 1.04 0.9244444444444445 0.8845820756279837 0.6933333333333332 -0.5777777777777778 0.011555555555555555 0.0 0.0 -1.0 0.0 0.0 0.0 
1.3828571 1.051885714285715 0.9350095238095244 0.8375324087398984 0.7012571428571432 -0.5843809523809528 0.011687619047619054 1.04 0.9244444444444445 0.8765820756279837 0.6933333333333332 -0.5777777777777778 0.011555555555555555 0.0 0.0 -1.0 0.0 0.0 0.0 
1.3908571 1.0602057142857149 0.94240507936508 0.8445130653449221 0.7068038095238098 -0.589003174603175 0.011780063492063498 1.04 0.9244444444444445 0.8685820756279837 0.6933333333333332 -0.5777777777777778 0.011555555555555555 0.0 0.0 -1.0 0.0 0.0 0.0 
1.3988571 1.068525714285715 0.9498006349206356 0.851429721949946 0.7123504761904765 -0.5936253968253973 0.011872507936507943 1.04 0.9244444444444445 0.8605820756279837 0.6933333333333332 -0.5777777777777778 0.011555555555555555 0.0 0.0 -1.0 0.0 0.0 0.0 
1.4068571 1.0768457142857149 0.9571961904761911 0.8582823785549699 0.7178971428571432 -0.5982476190476195 0.011964952380952389 1.04 0.9244444444444445 0.8525820756279837 0.6933333333333332 -0.5777777777777778 0.011555555555555555 0.0 0.0 -1.0 0.0 0.0 0.0 
1.4148571 1.085165714285715 0.9645917460317467 0.8650710351599938 0.7234438095238098 -0.6028698412698417 0.012057396825396832 1.04 0.9244444444444445 0.8445820756279837 0.6933333333333332 -0.5777777777777778 0.011555555555555555 0.0 0.0 -1.0 0.0 0.0 0.0 
1.4228572 1.0934857142857148 0.9719873015873023 0.8717956917650177 0.7289904761904766 -0.607492063492064 0.012149841269841278 1.04 0.9244444444444445 0.8365820756279837 0.6933333333333332 -0.5777777777777778 0.011555555555555555 0.0 0.0 -1.0 0.0 0.0 0.0 
1.4308572 1.101805714285715 0.9793828571428578 0.8784563483700416 0.7345371428571432 -0.612114285714286 0.012242285714285721 1.04 0.9244444444444445 0.8285820756279837 0.6933333333333332 -0.5777777777777778 0.011555555555555555 0.0 0.0 -1.0 0.0 0.0 0.0 
1.4388572 1.110125714285715 0.9867784126984134 0.8850530049750654 0.7400838095238099 -0.6167365079365084 0.012334730158730167 1.04 0.9244444444444445 0.8205820756279837 0.6933333333333332 -0.5777777777777778 0.011555555555555555 0.0 0.0 -1.0 0.0 0.0 0.0 
1.4468571 1.118445714285715 0.994173968253969 0.8915856615800893 0.7456304761904766 -0.6213587301587307 0.01242717460317461 1.04 0.9244444444444445 0.8125820756279837 0.6933333333333332 -0.5777777777777778 0.011555555555555555 0.0 0.0 -1.0 0.0 0.0 0.0 
1.4548571 1.126765714285715 1.0015695238095246 0.8980543181851132 0.7511771428571432 -0.6259809523809527 0.012519619047619055 1.04 0.9244444444444445 0.8045820756279837 0.6933333333333332 -0.5777777777777778 0.011555555555555555 0.0 0.0 -1.0 0.0 0.0 0.0 
1.4628571 1.135085714285715 1.0089650793650802 0.9044589747901369 0.7567238095238099 -0.630603174603175 0.012612063492063499 1.04 0.9244444444444445 0.7965820756279837 0.6933333333333332 -0.5777777777777778 0.011555555555555555 0.0 0.0 -1.0 0.0 0.0 0.0 
1.4708571 1.143405714285715 1.0163606349206358 0.9107996313951611 0.7622704761904766 -0.6352253968253972 0.012704507936507944 1.04 0.9244444444444445 0.7885820756279837 0.6933333333333332 -0.5777777777777778 0.011555555555555555 0.0 0.0 -1.0 0.0 0.0 0.0 
1.4788572 1.151725714285715 1.0237561904761912 0.9170762880001847 0.7678171428571432 -0.6398476190476194 0.01279695238095239 1.04 0.9244444444444445 0.7805820756279837 0.6933333333333332 -0.5777777777777778 0.011555555555555555 0.0 0.0 -1.0 0.0 0.0 0.0 
1.4868572 1.160045714285715 1.0311517460317468 0.9232889446052087 0.77336380952381 -0.6444698412698417 0.012889396825396833 1.04 0.9244444444444445 0.7725820756279836 0.6933333333333332 -0.5777777777777778 0.011555555555555555 0.0 0.0 -1.0 0.0 0.0 0.0 
1.4948572 1.1683657142857151 1.0385473015873024 0.9294376012102327 0.7789104761904766 -0.6490920634920639 0.012981841269841279 1.04 0.9244444444444445 0.7645820756279836 0.6933333333333332 -0.5777777777777778 0.011555555555555555 0.0 0.0 -1.0 0.0 0.0 0.0 
1.5028571 1.176685714285715 1.0459428571428577 0.9355222578152563 0.7844571428571432 -0.6537142857142861 0.013074285714285722 1.04 0.9244444444444445 0.7565820756279836 0.6933333333333332 -0.5777777777777778 0.011555555555555555 0.0 0.0 -1.0 0.0 0.0 0.0 
1.5108571 1.185005714285715 1.0533384126984133 0.9415429144202804 0.79000380952381 -0.6583365079365084 0.013166730158730168 1.04 0.9244444444444445 0.7485820756279836 0.6933333333333332 -0.5777777777777778 0.011555555555555555 0.0 0.0 -1.0 0.0 0.0 0.0 
1.5183811 1.1927858125091824 1.0602540555637174 0.9474995710253044 0.7951905416727884 -0.6626587847273236 0.013253175694546473 1.0287999999999995 0.9144888888888884 0.7405820756279836 0.6858666666666663 -0.5715555555555553 0.011431111111111107 -1.4 -1.2444444444444445 -1.0 -0.9333333333333332 0.7777777777777778 -0.015555555555555555 
1.5263811 1.2009714125091822 1.0675301444526064 0.953392227630328 0.8006476083394548 -0.6672063402828792 0.013344126805657584 1.0175999999999994 0.9045333333333329 0.7325820756279836 0.6783999999999996 -0.5653333333333329 0.011306666666666663 -1.4 -1.2444444444444445 -1.0 -0.9333333333333332 0.7777777777777778 -0.015555555555555555 
1.534381 1.2090674125091825 1.0747265888970507 0.9592208842353519 0.8060449416727883 -0.6717041180606569 0.01343408236121314 1.0063999999999997 0.8945777777777771 0.7245820756279836 0.670933333333333 -0.5591111111111108 0.011182222222222218 -1.4 -1.2444444444444445 -1.0 -0.9333333333333332 0.7777777777777778 -0.015555555555555555 
1.542381 1.2170738125091825 1.081843388897051 0.9649855408403759 0.8113825416727882 -0.6761521180606569 0.013523042361213138 0.9951999999999996 0.8846222222222216 0.7165820756279836 0.6634666666666663 -0.5528888888888887 0.011057777777777774 -1.4 -1.2444444444444445 -1.0 -0.9333333333333332 0.7777777777777778 -0.015555555555555555 
1.5503811 1.2249906125091823 1.0888805444526062 0.9706861974453996 0.8166604083394549 -0.6805503402828791 0.01361100680565758 0.9839999999999995 0.8746666666666663 0.7085820756279836 0.6559999999999996 -0.5466666666666663 0.01093333333333333 -1.4 -1.2444444444444445 -1.0 -0.9333333333333332 0.7777777777777778 -0.015555555555555555 
1.5583811 1.2328178125091822 1.0958380555637173 0.9763228540504237 0.8218785416727883 -0.6848987847273236 0.013697975694546472 0.9727999999999994 0.8647111111111108 0.7005820756279836 0.6485333333333329 -0.5404444444444442 0.010808888888888885 -1.4 -1.2444444444444445 -1.0 -0.9333333333333332 0.7777777777777778 -0.015555555555555555 
1.5663811 1.2405554125091822 1.1027159222303842 0.9818955106554476 0.8270369416727882 -0.6891974513939902 0.013783949027879805 0.9615999999999993 0.8547555555555548 0.6925820756279836 0.6410666666666663 -0.5342222222222218 0.01068444444444444 -1.4 -1.2444444444444445 -1.0 -0.9333333333333332 0.7777777777777778 -0.015555555555555555 
1.5743811 1.2482034125091823 1.1095141444526062 0.9874041672604715 0.8321356083394549 -0.6934463402828791 0.013868926805657584 0.9503999999999997 0.8447999999999993 0.6845820756279836 0.6335999999999996 -0.5279999999999997 0.010559999999999996 -1.4 -1.2444444444444445 -1.0 -0.9333333333333332 0.7777777777777778 -0.015555555555555555 
1.5823811 1.2557618125091825 1.1162327222303843 0.9928488238654952 0.8371745416727883 -0.6976454513939903 0.013952909027879806 0.9391999999999996 0.8348444444444438 0.6765820756279836 0.6261333333333329 -0.5217777777777773 0.010435555555555552 -1.4 -1.2444444444444445 -1.0 -0.9333333333333332 0.7777777777777778 -0.015555555555555555 
1.590381 1.2632306125091826 1.1228716555637175 0.9982294804705191 0.8421537416727883 -0.7017947847273236 0.014035895694546474 0.9279999999999995 0.8248888888888883 0.6685820756279836 0.6186666666666661 -0.5155555555555552 0.010311111111111108 -1.4 -1.2444444444444445 -1.0 -0.9333333333333332 0.7777777777777778 -0.015555555555555555 
1.598381 1.2706098125091825 1.1294309444526063 1.003546137075543 0.847073208339455 -0.7058943402828792 0.014117886805657584 0.9167999999999994 0.8149333333333328 0.6605820756279835 0.6111999999999996 -0.5093333333333329 0.01018666666666666 -1.4 -1.2444444444444445 -1.0 -0.9333333333333332 0.7777777777777778 -0.015555555555555555 
1.606381 1.2778994125091825 1.1359105888970509 1.0087987936805671 0.8519329416727881 -0.7099441180606569 0.014198882361213139 0.9055999999999993 0.8049777777777773 0.6525820756279835 0.6037333333333329 -0.5031111111111107 0.010062222222222215 -1.4 -1.2444444444444445 -1.0 -0.9333333333333332 0.7777777777777778 -0.015555555555555555 
1.6143811 1.2850994125091826 1.1423105888970508 1.0139874502855908 0.8567329416727881 -0.7139441180606569 0.014278882361213139 0.8943999999999996 0.7950222222222219 0.6445820756279835 0.5962666666666662 -0.4968888888888886 0.009937777777777771 -1.4 -1.2444444444444445 -1.0 -0.9333333333333332 0.7777777777777778 -0.015555555555555555 
1.6223811 1.2922098125091823 1.1486309444526066 1.0191121068906144 0.8614732083394548 -0.7178943402828791 0.014357886805657584 0.8831999999999995 0.7850666666666664 0.6365820756279835 0.5887999999999997 -0.49066666666666625 0.009813333333333327 -1.4 -1.2444444444444445 -1.0 -0.9333333333333332 0.7777777777777778 -0.015555555555555555 
1.6303811 1.2992306125091824 1.1548716555637175 1.0241727634956383 0.8661537416727882 -0.7217947847273236 0.014435895694546471 0.8719999999999994 0.7751111111111104 0.6285820756279835 0.5813333333333329 -0.4844444444444441 0.009688888888888882 -1.4 -1.2444444444444445 -1.0 -0.9333333333333332 0.7777777777777778 -0.015555555555555555 
1.6383811 1.3061618125091825 1.161032722230384 1.0291694201006623 0.8707745416727883 -0.7256454513939903 0.014512909027879807 0.8607999999999993 0.7651555555555549 0.6205820756279835 0.5738666666666662 -0.47822222222222177 0.009564444444444438 -1.4 -1.2444444444444445 -1.0 -0.9333333333333332 0.7777777777777778 -0.015555555555555555 
1.6463811 1.3130034125091825 1.1671141444526065 1.034102076705686 0.8753356083394551 -0.7294463402828792 0.014588926805657588 0.8495999999999992 0.7551999999999994 0.6125820756279835 0.5663999999999995 -0.47199999999999964 0.009439999999999994 -1.4 -1.2444444444444445 -1.0 -0.9333333333333332 0.7777777777777778 -0.015555555555555555 
1.654381 1.3197554125091826 1.1731159222303844 1.0389707333107099 0.8798369416727883 -0.7331974513939903 0.014663949027879807 0.8383999999999996 0.7452444444444439 0.6045820756279835 0.558933333333333 -0.4657777777777773 0.00931555555555555 -1.4 -1.2444444444444445 -1.0 -0.9333333333333332 0.7777777777777778 -0.015555555555555555 
1.662381 1.3264178125091823 1.1790380555637174 1.043775389915734 0.8842785416727882 -0.7368987847273236 0.014737975694546471 0.8271999999999995 0.7352888888888884 0.5965820756279835 0.5514666666666662 -0.45955555555555516 0.009191111111111105 -1.4 -1.2444444444444445 -1.0 -0.9333333333333332 0.7777777777777778 -0.015555555555555555 
1.6703811 1.3329906125091824 1.1848805444526065 1.0485160465207577 0.8886604083394549 -0.7405503402828791 0.014811006805657584 0.8159999999999994 0.7253333333333329 0.5885820756279835 0.5439999999999995 -0.4533333333333328 0.00906666666666666 -1.4 -1.2444444444444445 -1.0 -0.9333333333333332 0.7777777777777778 -0.015555555555555555 
1.6783811 1.3394738125091823 1.1906433888970507 1.0531927031257817 0.8929825416727883 -0.744152118060657 0.014883042361213142 0.8047999999999993 0.715377777777777 0.5805820756279835 0.5365333333333328 -0.4471111111111107 0.008942222222222216 -1.4 -1.2444444444444445 -1.0 -0.9333333333333332 0.7777777777777778 -0.015555555555555555 
1.6863811 1.3458674125091825 1.1963265888970507 1.0578053597308057 0.8972449416727883 -0.747704118060657 0.01495408236121314 0.7935999999999992 0.7054222222222215 0.5725820756279835 0.5290666666666662 -0.44088888888888855 0.008817777777777772 -1.4 -1.2444444444444445 -1.0 -0.9333333333333332 0.7777777777777778 -0.015555555555555555 
1.6943811 1.3521714125091824 1.2019301444526067 1.0623540163358296 0.9014476083394549 -0.7512063402828792 0.015024126805657586 0.7823999999999995 0.695466666666666 0.5645820756279835 0.5215999999999995 -0.4346666666666662 0.008693333333333327 -1.4 -1.2444444444444445 -1.0 -0.9333333333333332 0.7777777777777778 -0.015555555555555555 
1.7023811 1.3583858125091826 1.2074540555637177 1.066838672940853 0.9055905416727883 -0.7546587847273236 0.015093175694546473 0.7711999999999994 0.6855111111111105 0.5565820756279835 0.5141333333333328 -0.4284444444444441 0.008568888888888883 -1.4 -1.2444444444444445 -1.0 -0.9333333333333332 0.7777777777777778 -0.015555555555555555 
1.710381 1.3645106125091824 1.2128983222303842 1.0712593295458772 0.9096737416727882 -0.7580614513939903 0.015161229027879808 0.7599999999999993 0.675555555555555 0.5485820756279834 0.5066666666666663 -0.4222222222222217 0.008444444444444438 -1.4 -1.2444444444444445 -1.0 -0.9333333333333332 0.7777777777777778 -0.015555555555555555 
1.718381 1.3705458125091823 1.2182629444526063 1.075615986150901 0.913697208339455 -0.7614143402828791 0.015228286805657583 0.7487999999999992 0.6655999999999995 0.5405820756279834 0.49919999999999953 -0.4159999999999996 0.008319999999999994 -1.4 -1.2444444444444445 -1.0 -0.9333333333333332 0.7777777777777778 -0.015555555555555555 
1.7263811 1.3764914125091825 1.2235479222303842 1.079908642755925 0.9176609416727883 -0.7647174513939903 0.015294349027879808 0.7375999999999991 0.6556444444444436 0.5325820756279834 0.4917333333333328 -0.40977777777777724 0.00819555555555555 -1.4 -1.2444444444444445 -1.0 -0.9333333333333332 0.7777777777777778 -0.015555555555555555 
1.7343811 1.3823474125091821 1.2287532555637177 1.0841372993609486 0.9215649416727882 -0.7679707847273236 0.015359415694546474 0.7263999999999995 0.6456888888888881 0.5245820756279834 0.48426666666666607 -0.4035555555555551 0.008071111111111105 -1.4 -1.2444444444444445 -1.0 -0.9333333333333332 0.7777777777777778 -0.015555555555555555 
1.7423811 1.3881138125091823 1.2338789444526064 1.0883019559659726 0.9254092083394548 -0.7711743402828791 0.015423486805657584 0.7151999999999994 0.6357333333333326 0.5165820756279834 0.47679999999999956 -0.39733333333333276 0.007946666666666661 -1.4 -1.2444444444444445 -1.0 -0.9333333333333332 0.7777777777777778 -0.015555555555555555 
1.7503811 1.3937906125091826 1.2389249888970508 1.0924026125709965 0.9291937416727882 -0.7743281180606569 0.015486562361213143 0.7039999999999993 0.6257777777777771 0.5085820756279834 0.4693333333333328 -0.39111111111111063 0.007822222222222217 -1.4 -1.2444444444444445 -1.0 -0.9333333333333332 0.7777777777777778 -0.015555555555555555 
1.7583811 1.3993778125091825 1.2438913888970506 1.0964392691760203 0.9329185416727883 -0.7774321180606569 0.01554864236121314 0.6927999999999992 0.6158222222222216 0.5005820756279834 0.4618666666666661 -0.3848888888888885 0.007697777777777772 -1.4 -1.2444444444444445 -1.0 -0.9333333333333332 0.7777777777777778 -0.015555555555555555 
1.766381 1.4048754125091825 1.2487781444526065 1.100411925781044 0.936583608339455 -0.7804863402828792 0.015609726805657583 0.6815999999999991 0.6058666666666661 0.4925820756279834 0.45439999999999936 -0.37866666666666615 0.007573333333333324 -1.4 -1.2444444444444445 -1.0 -0.9333333333333332 0.7777777777777778 -0.015555555555555555 
1.774381 1.4102834125091825 1.2535852555637175 1.1043205823860682 0.9401889416727881 -0.7834907847273236 0.015669815694546473 0.6703999999999994 0.5959111111111106 0.4845820756279834 0.44693333333333285 -0.372444444444444 0.00744888888888888 -1.4 -1.2444444444444445 -1.0 -0.9333333333333332 0.7777777777777778 -0.015555555555555555 
1.782381 1.4156018125091823 1.2583127222303843 1.1081652389910919 0.9437345416727885 -0.7864454513939902 0.01572890902787981 0.6591999999999993 0.5859555555555547 0.4765820756279834 0.4394666666666661 -0.36622222222222167 0.0073244444444444355 -1.4 -1.2444444444444445 -1.0 -0.9333333333333332 0.7777777777777778 -0.015555555555555555 
1.7903811 1.420830612509182 1.2629605444526062 1.111945895596116 0.9472204083394549 -0.7893503402828792 0.015787006805657585 0.6479999999999992 0.5759999999999992 0.4685820756279834 0.4319999999999994 -0.35999999999999954 0.007199999999999991 -1.4 -1.2444444444444445 -1.0 -0.9333333333333332 0.7777777777777778 -0.015555555555555555 
1.7983811 1.4259698125091822 1.2675287222303842 1.1156625522011399 0.9506465416727883 -0.7922054513939902 0.015844109027879805 0.6367999999999991 0.5660444444444437 0.46058207562798337 0.4245333333333329 -0.3537777777777772 0.007075555555555547 -1.4 -1.2444444444444445 -1.0 -0.9333333333333332 0.7777777777777778 -0.015555555555555555 
1.8063811 1.4310194125091824 1.2720172555637175 1.1193152088061638 0.9540129416727883 -0.7950107847273236 0.01590021569454647 0.625599999999999 0.5560888888888882 0.45258207562798336 0.41706666666666614 -0.34755555555555506 0.006951111111111102 -1.4 -1.2444444444444445 -1.0 -0.9333333333333332 0.7777777777777778 -0.015555555555555555 
1.8143811 1.4359794125091823 1.2764261444526066 1.1229038654111876 0.9573196083394548 -0.7977663402828792 0.015955326805657588 0.6143999999999994 0.5461333333333327 0.44458207562798335 0.4095999999999993 -0.3413333333333327 0.006826666666666658 -1.4 -1.2444444444444445 -1.0 -0.9333333333333332 0.7777777777777778 -0.015555555555555555 
1.8223811 1.4408498125091824 1.2807553888970509 1.1264285220162114 0.9605665416727884 -0.8004721180606569 0.01600944236121314 0.6031999999999993 0.5361777777777772 0.43658207562798335 0.40213333333333257 -0.3351111111111106 0.006702222222222214 -1.4 -1.2444444444444445 -1.0 -0.9333333333333332 0.7777777777777778 -0.015555555555555555 
1.830381 1.4456306125091825 1.2850049888970507 1.1298891786212355 0.9637537416727882 -0.8031281180606569 0.016062562361213138 0.5919999999999992 0.5262222222222213 0.42858207562798334 0.3946666666666663 -0.32888888888888845 0.006577777777777769 -1.4 -1.2444444444444445 -1.0 -0.9333333333333332 0.7777777777777778 -0.015555555555555555 
1.838381 1.4503218125091824 1.2891749444526064 1.1332858352262591 0.9668812083394549 -0.8057343402828792 0.016114686805657585 0.5807999999999991 0.5162666666666658 0.42058207562798333 0.38719999999999954 -0.3226666666666661 0.006453333333333325 -1.4 -1.2444444444444445 -1.0 -0.9333333333333332 0.7777777777777778 -0.015555555555555555 
1.8463811 1.4549234125091823 1.2932652555637174 1.1366184918312832 0.9699489416727882 -0.8082907847273235 0.016165815694546476 0.569599999999999 0.5063111111111103 0.4125820756279833 0.3797333333333328 -0.316444444444444 0.00632888888888888 -1.4 -1.2444444444444445 -1.0 -0.9333333333333332 0.7777777777777778 -0.015555555555555555 
1.8543811 1.4594354125091824 1.297275922230384 1.1398871484363067 0.972956941672788 -0.8107974513939902 0.016215949027879803 0.5583999999999993 0.4963555555555548 0.4045820756279833 0.3722666666666661 -0.3102222222222216 0.006204444444444436 -1.4 -1.2444444444444445 -1.0 -0.9333333333333332 0.7777777777777778 -0.015555555555555555 
1.8623811 1.4638578125091823 1.3012069444526064 1.143091805041331 0.975905208339455 -0.8132543402828791 0.01626508680565758 0.5471999999999992 0.4863999999999993 0.3965820756279833 0.36479999999999935 -0.3039999999999995 0.006079999999999992 -1.4 -1.2444444444444445 -1.0 -0.9333333333333332 0.7777777777777778 -0.015555555555555555 
1.8703811 1.468190612509182 1.305058322230384 1.1462324616463544 0.9787937416727882 -0.8156614513939902 0.016313229027879805 0.5359999999999991 0.4764444444444438 0.3885820756279833 0.3573333333333326 -0.29777777777777714 0.005955555555555547 -1.4 -1.2444444444444445 -1.0 -0.9333333333333332 0.7777777777777778 -0.015555555555555555 
1.8783811 1.4724338125091823 1.3088300555637171 1.1493091182513786 0.9816225416727882 -0.8180187847273235 0.016360375694546472 0.524799999999999 0.4664888888888883 0.3805820756279833 0.3498666666666659 -0.291555555555555 0.005831111111111103 -1.4 -1.2444444444444445 -1.0 -0.9333333333333332 0.7777777777777778 -0.015555555555555555 
1.886381 1.4765874125091827 1.3125221444526067 1.1523217748564023 0.984391608339455 -0.8203263402828791 0.016406526805657587 0.513599999999999 0.45653333333333235 0.3725820756279833 0.34239999999999915 -0.28533333333333266 0.0057066666666666585 -1.4 -1.2444444444444445 -1.0 -0.9333333333333332 0.7777777777777778 -0.015555555555555555 
1.894381 1.4806514125091819 1.3161345888970506 1.155270431461426 0.9871009416727881 -0.8225841180606568 0.016451682361213138 0.5023999999999993 0.44657777777777685 0.3645820756279833 0.33493333333333286 -0.27911111111111053 0.005582222222222214 -1.4 -1.2444444444444445 -1.0 -0.9333333333333332 0.7777777777777778 -0.015555555555555555 
1.9023811 1.484625812509182 1.3196673888970505 1.1581550880664504 0.9897505416727883 -0.8247921180606568 0.016495842361213136 0.4911999999999992 0.43662222222222136 0.3565820756279833 0.32746666666666613 -0.2728888888888884 0.00545777777777777 -1.4 -1.2444444444444445 -1.0 -0.9333333333333332 0.7777777777777778 -0.015555555555555555 
1.9103811 1.4885106125091827 1.3231205444526064 1.160975744671474 0.9923404083394549 -0.8269503402828791 0.016539006805657584 0.4799999999999991 0.42666666666666586 0.34858207562798327 0.3199999999999994 -0.26666666666666605 0.005333333333333325 -1.4 -1.2444444444444445 -1.0 -0.9333333333333332 0.7777777777777778 -0.015555555555555555 
1.9183811 1.4923058125091822 1.326494055563717 1.1637324012764978 0.9948705416727881 -0.8290587847273234 0.016581175694546472 0.468799999999999 0.41671111111111037 0.34058207562798315 0.31253333333333266 -0.2604444444444439 0.005208888888888881 -1.4 -1.2444444444444445 -1.0 -0.9333333333333332 0.7777777777777778 -0.015555555555555555 
1.9263811 1.4960114125091823 1.3297879222303841 1.166425057881522 0.9973409416727882 -0.8311174513939901 0.016622349027879804 0.4575999999999989 0.40675555555555487 0.33258207562798314 0.30506666666666593 -0.25422222222222157 0.005084444444444437 -1.4 -1.2444444444444445 -1.0 -0.9333333333333332 0.7777777777777778 -0.015555555555555555 
1.9343811 1.4996274125091826 1.3330021444526066 1.1690537144865454 0.9997516083394549 -0.8331263402828791 0.016662526805657583 0.44639999999999924 0.39679999999999893 0.32458207562798314 0.2975999999999992 -0.24799999999999944 0.004959999999999989 -1.4 -1.2444444444444445 -1.0 -0.9333333333333332 0.7777777777777778 -0.015555555555555555 
1.942381 1.5031538125091823 1.3361367222303842 1.1716183710915695 1.0021025416727882 -0.8350854513939902 0.016701709027879805 0.43519999999999914 0.38684444444444344 0.31658207562798313 0.29013333333333247 -0.2417777777777771 0.004835555555555544 -1.4 -1.2444444444444445 -1.0 -0.9333333333333332 0.7777777777777778 -0.015555555555555555 
1.950381 1.5065906125091821 1.3391916555637178 1.1741190276965936 1.0043937416727884 -0.8369947847273235 0.016739895694546474 0.42399999999999904 0.37688888888888794 0.3085820756279831 0.2826666666666662 -0.23555555555555496 0.0047111111111111 -1.4 -1.2444444444444445 -1.0 -0.9333333333333332 0.7777777777777778 -0.015555555555555555 
1.958381 1.5099378125091822 1.342166944452606 1.1765556843016167 1.006625208339455 -0.8388543402828791 0.016777086805657586 0.41279999999999895 0.36693333333333245 0.3005820756279831 0.27519999999999945 -0.2293333333333326 0.004586666666666656 -1.4 -1.2444444444444445 -1.0 -0.9333333333333332 0.7777777777777778 -0.015555555555555555 
1.9663811 1.5131954125091822 1.3450625888970509 1.1789283409066416 1.0087969416727882 -0.8406641180606568 0.016813282361213135 0.40159999999999885 0.35697777777777695 0.2925820756279831 0.2677333333333327 -0.22311111111111048 0.004462222222222211 -1.4 -1.2444444444444445 -1.0 -0.9333333333333332 0.7777777777777778 -0.015555555555555555 
1.9743811 1.516363412509182 1.3478785888970508 1.181236997511665 1.010908941672788 -0.8424241180606569 0.01684848236121314 0.3903999999999992 0.34702222222222145 0.2845820756279831 0.260266666666666 -0.21688888888888835 0.004337777777777767 -1.4 -1.2444444444444445 -1.0 -0.9333333333333332 0.7777777777777778 -0.015555555555555555 
1.9823811 1.5194418125091824 1.3506149444526063 1.1834816541166884 1.012961208339455 -0.844134340282879 0.016882686805657583 0.3791999999999991 0.3370666666666655 0.2765820756279831 0.25279999999999925 -0.210666666666666 0.004213333333333322 -1.4 -1.2444444444444445 -1.0 -0.9333333333333332 0.7777777777777778 -0.015555555555555555 
1.9903811 1.5224306125091824 1.3532716555637176 1.185662310721713 1.0149537416727883 -0.8457947847273235 0.016915895694546476 0.367999999999999 0.32711111111111 0.2685820756279831 0.24533333333333252 -0.20444444444444387 0.004088888888888878 -1.4 -1.2444444444444445 -1.0 -0.9333333333333332 0.7777777777777778 -0.015555555555555555 
1.9983811 1.5253298125091823 1.3558487222303839 1.1877789673267363 1.0168865416727884 -0.8474054513939903 0.016948109027879805 0.3567999999999989 0.3171555555555545 0.2605820756279831 0.23786666666666578 -0.19822222222222152 0.003964444444444434 -1.4 -1.2444444444444445 -1.0 -0.9333333333333332 0.7777777777777778 -0.015555555555555555 
2.006381 1.5281394125091823 1.3583461444526064 1.1898316239317603 1.018759608339455 -0.848966340282879 0.016979326805657582 0.3455999999999988 0.30719999999999903 0.25258207562798307 0.2303999999999995 -0.1919999999999994 0.0038399999999999893 -1.4 -1.2444444444444445 -1.0 -0.9333333333333332 0.7777777777777778 -0.015555555555555555 
2.0143812 1.5308594125091823 1.360763922230384 1.1918202805367843 1.0205729416727882 -0.85047745139399 0.017009549027879805 0.33439999999999914 0.29724444444444353 0.24458207562798306 0.22293333333333276 -0.18577777777777704 0.0037155555555555414 -1.4 -1.2444444444444445 -1.0 -0.9333333333333332 0.7777777777777778 -0.015555555555555555 
2.022381 1.533489812509182 1.3631020555637172 1.1937449371418078 1.022326541672788 -0.8519387847273233 0.01703877569454647 0.32319999999999904 0.28728888888888804 0.23658207562798306 0.21546666666666603 -0.1795555555555549 0.0035911111111111005 -1.4 -1.2444444444444445 -1.0 -0.9333333333333332 0.7777777777777778 -0.015555555555555555 
2.030381 1.536030612509182 1.3653605444526067 1.1956055937468317 1.0240204083394548 -0.8533503402828791 0.01706700680565758 0.31199999999999894 0.27733333333333254 0.22858207562798305 0.2079999999999993 -0.17333333333333245 0.0034666666666666526 -1.4 -1.2444444444444445 -1.0 -0.9333333333333332 0.7777777777777778 -0.015555555555555555 
2.038381 1.5384818125091824 1.3675393888970504 1.197402250351856 1.0256545416727882 -0.8547121180606567 0.01709424236121314 0.30079999999999885 0.2673777777777766 0.22058207562798304 0.20053333333333256 -0.16711111111111032 0.0033422222222222117 -1.4 -1.2444444444444445 -1.0 -0.9333333333333332 0.7777777777777778 -0.015555555555555555 
2.046381 1.5408434125091823 1.369638588897051 1.1991349069568793 1.0272289416727882 -0.8560241180606568 0.017120482361213142 0.28959999999999875 0.2574222222222211 0.21258207562798304 0.19306666666666583 -0.1608888888888882 0.003217777777777764 -1.4 -1.2444444444444445 -1.0 -0.9333333333333332 0.7777777777777778 -0.015555555555555555 
2.0543811 1.5431154125091824 1.3716581444526066 1.2008035635619034 1.0287436083394552 -0.8572863402828791 0.01714572680565759 0.2783999999999991 0.2474666666666656 0.20458207562798303 0.1855999999999991 -0.15466666666666606 0.003093333333333323 -1.4 -1.2444444444444445 -1.0 -0.9333333333333332 0.7777777777777778 -0.015555555555555555 
2.062381 1.5452978125091819 1.373598055563717 1.2024082201669275 1.030198541672788 -0.8584987847273232 0.017169975694546466 0.267199999999999 0.23751111111111012 0.19658207562798302 0.17813333333333237 -0.14844444444444393 0.002968888888888875 -1.4 -1.2444444444444445 -1.0 -0.9333333333333332 0.7777777777777778 -0.015555555555555555 
2.0703812 1.5473906125091828 1.3754583222303847 1.203948876771951 1.0315937416727883 -0.8596614513939903 0.017193229027879807 0.2559999999999989 0.22755555555555462 0.18858207562798301 0.17066666666666608 -0.14222222222222136 0.002844444444444434 -1.4 -1.2444444444444445 -1.0 -0.9333333333333332 0.7777777777777778 -0.015555555555555555 
2.078381 1.5493938125091822 1.377238944452606 1.2054255333769754 1.032929208339455 -0.860774340282879 0.017215486805657584 0.2447999999999988 0.21759999999999913 0.180582075627983 0.16319999999999935 -0.13599999999999923 0.0027199999999999863 -1.4 -1.2444444444444445 -1.0 -0.9333333333333332 0.7777777777777778 -0.015555555555555555 
2.0863812 1.5513074125091821 1.3789399222303842 1.2068381899819989 1.034204941672788 -0.8618374513939903 0.017236749027879805 0.2335999999999987 0.2076444444444432 0.172582075627983 0.1557333333333326 -0.1297777777777771 0.0025955555555555454 -1.4 -1.2444444444444445 -1.0 -0.9333333333333332 0.7777777777777778 -0.015555555555555555 
2.094381 1.5531314125091826 1.3805612555637177 1.2081868465870227 1.0354209416727882 -0.8628507847273238 0.017257015694546476 0.22239999999999904 0.1976888888888877 0.164582075627983 0.14826666666666588 -0.12355555555555497 0.0024711111111110975 -1.4 -1.2444444444444445 -1.0 -0.9333333333333332 0.7777777777777778 -0.015555555555555555 
2.102381 1.554865812509182 1.382102944452606 1.2094715031920469 1.0365772083394544 -0.8638143402828792 0.01727628680565758 0.21119999999999894 0.1877333333333322 0.156582075627983 0.14079999999999915 -0.1173333333333324 0.0023466666666666566 -1.4 -1.2444444444444445 -1.0 -0.9333333333333332 0.7777777777777778 -0.015555555555555555 
2.1103811 1.5565106125091819 1.383564988897051 1.2106921597970706 1.0376737416727881 -0.864728118060657 0.01729456236121314 0.19999999999999885 0.1777777777777767 0.14858207562798298 0.13333333333333242 -0.11111111111111027 0.0022222222222222088 -1.4 -1.2444444444444445 -1.0 -0.9333333333333332 0.7777777777777778 -0.015555555555555555 
2.118381 1.5580658125091826 1.3849473888970505 1.2118488164020946 1.0387105416727884 -0.8655921180606571 0.01731184236121314 0.18879999999999875 0.1678222222222212 0.14058207562798297 0.12586666666666568 -0.10488888888888814 0.002097777777777768 -1.4 -1.2444444444444445 -1.0 -0.9333333333333332 0.7777777777777778 -0.015555555555555555 
2.1263812 1.5595314125091824 1.3862501444526063 1.2129414730071182 1.0396876083394548 -0.8664063402828792 0.017328126805657585 0.17759999999999865 0.1578666666666657 0.13258207562798296 0.1183999999999994 -0.09866666666666601 0.00197333333333332 -1.4 -1.2444444444444445 -1.0 -0.9333333333333332 0.7777777777777778 -0.015555555555555555 
2.134381 1.560907412509182 1.3874732555637173 1.2139701296121421 1.040604941672788 -0.8671707847273236 0.017343415694546466 0.166399999999999 0.14791111111111022 0.12458207562798296 0.11093333333333266 -0.09244444444444389 0.001848888888888879 -1.4 -1.2444444444444445 -1.0 -0.9333333333333332 0.7777777777777778 -0.015555555555555555 
2.1423812 1.5621938125091819 1.3886167222303836 1.214934786217166 1.0414625416727876 -0.8678854513939901 0.0173577090278798 0.1551999999999989 0.13795555555555428 0.11658207562798295 0.10346666666666593 -0.08622222222222131 0.0017244444444444312 -1.4 -1.2444444444444445 -1.0 -0.9333333333333332 0.7777777777777778 -0.015555555555555555 
2.150381 1.5633906125091823 1.3896805444526066 1.2158354428221898 1.0422604083394549 -0.8685503402828791 0.017371006805657584 0.1439999999999988 0.12799999999999878 0.10858207562798294 0.0959999999999992 -0.07999999999999918 0.0015999999999999903 -1.4 -1.2444444444444445 -1.0 -0.9333333333333332 0.7777777777777778 -0.015555555555555555 
2.158381 1.5644978125091822 1.3906647222303838 1.2166720994272135 1.0429985416727885 -0.8691654513939904 0.01738330902787981 0.1327999999999987 0.11804444444444329 0.10058207562798294 0.08853333333333246 -0.07377777777777705 0.0014755555555555425 -1.4 -1.2444444444444445 -1.0 -0.9333333333333332 0.7777777777777778 -0.015555555555555555 
2.1663811 1.5655154125091815 1.3915692555637171 1.2174447560322381 1.043676941672788 -0.8697307847273235 0.017394615694546464 0.1215999999999986 0.10808888888888779 0.09258207562798293 0.08106666666666573 -0.06755555555555492 0.0013511111111111015 -1.4 -1.2444444444444445 -1.0 -0.9333333333333332 0.7777777777777778 -0.015555555555555555 
2.174381 1.5664434125091822 1.392394144452606 1.2181534126372613 1.0442956083394546 -0.8702463402828791 0.01740492680565758 0.11039999999999894 0.0981333333333323 0.08458207562798292 0.07359999999999944 -0.06133333333333235 0.0012266666666666537 -1.4 -1.2444444444444445 -1.0 -0.9333333333333332 0.7777777777777778 -0.015555555555555555 
2.1823812 1.5672818125091819 1.3931393888970502 1.2187980692422853 1.0448545416727877 -0.8707121180606568 0.017414242361213136 0.09919999999999884 0.0881777777777768 0.07658207562798292 0.06613333333333271 -0.05511111111111022 0.0011022222222222058 -1.4 -1.2444444444444445 -1.0 -0.9333333333333332 0.7777777777777778 -0.015555555555555555 
2.190381 1.5680306125091814 1.3938049888970505 1.2193787258473092 1.0453537416727878 -0.8711281180606567 0.017422562361213135 0.08799999999999875 0.07822222222222086 0.06858207562798291 0.05866666666666598 -0.048888888888888093 0.000977777777777765 -1.4 -1.2444444444444445 -1.0 -0.9333333333333332 0.7777777777777778 -0.015555555555555555 
2.1983812 1.5686898125091826 1.394390944452606 1.219895382452333 1.045793208339455 -0.8714943402828792 0.01742988680565758 0.07679999999999865 0.06826666666666537 0.0605820756279829 0.051199999999999246 -0.042666666666665964 0.0008533333333333171 -1.4 -1.2444444444444445 -1.0 -0.9333333333333332 0.7777777777777778 -0.015555555555555555 
2.206381 1.5692594125091819 1.3948972555637171 1.220348039057357 1.046172941672788 -0.8718107847273233 0.017436215694546467 0.06559999999999855 0.05831111111110987 0.052582075627982894 0.043733333333332514 -0.036444444444443835 0.0007288888888888762 -1.4 -1.2444444444444445 -1.0 -0.9333333333333332 0.7777777777777778 -0.015555555555555555 
2.214381 1.569739412509182 1.395323922230384 1.220736695662381 1.046492941672788 -0.8720774513939902 0.017441549027879803 0.054399999999998894 0.048355555555554375 0.04458207562798289 0.03626666666666578 -0.030222222222221262 0.0006044444444444283 -1.4 -1.2444444444444445 -1.0 -0.9333333333333332 0.7777777777777778 -0.015555555555555555 
2.222381 1.5701298125091827 1.395670944452606 1.2210613522674043 1.0467532083394546 -0.8722943402828791 0.017445886805657583 0.043199999999998795 0.03839999999999888 0.03658207562798288 0.02879999999999905 -0.023999999999999133 0.0004799999999999874 -1.4 -1.2444444444444445 -1.0 -0.9333333333333332 0.7777777777777778 -0.015555555555555555 
2.230381 1.5704306125091825 1.3959383222303838 1.2213220088724284 1.046953741672788 -0.8724614513939903 0.01744922902787981 0.031999999999998696 0.028444444444443384 0.028582075627982872 0.02133333333333276 -0.017777777777777004 0.0003555555555555395 -1.4 -1.2444444444444445 -1.0 -0.9333333333333332 0.7777777777777778 -0.015555555555555555 
2.2383811 1.5706418125091821 1.3961260555637176 1.2215186654774524 1.0470945416727884 -0.8725787847273236 0.01745157569454647 0.020799999999998597 0.01848888888888789 0.020582075627982865 0.013866666666666028 -0.011555555555554875 0.0002311111111110986 -1.4 -1.2444444444444445 -1.0 -0.9333333333333332 0.7777777777777778 -0.015555555555555555 
2.246381 1.5707634125091816 1.396234144452606 1.2216513220824758 1.0471756083394548 -0.872646340282879 0.01745292680565758 0.009599999999998499 0.00853333333333195 0.012582075627982858 0.006399999999999295 -0.005333333333332302 0.00010666666666665076 -1.4 -1.2444444444444445 -1.0 -0.9333333333333332 0.7777777777777778 -0.015555555555555555 
2.2543812 1.570795412509182 1.3962625888970503 1.2217199786875006 1.0471969416727878 -0.8726641180606567 0.017453282361213136 -0.001600000000001156 -0.0014222222222235459 0.004582075627982851 -0.0010666666666674374 0.0008888888888898272 -1.777777777779016e-05 -1.4 -1.2444444444444445 -1.0 -0.9333333333333332 0.7777777777777778 -0.015555555555555555 
