Fleaurent/UniversalRobot/csv/movej_Synchron.csv
timestamp target_q_0 target_q_1 target_q_2 target_q_3 target_q_4 target_q_5 target_qd_0 target_qd_1 target_qd_2 target_qd_3 target_qd_4 target_qd_5 target_qdd_0 target_qdd_1 target_qdd_2 target_qdd_3 target_qdd_4 target_qdd_5
0.0 0.0 -1.5707963267948966 -1.5707963267948966 0.0 1.5707963267948966 0.0 0.0 0.0 0.0 0.0 0.0 0.0 1.0 0.6666666666666667 0.33333333333333337 0.0 0.0 0.0 
0.008 3.2e-05 -1.5707749934615631 -1.57078566012823 0.0 1.5707963267948966 0.0 0.008 0.005333333333333334 0.002666666666666667 0.0 0.0 0.0 1.0 0.6666666666666667 0.33333333333333337 0.0 0.0 0.0 
0.016 0.000128 -1.5707109934615633 -1.57075366012823 0.0 1.5707963267948966 0.0 0.016 0.010666666666666668 0.005333333333333334 0.0 0.0 0.0 1.0 0.6666666666666667 0.33333333333333337 0.0 0.0 0.0 
0.024 0.000288 -1.5706043267948966 -1.5707003267948965 0.0 1.5707963267948966 0.0 0.024 0.016000000000000004 0.008000000000000002 0.0 0.0 0.0 1.0 0.6666666666666667 0.33333333333333337 0.0 0.0 0.0 
0.032 0.000512 -1.5704549934615633 -1.5706256601282298 0.0 1.5707963267948966 0.0 0.032 0.021333333333333336 0.010666666666666668 0.0 0.0 0.0 1.0 0.6666666666666667 0.33333333333333337 0.0 0.0 0.0 
0.04 0.0008 -1.5702629934615633 -1.57052966012823 0.0 1.5707963267948966 0.0 0.04 0.026666666666666672 0.013333333333333336 0.0 0.0 0.0 1.0 0.6666666666666667 0.33333333333333337 0.0 0.0 0.0 
0.048 0.001152 -1.5700283267948965 -1.5704123267948966 0.0 1.5707963267948966 0.0 0.048 0.03200000000000001 0.016000000000000004 0.0 0.0 0.0 1.0 0.6666666666666667 0.33333333333333337 0.0 0.0 0.0 
0.056 0.0015680000000000002 -1.5697509934615632 -1.5702736601282299 0.0 1.5707963267948966 0.0 0.056 0.037333333333333336 0.018666666666666668 0.0 0.0 0.0 1.0 0.6666666666666667 0.33333333333333337 0.0 0.0 0.0 
0.064 0.002048 -1.5694309934615631 -1.57011366012823 0.0 1.5707963267948966 0.0 0.064 0.04266666666666667 0.021333333333333336 0.0 0.0 0.0 1.0 0.6666666666666667 0.33333333333333337 0.0 0.0 0.0 
0.072 0.0025920000000000006 -1.5690683267948966 -1.5699323267948966 0.0 1.5707963267948966 0.0 0.07200000000000001 0.04800000000000001 0.024000000000000004 0.0 0.0 0.0 1.0 0.6666666666666667 0.33333333333333337 0.0 0.0 0.0 
0.08 0.0032 -1.5686629934615632 -1.5697296601282298 0.0 1.5707963267948966 0.0 0.08 0.053333333333333344 0.026666666666666672 0.0 0.0 0.0 1.0 0.6666666666666667 0.33333333333333337 0.0 0.0 0.0 
0.088 0.0038719999999999996 -1.5682149934615632 -1.5695056601282298 0.0 1.5707963267948966 0.0 0.088 0.05866666666666667 0.029333333333333336 0.0 0.0 0.0 1.0 0.6666666666666667 0.33333333333333337 0.0 0.0 0.0 
0.096 0.004608 -1.5677243267948966 -1.5692603267948966 0.0 1.5707963267948966 0.0 0.096 0.06400000000000002 0.03200000000000001 0.0 0.0 0.0 1.0 0.6666666666666667 0.33333333333333337 0.0 0.0 0.0 
0.104 0.005408000000000001 -1.5671909934615633 -1.56899366012823 0.0 1.5707963267948966 0.0 0.10400000000000001 0.06933333333333334 0.03466666666666667 0.0 0.0 0.0 1.0 0.6666666666666667 0.33333333333333337 0.0 0.0 0.0 
0.112 0.006272000000000001 -1.5666149934615632 -1.5687056601282299 0.0 1.5707963267948966 0.0 0.112 0.07466666666666667 0.037333333333333336 0.0 0.0 0.0 1.0 0.6666666666666667 0.33333333333333337 0.0 0.0 0.0 
0.12 0.0072 -1.5659963267948966 -1.5683963267948966 0.0 1.5707963267948966 0.0 0.12 0.08 0.04 0.0 0.0 0.0 1.0 0.6666666666666667 0.33333333333333337 0.0 0.0 0.0 
0.128 0.008192 -1.5653349934615632 -1.56806566012823 0.0 1.5707963267948966 0.0 0.128 0.08533333333333334 0.04266666666666667 0.0 0.0 0.0 1.0 0.6666666666666667 0.33333333333333337 0.0 0.0 0.0 
0.136 0.009248000000000001 -1.5646309934615632 -1.56771366012823 0.0 1.5707963267948966 0.0 0.136 0.09066666666666669 0.045333333333333344 0.0 0.0 0.0 1.0 0.6666666666666667 0.33333333333333337 0.0 0.0 0.0 
0.144 0.010368000000000002 -1.5638843267948965 -1.5673403267948967 0.0 1.5707963267948966 0.0 0.14400000000000002 0.09600000000000002 0.04800000000000001 0.0 0.0 0.0 1.0 0.6666666666666667 0.33333333333333337 0.0 0.0 0.0 
0.152 0.011552 -1.5630949934615632 -1.56694566012823 0.0 1.5707963267948966 0.0 0.152 0.10133333333333334 0.05066666666666667 0.0 0.0 0.0 1.0 0.6666666666666667 0.33333333333333337 0.0 0.0 0.0 
0.16 0.0128 -1.5622629934615633 -1.56652966012823 0.0 1.5707963267948966 0.0 0.16 0.10666666666666669 0.053333333333333344 0.0 0.0 0.0 1.0 0.6666666666666667 0.33333333333333337 0.0 0.0 0.0 
0.168 0.014112000000000001 -1.5613883267948965 -1.5660923267948965 0.0 1.5707963267948966 0.0 0.168 0.11200000000000002 0.05600000000000001 0.0 0.0 0.0 1.0 0.6666666666666667 0.33333333333333337 0.0 0.0 0.0 
0.176 0.015487999999999998 -1.5604709934615633 -1.56563366012823 0.0 1.5707963267948966 0.0 0.176 0.11733333333333335 0.05866666666666667 0.0 0.0 0.0 1.0 0.6666666666666667 0.33333333333333337 0.0 0.0 0.0 
0.184 0.016928 -1.5595109934615632 -1.5651536601282299 0.0 1.5707963267948966 0.0 0.184 0.12266666666666667 0.06133333333333334 0.0 0.0 0.0 1.0 0.6666666666666667 0.33333333333333337 0.0 0.0 0.0 
0.192 0.018432 -1.5585083267948965 -1.5646523267948966 0.0 1.5707963267948966 0.0 0.192 0.12800000000000003 0.06400000000000002 0.0 0.0 0.0 1.0 0.6666666666666667 0.33333333333333337 0.0 0.0 0.0 
0.2 0.020000000000000004 -1.5574629934615631 -1.56412966012823 0.0 1.5707963267948966 0.0 0.2 0.13333333333333336 0.06666666666666668 0.0 0.0 0.0 1.0 0.6666666666666667 0.33333333333333337 0.0 0.0 0.0 
0.208 0.021632000000000005 -1.5563749934615632 -1.5635856601282299 0.0 1.5707963267948966 0.0 0.20800000000000002 0.1386666666666667 0.06933333333333334 0.0 0.0 0.0 1.0 0.6666666666666667 0.33333333333333337 0.0 0.0 0.0 
0.216 0.023327999999999998 -1.5552443267948965 -1.5630203267948966 0.0 1.5707963267948966 0.0 0.216 0.14400000000000002 0.07200000000000001 0.0 0.0 0.0 1.0 0.6666666666666667 0.33333333333333337 0.0 0.0 0.0 
0.224 0.025088000000000003 -1.5540709934615633 -1.5624336601282298 0.0 1.5707963267948966 0.0 0.224 0.14933333333333335 0.07466666666666667 0.0 0.0 0.0 1.0 0.6666666666666667 0.33333333333333337 0.0 0.0 0.0 
0.232 0.026912000000000002 -1.5528549934615632 -1.5618256601282299 0.0 1.5707963267948966 0.0 0.232 0.1546666666666667 0.07733333333333335 0.0 0.0 0.0 1.0 0.6666666666666667 0.33333333333333337 0.0 0.0 0.0 
0.24 0.0288 -1.5515963267948965 -1.5611963267948965 0.0 1.5707963267948966 0.0 0.24 0.16 0.08 0.0 0.0 0.0 1.0 0.6666666666666667 0.33333333333333337 0.0 0.0 0.0 
0.248 0.030751999999999998 -1.5502949934615633 -1.56054566012823 0.0 1.5707963267948966 0.0 0.248 0.16533333333333336 0.08266666666666668 0.0 0.0 0.0 1.0 0.6666666666666667 0.33333333333333337 0.0 0.0 0.0 
0.256 0.032768 -1.5489509934615633 -1.55987366012823 0.0 1.5707963267948966 0.0 0.256 0.1706666666666667 0.08533333333333334 0.0 0.0 0.0 1.0 0.6666666666666667 0.33333333333333337 0.0 0.0 0.0 
0.264 0.034848000000000004 -1.5475643267948966 -1.5591803267948965 0.0 1.5707963267948966 0.0 0.264 0.17600000000000002 0.08800000000000001 0.0 0.0 0.0 1.0 0.6666666666666667 0.33333333333333337 0.0 0.0 0.0 
0.272 0.036992000000000004 -1.5461349934615631 -1.5584656601282298 0.0 1.5707963267948966 0.0 0.272 0.18133333333333337 0.09066666666666669 0.0 0.0 0.0 1.0 0.6666666666666667 0.33333333333333337 0.0 0.0 0.0 
0.28 0.039200000000000006 -1.5446629934615632 -1.55772966012823 0.0 1.5707963267948966 0.0 0.28 0.1866666666666667 0.09333333333333335 0.0 0.0 0.0 1.0 0.6666666666666667 0.33333333333333337 0.0 0.0 0.0 
0.28234345 0.039826909566509444 -1.544245053750557 -1.5575206902727268 0.0 1.5707963267948966 0.0 0.2743434418098265 0.1828956278732177 0.09144781393660885 0.0 0.0 0.0 0.0 0.0 0.0 0.0 0.0 0.0 
0.29034343 0.04202165710098806 -1.5427818887275713 -1.556789107761234 0.0 1.5707963267948966 0.0 0.2743434418098265 0.1828956278732177 0.09144781393660885 0.0 0.0 0.0 0.0 0.0 0.0 0.0 0.0 0.0 
0.29834345 0.04421640463546667 -1.5413187237045856 -1.556057525249741 0.0 1.5707963267948966 0.0 0.2743434418098265 0.1828956278732177 0.09144781393660885 0.0 0.0 0.0 0.0 0.0 0.0 0.0 0.0 0.0 
0.30634344 0.04641115216994529 -1.5398555586815996 -1.5553259427382482 0.0 1.5707963267948966 0.0 0.2743434418098265 0.1828956278732177 0.09144781393660885 0.0 0.0 0.0 0.0 0.0 0.0 0.0 0.0 0.0 
0.31434345 0.0486058997044239 -1.538392393658614 -1.5545943602267553 0.0 1.5707963267948966 0.0 0.2743434418098265 0.1828956278732177 0.09144781393660885 0.0 0.0 0.0 0.0 0.0 0.0 0.0 0.0 0.0 
0.32234344 0.05080064723890251 -1.5369292286356282 -1.5538627777152625 0.0 1.5707963267948966 0.0 0.2743434418098265 0.1828956278732177 0.09144781393660885 0.0 0.0 0.0 0.0 0.0 0.0 0.0 0.0 0.0 
0.33034346 0.05299539477338113 -1.5354660636126425 -1.5531311952037696 0.0 1.5707963267948966 0.0 0.2743434418098265 0.1828956278732177 0.09144781393660885 0.0 0.0 0.0 0.0 0.0 0.0 0.0 0.0 0.0 
0.33834344 0.05519014230785975 -1.5340028985896568 -1.5523996126922766 0.0 1.5707963267948966 0.0 0.2743434418098265 0.1828956278732177 0.09144781393660885 0.0 0.0 0.0 0.0 0.0 0.0 0.0 0.0 0.0 
0.34634343 0.05738488984233836 -1.532539733566671 -1.5516680301807837 0.0 1.5707963267948966 0.0 0.2743434418098265 0.1828956278732177 0.09144781393660885 0.0 0.0 0.0 0.0 0.0 0.0 0.0 0.0 0.0 
0.35434344 0.05957963737681697 -1.5310765685436853 -1.5509364476692908 0.0 1.5707963267948966 0.0 0.2743434418098265 0.1828956278732177 0.09144781393660885 0.0 0.0 0.0 0.0 0.0 0.0 0.0 0.0 0.0 
0.36234343 0.06177438491129558 -1.5296134035206996 -1.550204865157798 0.0 1.5707963267948966 0.0 0.2743434418098265 0.1828956278732177 0.09144781393660885 0.0 0.0 0.0 0.0 0.0 0.0 0.0 0.0 0.0 
0.37034345 0.06396913244577421 -1.5281502384977137 -1.5494732826463051 0.0 1.5707963267948966 0.0 0.2743434418098265 0.1828956278732177 0.09144781393660885 0.0 0.0 0.0 0.0 0.0 0.0 0.0 0.0 0.0 
0.37834343 0.06616387998025282 -1.526687073474728 -1.5487417001348123 0.0 1.5707963267948966 0.0 0.2743434418098265 0.1828956278732177 0.09144781393660885 0.0 0.0 0.0 0.0 0.0 0.0 0.0 0.0 0.0 
0.38634345 0.06835862751473143 -1.5252239084517423 -1.5480101176233194 0.0 1.5707963267948966 0.0 0.2743434418098265 0.1828956278732177 0.09144781393660885 0.0 0.0 0.0 0.0 0.0 0.0 0.0 0.0 0.0 
0.39434344 0.07055337504921004 -1.5237607434287566 -1.5472785351118266 0.0 1.5707963267948966 0.0 0.2743434418098265 0.1828956278732177 0.09144781393660885 0.0 0.0 0.0 0.0 0.0 0.0 0.0 0.0 0.0 
0.40234345 0.07274812258368865 -1.5222975784057708 -1.5465469526003337 0.0 1.5707963267948966 0.0 0.2743434418098265 0.1828956278732177 0.09144781393660885 0.0 0.0 0.0 0.0 0.0 0.0 0.0 0.0 0.0 
0.41034344 0.07494287011816728 -1.5208344133827851 -1.5458153700888408 0.0 1.5707963267948966 0.0 0.2743434418098265 0.1828956278732177 0.09144781393660885 0.0 0.0 0.0 0.0 0.0 0.0 0.0 0.0 0.0 
0.41834345 0.07713761765264589 -1.5193712483597994 -1.545083787577348 0.0 1.5707963267948966 0.0 0.2743434418098265 0.1828956278732177 0.09144781393660885 0.0 0.0 0.0 0.0 0.0 0.0 0.0 0.0 0.0 
0.42634344 0.0793323651871245 -1.5179080833368135 -1.5443522050658551 0.0 1.5707963267948966 0.0 0.2743434418098265 0.1828956278732177 0.09144781393660885 0.0 0.0 0.0 0.0 0.0 0.0 0.0 0.0 0.0 
0.43434343 0.08152711272160311 -1.5164449183138278 -1.5436206225543623 0.0 1.5707963267948966 0.0 0.2743434418098265 0.1828956278732177 0.09144781393660885 0.0 0.0 0.0 0.0 0.0 0.0 0.0 0.0 0.0 
0.44234344 0.08372186025608172 -1.514981753290842 -1.5428890400428694 0.0 1.5707963267948966 0.0 0.2743434418098265 0.1828956278732177 0.09144781393660885 0.0 0.0 0.0 0.0 0.0 0.0 0.0 0.0 0.0 
0.45034343 0.08591660779056035 -1.5135185882678563 -1.5421574575313766 0.0 1.5707963267948966 0.0 0.2743434418098265 0.1828956278732177 0.09144781393660885 0.0 0.0 0.0 0.0 0.0 0.0 0.0 0.0 0.0 
0.45834345 0.08811135532503896 -1.5120554232448706 -1.5414258750198835 0.0 1.5707963267948966 0.0 0.2743434418098265 0.1828956278732177 0.09144781393660885 0.0 0.0 0.0 0.0 0.0 0.0 0.0 0.0 0.0 
0.46634343 0.09030610285951757 -1.510592258221885 -1.5406942925083906 0.0 1.5707963267948966 0.0 0.2743434418098265 0.1828956278732177 0.09144781393660885 0.0 0.0 0.0 0.0 0.0 0.0 0.0 0.0 0.0 
0.47434345 0.09250085039399619 -1.5091290931988992 -1.5399627099968978 0.0 1.5707963267948966 0.0 0.2743434418098265 0.1828956278732177 0.09144781393660885 0.0 0.0 0.0 0.0 0.0 0.0 0.0 0.0 0.0 
0.48234344 0.09469559792847479 -1.5076659281759133 -1.539231127485405 0.0 1.5707963267948966 0.0 0.2743434418098265 0.1828956278732177 0.09144781393660885 0.0 0.0 0.0 0.0 0.0 0.0 0.0 0.0 0.0 
0.49034345 0.09689034546295341 -1.5062027631529276 -1.538499544973912 0.0 1.5707963267948966 0.0 0.2743434418098265 0.1828956278732177 0.09144781393660885 0.0 0.0 0.0 0.0 0.0 0.0 0.0 0.0 0.0 
0.49834344 0.09908509299743203 -1.5047395981299418 -1.5377679624624192 0.0 1.5707963267948966 0.0 0.2743434418098265 0.1828956278732177 0.09144781393660885 0.0 0.0 0.0 0.0 0.0 0.0 0.0 0.0 0.0 
0.5063434 0.10127984053191064 -1.5032764331069561 -1.5370363799509263 0.0 1.5707963267948966 0.0 0.2743434418098265 0.1828956278732177 0.09144781393660885 0.0 0.0 0.0 0.0 0.0 0.0 0.0 0.0 0.0 
0.51434344 0.10347458806638925 -1.5018132680839704 -1.5363047974394335 0.0 1.5707963267948966 0.0 0.2743434418098265 0.1828956278732177 0.09144781393660885 0.0 0.0 0.0 0.0 0.0 0.0 0.0 0.0 0.0 
0.52234346 0.10566933560086787 -1.5003501030609847 -1.5355732149279406 0.0 1.5707963267948966 0.0 0.2743434418098265 0.1828956278732177 0.09144781393660885 0.0 0.0 0.0 0.0 0.0 0.0 0.0 0.0 0.0 
0.5303434 0.10786408313534648 -1.498886938037999 -1.5348416324164478 0.0 1.5707963267948966 0.0 0.2743434418098265 0.1828956278732177 0.09144781393660885 0.0 0.0 0.0 0.0 0.0 0.0 0.0 0.0 0.0 
0.5383434 0.1100588306698251 -1.4974237730150133 -1.534110049904955 0.0 1.5707963267948966 0.0 0.2743434418098265 0.1828956278732177 0.09144781393660885 0.0 0.0 0.0 0.0 0.0 0.0 0.0 0.0 0.0 
0.54634345 0.1122535782043037 -1.4959606079920273 -1.533378467393462 0.0 1.5707963267948966 0.0 0.2743434418098265 0.1828956278732177 0.09144781393660885 0.0 0.0 0.0 0.0 0.0 0.0 0.0 0.0 0.0 
0.55434346 0.11444832573878232 -1.4944974429690416 -1.5326468848819692 0.0 1.5707963267948966 0.0 0.2743434418098265 0.1828956278732177 0.09144781393660885 0.0 0.0 0.0 0.0 0.0 0.0 0.0 0.0 0.0 
0.5623434 0.11664307327326094 -1.493034277946056 -1.5319153023704764 0.0 1.5707963267948966 0.0 0.2743434418098265 0.1828956278732177 0.09144781393660885 0.0 0.0 0.0 0.0 0.0 0.0 0.0 0.0 0.0 
0.57034343 0.11883782080773955 -1.4915711129230702 -1.5311837198589835 0.0 1.5707963267948966 0.0 0.2743434418098265 0.1828956278732177 0.09144781393660885 0.0 0.0 0.0 0.0 0.0 0.0 0.0 0.0 0.0 
0.57834345 0.12103256834221816 -1.4901079479000845 -1.5304521373474904 0.0 1.5707963267948966 0.0 0.2743434418098265 0.1828956278732177 0.09144781393660885 0.0 0.0 0.0 0.0 0.0 0.0 0.0 0.0 0.0 
0.58634347 0.12322731587669677 -1.4886447828770988 -1.5297205548359976 0.0 1.5707963267948966 0.0 0.2743434418098265 0.1828956278732177 0.09144781393660885 0.0 0.0 0.0 0.0 0.0 0.0 0.0 0.0 0.0 
0.5943434 0.1254220634111754 -1.487181617854113 -1.5289889723245047 0.0 1.5707963267948966 0.0 0.2743434418098265 0.1828956278732177 0.09144781393660885 0.0 0.0 0.0 0.0 0.0 0.0 0.0 0.0 0.0 
0.60234344 0.12761681094565402 -1.4857184528311271 -1.5282573898130118 0.0 1.5707963267948966 0.0 0.2743434418098265 0.1828956278732177 0.09144781393660885 0.0 0.0 0.0 0.0 0.0 0.0 0.0 0.0 0.0 
0.61034346 0.12981155848013262 -1.4842552878081414 -1.527525807301519 0.0 1.5707963267948966 0.0 0.2743434418098265 0.1828956278732177 0.09144781393660885 0.0 0.0 0.0 0.0 0.0 0.0 0.0 0.0 0.0 
0.6183434 0.13200630601461122 -1.4827921227851557 -1.5267942247900261 0.0 1.5707963267948966 0.0 0.2743434418098265 0.1828956278732177 0.09144781393660885 0.0 0.0 0.0 0.0 0.0 0.0 0.0 0.0 0.0 
0.6263434 0.13420105354908984 -1.48132895776217 -1.5260626422785333 0.0 1.5707963267948966 0.0 0.2743434418098265 0.1828956278732177 0.09144781393660885 0.0 0.0 0.0 0.0 0.0 0.0 0.0 0.0 0.0 
0.63434345 0.13639580108356847 -1.4798657927391843 -1.5253310597670404 0.0 1.5707963267948966 0.0 0.2743434418098265 0.1828956278732177 0.09144781393660885 0.0 0.0 0.0 0.0 0.0 0.0 0.0 0.0 0.0 
0.64234346 0.1385905486180471 -1.4784026277161986 -1.5245994772555476 0.0 1.5707963267948966 0.0 0.2743434418098265 0.1828956278732177 0.09144781393660885 0.0 0.0 0.0 0.0 0.0 0.0 0.0 0.0 0.0 
0.6503434 0.1407852961525257 -1.4769394626932129 -1.5238678947440547 0.0 1.5707963267948966 0.0 0.2743434418098265 0.1828956278732177 0.09144781393660885 0.0 0.0 0.0 0.0 0.0 0.0 0.0 0.0 0.0 
0.65834343 0.1429800436870043 -1.4754762976702271 -1.5231363122325619 0.0 1.5707963267948966 0.0 0.2743434418098265 0.1828956278732177 0.09144781393660885 0.0 0.0 0.0 0.0 0.0 0.0 0.0 0.0 0.0 
0.66634345 0.1451747912214829 -1.4740131326472412 -1.522404729721069 0.0 1.5707963267948966 0.0 0.2743434418098265 0.1828956278732177 0.09144781393660885 0.0 0.0 0.0 0.0 0.0 0.0 0.0 0.0 0.0 
0.67434347 0.14736953875596154 -1.4725499676242555 -1.5216731472095761 0.0 1.5707963267948966 0.0 0.2743434418098265 0.1828956278732177 0.09144781393660885 0.0 0.0 0.0 0.0 0.0 0.0 0.0 0.0 0.0 
0.6823434 0.14956428629044016 -1.4710868026012698 -1.5209415646980833 0.0 1.5707963267948966 0.0 0.2743434418098265 0.1828956278732177 0.09144781393660885 0.0 0.0 0.0 0.0 0.0 0.0 0.0 0.0 0.0 
0.69034344 0.15175903382491876 -1.469623637578284 -1.5202099821865902 0.0 1.5707963267948966 0.0 0.2743434418098265 0.1828956278732177 0.09144781393660885 0.0 0.0 0.0 0.0 0.0 0.0 0.0 0.0 0.0 
0.69834346 0.15395378135939736 -1.4681604725552984 -1.5194783996750973 0.0 1.5707963267948966 0.0 0.2743434418098265 0.1828956278732177 0.09144781393660885 0.0 0.0 0.0 0.0 0.0 0.0 0.0 0.0 0.0 
0.7063434 0.15614852889387598 -1.4666973075323126 -1.5187468171636045 0.0 1.5707963267948966 0.0 0.2743434418098265 0.1828956278732177 0.09144781393660885 0.0 0.0 0.0 0.0 0.0 0.0 0.0 0.0 0.0 
0.7143434 0.1583432764283546 -1.465234142509327 -1.5180152346521116 0.0 1.5707963267948966 0.0 0.2743434418098265 0.1828956278732177 0.09144781393660885 0.0 0.0 0.0 0.0 0.0 0.0 0.0 0.0 0.0 
0.72234344 0.16053802396283323 -1.463770977486341 -1.5172836521406188 0.0 1.5707963267948966 0.0 0.2743434418098265 0.1828956278732177 0.09144781393660885 0.0 0.0 0.0 0.0 0.0 0.0 0.0 0.0 0.0 
0.73034346 0.16273277149731186 -1.4623078124633553 -1.516552069629126 0.0 1.5707963267948966 0.0 0.2743434418098265 0.1828956278732177 0.09144781393660885 0.0 0.0 0.0 0.0 0.0 0.0 0.0 0.0 0.0 
0.7383434 0.16492751903179043 -1.4608446474403696 -1.515820487117633 0.0 1.5707963267948966 0.0 0.2743434418098265 0.1828956278732177 0.09144781393660885 0.0 0.0 0.0 0.0 0.0 0.0 0.0 0.0 0.0 
0.74634343 0.16712226656626905 -1.4593814824173839 -1.5150889046061402 0.0 1.5707963267948966 0.0 0.2743434418098265 0.1828956278732177 0.09144781393660885 0.0 0.0 0.0 0.0 0.0 0.0 0.0 0.0 0.0 
0.75434345 0.16931701410074768 -1.4579183173943981 -1.5143573220946474 0.0 1.5707963267948966 0.0 0.2743434418098265 0.1828956278732177 0.09144781393660885 0.0 0.0 0.0 0.0 0.0 0.0 0.0 0.0 0.0 
0.76234347 0.1715117616352263 -1.4564551523714124 -1.5136257395831545 0.0 1.5707963267948966 0.0 0.2743434418098265 0.1828956278732177 0.09144781393660885 0.0 0.0 0.0 0.0 0.0 0.0 0.0 0.0 0.0 
0.7703434 0.17370650916970493 -1.4549919873484267 -1.5128941570716616 0.0 1.5707963267948966 0.0 0.2743434418098265 0.1828956278732177 0.09144781393660885 0.0 0.0 0.0 0.0 0.0 0.0 0.0 0.0 0.0 
0.77834344 0.1759012567041835 -1.453528822325441 -1.5121625745601688 0.0 1.5707963267948966 0.0 0.2743434418098265 0.1828956278732177 0.09144781393660885 0.0 0.0 0.0 0.0 0.0 0.0 0.0 0.0 0.0 
0.78634346 0.17809600423866212 -1.452065657302455 -1.511430992048676 0.0 1.5707963267948966 0.0 0.2743434418098265 0.1828956278732177 0.09144781393660885 0.0 0.0 0.0 0.0 0.0 0.0 0.0 0.0 0.0 
0.7943435 0.18029075177314074 -1.4506024922794694 -1.510699409537183 0.0 1.5707963267948966 0.0 0.2743434418098265 0.1828956278732177 0.09144781393660885 0.0 0.0 0.0 0.0 0.0 0.0 0.0 0.0 0.0 
0.8023434 0.18248549930761937 -1.4491393272564836 -1.5099678270256902 0.0 1.5707963267948966 0.0 0.2743434418098265 0.1828956278732177 0.09144781393660885 0.0 0.0 0.0 0.0 0.0 0.0 0.0 0.0 0.0 
0.81034344 0.184680246842098 -1.447676162233498 -1.5092362445141971 0.0 1.5707963267948966 0.0 0.2743434418098265 0.1828956278732177 0.09144781393660885 0.0 0.0 0.0 0.0 0.0 0.0 0.0 0.0 0.0 
0.81834346 0.18687499437657656 -1.4462129972105122 -1.5085046620027043 0.0 1.5707963267948966 0.0 0.2743434418098265 0.1828956278732177 0.09144781393660885 0.0 0.0 0.0 0.0 0.0 0.0 0.0 0.0 0.0 
0.8263434 0.1890697419110552 -1.4447498321875265 -1.5077730794912114 0.0 1.5707963267948966 0.0 0.2743434418098265 0.1828956278732177 0.09144781393660885 0.0 0.0 0.0 0.0 0.0 0.0 0.0 0.0 0.0 
0.83434343 0.19126448944553381 -1.4432866671645408 -1.5070414969797186 0.0 1.5707963267948966 0.0 0.2743434418098265 0.1828956278732177 0.09144781393660885 0.0 0.0 0.0 0.0 0.0 0.0 0.0 0.0 0.0 
0.84234345 0.19345923698001244 -1.4418235021415549 -1.5063099144682257 0.0 1.5707963267948966 0.0 0.2743434418098265 0.1828956278732177 0.09144781393660885 0.0 0.0 0.0 0.0 0.0 0.0 0.0 0.0 0.0 
0.85034347 0.19565398451449106 -1.4403603371185691 -1.5055783319567329 0.0 1.5707963267948966 0.0 0.2743434418098265 0.1828956278732177 0.09144781393660885 0.0 0.0 0.0 0.0 0.0 0.0 0.0 0.0 0.0 
0.8583434 0.19784873204896963 -1.4388971720955834 -1.50484674944524 0.0 1.5707963267948966 0.0 0.2743434418098265 0.1828956278732177 0.09144781393660885 0.0 0.0 0.0 0.0 0.0 0.0 0.0 0.0 0.0 
0.86634344 0.20004347958344826 -1.4374340070725977 -1.5041151669337471 0.0 1.5707963267948966 0.0 0.2743434418098265 0.1828956278732177 0.09144781393660885 0.0 0.0 0.0 0.0 0.0 0.0 0.0 0.0 0.0 
0.87434345 0.20223822711792688 -1.435970842049612 -1.5033835844222543 0.0 1.5707963267948966 0.0 0.2743434418098265 0.1828956278732177 0.09144781393660885 0.0 0.0 0.0 0.0 0.0 0.0 0.0 0.0 0.0 
0.8823435 0.2044329746524055 -1.4345076770266263 -1.5026520019107614 0.0 1.5707963267948966 0.0 0.2743434418098265 0.1828956278732177 0.09144781393660885 0.0 0.0 0.0 0.0 0.0 0.0 0.0 0.0 0.0 
0.8903434 0.20662772218688413 -1.4330445120036406 -1.5019204193992686 0.0 1.5707963267948966 0.0 0.2743434418098265 0.1828956278732177 0.09144781393660885 0.0 0.0 0.0 0.0 0.0 0.0 0.0 0.0 0.0 
0.89834344 0.2088224697213627 -1.4315813469806549 -1.5011888368877757 0.0 1.5707963267948966 0.0 0.2743434418098265 0.1828956278732177 0.09144781393660885 0.0 0.0 0.0 0.0 0.0 0.0 0.0 0.0 0.0 
0.90634346 0.21101721725584133 -1.430118181957669 -1.5004572543762829 0.0 1.5707963267948966 0.0 0.2743434418098265 0.1828956278732177 0.09144781393660885 0.0 0.0 0.0 0.0 0.0 0.0 0.0 0.0 0.0 
0.9143434 0.21321196479031995 -1.4286550169346832 -1.49972567186479 0.0 1.5707963267948966 0.0 0.2743434418098265 0.1828956278732177 0.09144781393660885 0.0 0.0 0.0 0.0 0.0 0.0 0.0 0.0 0.0 
0.92234343 0.21540671232479858 -1.4271918519116975 -1.4989940893532971 0.0 1.5707963267948966 0.0 0.2743434418098265 0.1828956278732177 0.09144781393660885 0.0 0.0 0.0 0.0 0.0 0.0 0.0 0.0 0.0 
0.93034345 0.2176014598592772 -1.4257286868887118 -1.498262506841804 0.0 1.5707963267948966 0.0 0.2743434418098265 0.1828956278732177 0.09144781393660885 0.0 0.0 0.0 0.0 0.0 0.0 0.0 0.0 0.0 
0.93834347 0.21979620739375577 -1.424265521865726 -1.4975309243303112 0.0 1.5707963267948966 0.0 0.2743434418098265 0.1828956278732177 0.09144781393660885 0.0 0.0 0.0 0.0 0.0 0.0 0.0 0.0 0.0 
0.9463434 0.2219909549282344 -1.4228023568427404 -1.4967993418188184 0.0 1.5707963267948966 0.0 0.2743434418098265 0.1828956278732177 0.09144781393660885 0.0 0.0 0.0 0.0 0.0 0.0 0.0 0.0 0.0 
0.95434344 0.22418570246271302 -1.4213391918197547 -1.4960677593073255 0.0 1.5707963267948966 0.0 0.2743434418098265 0.1828956278732177 0.09144781393660885 0.0 0.0 0.0 0.0 0.0 0.0 0.0 0.0 0.0 
0.96234345 0.22638044999719165 -1.4198760267967687 -1.4953361767958326 0.0 1.5707963267948966 0.0 0.2743434418098265 0.1828956278732177 0.09144781393660885 0.0 0.0 0.0 0.0 0.0 0.0 0.0 0.0 0.0 
0.9703435 0.22857519753167027 -1.418412861773783 -1.4946045942843398 0.0 1.5707963267948966 0.0 0.2743434418098265 0.1828956278732177 0.09144781393660885 0.0 0.0 0.0 0.0 0.0 0.0 0.0 0.0 0.0 
0.9783434 0.23076994506614884 -1.4169496967507973 -1.493873011772847 0.0 1.5707963267948966 0.0 0.2743434418098265 0.1828956278732177 0.09144781393660885 0.0 0.0 0.0 0.0 0.0 0.0 0.0 0.0 0.0 
0.98634344 0.23296469260062747 -1.4154865317278116 -1.493141429261354 0.0 1.5707963267948966 0.0 0.2743434418098265 0.1828956278732177 0.09144781393660885 0.0 0.0 0.0 0.0 0.0 0.0 0.0 0.0 0.0 
0.99434346 0.2351594401351061 -1.4140233667048259 -1.4924098467498612 0.0 1.5707963267948966 0.0 0.2743434418098265 0.1828956278732177 0.09144781393660885 0.0 0.0 0.0 0.0 0.0 0.0 0.0 0.0 0.0 
1.0023434 0.23735418766958472 -1.4125602016818402 -1.4916782642383684 0.0 1.5707963267948966 0.0 0.2743434418098265 0.1828956278732177 0.09144781393660885 0.0 0.0 0.0 0.0 0.0 0.0 0.0 0.0 0.0 
1.0103434 0.23954893520406334 -1.4110970366588544 -1.4909466817268755 0.0 1.5707963267948966 0.0 0.2743434418098265 0.1828956278732177 0.09144781393660885 0.0 0.0 0.0 0.0 0.0 0.0 0.0 0.0 0.0 
1.0183434 0.2417436827385419 -1.4096338716358687 -1.4902150992153826 0.0 1.5707963267948966 0.0 0.2743434418098265 0.1828956278732177 0.09144781393660885 0.0 0.0 0.0 0.0 0.0 0.0 0.0 0.0 0.0 
1.0263435 0.24393843027302053 -1.4081707066128828 -1.4894835167038898 0.0 1.5707963267948966 0.0 0.2743434418098265 0.1828956278732177 0.09144781393660885 0.0 0.0 0.0 0.0 0.0 0.0 0.0 0.0 0.0 
1.0343435 0.24613317780749916 -1.406707541589897 -1.488751934192397 0.0 1.5707963267948966 0.0 0.2743434418098265 0.1828956278732177 0.09144781393660885 0.0 0.0 0.0 0.0 0.0 0.0 0.0 0.0 0.0 
1.0423435 0.24832792534197778 -1.4052443765669114 -1.488020351680904 0.0 1.5707963267948966 0.0 0.2743434418098265 0.1828956278732177 0.09144781393660885 0.0 0.0 0.0 0.0 0.0 0.0 0.0 0.0 0.0 
1.0503434 0.2505226728764564 -1.4037812115439257 -1.487288769169411 0.0 1.5707963267948966 0.0 0.2743434418098265 0.1828956278732177 0.09144781393660885 0.0 0.0 0.0 0.0 0.0 0.0 0.0 0.0 0.0 
1.0583434 0.252717420410935 -1.40231804652094 -1.4865571866579181 0.0 1.5707963267948966 0.0 0.2743434418098265 0.1828956278732177 0.09144781393660885 0.0 0.0 0.0 0.0 0.0 0.0 0.0 0.0 0.0 
1.0663434 0.2549121679454136 -1.4008548814979542 -1.4858256041464253 0.0 1.5707963267948966 0.0 0.2743434418098265 0.1828956278732177 0.09144781393660885 0.0 0.0 0.0 0.0 0.0 0.0 0.0 0.0 0.0 
1.0743434 0.25710691547989223 -1.3993917164749683 -1.4850940216349324 0.0 1.5707963267948966 0.0 0.2743434418098265 0.1828956278732177 0.09144781393660885 0.0 0.0 0.0 0.0 0.0 0.0 0.0 0.0 0.0 
1.0823435 0.25930166301437085 -1.3979285514519826 -1.4843624391234396 0.0 1.5707963267948966 0.0 0.2743434418098265 0.1828956278732177 0.09144781393660885 0.0 0.0 0.0 0.0 0.0 0.0 0.0 0.0 0.0 
1.0903435 0.2614964105488495 -1.3964653864289969 -1.4836308566119467 0.0 1.5707963267948966 0.0 0.2743434418098265 0.1828956278732177 0.09144781393660885 0.0 0.0 0.0 0.0 0.0 0.0 0.0 0.0 0.0 
1.0983435 0.26369115808332805 -1.3950022214060112 -1.4828992741004539 0.0 1.5707963267948966 0.0 0.2743434418098265 0.1828956278732177 0.09144781393660885 0.0 0.0 0.0 0.0 0.0 0.0 0.0 0.0 0.0 
1.1063434 0.2658859056178067 -1.3935390563830254 -1.482167691588961 0.0 1.5707963267948966 0.0 0.2743434418098265 0.1828956278732177 0.09144781393660885 0.0 0.0 0.0 0.0 0.0 0.0 0.0 0.0 0.0 
1.1143434 0.2680806531522853 -1.3920758913600397 -1.4814361090774681 0.0 1.5707963267948966 0.0 0.2743434418098265 0.1828956278732177 0.09144781393660885 0.0 0.0 0.0 0.0 0.0 0.0 0.0 0.0 0.0 
1.1223434 0.2702754006867639 -1.390612726337054 -1.4807045265659753 0.0 1.5707963267948966 0.0 0.2743434418098265 0.1828956278732177 0.09144781393660885 0.0 0.0 0.0 0.0 0.0 0.0 0.0 0.0 0.0 
1.1303434 0.27247014822124255 -1.3891495613140683 -1.4799729440544824 0.0 1.5707963267948966 0.0 0.2743434418098265 0.1828956278732177 0.09144781393660885 0.0 0.0 0.0 0.0 0.0 0.0 0.0 0.0 0.0 
1.1383435 0.2746648957557211 -1.3876863962910824 -1.4792413615429896 0.0 1.5707963267948966 0.0 0.2743434418098265 0.1828956278732177 0.09144781393660885 0.0 0.0 0.0 0.0 0.0 0.0 0.0 0.0 0.0 
1.1463435 0.27685964329019974 -1.3862232312680967 -1.4785097790314967 0.0 1.5707963267948966 0.0 0.2743434418098265 0.1828956278732177 0.09144781393660885 0.0 0.0 0.0 0.0 0.0 0.0 0.0 0.0 0.0 
1.1543435 0.27905439082467837 -1.384760066245111 -1.4777781965200039 0.0 1.5707963267948966 0.0 0.2743434418098265 0.1828956278732177 0.09144781393660885 0.0 0.0 0.0 0.0 0.0 0.0 0.0 0.0 0.0 
1.1623434 0.281249138359157 -1.3832969012221252 -1.4770466140085108 0.0 1.5707963267948966 0.0 0.2743434418098265 0.1828956278732177 0.09144781393660885 0.0 0.0 0.0 0.0 0.0 0.0 0.0 0.0 0.0 
1.1703434 0.2834438858936356 -1.3818337361991395 -1.476315031497018 0.0 1.5707963267948966 0.0 0.2743434418098265 0.1828956278732177 0.09144781393660885 0.0 0.0 0.0 0.0 0.0 0.0 0.0 0.0 0.0 
1.1783434 0.28563863342811424 -1.3803705711761538 -1.475583448985525 0.0 1.5707963267948966 0.0 0.2743434418098265 0.1828956278732177 0.09144781393660885 0.0 0.0 0.0 0.0 0.0 0.0 0.0 0.0 0.0 
1.1863434 0.28783338096259287 -1.378907406153168 -1.4748518664740322 0.0 1.5707963267948966 0.0 0.2743434418098265 0.1828956278732177 0.09144781393660885 0.0 0.0 0.0 0.0 0.0 0.0 0.0 0.0 0.0 
1.1943434 0.29002812849707144 -1.3774442411301822 -1.4741202839625394 0.0 1.5707963267948966 0.0 0.2743434418098265 0.1828956278732177 0.09144781393660885 0.0 0.0 0.0 0.0 0.0 0.0 0.0 0.0 0.0 
1.2023435 0.29222287603155006 -1.3759810761071964 -1.4733887014510465 0.0 1.5707963267948966 0.0 0.2743434418098265 0.1828956278732177 0.09144781393660885 0.0 0.0 0.0 0.0 0.0 0.0 0.0 0.0 0.0 
1.2103435 0.2944176235660287 -1.3745179110842107 -1.4726571189395536 0.0 1.5707963267948966 0.0 0.2743434418098265 0.1828956278732177 0.09144781393660885 0.0 0.0 0.0 0.0 0.0 0.0 0.0 0.0 0.0 
1.2183435 0.2966123711005073 -1.373054746061225 -1.4719255364280608 0.0 1.5707963267948966 0.0 0.2743434418098265 0.1828956278732177 0.09144781393660885 0.0 0.0 0.0 0.0 0.0 0.0 0.0 0.0 0.0 
1.2263434 0.29880711863498594 -1.3715915810382393 -1.471193953916568 0.0 1.5707963267948966 0.0 0.2743434418098265 0.1828956278732177 0.09144781393660885 0.0 0.0 0.0 0.0 0.0 0.0 0.0 0.0 0.0 
1.2343434 0.3010018661694645 -1.3701284160152536 -1.470462371405075 0.0 1.5707963267948966 0.0 0.2743434418098265 0.1828956278732177 0.09144781393660885 0.0 0.0 0.0 0.0 0.0 0.0 0.0 0.0 0.0 
1.2423434 0.30319661370394313 -1.3686652509922679 -1.4697307888935822 0.0 1.5707963267948966 0.0 0.2743434418098265 0.1828956278732177 0.09144781393660885 0.0 0.0 0.0 0.0 0.0 0.0 0.0 0.0 0.0 
1.2503434 0.30539136123842175 -1.3672020859692822 -1.4689992063820894 0.0 1.5707963267948966 0.0 0.2743434418098265 0.1828956278732177 0.09144781393660885 0.0 0.0 0.0 0.0 0.0 0.0 0.0 0.0 0.0 
1.2583435 0.3075861087729004 -1.3657389209462962 -1.4682676238705965 0.0 1.5707963267948966 0.0 0.2743434418098265 0.1828956278732177 0.09144781393660885 0.0 0.0 0.0 0.0 0.0 0.0 0.0 0.0 0.0 
1.2663435 0.309780856307379 -1.3642757559233105 -1.4675360413591036 0.0 1.5707963267948966 0.0 0.2743434418098265 0.1828956278732177 0.09144781393660885 0.0 0.0 0.0 0.0 0.0 0.0 0.0 0.0 0.0 
1.2743435 0.3119756038418576 -1.3628125909003248 -1.4668044588476108 0.0 1.5707963267948966 0.0 0.2743434418098265 0.1828956278732177 0.09144781393660885 0.0 0.0 0.0 0.0 0.0 0.0 0.0 0.0 0.0 
1.2823434 0.3141703513763362 -1.361349425877339 -1.466072876336118 0.0 1.5707963267948966 0.0 0.2743434418098265 0.1828956278732177 0.09144781393660885 0.0 0.0 0.0 0.0 0.0 0.0 0.0 0.0 0.0 
1.2903434 0.3163650989108148 -1.3598862608543534 -1.4653412938246249 0.0 1.5707963267948966 0.0 0.2743434418098265 0.1828956278732177 0.09144781393660885 0.0 0.0 0.0 0.0 0.0 0.0 0.0 0.0 0.0 
1.2983434 0.31855984644529345 -1.3584230958313677 -1.464609711313132 0.0 1.5707963267948966 0.0 0.2743434418098265 0.1828956278732177 0.09144781393660885 0.0 0.0 0.0 0.0 0.0 0.0 0.0 0.0 0.0 
1.3063434 0.3207545939797721 -1.356959930808382 -1.4638781288016391 0.0 1.5707963267948966 0.0 0.2743434418098265 0.1828956278732177 0.09144781393660885 0.0 0.0 0.0 0.0 0.0 0.0 0.0 0.0 0.0 
1.3143435 0.32294934151425064 -1.355496765785396 -1.4631465462901463 0.0 1.5707963267948966 0.0 0.2743434418098265 0.1828956278732177 0.09144781393660885 0.0 0.0 0.0 0.0 0.0 0.0 0.0 0.0 0.0 
1.3223435 0.32514408904872927 -1.3540336007624103 -1.4624149637786534 0.0 1.5707963267948966 0.0 0.2743434418098265 0.1828956278732177 0.09144781393660885 0.0 0.0 0.0 0.0 0.0 0.0 0.0 0.0 0.0 
1.3303435 0.3273388365832079 -1.3525704357394246 -1.4616833812671606 0.0 1.5707963267948966 0.0 0.2743434418098265 0.1828956278732177 0.09144781393660885 0.0 0.0 0.0 0.0 0.0 0.0 0.0 0.0 0.0 
1.3383435 0.3295335841176865 -1.3511072707164389 -1.4609517987556677 0.0 1.5707963267948966 0.0 0.2743434418098265 0.1828956278732177 0.09144781393660885 0.0 0.0 0.0 0.0 0.0 0.0 0.0 0.0 0.0 
1.3463434 0.33172833165216514 -1.3496441056934532 -1.4602202162441749 0.0 1.5707963267948966 0.0 0.2743434418098265 0.1828956278732177 0.09144781393660885 0.0 0.0 0.0 0.0 0.0 0.0 0.0 0.0 0.0 
1.3543434 0.3339230791866437 -1.3481809406704675 -1.459488633732682 0.0 1.5707963267948966 0.0 0.2743434418098265 0.1828956278732177 0.09144781393660885 0.0 0.0 0.0 0.0 0.0 0.0 0.0 0.0 0.0 
1.3623434 0.33611782672112234 -1.3467177756474817 -1.4587570512211891 0.0 1.5707963267948966 0.0 0.2743434418098265 0.1828956278732177 0.09144781393660885 0.0 0.0 0.0 0.0 0.0 0.0 0.0 0.0 0.0 
1.3703434 0.33831257425560096 -1.345254610624496 -1.4580254687096963 0.0 1.5707963267948966 0.0 0.2743434418098265 0.1828956278732177 0.09144781393660885 0.0 0.0 0.0 0.0 0.0 0.0 0.0 0.0 0.0 
1.3783435 0.3405073217900796 -1.34379144560151 -1.4572938861982034 0.0 1.5707963267948966 0.0 0.2743434418098265 0.1828956278732177 0.09144781393660885 0.0 0.0 0.0 0.0 0.0 0.0 0.0 0.0 0.0 
1.3863435 0.3427020693245582 -1.3423282805785244 -1.4565623036867106 0.0 1.5707963267948966 0.0 0.2743434418098265 0.1828956278732177 0.09144781393660885 0.0 0.0 0.0 0.0 0.0 0.0 0.0 0.0 0.0 
1.3943435 0.3448968168590368 -1.3408651155555387 -1.4558307211752177 0.0 1.5707963267948966 0.0 0.2743434418098265 0.1828956278732177 0.09144781393660885 0.0 0.0 0.0 0.0 0.0 0.0 0.0 0.0 0.0 
1.4023434 0.3470915643935154 -1.339401950532553 -1.4550991386637246 0.0 1.5707963267948966 0.0 0.2743434418098265 0.1828956278732177 0.09144781393660885 0.0 0.0 0.0 0.0 0.0 0.0 0.0 0.0 0.0 
1.4103434 0.34928631192799403 -1.3379387855095672 -1.4543675561522318 0.0 1.5707963267948966 0.0 0.2743434418098265 0.1828956278732177 0.09144781393660885 0.0 0.0 0.0 0.0 0.0 0.0 0.0 0.0 0.0 
1.4183434 0.35148105946247266 -1.3364756204865815 -1.453635973640739 0.0 1.5707963267948966 0.0 0.2743434418098265 0.1828956278732177 0.09144781393660885 0.0 0.0 0.0 0.0 0.0 0.0 0.0 0.0 0.0 
1.4263434 0.3536758069969513 -1.3350124554635958 -1.452904391129246 0.0 1.5707963267948966 0.0 0.2743434418098265 0.1828956278732177 0.09144781393660885 0.0 0.0 0.0 0.0 0.0 0.0 0.0 0.0 0.0 
1.4343435 0.35587055453142985 -1.3335492904406099 -1.4521728086177532 0.0 1.5707963267948966 0.0 0.2743434418098265 0.1828956278732177 0.09144781393660885 0.0 0.0 0.0 0.0 0.0 0.0 0.0 0.0 0.0 
1.4423435 0.3580653020659085 -1.3320861254176242 -1.4514412261062604 0.0 1.5707963267948966 0.0 0.2743434418098265 0.1828956278732177 0.09144781393660885 0.0 0.0 0.0 0.0 0.0 0.0 0.0 0.0 0.0 
1.4503435 0.3602600496003871 -1.3306229603946385 -1.4507096435947675 0.0 1.5707963267948966 0.0 0.2743434418098265 0.1828956278732177 0.09144781393660885 0.0 0.0 0.0 0.0 0.0 0.0 0.0 0.0 0.0 
1.4583434 0.3624547971348657 -1.3291597953716527 -1.4499780610832746 0.0 1.5707963267948966 0.0 0.2743434418098265 0.1828956278732177 0.09144781393660885 0.0 0.0 0.0 0.0 0.0 0.0 0.0 0.0 0.0 
1.4663434 0.36464954466934435 -1.327696630348667 -1.4492464785717818 0.0 1.5707963267948966 0.0 0.2743434418098265 0.1828956278732177 0.09144781393660885 0.0 0.0 0.0 0.0 0.0 0.0 0.0 0.0 0.0 
1.4743434 0.3668442922038229 -1.3262334653256813 -1.448514896060289 0.0 1.5707963267948966 0.0 0.2743434418098265 0.1828956278732177 0.09144781393660885 0.0 0.0 0.0 0.0 0.0 0.0 0.0 0.0 0.0 
1.4823434 0.36903903973830154 -1.3247703003026956 -1.447783313548796 0.0 1.5707963267948966 0.0 0.2743434418098265 0.1828956278732177 0.09144781393660885 0.0 0.0 0.0 0.0 0.0 0.0 0.0 0.0 0.0 
1.4903435 0.37123378727278017 -1.32330713527971 -1.4470517310373032 0.0 1.5707963267948966 0.0 0.2743434418098265 0.1828956278732177 0.09144781393660885 0.0 0.0 0.0 0.0 0.0 0.0 0.0 0.0 0.0 
1.4983435 0.3734285348072588 -1.321843970256724 -1.4463201485258104 0.0 1.5707963267948966 0.0 0.2743434418098265 0.1828956278732177 0.09144781393660885 0.0 0.0 0.0 0.0 0.0 0.0 0.0 0.0 0.0 
1.5063435 0.3756232823417374 -1.3203808052337382 -1.4455885660143175 0.0 1.5707963267948966 0.0 0.2743434418098265 0.1828956278732177 0.09144781393660885 0.0 0.0 0.0 0.0 0.0 0.0 0.0 0.0 0.0 
1.5143435 0.377818029876216 -1.3189176402107525 -1.4448569835028247 0.0 1.5707963267948966 0.0 0.2743434418098265 0.1828956278732177 0.09144781393660885 0.0 0.0 0.0 0.0 0.0 0.0 0.0 0.0 0.0 
1.5223434 0.3800127774106946 -1.3174544751877668 -1.4441254009913318 0.0 1.5707963267948966 0.0 0.2743434418098265 0.1828956278732177 0.09144781393660885 0.0 0.0 0.0 0.0 0.0 0.0 0.0 0.0 0.0 
1.5303434 0.38220752494517324 -1.315991310164781 -1.4433938184798387 0.0 1.5707963267948966 0.0 0.2743434418098265 0.1828956278732177 0.09144781393660885 0.0 0.0 0.0 0.0 0.0 0.0 0.0 0.0 0.0 
1.5383434 0.38440227247965186 -1.3145281451417954 -1.4426622359683459 0.0 1.5707963267948966 0.0 0.2743434418098265 0.1828956278732177 0.09144781393660885 0.0 0.0 0.0 0.0 0.0 0.0 0.0 0.0 0.0 
1.5463434 0.3865970200141305 -1.3130649801188095 -1.441930653456853 0.0 1.5707963267948966 0.0 0.2743434418098265 0.1828956278732177 0.09144781393660885 0.0 0.0 0.0 0.0 0.0 0.0 0.0 0.0 0.0 
1.5543435 0.38879176754860906 -1.3116018150958237 -1.4411990709453602 0.0 1.5707963267948966 0.0 0.2743434418098265 0.1828956278732177 0.09144781393660885 0.0 0.0 0.0 0.0 0.0 0.0 0.0 0.0 0.0 
1.5623435 0.3909865150830877 -1.310138650072838 -1.4404674884338673 0.0 1.5707963267948966 0.0 0.2743434418098265 0.1828956278732177 0.09144781393660885 0.0 0.0 0.0 0.0 0.0 0.0 0.0 0.0 0.0 
1.5703435 0.3931812626175663 -1.3086754850498523 -1.4397359059223744 0.0 1.5707963267948966 0.0 0.2743434418098265 0.1828956278732177 0.09144781393660885 0.0 0.0 0.0 0.0 0.0 0.0 0.0 0.0 0.0 
1.5783434 0.39537601015204493 -1.3072123200268666 -1.4390043234108816 0.0 1.5707963267948966 0.0 0.2743434418098265 0.1828956278732177 0.09144781393660885 0.0 0.0 0.0 0.0 0.0 0.0 0.0 0.0 0.0 
1.5863434 0.39757075768652356 -1.305749155003881 -1.4382727408993887 0.0 1.5707963267948966 0.0 0.2743434418098265 0.1828956278732177 0.09144781393660885 0.0 0.0 0.0 0.0 0.0 0.0 0.0 0.0 0.0 
1.5943434 0.3997655052210022 -1.3042859899808952 -1.4375411583878959 0.0 1.5707963267948966 0.0 0.2743434418098265 0.1828956278732177 0.09144781393660885 0.0 0.0 0.0 0.0 0.0 0.0 0.0 0.0 0.0 
1.6023434 0.40196025275548075 -1.3028228249579095 -1.436809575876403 0.0 1.5707963267948966 0.0 0.2743434418098265 0.1828956278732177 0.09144781393660885 0.0 0.0 0.0 0.0 0.0 0.0 0.0 0.0 0.0 
1.6103435 0.4041550002899594 -1.3013596599349238 -1.4360779933649102 0.0 1.5707963267948966 0.0 0.2743434418098265 0.1828956278732177 0.09144781393660885 0.0 0.0 0.0 0.0 0.0 0.0 0.0 0.0 0.0 
1.6183435 0.406349747824438 -1.2998964949119378 -1.4353464108534173 0.0 1.5707963267948966 0.0 0.2743434418098265 0.1828956278732177 0.09144781393660885 0.0 0.0 0.0 0.0 0.0 0.0 0.0 0.0 0.0 
1.6263435 0.4085444953589166 -1.298433329888952 -1.4346148283419244 0.0 1.5707963267948966 0.0 0.2743434418098265 0.1828956278732177 0.09144781393660885 0.0 0.0 0.0 0.0 0.0 0.0 0.0 0.0 0.0 
1.6343434 0.41073924289339525 -1.2969701648659664 -1.4338832458304316 0.0 1.5707963267948966 0.0 0.2743434418098265 0.1828956278732177 0.09144781393660885 0.0 0.0 0.0 0.0 0.0 0.0 0.0 0.0 0.0 
1.6423434 0.4129339904278738 -1.2955069998429807 -1.4331516633189385 0.0 1.5707963267948966 0.0 0.2743434418098265 0.1828956278732177 0.09144781393660885 0.0 0.0 0.0 0.0 0.0 0.0 0.0 0.0 0.0 
1.6503434 0.41512873796235245 -1.294043834819995 -1.4324200808074457 0.0 1.5707963267948966 0.0 0.2743434418098265 0.1828956278732177 0.09144781393660885 0.0 0.0 0.0 0.0 0.0 0.0 0.0 0.0 0.0 
1.6583434 0.41732348549683107 -1.2925806697970093 -1.4316884982959528 0.0 1.5707963267948966 0.0 0.2743434418098265 0.1828956278732177 0.09144781393660885 0.0 0.0 0.0 0.0 0.0 0.0 0.0 0.0 0.0 
1.6663435 0.4195182330313097 -1.2911175047740233 -1.43095691578446 0.0 1.5707963267948966 0.0 0.2743434418098265 0.1828956278732177 0.09144781393660885 0.0 0.0 0.0 0.0 0.0 0.0 0.0 0.0 0.0 
1.6743435 0.4217129805657883 -1.2896543397510376 -1.430225333272967 0.0 1.5707963267948966 0.0 0.2743434418098265 0.1828956278732177 0.09144781393660885 0.0 0.0 0.0 0.0 0.0 0.0 0.0 0.0 0.0 
1.6823435 0.4239077281002669 -1.288191174728052 -1.4294937507614742 0.0 1.5707963267948966 0.0 0.2743434418098265 0.1828956278732177 0.09144781393660885 0.0 0.0 0.0 0.0 0.0 0.0 0.0 0.0 0.0 
1.6903435 0.4261024756347455 -1.2867280097050662 -1.4287621682499814 0.0 1.5707963267948966 0.0 0.2743434418098265 0.1828956278732177 0.09144781393660885 0.0 0.0 0.0 0.0 0.0 0.0 0.0 0.0 0.0 
1.6983434 0.42829722316922414 -1.2852648446820805 -1.4280305857384885 0.0 1.5707963267948966 0.0 0.2743434418098265 0.1828956278732177 0.09144781393660885 0.0 0.0 0.0 0.0 0.0 0.0 0.0 0.0 0.0 
1.7063434 0.43049197070370276 -1.2838016796590948 -1.4272990032269957 0.0 1.5707963267948966 0.0 0.2743434418098265 0.1828956278732177 0.09144781393660885 0.0 0.0 0.0 0.0 0.0 0.0 0.0 0.0 0.0 
1.7143434 0.4326867182381814 -1.282338514636109 -1.4265674207155028 0.0 1.5707963267948966 0.0 0.2743434418098265 0.1828956278732177 0.09144781393660885 0.0 0.0 0.0 0.0 0.0 0.0 0.0 0.0 0.0 
1.7223434 0.43488146577265996 -1.2808753496131233 -1.42583583820401 0.0 1.5707963267948966 0.0 0.2743434418098265 0.1828956278732177 0.09144781393660885 0.0 0.0 0.0 0.0 0.0 0.0 0.0 0.0 0.0 
1.7303435 0.4370762133071386 -1.2794121845901376 -1.425104255692517 0.0 1.5707963267948966 0.0 0.2743434418098265 0.1828956278732177 0.09144781393660885 0.0 0.0 0.0 0.0 0.0 0.0 0.0 0.0 0.0 
1.7383435 0.4392709608416172 -1.2779490195671517 -1.4243726731810242 0.0 1.5707963267948966 0.0 0.2743434418098265 0.1828956278732177 0.09144781393660885 0.0 0.0 0.0 0.0 0.0 0.0 0.0 0.0 0.0 
1.7463435 0.44146570837609583 -1.276485854544166 -1.4236410906695314 0.0 1.5707963267948966 0.0 0.2743434418098265 0.1828956278732177 0.09144781393660885 0.0 0.0 0.0 0.0 0.0 0.0 0.0 0.0 0.0 
1.7543434 0.44366045591057446 -1.2750226895211803 -1.4229095081580385 0.0 1.5707963267948966 0.0 0.2743434418098265 0.1828956278732177 0.09144781393660885 0.0 0.0 0.0 0.0 0.0 0.0 0.0 0.0 0.0 
1.7623434 0.445855203445053 -1.2735595244981945 -1.4221779256465457 0.0 1.5707963267948966 0.0 0.2743434418098265 0.1828956278732177 0.09144781393660885 0.0 0.0 0.0 0.0 0.0 0.0 0.0 0.0 0.0 
1.7703434 0.44804995097953165 -1.2720963594752088 -1.4214463431350526 0.0 1.5707963267948966 0.0 0.2743434418098265 0.1828956278732177 0.09144781393660885 0.0 0.0 0.0 0.0 0.0 0.0 0.0 0.0 0.0 
1.7783434 0.4502446985140103 -1.2706331944522231 -1.4207147606235597 0.0 1.5707963267948966 0.0 0.2743434418098265 0.1828956278732177 0.09144781393660885 0.0 0.0 0.0 0.0 0.0 0.0 0.0 0.0 0.0 
1.7863435 0.4524394460484889 -1.2691700294292372 -1.4199831781120669 0.0 1.5707963267948966 0.0 0.2743434418098265 0.1828956278732177 0.09144781393660885 0.0 0.0 0.0 0.0 0.0 0.0 0.0 0.0 0.0 
1.7943435 0.4546341935829675 -1.2677068644062515 -1.419251595600574 0.0 1.5707963267948966 0.0 0.2743434418098265 0.1828956278732177 0.09144781393660885 0.0 0.0 0.0 0.0 0.0 0.0 0.0 0.0 0.0 
1.8023435 0.4568289411174461 -1.2662436993832658 -1.4185200130890812 0.0 1.5707963267948966 0.0 0.2743434418098265 0.1828956278732177 0.09144781393660885 0.0 0.0 0.0 0.0 0.0 0.0 0.0 0.0 0.0 
1.8103434 0.4590236886519247 -1.26478053436028 -1.4177884305775883 0.0 1.5707963267948966 0.0 0.2743434418098265 0.1828956278732177 0.09144781393660885 0.0 0.0 0.0 0.0 0.0 0.0 0.0 0.0 0.0 
1.8183434 0.46121843618640335 -1.2633173693372943 -1.4170568480660954 0.0 1.5707963267948966 0.0 0.2743434418098265 0.1828956278732177 0.09144781393660885 0.0 0.0 0.0 0.0 0.0 0.0 0.0 0.0 0.0 
1.8263434 0.46341318372088197 -1.2618542043143086 -1.4163252655546026 0.0 1.5707963267948966 0.0 0.2743434418098265 0.1828956278732177 0.09144781393660885 0.0 0.0 0.0 0.0 0.0 0.0 0.0 0.0 0.0 
1.8343434 0.4656079312553606 -1.260391039291323 -1.4155936830431097 0.0 1.5707963267948966 0.0 0.2743434418098265 0.1828956278732177 0.09144781393660885 0.0 0.0 0.0 0.0 0.0 0.0 0.0 0.0 0.0 
1.8423434 0.46780267878983917 -1.2589278742683372 -1.4148621005316169 0.0 1.5707963267948966 0.0 0.2743434418098265 0.1828956278732177 0.09144781393660885 0.0 0.0 0.0 0.0 0.0 0.0 0.0 0.0 0.0 
1.8503435 0.4699974263243178 -1.2574647092453515 -1.414130518020124 0.0 1.5707963267948966 0.0 0.2743434418098265 0.1828956278732177 0.09144781393660885 0.0 0.0 0.0 0.0 0.0 0.0 0.0 0.0 0.0 
1.8583435 0.4721921738587964 -1.2560015442223655 -1.4133989355086312 0.0 1.5707963267948966 0.0 0.2743434418098265 0.1828956278732177 0.09144781393660885 0.0 0.0 0.0 0.0 0.0 0.0 0.0 0.0 0.0 
1.8663435 0.47438692139327504 -1.2545383791993798 -1.4126673529971383 0.0 1.5707963267948966 0.0 0.2743434418098265 0.1828956278732177 0.09144781393660885 0.0 0.0 0.0 0.0 0.0 0.0 0.0 0.0 0.0 
1.8743434 0.47658166892775367 -1.2530752141763941 -1.4119357704856452 0.0 1.5707963267948966 0.0 0.2743434418098265 0.1828956278732177 0.09144781393660885 0.0 0.0 0.0 0.0 0.0 0.0 0.0 0.0 0.0 
1.8823434 0.47877641646223223 -1.2516120491534084 -1.4112041879741524 0.0 1.5707963267948966 0.0 0.2743434418098265 0.1828956278732177 0.09144781393660885 0.0 0.0 0.0 0.0 0.0 0.0 0.0 0.0 0.0 
1.8903434 0.48097116399671086 -1.2501488841304227 -1.4104726054626595 0.0 1.5707963267948966 0.0 0.2743434418098265 0.1828956278732177 0.09144781393660885 0.0 0.0 0.0 0.0 0.0 0.0 0.0 0.0 0.0 
1.8983434 0.4831659115311895 -1.2486857191074368 -1.4097410229511667 0.0 1.5707963267948966 0.0 0.2743434418098265 0.1828956278732177 0.09144781393660885 0.0 0.0 0.0 0.0 0.0 0.0 0.0 0.0 0.0 
1.9063435 0.4853606590656681 -1.247222554084451 -1.4090094404396738 0.0 1.5707963267948966 0.0 0.2743434418098265 0.1828956278732177 0.09144781393660885 0.0 0.0 0.0 0.0 0.0 0.0 0.0 0.0 0.0 
1.9143435 0.48755540660014673 -1.2457593890614653 -1.408277857928181 0.0 1.5707963267948966 0.0 0.2743434418098265 0.1828956278732177 0.09144781393660885 0.0 0.0 0.0 0.0 0.0 0.0 0.0 0.0 0.0 
1.9223435 0.4897501541346253 -1.2442962240384796 -1.407546275416688 0.0 1.5707963267948966 0.0 0.2743434418098265 0.1828956278732177 0.09144781393660885 0.0 0.0 0.0 0.0 0.0 0.0 0.0 0.0 0.0 
1.9303434 0.49194490166910393 -1.242833059015494 -1.4068146929051952 0.0 1.5707963267948966 0.0 0.2743434418098265 0.1828956278732177 0.09144781393660885 0.0 0.0 0.0 0.0 0.0 0.0 0.0 0.0 0.0 
1.9383434 0.49413964920358255 -1.2413698939925082 -1.4060831103937024 0.0 1.5707963267948966 0.0 0.2743434418098265 0.1828956278732177 0.09144781393660885 0.0 0.0 0.0 0.0 0.0 0.0 0.0 0.0 0.0 
1.9463434 0.4963343967380612 -1.2399067289695225 -1.4053515278822095 0.0 1.5707963267948966 0.0 0.2743434418098265 0.1828956278732177 0.09144781393660885 0.0 0.0 0.0 0.0 0.0 0.0 0.0 0.0 0.0 
1.9543434 0.4985291442725398 -1.2384435639465368 -1.4046199453707167 0.0 1.5707963267948966 0.0 0.2743434418098265 0.1828956278732177 0.09144781393660885 0.0 0.0 0.0 0.0 0.0 0.0 0.0 0.0 0.0 
1.9623435 0.5007238918070184 -1.236980398923551 -1.4038883628592238 0.0 1.5707963267948966 0.0 0.2743434418098265 0.1828956278732177 0.09144781393660885 0.0 0.0 0.0 0.0 0.0 0.0 0.0 0.0 0.0 
1.9703435 0.5029186393414969 -1.2355172339005653 -1.403156780347731 0.0 1.5707963267948966 0.0 0.2743434418098265 0.1828956278732177 0.09144781393660885 0.0 0.0 0.0 0.0 0.0 0.0 0.0 0.0 0.0 
1.9783435 0.5051133868759756 -1.2340540688775794 -1.402425197836238 0.0 1.5707963267948966 0.0 0.2743434418098265 0.1828956278732177 0.09144781393660885 0.0 0.0 0.0 0.0 0.0 0.0 0.0 0.0 0.0 
1.9863434 0.5073081344104542 -1.2325909038545937 -1.4016936153247452 0.0 1.5707963267948966 0.0 0.2743434418098265 0.1828956278732177 0.09144781393660885 0.0 0.0 0.0 0.0 0.0 0.0 0.0 0.0 0.0 
1.9943434 0.5095028819449329 -1.231127738831608 -1.4009620328132524 0.0 1.5707963267948966 0.0 0.2743434418098265 0.1828956278732177 0.09144781393660885 0.0 0.0 0.0 0.0 0.0 0.0 0.0 0.0 0.0 
2.0023434 0.5116976294794114 -1.2296645738086223 -1.4002304503017593 0.0 1.5707963267948966 0.0 0.2743434418098265 0.1828956278732177 0.09144781393660885 0.0 0.0 0.0 0.0 0.0 0.0 0.0 0.0 0.0 
2.0103436 0.51389237701389 -1.2282014087856366 -1.3994988677902664 0.0 1.5707963267948966 0.0 0.2743434418098265 0.1828956278732177 0.09144781393660885 0.0 0.0 0.0 0.0 0.0 0.0 0.0 0.0 0.0 
2.0183434 0.5160871245483687 -1.2267382437626506 -1.3987672852787736 0.0 1.5707963267948966 0.0 0.2743434418098265 0.1828956278732177 0.09144781393660885 0.0 0.0 0.0 0.0 0.0 0.0 0.0 0.0 0.0 
2.0263433 0.5182818720828473 -1.225275078739665 -1.3980357027672807 0.0 1.5707963267948966 0.0 0.2743434418098265 0.1828956278732177 0.09144781393660885 0.0 0.0 0.0 0.0 0.0 0.0 0.0 0.0 0.0 
2.0343435 0.5204766196173259 -1.2238119137166792 -1.3973041202557879 0.0 1.5707963267948966 0.0 0.2743434418098265 0.1828956278732177 0.09144781393660885 0.0 0.0 0.0 0.0 0.0 0.0 0.0 0.0 0.0 
2.0423434 0.5226713671518045 -1.2223487486936935 -1.396572537744295 0.0 1.5707963267948966 0.0 0.2743434418098265 0.1828956278732177 0.09144781393660885 0.0 0.0 0.0 0.0 0.0 0.0 0.0 0.0 0.0 
2.0503435 0.5248661146862831 -1.2208855836707078 -1.3958409552328022 0.0 1.5707963267948966 0.0 0.2743434418098265 0.1828956278732177 0.09144781393660885 0.0 0.0 0.0 0.0 0.0 0.0 0.0 0.0 0.0 
2.0583434 0.5270608622207618 -1.219422418647722 -1.3951093727213093 0.0 1.5707963267948966 0.0 0.2743434418098265 0.1828956278732177 0.09144781393660885 0.0 0.0 0.0 0.0 0.0 0.0 0.0 0.0 0.0 
2.0663435 0.5292556097552403 -1.2179592536247363 -1.3943777902098164 0.0 1.5707963267948966 0.0 0.2743434418098265 0.1828956278732177 0.09144781393660885 0.0 0.0 0.0 0.0 0.0 0.0 0.0 0.0 0.0 
2.0743434 0.531450357289719 -1.2164960886017506 -1.3936462076983236 0.0 1.5707963267948966 0.0 0.2743434418098265 0.1828956278732177 0.09144781393660885 0.0 0.0 0.0 0.0 0.0 0.0 0.0 0.0 0.0 
2.0823433 0.5336451048241976 -1.215032923578765 -1.3929146251868307 0.0 1.5707963267948966 0.0 0.2743434418098265 0.1828956278732177 0.09144781393660885 0.0 0.0 0.0 0.0 0.0 0.0 0.0 0.0 0.0 
2.0903435 0.5358398523586761 -1.2135697585557792 -1.3921830426753379 0.0 1.5707963267948966 0.0 0.2743434418098265 0.1828956278732177 0.09144781393660885 0.0 0.0 0.0 0.0 0.0 0.0 0.0 0.0 0.0 
2.0983434 0.5380345998931548 -1.2121065935327933 -1.391451460163845 0.0 1.5707963267948966 0.0 0.2743434418098265 0.1828956278732177 0.09144781393660885 0.0 0.0 0.0 0.0 0.0 0.0 0.0 0.0 0.0 
2.1063435 0.5402293474276334 -1.2106434285098076 -1.390719877652352 0.0 1.5707963267948966 0.0 0.2743434418098265 0.1828956278732177 0.09144781393660885 0.0 0.0 0.0 0.0 0.0 0.0 0.0 0.0 0.0 
2.1143434 0.542424094962112 -1.2091802634868218 -1.389988295140859 0.0 1.5707963267948966 0.0 0.2743434418098265 0.1828956278732177 0.09144781393660885 0.0 0.0 0.0 0.0 0.0 0.0 0.0 0.0 0.0 
2.1223435 0.5446188424965906 -1.2077170984638361 -1.3892567126293662 0.0 1.5707963267948966 0.0 0.2743434418098265 0.1828956278732177 0.09144781393660885 0.0 0.0 0.0 0.0 0.0 0.0 0.0 0.0 0.0 
2.1303434 0.5468135900310692 -1.2062539334408504 -1.3885251301178734 0.0 1.5707963267948966 0.0 0.2743434418098265 0.1828956278732177 0.09144781393660885 0.0 0.0 0.0 0.0 0.0 0.0 0.0 0.0 0.0 
2.1383433 0.5490083375655479 -1.2047907684178645 -1.3877935476063805 0.0 1.5707963267948966 0.0 0.2743434418098265 0.1828956278732177 0.09144781393660885 0.0 0.0 0.0 0.0 0.0 0.0 0.0 0.0 0.0 
2.1463435 0.5512030851000265 -1.2033276033948788 -1.3870619650948877 0.0 1.5707963267948966 0.0 0.2743434418098265 0.1828956278732177 0.09144781393660885 0.0 0.0 0.0 0.0 0.0 0.0 0.0 0.0 0.0 
2.1543434 0.553397832634505 -1.201864438371893 -1.3863303825833948 0.0 1.5707963267948966 0.0 0.2743434418098265 0.1828956278732177 0.09144781393660885 0.0 0.0 0.0 0.0 0.0 0.0 0.0 0.0 0.0 
2.1623435 0.5555925801689837 -1.2004012733489073 -1.385598800071902 0.0 1.5707963267948966 0.0 0.2743434418098265 0.1828956278732177 0.09144781393660885 0.0 0.0 0.0 0.0 0.0 0.0 0.0 0.0 0.0 
2.1703434 0.5577873277034623 -1.1989381083259216 -1.384867217560409 0.0 1.5707963267948966 0.0 0.2743434418098265 0.1828956278732177 0.09144781393660885 0.0 0.0 0.0 0.0 0.0 0.0 0.0 0.0 0.0 
2.1783435 0.559982075237941 -1.197474943302936 -1.3841356350489162 0.0 1.5707963267948966 0.0 0.2743434418098265 0.1828956278732177 0.09144781393660885 0.0 0.0 0.0 0.0 0.0 0.0 0.0 0.0 0.0 
2.1863434 0.5621768227724195 -1.1960117782799502 -1.3834040525374234 0.0 1.5707963267948966 0.0 0.2743434418098265 0.1828956278732177 0.09144781393660885 0.0 0.0 0.0 0.0 0.0 0.0 0.0 0.0 0.0 
2.1943433 0.5643715703068981 -1.1945486132569645 -1.3826724700259305 0.0 1.5707963267948966 0.0 0.2743434418098265 0.1828956278732177 0.09144781393660885 0.0 0.0 0.0 0.0 0.0 0.0 0.0 0.0 0.0 
2.2023435 0.5665663178413768 -1.1930854482339788 -1.3819408875144377 0.0 1.5707963267948966 0.0 0.2743434418098265 0.1828956278732177 0.09144781393660885 0.0 0.0 0.0 0.0 0.0 0.0 0.0 0.0 0.0 
2.2103434 0.5687610653758554 -1.1916222832109928 -1.3812093050029448 0.0 1.5707963267948966 0.0 0.2743434418098265 0.1828956278732177 0.09144781393660885 0.0 0.0 0.0 0.0 0.0 0.0 0.0 0.0 0.0 
2.2183435 0.570955812910334 -1.1901591181880071 -1.380477722491452 0.0 1.5707963267948966 0.0 0.2743434418098265 0.1828956278732177 0.09144781393660885 0.0 0.0 0.0 0.0 0.0 0.0 0.0 0.0 0.0 
2.2263434 0.5731505604448126 -1.1886959531650214 -1.379746139979959 0.0 1.5707963267948966 0.0 0.2743434418098265 0.1828956278732177 0.09144781393660885 0.0 0.0 0.0 0.0 0.0 0.0 0.0 0.0 0.0 
2.2343435 0.5753453079792912 -1.1872327881420357 -1.3790145574684662 0.0 1.5707963267948966 0.0 0.2743434418098265 0.1828956278732177 0.09144781393660885 0.0 0.0 0.0 0.0 0.0 0.0 0.0 0.0 0.0 
2.2423434 0.5775400555137699 -1.18576962311905 -1.3782829749569732 0.0 1.5707963267948966 0.0 0.2743434418098265 0.1828956278732177 0.09144781393660885 0.0 0.0 0.0 0.0 0.0 0.0 0.0 0.0 0.0 
2.2503433 0.5797348030482484 -1.1843064580960643 -1.3775513924454803 0.0 1.5707963267948966 0.0 0.2743434418098265 0.1828956278732177 0.09144781393660885 0.0 0.0 0.0 0.0 0.0 0.0 0.0 0.0 0.0 
2.2583435 0.5819295505827271 -1.1828432930730783 -1.3768198099339874 0.0 1.5707963267948966 0.0 0.2743434418098265 0.1828956278732177 0.09144781393660885 0.0 0.0 0.0 0.0 0.0 0.0 0.0 0.0 0.0 
2.2663434 0.5841242981172057 -1.1813801280500926 -1.3760882274224946 0.0 1.5707963267948966 0.0 0.2743434418098265 0.1828956278732177 0.09144781393660885 0.0 0.0 0.0 0.0 0.0 0.0 0.0 0.0 0.0 
2.2743435 0.5863190456516842 -1.179916963027107 -1.3753566449110017 0.0 1.5707963267948966 0.0 0.2743434418098265 0.1828956278732177 0.09144781393660885 0.0 0.0 0.0 0.0 0.0 0.0 0.0 0.0 0.0 
2.2823434 0.5885137931861629 -1.1784537980041212 -1.3746250623995089 0.0 1.5707963267948966 0.0 0.2743434418098265 0.1828956278732177 0.09144781393660885 0.0 0.0 0.0 0.0 0.0 0.0 0.0 0.0 0.0 
2.2903435 0.5907085407206415 -1.1769906329811355 -1.373893479888016 0.0 1.5707963267948966 0.0 0.2743434418098265 0.1828956278732177 0.09144781393660885 0.0 0.0 0.0 0.0 0.0 0.0 0.0 0.0 0.0 
2.2983434 0.5929032882551202 -1.1755274679581498 -1.3731618973765232 0.0 1.5707963267948966 0.0 0.2743434418098265 0.1828956278732177 0.09144781393660885 0.0 0.0 0.0 0.0 0.0 0.0 0.0 0.0 0.0 
2.3063436 0.5950980357895987 -1.174064302935164 -1.3724303148650303 0.0 1.5707963267948966 0.0 0.2743434418098265 0.1828956278732177 0.09144781393660885 0.0 0.0 0.0 0.0 0.0 0.0 0.0 0.0 0.0 
2.3143435 0.5972927833240773 -1.1726011379121783 -1.3716987323535375 0.0 1.5707963267948966 0.0 0.2743434418098265 0.1828956278732177 0.09144781393660885 0.0 0.0 0.0 0.0 0.0 0.0 0.0 0.0 0.0 
2.3223433 0.599487530858556 -1.1711379728891926 -1.3709671498420446 0.0 1.5707963267948966 0.0 0.2743434418098265 0.1828956278732177 0.09144781393660885 0.0 0.0 0.0 0.0 0.0 0.0 0.0 0.0 0.0 
2.3303435 0.6016822783930346 -1.1696748078662067 -1.3702355673305517 0.0 1.5707963267948966 0.0 0.2743434418098265 0.1828956278732177 0.09144781393660885 0.0 0.0 0.0 0.0 0.0 0.0 0.0 0.0 0.0 
2.3383434 0.6038770259275132 -1.168211642843221 -1.3695039848190589 0.0 1.5707963267948966 0.0 0.2743434418098265 0.1828956278732177 0.09144781393660885 0.0 0.0 0.0 0.0 0.0 0.0 0.0 0.0 0.0 
2.3463435 0.6060717734619918 -1.1667484778202353 -1.3687724023075658 0.0 1.5707963267948966 0.0 0.2743434418098265 0.1828956278732177 0.09144781393660885 0.0 0.0 0.0 0.0 0.0 0.0 0.0 0.0 0.0 
2.3543434 0.6082665209964704 -1.1652853127972496 -1.368040819796073 0.0 1.5707963267948966 0.0 0.2743434418098265 0.1828956278732177 0.09144781393660885 0.0 0.0 0.0 0.0 0.0 0.0 0.0 0.0 0.0 
2.3623435 0.6104612685309491 -1.1638221477742638 -1.36730923728458 0.0 1.5707963267948966 0.0 0.2743434418098265 0.1828956278732177 0.09144781393660885 0.0 0.0 0.0 0.0 0.0 0.0 0.0 0.0 0.0 
2.3703434 0.6126560160654276 -1.1623589827512781 -1.3665776547730872 0.0 1.5707963267948966 0.0 0.2743434418098265 0.1828956278732177 0.09144781393660885 0.0 0.0 0.0 0.0 0.0 0.0 0.0 0.0 0.0 
2.3783433 0.6148507635999063 -1.1608958177282922 -1.3658460722615944 0.0 1.5707963267948966 0.0 0.2743434418098265 0.1828956278732177 0.09144781393660885 0.0 0.0 0.0 0.0 0.0 0.0 0.0 0.0 0.0 
2.3863435 0.6170455111343849 -1.1594326527053065 -1.3651144897501015 0.0 1.5707963267948966 0.0 0.2743434418098265 0.1828956278732177 0.09144781393660885 0.0 0.0 0.0 0.0 0.0 0.0 0.0 0.0 0.0 
2.3943434 0.6192402586688635 -1.1579694876823208 -1.3643829072386087 0.0 1.5707963267948966 0.0 0.2743434418098265 0.1828956278732177 0.09144781393660885 0.0 0.0 0.0 0.0 0.0 0.0 0.0 0.0 0.0 
2.4023435 0.6214350062033421 -1.156506322659335 -1.3636513247271158 0.0 1.5707963267948966 0.0 0.2743434418098265 0.1828956278732177 0.09144781393660885 0.0 0.0 0.0 0.0 0.0 0.0 0.0 0.0 0.0 
2.4103434 0.6236297537378207 -1.1550431576363493 -1.362919742215623 0.0 1.5707963267948966 0.0 0.2743434418098265 0.1828956278732177 0.09144781393660885 0.0 0.0 0.0 0.0 0.0 0.0 0.0 0.0 0.0 
2.4183435 0.6258245012722994 -1.1535799926133636 -1.36218815970413 0.0 1.5707963267948966 0.0 0.2743434418098265 0.1828956278732177 0.09144781393660885 0.0 0.0 0.0 0.0 0.0 0.0 0.0 0.0 0.0 
2.4263434 0.628019248806778 -1.152116827590378 -1.3614565771926372 0.0 1.5707963267948966 0.0 0.2743434418098265 0.1828956278732177 0.09144781393660885 0.0 0.0 0.0 0.0 0.0 0.0 0.0 0.0 0.0 
2.4343433 0.6302139963412565 -1.1506536625673922 -1.3607249946811444 0.0 1.5707963267948966 0.0 0.2743434418098265 0.1828956278732177 0.09144781393660885 0.0 0.0 0.0 0.0 0.0 0.0 0.0 0.0 0.0 
2.4423435 0.6324087438757352 -1.1491904975444065 -1.3599934121696515 0.0 1.5707963267948966 0.0 0.2743434418098265 0.1828956278732177 0.09144781393660885 0.0 0.0 0.0 0.0 0.0 0.0 0.0 0.0 0.0 
2.4503434 0.6346034914102138 -1.1477273325214206 -1.3592618296581587 0.0 1.5707963267948966 0.0 0.2743434418098265 0.1828956278732177 0.09144781393660885 0.0 0.0 0.0 0.0 0.0 0.0 0.0 0.0 0.0 
2.4583435 0.6367982389446925 -1.1462641674984348 -1.3585302471466658 0.0 1.5707963267948966 0.0 0.2743434418098265 0.1828956278732177 0.09144781393660885 0.0 0.0 0.0 0.0 0.0 0.0 0.0 0.0 0.0 
2.4663434 0.638992986479171 -1.1448010024754491 -1.357798664635173 0.0 1.5707963267948966 0.0 0.2743434418098265 0.1828956278732177 0.09144781393660885 0.0 0.0 0.0 0.0 0.0 0.0 0.0 0.0 0.0 
2.4743435 0.6411877340136496 -1.1433378374524634 -1.35706708212368 0.0 1.5707963267948966 0.0 0.2743434418098265 0.1828956278732177 0.09144781393660885 0.0 0.0 0.0 0.0 0.0 0.0 0.0 0.0 0.0 
2.4823434 0.6433824815481283 -1.1418746724294777 -1.356335499612187 0.0 1.5707963267948966 0.0 0.2743434418098265 0.1828956278732177 0.09144781393660885 0.0 0.0 0.0 0.0 0.0 0.0 0.0 0.0 0.0 
2.4903433 0.6455772290826068 -1.140411507406492 -1.3556039171006942 0.0 1.5707963267948966 0.0 0.2743434418098265 0.1828956278732177 0.09144781393660885 0.0 0.0 0.0 0.0 0.0 0.0 0.0 0.0 0.0 
2.4983435 0.6477719766170855 -1.138948342383506 -1.3548723345892013 0.0 1.5707963267948966 0.0 0.2743434418098265 0.1828956278732177 0.09144781393660885 0.0 0.0 0.0 0.0 0.0 0.0 0.0 0.0 0.0 
2.5063434 0.6499667241515641 -1.1374851773605203 -1.3541407520777085 0.0 1.5707963267948966 0.0 0.2743434418098265 0.1828956278732177 0.09144781393660885 0.0 0.0 0.0 0.0 0.0 0.0 0.0 0.0 0.0 
2.5143435 0.6521614716860427 -1.1360220123375346 -1.3534091695662156 0.0 1.5707963267948966 0.0 0.2743434418098265 0.1828956278732177 0.09144781393660885 0.0 0.0 0.0 0.0 0.0 0.0 0.0 0.0 0.0 
2.5223434 0.6543562192205213 -1.134558847314549 -1.3526775870547227 0.0 1.5707963267948966 0.0 0.2743434418098265 0.1828956278732177 0.09144781393660885 0.0 0.0 0.0 0.0 0.0 0.0 0.0 0.0 0.0 
2.5303435 0.6565509667549999 -1.1330956822915632 -1.3519460045432299 0.0 1.5707963267948966 0.0 0.2743434418098265 0.1828956278732177 0.09144781393660885 0.0 0.0 0.0 0.0 0.0 0.0 0.0 0.0 0.0 
2.5383434 0.6587457142894786 -1.1316325172685775 -1.351214422031737 0.0 1.5707963267948966 0.0 0.2743434418098265 0.1828956278732177 0.09144781393660885 0.0 0.0 0.0 0.0 0.0 0.0 0.0 0.0 0.0 
2.5463433 0.6609404618239572 -1.1301693522455918 -1.3504828395202442 0.0 1.5707963267948966 0.0 0.2743434418098265 0.1828956278732177 0.09144781393660885 0.0 0.0 0.0 0.0 0.0 0.0 0.0 0.0 0.0 
2.5543435 0.6631352093584357 -1.128706187222606 -1.3497512570087513 0.0 1.5707963267948966 0.0 0.2743434418098265 0.1828956278732177 0.09144781393660885 0.0 0.0 0.0 0.0 0.0 0.0 0.0 0.0 0.0 
2.5623434 0.6653299568929144 -1.1272430221996204 -1.3490196744972585 0.0 1.5707963267948966 0.0 0.2743434418098265 0.1828956278732177 0.09144781393660885 0.0 0.0 0.0 0.0 0.0 0.0 0.0 0.0 0.0 
2.5703435 0.667524704427393 -1.1257798571766344 -1.3482880919857656 0.0 1.5707963267948966 0.0 0.2743434418098265 0.1828956278732177 0.09144781393660885 0.0 0.0 0.0 0.0 0.0 0.0 0.0 0.0 0.0 
2.5783434 0.6697194519618717 -1.1243166921536487 -1.3475565094742727 0.0 1.5707963267948966 0.0 0.2743434418098265 0.1828956278732177 0.09144781393660885 0.0 0.0 0.0 0.0 0.0 0.0 0.0 0.0 0.0 
2.5863435 0.6719141994963502 -1.122853527130663 -1.3468249269627797 0.0 1.5707963267948966 0.0 0.2743434418098265 0.1828956278732177 0.09144781393660885 0.0 0.0 0.0 0.0 0.0 0.0 0.0 0.0 0.0 
2.5943434 0.6741089470308288 -1.1213903621076773 -1.3460933444512868 0.0 1.5707963267948966 0.0 0.2743434418098265 0.1828956278732177 0.09144781393660885 0.0 0.0 0.0 0.0 0.0 0.0 0.0 0.0 0.0 
2.6023436 0.6763036945653075 -1.1199271970846916 -1.345361761939794 0.0 1.5707963267948966 0.0 0.2743434418098265 0.1828956278732177 0.09144781393660885 0.0 0.0 0.0 0.0 0.0 0.0 0.0 0.0 0.0 
2.6103435 0.678498442099786 -1.1184640320617056 -1.344630179428301 0.0 1.5707963267948966 0.0 0.2743434418098265 0.1828956278732177 0.09144781393660885 0.0 0.0 0.0 0.0 0.0 0.0 0.0 0.0 0.0 
2.6183434 0.6806931896342647 -1.11700086703872 -1.3438985969168082 0.0 1.5707963267948966 0.0 0.2743434418098265 0.1828956278732177 0.09144781393660885 0.0 0.0 0.0 0.0 0.0 0.0 0.0 0.0 0.0 
2.6263435 0.6828879371687433 -1.1155377020157342 -1.3431670144053154 0.0 1.5707963267948966 0.0 0.2743434418098265 0.1828956278732177 0.09144781393660885 0.0 0.0 0.0 0.0 0.0 0.0 0.0 0.0 0.0 
2.6343434 0.6850826847032219 -1.1140745369927485 -1.3424354318938225 0.0 1.5707963267948966 0.0 0.2743434418098265 0.1828956278732177 0.09144781393660885 0.0 0.0 0.0 0.0 0.0 0.0 0.0 0.0 0.0 
2.6423435 0.6872774322377005 -1.1126113719697628 -1.3417038493823297 0.0 1.5707963267948966 0.0 0.2743434418098265 0.1828956278732177 0.09144781393660885 0.0 0.0 0.0 0.0 0.0 0.0 0.0 0.0 0.0 
2.6503434 0.6894721797721791 -1.111148206946777 -1.3409722668708368 0.0 1.5707963267948966 0.0 0.2743434418098265 0.1828956278732177 0.09144781393660885 0.0 0.0 0.0 0.0 0.0 0.0 0.0 0.0 0.0 
2.6583436 0.6916669273066578 -1.1096850419237914 -1.340240684359344 0.0 1.5707963267948966 0.0 0.2743434418098265 0.1828956278732177 0.09144781393660885 0.0 0.0 0.0 0.0 0.0 0.0 0.0 0.0 0.0 
2.6663435 0.6938616748411364 -1.1082218769008056 -1.339509101847851 0.0 1.5707963267948966 0.0 0.2743434418098265 0.1828956278732177 0.09144781393660885 0.0 0.0 0.0 0.0 0.0 0.0 0.0 0.0 0.0 
2.6743433 0.6960564223756149 -1.10675871187782 -1.3387775193363582 0.0 1.5707963267948966 0.0 0.2743434418098265 0.1828956278732177 0.09144781393660885 0.0 0.0 0.0 0.0 0.0 0.0 0.0 0.0 0.0 
2.6823435 0.6982511699100936 -1.1052955468548342 -1.3380459368248654 0.0 1.5707963267948966 0.0 0.2743434418098265 0.1828956278732177 0.09144781393660885 0.0 0.0 0.0 0.0 0.0 0.0 0.0 0.0 0.0 
2.6903434 0.7004459174445722 -1.1038323818318483 -1.3373143543133725 0.0 1.5707963267948966 0.0 0.2743434418098265 0.1828956278732177 0.09144781393660885 0.0 0.0 0.0 0.0 0.0 0.0 0.0 0.0 0.0 
2.6983435 0.7026406649790509 -1.1023692168088626 -1.3365827718018797 0.0 1.5707963267948966 0.0 0.2743434418098265 0.1828956278732177 0.09144781393660885 0.0 0.0 0.0 0.0 0.0 0.0 0.0 0.0 0.0 
2.7063434 0.7048354125135294 -1.1009060517858769 -1.3358511892903868 0.0 1.5707963267948966 0.0 0.2743434418098265 0.1828956278732177 0.09144781393660885 0.0 0.0 0.0 0.0 0.0 0.0 0.0 0.0 0.0 
2.7143435 0.707030160048008 -1.0994428867628911 -1.3351196067788937 0.0 1.5707963267948966 0.0 0.2743434418098265 0.1828956278732177 0.09144781393660885 0.0 0.0 0.0 0.0 0.0 0.0 0.0 0.0 0.0 
2.7223434 0.7092249075824867 -1.0979797217399054 -1.3343880242674009 0.0 1.5707963267948966 0.0 0.2743434418098265 0.1828956278732177 0.09144781393660885 0.0 0.0 0.0 0.0 0.0 0.0 0.0 0.0 0.0 
2.7303433 0.7114196551169653 -1.0965165567169195 -1.333656441755908 0.0 1.5707963267948966 0.0 0.2743434418098265 0.1828956278732177 0.09144781393660885 0.0 0.0 0.0 0.0 0.0 0.0 0.0 0.0 0.0 
2.7383435 0.7136144026514439 -1.0950533916939338 -1.3329248592444152 0.0 1.5707963267948966 0.0 0.2743434418098265 0.1828956278732177 0.09144781393660885 0.0 0.0 0.0 0.0 0.0 0.0 0.0 0.0 0.0 
2.7463434 0.7158091501859225 -1.093590226670948 -1.3321932767329223 0.0 1.5707963267948966 0.0 0.2743434418098265 0.1828956278732177 0.09144781393660885 0.0 0.0 0.0 0.0 0.0 0.0 0.0 0.0 0.0 
2.7543435 0.7180038977204011 -1.0921270616479624 -1.3314616942214295 0.0 1.5707963267948966 0.0 0.2743434418098265 0.1828956278732177 0.09144781393660885 0.0 0.0 0.0 0.0 0.0 0.0 0.0 0.0 0.0 
2.7623434 0.7201986452548798 -1.0906638966249766 -1.3307301117099366 0.0 1.5707963267948966 0.0 0.2743434418098265 0.1828956278732177 0.09144781393660885 0.0 0.0 0.0 0.0 0.0 0.0 0.0 0.0 0.0 
2.7703435 0.7223933927893583 -1.089200731601991 -1.3299985291984437 0.0 1.5707963267948966 0.0 0.2743434418098265 0.1828956278732177 0.09144781393660885 0.0 0.0 0.0 0.0 0.0 0.0 0.0 0.0 0.0 
2.7783434 0.724588140323837 -1.0877375665790052 -1.329266946686951 0.0 1.5707963267948966 0.0 0.2743434418098265 0.1828956278732177 0.09144781393660885 0.0 0.0 0.0 0.0 0.0 0.0 0.0 0.0 0.0 
2.7863433 0.7267828878583156 -1.0862744015560195 -1.328535364175458 0.0 1.5707963267948966 0.0 0.2743434418098265 0.1828956278732177 0.09144781393660885 0.0 0.0 0.0 0.0 0.0 0.0 0.0 0.0 0.0 
2.7943435 0.7289776353927941 -1.0848112365330338 -1.3278037816639652 0.0 1.5707963267948966 0.0 0.2743434418098265 0.1828956278732177 0.09144781393660885 0.0 0.0 0.0 0.0 0.0 0.0 0.0 0.0 0.0 
2.8023434 0.7311723829272728 -1.083348071510048 -1.3270721991524723 0.0 1.5707963267948966 0.0 0.2743434418098265 0.1828956278732177 0.09144781393660885 0.0 0.0 0.0 0.0 0.0 0.0 0.0 0.0 0.0 
2.8103435 0.7333671304617514 -1.0818849064870621 -1.3263406166409795 0.0 1.5707963267948966 0.0 0.2743434418098265 0.1828956278732177 0.09144781393660885 0.0 0.0 0.0 0.0 0.0 0.0 0.0 0.0 0.0 
2.8183434 0.7355618779962301 -1.0804217414640764 -1.3256090341294864 0.0 1.5707963267948966 0.0 0.2743434418098265 0.1828956278732177 0.09144781393660885 0.0 0.0 0.0 0.0 0.0 0.0 0.0 0.0 0.0 
2.8263435 0.7377566255307086 -1.0789585764410907 -1.3248774516179935 0.0 1.5707963267948966 0.0 0.2743434418098265 0.1828956278732177 0.09144781393660885 0.0 0.0 0.0 0.0 0.0 0.0 0.0 0.0 0.0 
2.8343434 0.7399513730651872 -1.077495411418105 -1.3241458691065007 0.0 1.5707963267948966 0.0 0.2743434418098265 0.1828956278732177 0.09144781393660885 0.0 0.0 0.0 0.0 0.0 0.0 0.0 0.0 0.0 
2.8423433 0.7421461205996659 -1.0760322463951193 -1.3234142865950078 0.0 1.5707963267948966 0.0 0.2743434418098265 0.1828956278732177 0.09144781393660885 0.0 0.0 0.0 0.0 0.0 0.0 0.0 0.0 0.0 
2.8503435 0.7443408681341445 -1.0745690813721334 -1.322682704083515 0.0 1.5707963267948966 0.0 0.2743434418098265 0.1828956278732177 0.09144781393660885 0.0 0.0 0.0 0.0 0.0 0.0 0.0 0.0 0.0 
2.8583434 0.7465356156686231 -1.0731059163491476 -1.321951121572022 0.0 1.5707963267948966 0.0 0.2743434418098265 0.1828956278732177 0.09144781393660885 0.0 0.0 0.0 0.0 0.0 0.0 0.0 0.0 0.0 
2.8663435 0.7487303632031017 -1.071642751326162 -1.3212195390605292 0.0 1.5707963267948966 0.0 0.2743434418098265 0.1828956278732177 0.09144781393660885 0.0 0.0 0.0 0.0 0.0 0.0 0.0 0.0 0.0 
2.8743434 0.7509251107375804 -1.0701795863031762 -1.3204879565490364 0.0 1.5707963267948966 0.0 0.2743434418098265 0.1828956278732177 0.09144781393660885 0.0 0.0 0.0 0.0 0.0 0.0 0.0 0.0 0.0 
2.8823435 0.753119858272059 -1.0687164212801905 -1.3197563740375435 0.0 1.5707963267948966 0.0 0.2743434418098265 0.1828956278732177 0.09144781393660885 0.0 0.0 0.0 0.0 0.0 0.0 0.0 0.0 0.0 
2.8903434 0.7553146058065375 -1.0672532562572048 -1.3190247915260507 0.0 1.5707963267948966 0.0 0.2743434418098265 0.1828956278732177 0.09144781393660885 0.0 0.0 0.0 0.0 0.0 0.0 0.0 0.0 0.0 
2.8983433 0.7575093533410162 -1.065790091234219 -1.3182932090145578 0.0 1.5707963267948966 0.0 0.2743434418098265 0.1828956278732177 0.09144781393660885 0.0 0.0 0.0 0.0 0.0 0.0 0.0 0.0 0.0 
2.9063435 0.7597041008754948 -1.0643269262112334 -1.317561626503065 0.0 1.5707963267948966 0.0 0.2743434418098265 0.1828956278732177 0.09144781393660885 0.0 0.0 0.0 0.0 0.0 0.0 0.0 0.0 0.0 
2.9143434 0.7618988484099735 -1.0628637611882477 -1.316830043991572 0.0 1.5707963267948966 0.0 0.2743434418098265 0.1828956278732177 0.09144781393660885 0.0 0.0 0.0 0.0 0.0 0.0 0.0 0.0 0.0 
2.9223435 0.764093595944452 -1.0614005961652617 -1.3160984614800793 0.0 1.5707963267948966 0.0 0.2743434418098265 0.1828956278732177 0.09144781393660885 0.0 0.0 0.0 0.0 0.0 0.0 0.0 0.0 0.0 
2.9303434 0.7662883434789306 -1.059937431142276 -1.3153668789685864 0.0 1.5707963267948966 0.0 0.2743434418098265 0.1828956278732177 0.09144781393660885 0.0 0.0 0.0 0.0 0.0 0.0 0.0 0.0 0.0 
2.9383435 0.7684830910134093 -1.0584742661192903 -1.3146352964570935 0.0 1.5707963267948966 0.0 0.2743434418098265 0.1828956278732177 0.09144781393660885 0.0 0.0 0.0 0.0 0.0 0.0 0.0 0.0 0.0 
2.9463434 0.7706778385478879 -1.0570111010963046 -1.3139037139456007 0.0 1.5707963267948966 0.0 0.2743434418098265 0.1828956278732177 0.09144781393660885 0.0 0.0 0.0 0.0 0.0 0.0 0.0 0.0 0.0 
2.9543436 0.7728725860823665 -1.0555479360733189 -1.3131721314341076 0.0 1.5707963267948966 0.0 0.2743434418098265 0.1828956278732177 0.09144781393660885 0.0 0.0 0.0 0.0 0.0 0.0 0.0 0.0 0.0 
2.9623435 0.7750673336168451 -1.0540847710503332 -1.3124405489226147 0.0 1.5707963267948966 0.0 0.2743434418098265 0.1828956278732177 0.09144781393660885 0.0 0.0 0.0 0.0 0.0 0.0 0.0 0.0 0.0 
2.9703434 0.7772620811513237 -1.0526216060273472 -1.311708966411122 0.0 1.5707963267948966 0.0 0.2743434418098265 0.1828956278732177 0.09144781393660885 0.0 0.0 0.0 0.0 0.0 0.0 0.0 0.0 0.0 
2.9783435 0.7794568286858023 -1.0511584410043615 -1.310977383899629 0.0 1.5707963267948966 0.0 0.2743434418098265 0.1828956278732177 0.09144781393660885 0.0 0.0 0.0 0.0 0.0 0.0 0.0 0.0 0.0 
2.9863434 0.7816515762202809 -1.0496952759813758 -1.3102458013881362 0.0 1.5707963267948966 0.0 0.2743434418098265 0.1828956278732177 0.09144781393660885 0.0 0.0 0.0 0.0 0.0 0.0 0.0 0.0 0.0 
2.9943435 0.7838463237547596 -1.04823211095839 -1.3095142188766433 0.0 1.5707963267948966 0.0 0.2743434418098265 0.1828956278732177 0.09144781393660885 0.0 0.0 0.0 0.0 0.0 0.0 0.0 0.0 0.0 
3.0023434 0.7860410712892382 -1.0467689459354044 -1.3087826363651505 0.0 1.5707963267948966 0.0 0.2743434418098265 0.1828956278732177 0.09144781393660885 0.0 0.0 0.0 0.0 0.0 0.0 0.0 0.0 0.0 
3.0103436 0.7882358188237167 -1.0453057809124187 -1.3080510538536576 0.0 1.5707963267948966 0.0 0.2743434418098265 0.1828956278732177 0.09144781393660885 0.0 0.0 0.0 0.0 0.0 0.0 0.0 0.0 0.0 
3.0183434 0.7904305663581954 -1.043842615889433 -1.3073194713421648 0.0 1.5707963267948966 0.0 0.2743434418098265 0.1828956278732177 0.09144781393660885 0.0 0.0 0.0 0.0 0.0 0.0 0.0 0.0 0.0 
3.0263433 0.792625313892674 -1.0423794508664472 -1.306587888830672 0.0 1.5707963267948966 0.0 0.2743434418098265 0.1828956278732177 0.09144781393660885 0.0 0.0 0.0 0.0 0.0 0.0 0.0 0.0 0.0 
3.0343435 0.7948200614271527 -1.0409162858434615 -1.305856306319179 0.0 1.5707963267948966 0.0 0.2743434418098265 0.1828956278732177 0.09144781393660885 0.0 0.0 0.0 0.0 0.0 0.0 0.0 0.0 0.0 
3.0423434 0.7970148089616312 -1.0394531208204758 -1.3051247238076862 0.0 1.5707963267948966 0.0 0.2743434418098265 0.1828956278732177 0.09144781393660885 0.0 0.0 0.0 0.0 0.0 0.0 0.0 0.0 0.0 
3.0503435 0.7992095564961098 -1.0379899557974899 -1.304393141296193 0.0 1.5707963267948966 0.0 0.2743434418098265 0.1828956278732177 0.09144781393660885 0.0 0.0 0.0 0.0 0.0 0.0 0.0 0.0 0.0 
3.0583434 0.8014043040305885 -1.0365267907745042 -1.3036615587847002 0.0 1.5707963267948966 0.0 0.2743434418098265 0.1828956278732177 0.09144781393660885 0.0 0.0 0.0 0.0 0.0 0.0 0.0 0.0 0.0 
3.0663435 0.8035990515650671 -1.0350636257515184 -1.3029299762732074 0.0 1.5707963267948966 0.0 0.2743434418098265 0.1828956278732177 0.09144781393660885 0.0 0.0 0.0 0.0 0.0 0.0 0.0 0.0 0.0 
3.0743434 0.8057937990995457 -1.0336004607285327 -1.3021983937617145 0.0 1.5707963267948966 0.0 0.2743434418098265 0.1828956278732177 0.09144781393660885 0.0 0.0 0.0 0.0 0.0 0.0 0.0 0.0 0.0 
3.0823433 0.8079885466340243 -1.0321372957055468 -1.3014668112502217 0.0 1.5707963267948966 0.0 0.2743434418098265 0.1828956278732177 0.09144781393660885 0.0 0.0 0.0 0.0 0.0 0.0 0.0 0.0 0.0 
3.0903435 0.8101832941685029 -1.030674130682561 -1.3007352287387288 0.0 1.5707963267948966 0.0 0.2743434418098265 0.1828956278732177 0.09144781393660885 0.0 0.0 0.0 0.0 0.0 0.0 0.0 0.0 0.0 
3.0983434 0.8123780417029816 -1.0292109656595754 -1.300003646227236 0.0 1.5707963267948966 0.0 0.2743434418098265 0.1828956278732177 0.09144781393660885 0.0 0.0 0.0 0.0 0.0 0.0 0.0 0.0 0.0 
3.1063435 0.8145727892374601 -1.0277478006365897 -1.299272063715743 0.0 1.5707963267948966 0.0 0.2743434418098265 0.1828956278732177 0.09144781393660885 0.0 0.0 0.0 0.0 0.0 0.0 0.0 0.0 0.0 
3.1143434 0.8167675367719388 -1.026284635613604 -1.2985404812042503 0.0 1.5707963267948966 0.0 0.2743434418098265 0.1828956278732177 0.09144781393660885 0.0 0.0 0.0 0.0 0.0 0.0 0.0 0.0 0.0 
3.1223435 0.8189622843064174 -1.0248214705906182 -1.2978088986927574 0.0 1.5707963267948966 0.0 0.2743434418098265 0.1828956278732177 0.09144781393660885 0.0 0.0 0.0 0.0 0.0 0.0 0.0 0.0 0.0 
3.1303434 0.821157031840896 -1.0233583055676325 -1.2970773161812645 0.0 1.5707963267948966 0.0 0.2743434418098265 0.1828956278732177 0.09144781393660885 0.0 0.0 0.0 0.0 0.0 0.0 0.0 0.0 0.0 
3.1383433 0.8233517793753746 -1.0218951405446468 -1.2963457336697717 0.0 1.5707963267948966 0.0 0.2743434418098265 0.1828956278732177 0.09144781393660885 0.0 0.0 0.0 0.0 0.0 0.0 0.0 0.0 0.0 
3.1463435 0.8255465269098532 -1.020431975521661 -1.2956141511582788 0.0 1.5707963267948966 0.0 0.2743434418098265 0.1828956278732177 0.09144781393660885 0.0 0.0 0.0 0.0 0.0 0.0 0.0 0.0 0.0 
3.1543434 0.8277412744443319 -1.0189688104986754 -1.294882568646786 0.0 1.5707963267948966 0.0 0.2743434418098265 0.1828956278732177 0.09144781393660885 0.0 0.0 0.0 0.0 0.0 0.0 0.0 0.0 0.0 
3.1623435 0.8299360219788104 -1.0175056454756897 -1.2941509861352931 0.0 1.5707963267948966 0.0 0.2743434418098265 0.1828956278732177 0.09144781393660885 0.0 0.0 0.0 0.0 0.0 0.0 0.0 0.0 0.0 
3.1703434 0.832130769513289 -1.0160424804527037 -1.2934194036238003 0.0 1.5707963267948966 0.0 0.2743434418098265 0.1828956278732177 0.09144781393660885 0.0 0.0 0.0 0.0 0.0 0.0 0.0 0.0 0.0 
3.1783435 0.8343255170477677 -1.014579315429718 -1.2926878211123074 0.0 1.5707963267948966 0.0 0.2743434418098265 0.1828956278732177 0.09144781393660885 0.0 0.0 0.0 0.0 0.0 0.0 0.0 0.0 0.0 
3.1863434 0.8365202645822463 -1.0131161504067323 -1.2919562386008145 0.0 1.5707963267948966 0.0 0.2743434418098265 0.1828956278732177 0.09144781393660885 0.0 0.0 0.0 0.0 0.0 0.0 0.0 0.0 0.0 
3.1943433 0.838715012116725 -1.0116529853837466 -1.2912246560893217 0.0 1.5707963267948966 0.0 0.2743434418098265 0.1828956278732177 0.09144781393660885 0.0 0.0 0.0 0.0 0.0 0.0 0.0 0.0 0.0 
3.2023435 0.8409097596512035 -1.0101898203607607 -1.2904930735778286 0.0 1.5707963267948966 0.0 0.2743434418098265 0.1828956278732177 0.09144781393660885 0.0 0.0 0.0 0.0 0.0 0.0 0.0 0.0 0.0 
3.2103434 0.8431045071856821 -1.008726655337775 -1.2897614910663358 0.0 1.5707963267948966 0.0 0.2743434418098265 0.1828956278732177 0.09144781393660885 0.0 0.0 0.0 0.0 0.0 0.0 0.0 0.0 0.0 
3.2183435 0.8452992547201608 -1.0072634903147892 -1.289029908554843 0.0 1.5707963267948966 0.0 0.2743434418098265 0.1828956278732177 0.09144781393660885 0.0 0.0 0.0 0.0 0.0 0.0 0.0 0.0 0.0 
3.2263434 0.8474940022546393 -1.0058003252918035 -1.28829832604335 0.0 1.5707963267948966 0.0 0.2743434418098265 0.1828956278732177 0.09144781393660885 0.0 0.0 0.0 0.0 0.0 0.0 0.0 0.0 0.0 
3.2343435 0.849688749789118 -1.0043371602688178 -1.2875667435318572 0.0 1.5707963267948966 0.0 0.2743434418098265 0.1828956278732177 0.09144781393660885 0.0 0.0 0.0 0.0 0.0 0.0 0.0 0.0 0.0 
3.2423434 0.8518834973235966 -1.002873995245832 -1.2868351610203643 0.0 1.5707963267948966 0.0 0.2743434418098265 0.1828956278732177 0.09144781393660885 0.0 0.0 0.0 0.0 0.0 0.0 0.0 0.0 0.0 
3.2503433 0.8540782448580752 -1.0014108302228464 -1.2861035785088715 0.0 1.5707963267948966 0.0 0.2743434418098265 0.1828956278732177 0.09144781393660885 0.0 0.0 0.0 0.0 0.0 0.0 0.0 0.0 0.0 
3.2583435 0.8562729923925538 -0.9999476651998606 -1.2853719959973786 0.0 1.5707963267948966 0.0 0.2743434418098265 0.1828956278732177 0.09144781393660885 0.0 0.0 0.0 0.0 0.0 0.0 0.0 0.0 0.0 
3.2663434 0.8584677399270324 -0.9984845001768748 -1.2846404134858858 0.0 1.5707963267948966 0.0 0.2743434418098265 0.1828956278732177 0.09144781393660885 0.0 0.0 0.0 0.0 0.0 0.0 0.0 0.0 0.0 
3.2743435 0.8606624874615111 -0.9970213351538891 -1.283908830974393 0.0 1.5707963267948966 0.0 0.2743434418098265 0.1828956278732177 0.09144781393660885 0.0 0.0 0.0 0.0 0.0 0.0 0.0 0.0 0.0 
3.2823434 0.8628572349959897 -0.9955581701309034 -1.2831772484629 0.0 1.5707963267948966 0.0 0.2743434418098265 0.1828956278732177 0.09144781393660885 0.0 0.0 0.0 0.0 0.0 0.0 0.0 0.0 0.0 
3.2903435 0.8650519825304682 -0.9940950051079176 -1.282445665951407 0.0 1.5707963267948966 0.0 0.2743434418098265 0.1828956278732177 0.09144781393660885 0.0 0.0 0.0 0.0 0.0 0.0 0.0 0.0 0.0 
3.2983434 0.8672467300649469 -0.9926318400849319 -1.281714083439914 0.0 1.5707963267948966 0.0 0.2743434418098265 0.1828956278732177 0.09144781393660885 0.0 0.0 0.0 0.0 0.0 0.0 0.0 0.0 0.0 
3.3063436 0.8694414775994255 -0.9911686750619462 -1.2809825009284213 0.0 1.5707963267948966 0.0 0.2743434418098265 0.1828956278732177 0.09144781393660885 0.0 0.0 0.0 0.0 0.0 0.0 0.0 0.0 0.0 
3.3143435 0.8716362251339042 -0.9897055100389605 -1.2802509184169284 0.0 1.5707963267948966 0.0 0.2743434418098265 0.1828956278732177 0.09144781393660885 0.0 0.0 0.0 0.0 0.0 0.0 0.0 0.0 0.0 
3.3223433 0.8738309726683827 -0.9882423450159746 -1.2795193359054355 0.0 1.5707963267948966 0.0 0.2743434418098265 0.1828956278732177 0.09144781393660885 0.0 0.0 0.0 0.0 0.0 0.0 0.0 0.0 0.0 
3.3303435 0.8760257202028613 -0.9867791799929889 -1.2787877533939427 0.0 1.5707963267948966 0.0 0.2743434418098265 0.1828956278732177 0.09144781393660885 0.0 0.0 0.0 0.0 0.0 0.0 0.0 0.0 0.0 
3.3383434 0.87822046773734 -0.9853160149700032 -1.2780561708824498 0.0 1.5707963267948966 0.0 0.2743434418098265 0.1828956278732177 0.09144781393660885 0.0 0.0 0.0 0.0 0.0 0.0 0.0 0.0 0.0 
3.3463435 0.8804152152718185 -0.9838528499470174 -1.277324588370957 0.0 1.5707963267948966 0.0 0.2743434418098265 0.1828956278732177 0.09144781393660885 0.0 0.0 0.0 0.0 0.0 0.0 0.0 0.0 0.0 
3.3543434 0.8826099628062972 -0.9823896849240317 -1.2765930058594641 0.0 1.5707963267948966 0.0 0.2743434418098265 0.1828956278732177 0.09144781393660885 0.0 0.0 0.0 0.0 0.0 0.0 0.0 0.0 0.0 
3.3623435 0.8848047103407758 -0.980926519901046 -1.2758614233479713 0.0 1.5707963267948966 0.0 0.2743434418098265 0.1828956278732177 0.09144781393660885 0.0 0.0 0.0 0.0 0.0 0.0 0.0 0.0 0.0 
3.3703434 0.8869994578752544 -0.9794633548780602 -1.2751298408364784 0.0 1.5707963267948966 0.0 0.2743434418098265 0.1828956278732177 0.09144781393660885 0.0 0.0 0.0 0.0 0.0 0.0 0.0 0.0 0.0 
3.3783433 0.889194205409733 -0.9780001898550744 -1.2743982583249855 0.0 1.5707963267948966 0.0 0.2743434418098265 0.1828956278732177 0.09144781393660885 0.0 0.0 0.0 0.0 0.0 0.0 0.0 0.0 0.0 
3.3863435 0.8913889529442116 -0.9765370248320887 -1.2736666758134927 0.0 1.5707963267948966 0.0 0.2743434418098265 0.1828956278732177 0.09144781393660885 0.0 0.0 0.0 0.0 0.0 0.0 0.0 0.0 0.0 
3.3943434 0.8935837004786903 -0.975073859809103 -1.2729350933019998 0.0 1.5707963267948966 0.0 0.2743434418098265 0.1828956278732177 0.09144781393660885 0.0 0.0 0.0 0.0 0.0 0.0 0.0 0.0 0.0 
3.4023435 0.8957784480131689 -0.9736106947861173 -1.272203510790507 0.0 1.5707963267948966 0.0 0.2743434418098265 0.1828956278732177 0.09144781393660885 0.0 0.0 0.0 0.0 0.0 0.0 0.0 0.0 0.0 
3.4103434 0.8979731955476474 -0.9721475297631315 -1.2714719282790141 0.0 1.5707963267948966 0.0 0.2743434418098265 0.1828956278732177 0.09144781393660885 0.0 0.0 0.0 0.0 0.0 0.0 0.0 0.0 0.0 
3.4183435 0.9001679430821261 -0.9706843647401457 -1.2707403457675213 0.0 1.5707963267948966 0.0 0.2743434418098265 0.1828956278732177 0.09144781393660885 0.0 0.0 0.0 0.0 0.0 0.0 0.0 0.0 0.0 
3.4263434 0.9023626906166047 -0.96922119971716 -1.2700087632560284 0.0 1.5707963267948966 0.0 0.2743434418098265 0.1828956278732177 0.09144781393660885 0.0 0.0 0.0 0.0 0.0 0.0 0.0 0.0 0.0 
3.4343433 0.9045574381510834 -0.9677580346941742 -1.2692771807445353 0.0 1.5707963267948966 0.0 0.2743434418098265 0.1828956278732177 0.09144781393660885 0.0 0.0 0.0 0.0 0.0 0.0 0.0 0.0 0.0 
3.4423435 0.9067521856855619 -0.9662948696711885 -1.2685455982330425 0.0 1.5707963267948966 0.0 0.2743434418098265 0.1828956278732177 0.09144781393660885 0.0 0.0 0.0 0.0 0.0 0.0 0.0 0.0 0.0 
3.4503434 0.9089469332200405 -0.9648317046482028 -1.2678140157215496 0.0 1.5707963267948966 0.0 0.2743434418098265 0.1828956278732177 0.09144781393660885 0.0 0.0 0.0 0.0 0.0 0.0 0.0 0.0 0.0 
3.4583435 0.9111416807545192 -0.9633685396252171 -1.2670824332100568 0.0 1.5707963267948966 0.0 0.2743434418098265 0.1828956278732177 0.09144781393660885 0.0 0.0 0.0 0.0 0.0 0.0 0.0 0.0 0.0 
3.4663434 0.9133364282889977 -0.9619053746022312 -1.266350850698564 0.0 1.5707963267948966 0.0 0.2743434418098265 0.1828956278732177 0.09144781393660885 0.0 0.0 0.0 0.0 0.0 0.0 0.0 0.0 0.0 
3.4743435 0.9155311758234764 -0.9604422095792455 -1.265619268187071 0.0 1.5707963267948966 0.0 0.2743434418098265 0.1828956278732177 0.09144781393660885 0.0 0.0 0.0 0.0 0.0 0.0 0.0 0.0 0.0 
3.4823434 0.917725923357955 -0.9589790445562598 -1.2648876856755782 0.0 1.5707963267948966 0.0 0.2743434418098265 0.1828956278732177 0.09144781393660885 0.0 0.0 0.0 0.0 0.0 0.0 0.0 0.0 0.0 
3.4903433 0.9199206708924336 -0.9575158795332741 -1.2641561031640853 0.0 1.5707963267948966 0.0 0.2743434418098265 0.1828956278732177 0.09144781393660885 0.0 0.0 0.0 0.0 0.0 0.0 0.0 0.0 0.0 
3.4983435 0.9221154184269122 -0.9560527145102883 -1.2634245206525925 0.0 1.5707963267948966 0.0 0.2743434418098265 0.1828956278732177 0.09144781393660885 0.0 0.0 0.0 0.0 0.0 0.0 0.0 0.0 0.0 
3.5063434 0.9243101659613908 -0.9545895494873026 -1.2626929381410996 0.0 1.5707963267948966 0.0 0.2743434418098265 0.1828956278732177 0.09144781393660885 0.0 0.0 0.0 0.0 0.0 0.0 0.0 0.0 0.0 
3.5143435 0.9265049134958695 -0.9531263844643169 -1.2619613556296068 0.0 1.5707963267948966 0.0 0.2743434418098265 0.1828956278732177 0.09144781393660885 0.0 0.0 0.0 0.0 0.0 0.0 0.0 0.0 0.0 
3.5223434 0.9286996610303481 -0.951663219441331 -1.2612297731181137 0.0 1.5707963267948966 0.0 0.2743434418098265 0.1828956278732177 0.09144781393660885 0.0 0.0 0.0 0.0 0.0 0.0 0.0 0.0 0.0 
3.5303435 0.9308944085648266 -0.9502000544183453 -1.2604981906066208 0.0 1.5707963267948966 0.0 0.2743434418098265 0.1828956278732177 0.09144781393660885 0.0 0.0 0.0 0.0 0.0 0.0 0.0 0.0 0.0 
3.5383434 0.9330891560993053 -0.9487368893953596 -1.259766608095128 0.0 1.5707963267948966 0.0 0.2743434418098265 0.1828956278732177 0.09144781393660885 0.0 0.0 0.0 0.0 0.0 0.0 0.0 0.0 0.0 
3.5463433 0.9352839036337839 -0.9472737243723739 -1.2590350255836351 0.0 1.5707963267948966 0.0 0.2743434418098265 0.1828956278732177 0.09144781393660885 0.0 0.0 0.0 0.0 0.0 0.0 0.0 0.0 0.0 
3.5543435 0.9374786511682626 -0.9458105593493881 -1.2583034430721423 0.0 1.5707963267948966 0.0 0.2743434418098265 0.1828956278732177 0.09144781393660885 0.0 0.0 0.0 0.0 0.0 0.0 0.0 0.0 0.0 
3.5623434 0.9396733987027411 -0.9443473943264024 -1.2575718605606494 0.0 1.5707963267948966 0.0 0.2743434418098265 0.1828956278732177 0.09144781393660885 0.0 0.0 0.0 0.0 0.0 0.0 0.0 0.0 0.0 
3.5703435 0.9418681462372197 -0.9428842293034166 -1.2568402780491565 0.0 1.5707963267948966 0.0 0.2743434418098265 0.1828956278732177 0.09144781393660885 0.0 0.0 0.0 0.0 0.0 0.0 0.0 0.0 0.0 
3.5783434 0.9440628937716984 -0.9414210642804309 -1.2561086955376637 0.0 1.5707963267948966 0.0 0.2743434418098265 0.1828956278732177 0.09144781393660885 0.0 0.0 0.0 0.0 0.0 0.0 0.0 0.0 0.0 
3.5863435 0.946257641306177 -0.9399578992574451 -1.2553771130261708 0.0 1.5707963267948966 0.0 0.2743434418098265 0.1828956278732177 0.09144781393660885 0.0 0.0 0.0 0.0 0.0 0.0 0.0 0.0 0.0 
3.5943434 0.9484523888406556 -0.9384947342344594 -1.254645530514678 0.0 1.5707963267948966 0.0 0.2743434418098265 0.1828956278732177 0.09144781393660885 0.0 0.0 0.0 0.0 0.0 0.0 0.0 0.0 0.0 
3.6023436 0.9506471363751342 -0.9370315692114737 -1.2539139480031851 0.0 1.5707963267948966 0.0 0.2743434418098265 0.1828956278732177 0.09144781393660885 0.0 0.0 0.0 0.0 0.0 0.0 0.0 0.0 0.0 
3.6103435 0.9528418839096128 -0.935568404188488 -1.2531823654916923 0.0 1.5707963267948966 0.0 0.2743434418098265 0.1828956278732177 0.09144781393660885 0.0 0.0 0.0 0.0 0.0 0.0 0.0 0.0 0.0 
3.6183434 0.9550366314440915 -0.9341052391655021 -1.2524507829801994 0.0 1.5707963267948966 0.0 0.2743434418098265 0.1828956278732177 0.09144781393660885 0.0 0.0 0.0 0.0 0.0 0.0 0.0 0.0 0.0 
3.6263435 0.95723137897857 -0.9326420741425164 -1.2517192004687065 0.0 1.5707963267948966 0.0 0.2743434418098265 0.1828956278732177 0.09144781393660885 0.0 0.0 0.0 0.0 0.0 0.0 0.0 0.0 0.0 
3.6343434 0.9594261265130487 -0.9311789091195307 -1.2509876179572137 0.0 1.5707963267948966 0.0 0.2743434418098265 0.1828956278732177 0.09144781393660885 0.0 0.0 0.0 0.0 0.0 0.0 0.0 0.0 0.0 
3.6423435 0.9616208740475273 -0.9297157440965449 -1.2502560354457208 0.0 1.5707963267948966 0.0 0.2743434418098265 0.1828956278732177 0.09144781393660885 0.0 0.0 0.0 0.0 0.0 0.0 0.0 0.0 0.0 
3.6503434 0.9638156215820058 -0.9282525790735592 -1.249524452934228 0.0 1.5707963267948966 0.0 0.2743434418098265 0.1828956278732177 0.09144781393660885 0.0 0.0 0.0 0.0 0.0 0.0 0.0 0.0 0.0 
3.6583436 0.9660103691164845 -0.9267894140505735 -1.2487928704227351 0.0 1.5707963267948966 0.0 0.2743434418098265 0.1828956278732177 0.09144781393660885 0.0 0.0 0.0 0.0 0.0 0.0 0.0 0.0 0.0 
3.6663435 0.9682051166509631 -0.9253262490275878 -1.2480612879112423 0.0 1.5707963267948966 0.0 0.2743434418098265 0.1828956278732177 0.09144781393660885 0.0 0.0 0.0 0.0 0.0 0.0 0.0 0.0 0.0 
3.6743433 0.9703998641854418 -0.9238630840046019 -1.2473297053997492 0.0 1.5707963267948966 0.0 0.2743434418098265 0.1828956278732177 0.09144781393660885 0.0 0.0 0.0 0.0 0.0 0.0 0.0 0.0 0.0 
3.6823435 0.9725946117199203 -0.9223999189816162 -1.2465981228882563 0.0 1.5707963267948966 0.0 0.2743434418098265 0.1828956278732177 0.09144781393660885 0.0 0.0 0.0 0.0 0.0 0.0 0.0 0.0 0.0 
3.6903434 0.9747893592543989 -0.9209367539586305 -1.2458665403767635 0.0 1.5707963267948966 0.0 0.2743434418098265 0.1828956278732177 0.09144781393660885 0.0 0.0 0.0 0.0 0.0 0.0 0.0 0.0 0.0 
3.6983435 0.9769841067888776 -0.9194735889356448 -1.2451349578652706 0.0 1.5707963267948966 0.0 0.2743434418098265 0.1828956278732177 0.09144781393660885 0.0 0.0 0.0 0.0 0.0 0.0 0.0 0.0 0.0 
3.7063434 0.9791788543233562 -0.918010423912659 -1.2444033753537778 0.0 1.5707963267948966 0.0 0.2743434418098265 0.1828956278732177 0.09144781393660885 0.0 0.0 0.0 0.0 0.0 0.0 0.0 0.0 0.0 
3.7143435 0.9813736018578348 -0.9165472588896733 -1.243671792842285 0.0 1.5707963267948966 0.0 0.2743434418098265 0.1828956278732177 0.09144781393660885 0.0 0.0 0.0 0.0 0.0 0.0 0.0 0.0 0.0 
3.7223434 0.9835683493923134 -0.9150840938666875 -1.242940210330792 0.0 1.5707963267948966 0.0 0.2743434418098265 0.1828956278732177 0.09144781393660885 0.0 0.0 0.0 0.0 0.0 0.0 0.0 0.0 0.0 
3.7303433 0.985763096926792 -0.9136209288437017 -1.2422086278192992 0.0 1.5707963267948966 0.0 0.2743434418098265 0.1828956278732177 0.09144781393660885 0.0 0.0 0.0 0.0 0.0 0.0 0.0 0.0 0.0 
3.7383435 0.9879578444612707 -0.912157763820716 -1.2414770453078063 0.0 1.5707963267948966 0.0 0.2743434418098265 0.1828956278732177 0.09144781393660885 0.0 0.0 0.0 0.0 0.0 0.0 0.0 0.0 0.0 
3.7463434 0.9901525919957492 -0.9106945987977303 -1.2407454627963135 0.0 1.5707963267948966 0.0 0.2743434418098265 0.1828956278732177 0.09144781393660885 0.0 0.0 0.0 0.0 0.0 0.0 0.0 0.0 0.0 
3.7543435 0.9923473395302279 -0.9092314337747446 -1.2400138802848206 0.0 1.5707963267948966 0.0 0.2743434418098265 0.1828956278732177 0.09144781393660885 0.0 0.0 0.0 0.0 0.0 0.0 0.0 0.0 0.0 
3.7623434 0.9945420870647065 -0.9077682687517588 -1.2392822977733275 0.0 1.5707963267948966 0.0 0.2743434418098265 0.1828956278732177 0.09144781393660885 0.0 0.0 0.0 0.0 0.0 0.0 0.0 0.0 0.0 
3.7703435 0.996736834599185 -0.906305103728773 -1.2385507152618347 0.0 1.5707963267948966 0.0 0.2743434418098265 0.1828956278732177 0.09144781393660885 0.0 0.0 0.0 0.0 0.0 0.0 0.0 0.0 0.0 
3.7783434 0.9989315821336637 -0.9048419387057873 -1.2378191327503418 0.0 1.5707963267948966 0.0 0.2743434418098265 0.1828956278732177 0.09144781393660885 0.0 0.0 0.0 0.0 0.0 0.0 0.0 0.0 0.0 
3.7863433 1.0011263296681423 -0.9033787736828016 -1.237087550238849 0.0 1.5707963267948966 0.0 0.2743434418098265 0.1828956278732177 0.09144781393660885 0.0 0.0 0.0 0.0 0.0 0.0 0.0 0.0 0.0 
3.7943435 1.003321077202621 -0.9019156086598158 -1.2363559677273561 0.0 1.5707963267948966 0.0 0.2743434418098265 0.1828956278732177 0.09144781393660885 0.0 0.0 0.0 0.0 0.0 0.0 0.0 0.0 0.0 
3.8023434 1.0055158247370997 -0.9004524436368301 -1.2356243852158633 0.0 1.5707963267948966 0.0 0.2743434418098265 0.1828956278732177 0.09144781393660885 0.0 0.0 0.0 0.0 0.0 0.0 0.0 0.0 0.0 
3.8103435 1.0077105722715782 -0.8989892786138444 -1.2348928027043704 0.0 1.5707963267948966 0.0 0.2743434418098265 0.1828956278732177 0.09144781393660885 0.0 0.0 0.0 0.0 0.0 0.0 0.0 0.0 0.0 
3.8183434 1.0099053198060568 -0.8975261135908587 -1.2341612201928776 0.0 1.5707963267948966 0.0 0.2743434418098265 0.1828956278732177 0.09144781393660885 0.0 0.0 0.0 0.0 0.0 0.0 0.0 0.0 0.0 
3.8263435 1.0121000673405354 -0.8960629485678728 -1.2334296376813847 0.0 1.5707963267948966 0.0 0.2743434418098265 0.1828956278732177 0.09144781393660885 0.0 0.0 0.0 0.0 0.0 0.0 0.0 0.0 0.0 
3.8343434 1.0142948148750142 -0.8945997835448871 -1.2326980551698918 0.0 1.5707963267948966 0.0 0.2743434418098265 0.1828956278732177 0.09144781393660885 0.0 0.0 0.0 0.0 0.0 0.0 0.0 0.0 0.0 
3.8423433 1.0164895624094927 -0.8931366185219014 -1.231966472658399 0.0 1.5707963267948966 0.0 0.2743434418098265 0.1828956278732177 0.09144781393660885 0.0 0.0 0.0 0.0 0.0 0.0 0.0 0.0 0.0 
3.8503435 1.0186843099439713 -0.8916734534989156 -1.2312348901469061 0.0 1.5707963267948966 0.0 0.2743434418098265 0.1828956278732177 0.09144781393660885 0.0 0.0 0.0 0.0 0.0 0.0 0.0 0.0 0.0 
3.8583434 1.0208790574784499 -0.8902102884759299 -1.2305033076354133 0.0 1.5707963267948966 0.0 0.2743434418098265 0.1828956278732177 0.09144781393660885 0.0 0.0 0.0 0.0 0.0 0.0 0.0 0.0 0.0 
3.8663435 1.0230738050129284 -0.8887471234529442 -1.2297717251239204 0.0 1.5707963267948966 0.0 0.2743434418098265 0.1828956278732177 0.09144781393660885 0.0 0.0 0.0 0.0 0.0 0.0 0.0 0.0 0.0 
3.8743434 1.0252685525474072 -0.8872839584299584 -1.2290401426124276 0.0 1.5707963267948966 0.0 0.2743434418098265 0.1828956278732177 0.09144781393660885 0.0 0.0 0.0 0.0 0.0 0.0 0.0 0.0 0.0 
3.8823435 1.0274633000818858 -0.8858207934069726 -1.2283085601009347 0.0 1.5707963267948966 0.0 0.2743434418098265 0.1828956278732177 0.09144781393660885 0.0 0.0 0.0 0.0 0.0 0.0 0.0 0.0 0.0 
3.8903434 1.0296580476163644 -0.8843576283839869 -1.2275769775894418 0.0 1.5707963267948966 0.0 0.2743434418098265 0.1828956278732177 0.09144781393660885 0.0 0.0 0.0 0.0 0.0 0.0 0.0 0.0 0.0 
3.8983433 1.031852795150843 -0.8828944633610012 -1.226845395077949 0.0 1.5707963267948966 0.0 0.2743434418098265 0.1828956278732177 0.09144781393660885 0.0 0.0 0.0 0.0 0.0 0.0 0.0 0.0 0.0 
3.9063435 1.0340475426853215 -0.8814312983380155 -1.2261138125664561 0.0 1.5707963267948966 0.0 0.2743434418098265 0.1828956278732177 0.09144781393660885 0.0 0.0 0.0 0.0 0.0 0.0 0.0 0.0 0.0 
3.9143434 1.0362422902198003 -0.8799681333150297 -1.225382230054963 0.0 1.5707963267948966 0.0 0.2743434418098265 0.1828956278732177 0.09144781393660885 0.0 0.0 0.0 0.0 0.0 0.0 0.0 0.0 0.0 
3.9223435 1.0384370377542789 -0.8785049682920439 -1.2246506475434702 0.0 1.5707963267948966 0.0 0.2743434418098265 0.1828956278732177 0.09144781393660885 0.0 0.0 0.0 0.0 0.0 0.0 0.0 0.0 0.0 
3.9303434 1.0406317852887574 -0.8770418032690582 -1.2239190650319773 0.0 1.5707963267948966 0.0 0.2743434418098265 0.1828956278732177 0.09144781393660885 0.0 0.0 0.0 0.0 0.0 0.0 0.0 0.0 0.0 
3.9383435 1.042826532823236 -0.8755786382460724 -1.2231874825204845 0.0 1.5707963267948966 0.0 0.2743434418098265 0.1828956278732177 0.09144781393660885 0.0 0.0 0.0 0.0 0.0 0.0 0.0 0.0 0.0 
3.9463434 1.0450212803577146 -0.8741154732230867 -1.2224559000089916 0.0 1.5707963267948966 0.0 0.2743434418098265 0.1828956278732177 0.09144781393660885 0.0 0.0 0.0 0.0 0.0 0.0 0.0 0.0 0.0 
3.9543436 1.0472160278921931 -0.872652308200101 -1.2217243174974988 0.0 1.5707963267948966 0.0 0.2743434418098265 0.1828956278732177 0.09144781393660885 0.0 0.0 0.0 0.0 0.0 0.0 0.0 0.0 0.0 
3.9623435 1.049410775426672 -0.8711891431771153 -1.220992734986006 0.0 1.5707963267948966 0.0 0.2743434418098265 0.1828956278732177 0.09144781393660885 0.0 0.0 0.0 0.0 0.0 0.0 0.0 0.0 0.0 
3.9703434 1.0516055229611505 -0.8697259781541294 -1.220261152474513 0.0 1.5707963267948966 0.0 0.2743434418098265 0.1828956278732177 0.09144781393660885 0.0 0.0 0.0 0.0 0.0 0.0 0.0 0.0 0.0 
3.9783435 1.053800270495629 -0.8682628131311437 -1.2195295699630202 0.0 1.5707963267948966 0.0 0.2743434418098265 0.1828956278732177 0.09144781393660885 0.0 0.0 0.0 0.0 0.0 0.0 0.0 0.0 0.0 
3.9863434 1.0559950180301076 -0.866799648108158 -1.2187979874515273 0.0 1.5707963267948966 0.0 0.2743434418098265 0.1828956278732177 0.09144781393660885 0.0 0.0 0.0 0.0 0.0 0.0 0.0 0.0 0.0 
3.9943435 1.0581897655645862 -0.8653364830851723 -1.2180664049400345 0.0 1.5707963267948966 0.0 0.2743434418098265 0.1828956278732177 0.09144781393660885 0.0 0.0 0.0 0.0 0.0 0.0 0.0 0.0 0.0 
4.0023437 1.0603845130990648 -0.8638733180621866 -1.2173348224285416 0.0 1.5707963267948966 0.0 0.2743434418098265 0.1828956278732177 0.09144781393660885 0.0 0.0 0.0 0.0 0.0 0.0 0.0 0.0 0.0 
4.0103436 1.0625792606335436 -0.8624101530392007 -1.2166032399170486 0.0 1.5707963267948966 0.0 0.2743434418098265 0.1828956278732177 0.09144781393660885 0.0 0.0 0.0 0.0 0.0 0.0 0.0 0.0 0.0 
4.0183434 1.064774008168022 -0.8609469880162152 -1.215871657405556 0.0 1.5707963267948966 0.0 0.2743434418098265 0.1828956278732177 0.09144781393660885 0.0 0.0 0.0 0.0 0.0 0.0 0.0 0.0 0.0 
4.0263433 1.066968755702501 -0.8594838229932292 -1.2151400748940628 0.0 1.5707963267948966 0.0 0.2743434418098265 0.1828956278732177 0.09144781393660885 0.0 0.0 0.0 0.0 0.0 0.0 0.0 0.0 0.0 
4.0343432 1.0691635032369793 -0.8580206579702436 -1.21440849238257 0.0 1.5707963267948966 0.0 0.2743434418098265 0.1828956278732177 0.09144781393660885 0.0 0.0 0.0 0.0 0.0 0.0 0.0 0.0 0.0 
4.0423436 1.071358250771458 -0.8565574929472577 -1.2136769098710771 0.0 1.5707963267948966 0.0 0.2743434418098265 0.1828956278732177 0.09144781393660885 0.0 0.0 0.0 0.0 0.0 0.0 0.0 0.0 0.0 
4.0503435 1.0735529983059364 -0.8550943279242721 -1.2129453273595843 0.0 1.5707963267948966 0.0 0.2743434418098265 0.1828956278732177 0.09144781393660885 0.0 0.0 0.0 0.0 0.0 0.0 0.0 0.0 0.0 
4.0583434 1.0757477458404154 -0.8536311629012863 -1.2122137448480914 0.0 1.5707963267948966 0.0 0.2743434418098265 0.1828956278732177 0.09144781393660885 0.0 0.0 0.0 0.0 0.0 0.0 0.0 0.0 0.0 
4.0663433 1.0779424933748938 -0.8521679978783007 -1.2114821623365986 0.0 1.5707963267948966 0.0 0.2743434418098265 0.1828956278732177 0.09144781393660885 0.0 0.0 0.0 0.0 0.0 0.0 0.0 0.0 0.0 
4.074343 1.0801372409093726 -0.8507048328553147 -1.2107505798251057 0.0 1.5707963267948966 0.0 0.2743434418098265 0.1828956278732177 0.09144781393660885 0.0 0.0 0.0 0.0 0.0 0.0 0.0 0.0 0.0 
4.0823436 1.082331988443851 -0.8492416678323291 -1.2100189973136128 0.0 1.5707963267948966 0.0 0.2743434418098265 0.1828956278732177 0.09144781393660885 0.0 0.0 0.0 0.0 0.0 0.0 0.0 0.0 0.0 
4.0903435 1.0845267359783297 -0.8477785028093433 -1.20928741480212 0.0 1.5707963267948966 0.0 0.2743434418098265 0.1828956278732177 0.09144781393660885 0.0 0.0 0.0 0.0 0.0 0.0 0.0 0.0 0.0 
4.0983434 1.086721483512808 -0.8463153377863577 -1.2085558322906271 0.0 1.5707963267948966 0.0 0.2743434418098265 0.1828956278732177 0.09144781393660885 0.0 0.0 0.0 0.0 0.0 0.0 0.0 0.0 0.0 
4.1063433 1.088916231047287 -0.8448521727633718 -1.2078242497791343 0.0 1.5707963267948966 0.0 0.2743434418098265 0.1828956278732177 0.09144781393660885 0.0 0.0 0.0 0.0 0.0 0.0 0.0 0.0 0.0 
4.1143436 1.0911109785817654 -0.8433890077403862 -1.2070926672676414 0.0 1.5707963267948966 0.0 0.2743434418098265 0.1828956278732177 0.09144781393660885 0.0 0.0 0.0 0.0 0.0 0.0 0.0 0.0 0.0 
4.1223435 1.0933057261162442 -0.8419258427174003 -1.2063610847561486 0.0 1.5707963267948966 0.0 0.2743434418098265 0.1828956278732177 0.09144781393660885 0.0 0.0 0.0 0.0 0.0 0.0 0.0 0.0 0.0 
4.1303434 1.0955004736507226 -0.8404626776944147 -1.2056295022446557 0.0 1.5707963267948966 0.0 0.2743434418098265 0.1828956278732177 0.09144781393660885 0.0 0.0 0.0 0.0 0.0 0.0 0.0 0.0 0.0 
4.1383433 1.0976952211852016 -0.8389995126714288 -1.2048979197331626 0.0 1.5707963267948966 0.0 0.2743434418098265 0.1828956278732177 0.09144781393660885 0.0 0.0 0.0 0.0 0.0 0.0 0.0 0.0 0.0 
4.146343 1.09988996871968 -0.8375363476484432 -1.20416633722167 0.0 1.5707963267948966 0.0 0.2743434418098265 0.1828956278732177 0.09144781393660885 0.0 0.0 0.0 0.0 0.0 0.0 0.0 0.0 0.0 
4.1543436 1.1020847162541587 -0.8360731826254573 -1.203434754710177 0.0 1.5707963267948966 0.0 0.2743434418098265 0.1828956278732177 0.09144781393660885 0.0 0.0 0.0 0.0 0.0 0.0 0.0 0.0 0.0 
