Fleaurent/UniversalRobot/csv/prakt_movel_x400.csv
timestamp target_q_0 target_q_1 target_q_2 target_q_3 target_q_4 target_q_5 target_qd_0 target_qd_1 target_qd_2 target_qd_3 target_qd_4 target_qd_5 target_qdd_0 target_qdd_1 target_qdd_2 target_qdd_3 target_qdd_4 target_qdd_5 target_current_0 target_current_1 target_current_2 target_current_3 target_current_4 target_current_5 target_moment_0 target_moment_1 target_moment_2 target_moment_3 target_moment_4 target_moment_5 actual_q_0 actual_q_1 actual_q_2 actual_q_3 actual_q_4 actual_q_5 actual_qd_0 actual_qd_1 actual_qd_2 actual_qd_3 actual_qd_4 actual_qd_5 actual_current_0 actual_current_1 actual_current_2 actual_current_3 actual_current_4 actual_current_5 joint_control_output_0 joint_control_output_1 joint_control_output_2 joint_control_output_3 joint_control_output_4 joint_control_output_5 actual_TCP_pose_0 actual_TCP_pose_1 actual_TCP_pose_2 actual_TCP_pose_3 actual_TCP_pose_4 actual_TCP_pose_5 actual_TCP_speed_0 actual_TCP_speed_1 actual_TCP_speed_2 actual_TCP_speed_3 actual_TCP_speed_4 actual_TCP_speed_5 actual_TCP_force_0 actual_TCP_force_1 actual_TCP_force_2 actual_TCP_force_3 actual_TCP_force_4 actual_TCP_force_5 target_TCP_pose_0 target_TCP_pose_1 target_TCP_pose_2 target_TCP_pose_3 target_TCP_pose_4 target_TCP_pose_5 target_TCP_speed_0 target_TCP_speed_1 target_TCP_speed_2 target_TCP_speed_3 target_TCP_speed_4 target_TCP_speed_5
806.0319999999999 -0.35273104182805426 -1.8722146886143172 -1.6036085167323897 0.33423055175691513 1.9237019015481494 0.0001745329251994221 -0.0 -0.0 -0.0 0.0 -0.0 -0.0 0.0 0.0 0.0 0.0 0.0 0.0 1.045022473969223e-17 0.8206195528958686 0.7152579249980945 0.06622853313744179 -2.3214211217277035e-17 0.0 1.199267726696214e-16 9.452305662766706 6.0390601450654335 0.27335755519509297 -9.637106281790038e-17 0.0 -0.3527172247516077 -1.8723419348346155 -1.6036561171161097 0.33425164222717285 1.9236351251602173 8.388957940042019e-05 -0.002837864449247718 -0.00011504856229294091 0.00023968450841493905 -0.00023968450841493905 0.0 0.00016777915880084038 -0.1794433742761612 0.926376461982727 0.6405172944068909 0.04028377681970596 -0.05706868693232536 0.13987423479557037 -0.1816864162683487 0.9106751680374146 0.642042338848114 0.03916478529572487 -0.06042566895484924 0.14435020089149475 0.30070574853505866 -0.2006677356360035 0.4004799363219011 -1.210356339350315 1.2098190067303878 -1.208460892523 -0.0005270037251230087 -0.0008691914218778922 7.879747568661936e-06 0.00020750467692203222 0.00010802850632533965 -0.0028386566664316245 9.636700127211618 0.5027922474150555 -0.13454689743350434 -0.6483934287018874 -0.7072322646263998 0.2239358977957591 0.30067425835220096 -0.20065592692118736 0.4005362931489709 -1.210247350692296 1.2096918126364111 -1.2084628502076804 0.0 0.0 0.0 0.0 0.0 0.0
806.04 -0.35273104182805426 -1.8722146886143172 -1.6036085167323897 0.33423055175691513 1.9237019015481494 0.0001745329251994221 -0.0 -0.0 -0.0 0.0 -0.0 -0.0 0.0 0.0 0.0 0.0 0.0 0.0 1.045022473969223e-17 0.8206195528958686 0.7152579249980945 0.06622853313744179 -2.3214211217277035e-17 0.0 1.199267726696214e-16 9.452305662766706 6.0390601450654335 0.27335755519509297 -9.637106281790038e-17 0.0 -0.35270530382265264 -1.8723657766925257 -1.6036799589740198 0.334323525428772 1.9236351251602173 8.388957940042019e-05 -0.002837864449247718 -0.00011504856229294091 0.00023968450841493905 -0.00023968450841493905 0.0 0.00016777915880084038 -0.1637420803308487 0.962265133857727 0.6374672055244446 0.03692679852247238 -0.05706868693232536 0.14770719408988953 -0.1682281643152237 0.9196473360061646 0.642042338848114 0.04028377681970596 -0.06042566895484924 0.14658819139003754 0.30070830362600476 -0.2006641789206096 0.4004704663315739 -1.2103514358967573 1.2097895058833914 -1.2084689738565884 -0.0005269923013048771 -0.0008691985798021593 7.878931265070987e-06 0.00020750336136464602 0.00010803100124940285 -0.0028386528549524392 10.913197949549431 -1.5952632245574536 -0.7393788241840548 -0.6844410302045942 -0.9351728271485786 0.39669518845505325 0.30067425835220096 -0.20065592692118736 0.4005362931489709 -1.210247350692296 1.2096918126364111 -1.2084628502076804 0.0 0.0 0.0 0.0 0.0 0.0
806.048 -0.35273104182805426 -1.8722146886143172 -1.6036085167323897 0.33423055175691513 1.9237019015481494 0.0001745329251994221 -0.0 -0.0 -0.0 0.0 -0.0 -0.0 0.0 0.0 0.0 0.0 0.0 0.0 1.045022473969223e-17 0.8206195528958686 0.7152579249980945 0.06622853313744179 -2.3214211217277035e-17 0.0 1.199267726696214e-16 9.452305662766706 6.0390601450654335 0.27335755519509297 -9.637106281790038e-17 0.0 -0.3527291456805628 -1.8723180929767054 -1.6036441961871546 0.33429956436157227 1.9236351251602173 4.793690095539205e-05 -0.002147573046386242 -0.00011504856229294091 0.00021571606339421123 -0.00023968450841493905 0.0 0.00016777915880084038 -0.1592559963464737 0.939834713935852 0.6283169388771057 0.04364075884222984 -0.05930667370557785 0.1521831601858139 -0.1614990383386612 0.926376461982727 0.642042338848114 0.04252176731824875 -0.06042566895484924 0.14882618188858032 0.3006937760602604 -0.20066782132102323 0.40049534340723236 -1.210340598221013 1.2097393795210574 -1.2085546786471986 -0.0003881265110662497 -0.0006616967487602942 1.19774484710574e-06 0.00021578440267483226 0.00013051925121963586 -0.0021482619990912033 10.331689506816684 -1.373085864241289 0.060842814911639766 -0.7053106038284763 -0.7719170902027561 0.38879237031391556 0.30067425835220096 -0.20065592692118736 0.4005362931489709 -1.210247350692296 1.2096918126364111 -1.2084628502076804 0.0 0.0 0.0 0.0 0.0 0.0
806.0559999999999 -0.35273104182805426 -1.8722146886143172 -1.6036085167323897 0.33423055175691513 1.9237019015481494 0.0001745329251994221 -0.0 -0.0 -0.0 0.0 -0.0 -0.0 0.0 0.0 0.0 0.0 0.0 0.0 1.045022473969223e-17 0.8206195528958686 0.7152579249980945 0.06622853313744179 -2.3214211217277035e-17 0.0 1.199267726696214e-16 9.452305662766706 6.0390601450654335 0.27335755519509297 -9.637106281790038e-17 0.0 -0.35275346437563115 -1.8723061720477503 -1.6036799589740198 0.33427560329437256 1.9236711263656616 0.000107858024421148 -0.0018407769966870546 -0.00011504856229294091 0.00021571606339421123 -0.00021571606339421123 0.0 0.00014381069922819734 -0.1502838283777237 0.935348629951477 0.6588177680969238 0.041402772068977356 -0.067139632999897 0.14994516968727112 -0.1547699123620987 0.935348629951477 0.6435673832893372 0.041402772068977356 -0.06042566895484924 0.1510641723871231 0.3006885697430378 -0.2006720113693415 0.4004877069469369 -1.2103229152522548 1.2097998703495114 -1.2084684682357316 -0.0003284900374862387 -0.0005687316845660912 3.05028844742049e-06 0.0001835422009593507 0.00010801833058001143 -0.0018414621122667567 8.738816711555979 -0.6054692073508361 -0.8135726740530477 -0.694957604700812 -0.6987244049395694 0.36212821338863094 0.30067425835220096 -0.20065592692118736 0.4005362931489709 -1.210247350692296 1.2096918126364111 -1.2084628502076804 0.0 0.0 0.0 0.0 0.0 0.0
806.064 -0.35273104182805426 -1.8722146886143172 -1.6036085167323897 0.33423055175691513 1.9237019015481494 0.0001745329251994221 -0.0 -0.0 -0.0 0.0 -0.0 -0.0 0.0 0.0 0.0 0.0 0.0 0.0 1.045022473969223e-17 0.8206195528958686 0.7152579249980945 0.06622853313744179 -2.3214211217277035e-17 0.0 1.199267726696214e-16 9.452305662766706 6.0390601450654335 0.27335755519509297 -9.637106281790038e-17 0.0 -0.3527172247516077 -1.8723061720477503 -1.603692356740133 0.3342636823654175 1.9236232042312622 9.58738019107841e-05 -0.0018407769966870546 -0.00011504856229294091 0.00021571606339421123 -0.00021571606339421123 0.0 0.00014381069922819734 -0.1547699123620987 0.9196473360061646 0.6374672055244446 0.03916478529572487 -0.06602063775062561 0.15665914118289948 -0.1547699123620987 0.9375916719436646 0.6435673832893372 0.03692679852247238 -0.06042566895484924 0.1533021628856659 0.3006969788647115 -0.20066546606555882 0.4004833289163636 -1.2103368647133665 1.2098235237048556 -1.208468868785063 -0.00032847740585225727 -0.0005687456935716248 3.049806173042005e-06 0.0001835382770184325 0.00010801810252517271 -0.0018414653924294676 9.029257199030353 -0.5838738654122954 0.046365348978074344 -0.7261281288076754 -0.6515700303048257 0.3551380486688224 0.30067425835220096 -0.20065592692118736 0.4005362931489709 -1.210247350692296 1.2096918126364111 -1.2084628502076804 0.0 0.0 0.0 0.0 0.0 0.0
806.072 -0.35273104182805426 -1.8722146886143172 -1.6036085167323897 0.33423055175691513 1.9237019015481494 0.0001745329251994221 -0.0 -0.0 -0.0 0.0 -0.0 -0.0 0.0 0.0 0.0 0.0 0.0 0.0 1.045022473969223e-17 0.8206195528958686 0.7152579249980945 0.06622853313744179 -2.3214211217277035e-17 0.0 1.199267726696214e-16 9.452305662766706 6.0390601450654335 0.27335755519509297 -9.637106281790038e-17 0.0 -0.3527172247516077 -1.872293774281637 -1.6036441961871546 0.3343116044998169 1.923647165298462 7.190534961409867e-05 -0.0016490294365212321 -9.58738019107841e-05 0.00021571606339421123 -0.00021571606339421123 0.0 0.00014381069922819734 -0.1525268703699112 0.9420777559280396 0.6572927236557007 0.038045790046453476 -0.06266365945339203 0.15889713168144226 -0.1525268703699112 0.948806881904602 0.6435673832893372 0.041402772068977356 -0.06042566895484924 0.15554013848304749 0.3006895288742176 -0.20066081279018966 0.40050481952180017 -1.2103183825467339 1.2097020446370725 -1.208544831098084 -0.00029446802510579335 -0.000509436728640929 9.789698698745688e-06 0.00017691399132227333 9.002735669552896e-05 -0.0016497266996738384 9.112944766580187 -0.7210921617325641 -0.9540730509103478 -0.7365039595288134 -0.7471844492279406 0.3507817162488756 0.30067425835220096 -0.20065592692118736 0.4005362931489709 -1.210247350692296 1.2096918126364111 -1.2084628502076804 0.0 0.0 0.0 0.0 0.0 0.0
806.0799999999999 -0.35273104182805426 -1.8722146886143172 -1.6036085167323897 0.33423055175691513 1.9237019015481494 0.0001745329251994221 -0.0 -0.0 -0.0 0.0 -0.0 -0.0 0.0 0.0 0.0 0.0 0.0 0.0 1.045022473969223e-17 0.8206195528958686 0.7152579249980945 0.06622853313744179 -2.3214211217277035e-17 0.0 1.199267726696214e-16 9.452305662766706 6.0390601450654335 0.27335755519509297 -9.637106281790038e-17 0.0 -0.35275346437563115 -1.8723180929767054 -1.6036680380450647 0.33425164222717285 1.9235992431640625 9.58738019107841e-05 -0.0011888351291418076 -9.58738019107841e-05 0.0001917476038215682 -0.00021571606339421123 0.0 0.00014381069922819734 -0.1592559963464737 0.984695553779602 0.6267919540405273 0.041402772068977356 -0.06042566895484924 0.15889713168144226 -0.1480407863855362 0.9600220918655396 0.6405172944068909 0.041402772068977356 -0.06042566895484924 0.15777812898159027 0.3006930879727405 -0.20067960280547167 0.4004849909331339 -1.210308198788416 1.2098676277010816 -1.2085134831953646 -0.00020178961618886316 -0.00037117177021588776 3.1038283088382276e-06 0.0001851961587611132 0.00011250715833133493 -0.0011894568905065806 12.160021814463125 -3.0775384092765123 -0.7194926170970484 -0.7362299324361105 -1.0453262263983223 0.5342778006460004 0.30067425835220096 -0.20065592692118736 0.4005362931489709 -1.210247350692296 1.2096918126364111 -1.2084628502076804 0.0 0.0 0.0 0.0 0.0 0.0
806.088 -0.35273104182805426 -1.8722146886143172 -1.6036085167323897 0.33423055175691513 1.9237019015481494 0.0001745329251994221 -0.0 -0.0 -0.0 0.0 -0.0 -0.0 0.0 0.0 0.0 0.0 0.0 0.0 1.045022473969223e-17 0.8206195528958686 0.7152579249980945 0.06622853313744179 -2.3214211217277035e-17 0.0 1.199267726696214e-16 9.452305662766706 6.0390601450654335 0.27335755519509297 -9.637106281790038e-17 0.0 -0.3527291456805628 -1.872281853352682 -1.6036680380450647 0.334323525428772 1.923647165298462 7.190534961409867e-05 -0.0009395632660016418 -9.58738019107841e-05 0.0001917476038215682 -0.0001917476038215682 0.0 0.00014381069922819734 -0.1614990383386612 0.993667721748352 0.6405172944068909 0.044759754091501236 -0.06490164250135422 0.15777812898159027 -0.1614990383386612 0.9645081758499146 0.6435673832893372 0.041402772068977356 -0.06042566895484924 0.16001611948013306 0.30068375632701233 -0.20066313248315723 0.4005032815179083 -1.2103127753281102 1.2097107807800622 -1.2085535567039392 -0.00015366926072169602 -0.00029550308150651125 4.958810572514907e-06 0.00017691709164998238 9.002433776434108e-05 -0.0009401880559432867 12.000339900207099 -2.893383839014401 -1.2120498306164986 -0.7310088392958526 -1.0519816219245754 0.5399806345449673 0.30067425835220096 -0.20065592692118736 0.4005362931489709 -1.210247350692296 1.2096918126364111 -1.2084628502076804 0.0 0.0 0.0 0.0 0.0 0.0
806.096 -0.35273104182805426 -1.8722146886143172 -1.6036085167323897 0.33423055175691513 1.9237019015481494 0.0001745329251994221 -0.0 -0.0 -0.0 0.0 -0.0 -0.0 0.0 0.0 0.0 0.0 0.0 0.0 1.045022473969223e-17 0.8206195528958686 0.7152579249980945 0.06622853313744179 -2.3214211217277035e-17 0.0 1.199267726696214e-16 9.452305662766706 6.0390601450654335 0.27335755519509297 -9.637106281790038e-17 0.0 -0.35275346437563115 -1.8723180929767054 -1.6036322752581995 0.3343116044998169 1.9236592054367065 5.992112710373476e-05 -0.0007669904152862728 -9.58738019107841e-05 0.0001917476038215682 -0.0001917476038215682 0.0 0.00014381069922819734 -0.1547699123620987 0.975723385810852 0.6511926054954529 0.03916478529572487 -0.05818767845630646 0.1667300909757614 -0.1592559963464737 0.9734803438186646 0.6435673832893372 0.04252176731824875 -0.06042566895484924 0.16337309777736664 0.300687754960354 -0.20067274412496058 0.40049959788691974 -1.2103211689919953 1.2097248089756039 -1.2085628080959865 -0.00011904825385998955 -0.00024361702845860755 4.957929200099184e-06 0.00017691927818636402 9.002175596094237e-05 -0.000767616878509347 10.763010577792718 -2.010266113453907 -1.3339719231631924 -0.7726986264230357 -0.9408947803497699 0.4360485822061981 0.30067425835220096 -0.20065592692118736 0.4005362931489709 -1.210247350692296 1.2096918126364111 -1.2084628502076804 0.0 0.0 0.0 0.0 0.0 0.0
806.1039999999999 -0.35273104182805426 -1.8722146886143172 -1.6036085167323897 0.33423055175691513 1.9237019015481494 0.0001745329251994221 -0.0 -0.0 -0.0 0.0 -0.0 -0.0 0.0 0.0 0.0 0.0 0.0 0.0 1.045022473969223e-17 0.8206195528958686 0.7152579249980945 0.06622853313744179 -2.3214211217277035e-17 0.0 1.199267726696214e-16 9.452305662766706 6.0390601450654335 0.27335755519509297 -9.637106281790038e-17 0.0 -0.3527172247516077 -1.8723419348346155 -1.6036561171161097 0.3342876434326172 1.9236711263656616 7.190534961409867e-05 -0.0006519418675452471 -9.58738019107841e-05 0.0001917476038215682 -0.0001917476038215682 0.0 0.00014381069922819734 -0.1614990383386612 0.9689942598342896 0.642042338848114 0.041402772068977356 -0.05706868693232536 0.1667300909757614 -0.1592559963464737 0.9869385957717896 0.6374672055244446 0.041402772068977356 -0.06042566895484924 0.16561108827590942 0.30070286744372826 -0.20066371199230293 0.40048271881791814 -1.2103664634992486 1.2097560831990453 -1.2084683779642487 -9.595457507837646e-05 -0.0002090320041055437 4.95652401432746e-06 0.00017691597779010516 9.002991509983036e-05 -0.0006525779982252917 10.985996864942537 -1.7944906851116114 -0.899018292341318 -0.7726641069501116 -0.9062617395214968 0.41313049233108395 0.30067425835220096 -0.20065592692118736 0.4005362931489709 -1.210247350692296 1.2096918126364111 -1.2084628502076804 0.0 0.0 0.0 0.0 0.0 0.0
806.112 -0.35273104182805426 -1.8722146886143172 -1.6036085167323897 0.33423055175691513 1.9237019015481494 0.0001745329251994221 -0.0 -0.0 -0.0 0.0 -0.0 -0.0 0.0 0.0 0.0 0.0 0.0 0.0 1.045022473969223e-17 0.8206195528958686 0.7152579249980945 0.06622853313744179 -2.3214211217277035e-17 0.0 1.199267726696214e-16 9.452305662766706 6.0390601450654335 0.27335755519509297 -9.637106281790038e-17 0.0 -0.3527172247516077 -1.8722699324237269 -1.603692356740133 0.3343116044998169 1.9236232042312622 0.000107858024421148 -0.0005752427969127893 1.917476038215682e-05 0.00016777915880084038 -0.0001917476038215682 0.0 0.00014381069922819734 -0.1547699123620987 0.9824525117874146 0.6161166429519653 0.03916478529572487 -0.05930667370557785 0.1678490787744522 -0.1592559963464737 0.989181637763977 0.6389922499656677 0.041402772068977356 -0.06042566895484924 0.1678490787744522 0.30068468313245206 -0.2006609599059627 0.40049976804339793 -1.210291252541801 1.209757373289048 -1.2085189093724804 -0.00010705467306390207 -0.00017623103295235783 3.8702405214153264e-05 0.00014544810228344306 4.551538049440559e-06 -0.0005759218045141148 12.416391486110044 -3.552912607941267 -0.4105814624102383 -0.7776972323016428 -1.0525606585267007 0.568250412915608 0.30067425835220096 -0.20065592692118736 0.4005362931489709 -1.210247350692296 1.2096918126364111 -1.2084628502076804 0.0 0.0 0.0 0.0 0.0 0.0
806.12 -0.35273104182805426 -1.8722146886143172 -1.6036085167323897 0.33423055175691513 1.9237019015481494 0.0001745329251994221 -0.0 -0.0 -0.0 0.0 -0.0 -0.0 0.0 0.0 0.0 0.0 0.0 0.0 1.045022473969223e-17 0.8206195528958686 0.7152579249980945 0.06622853313744179 -2.3214211217277035e-17 0.0 1.199267726696214e-16 9.452305662766706 6.0390601450654335 0.27335755519509297 -9.637106281790038e-17 0.0 -0.35270530382265264 -1.872293774281637 -1.6036322752581995 0.3342876434326172 1.9236711263656616 8.388957940042019e-05 -0.0004985437844879925 1.917476038215682e-05 0.00016777915880084038 -0.0001917476038215682 0.0 0.00011984225420746952 -0.1570129543542862 0.9869385957717896 0.6496675610542297 0.03692679852247238 -0.06042566895484924 0.16225410997867584 -0.1592559963464737 0.998153805732727 0.6405172944068909 0.041402772068977356 -0.06042566895484924 0.16337309777736664 0.3006936631761092 -0.20065590718935192 0.40050629121664544 -1.2103317724214546 1.2096915834793036 -1.2085012031830662 -9.166286323345243e-05 -0.00015317273693144347 3.8702995911091865e-05 0.00012147964085468778 4.551208582261304e-06 -0.0004991937781959544 11.28218990339156 -2.4022081054309146 -1.529248289676976 -0.7517945866285378 -1.032355777039234 0.4787810378902673 0.30067425835220096 -0.20065592692118736 0.4005362931489709 -1.210247350692296 1.2096918126364111 -1.2084628502076804 0.0 0.0 0.0 0.0 0.0 0.0
806.1279999999999 -0.35273104182805426 -1.8722146886143172 -1.6036085167323897 0.33423055175691513 1.9237019015481494 0.0001745329251994221 -0.0 -0.0 -0.0 0.0 -0.0 -0.0 0.0 0.0 0.0 0.0 0.0 0.0 1.045022473969223e-17 0.8206195528958686 0.7152579249980945 0.06622853313744179 -2.3214211217277035e-17 0.0 1.199267726696214e-16 9.452305662766706 6.0390601450654335 0.27335755519509297 -9.637106281790038e-17 0.0 -0.3527291456805628 -1.872293774281637 -1.6036799589740198 0.33429956436157227 1.9236232042312622 0.00014418520731851459 -0.0004410194815136492 1.917476038215682e-05 0.00016777915880084038 -0.00016777915880084038 0.0 0.00011984225420746952 -0.1592559963464737 1.011612057685852 0.6206917762756348 0.031331829726696014 -0.06154466047883034 0.15889713168144226 -0.1592559963464737 1.007125973701477 0.6405172944068909 0.04028377681970596 -0.06042566895484924 0.16001611948013306 0.3006886343548139 -0.20066688162013793 0.40049391657291455 -1.2102690975064354 1.2098034181676365 -1.2084845434546083 -8.204318515809156e-05 -0.00013516927947340414 4.055512753689726e-05 0.00011320336024062732 -1.7951574054333882e-05 -0.00044169111199180236 13.415554879022931 -4.2546486683547755 -1.2144263701570241 -0.7360191440274441 -1.2800126509466918 0.636418555808269 0.30067425835220096 -0.20065592692118736 0.4005362931489709 -1.210247350692296 1.2096918126364111 -1.2084628502076804 0.0 0.0 0.0 0.0 0.0 0.0
806.136 -0.35273104182805426 -1.8722146886143172 -1.6036085167323897 0.33423055175691513 1.9237019015481494 0.0001745329251994221 -0.0 -0.0 -0.0 0.0 -0.0 -0.0 0.0 0.0 0.0 0.0 0.0 0.0 1.045022473969223e-17 0.8206195528958686 0.7152579249980945 0.06622853313744179 -2.3214211217277035e-17 0.0 1.199267726696214e-16 9.452305662766706 6.0390601450654335 0.27335755519509297 -9.637106281790038e-17 0.0 -0.35275346437563115 -1.8722460905658167 -1.6036680380450647 0.334323525428772 1.9236592054367065 0.00011984225420746952 -0.0004026699753012508 1.917476038215682e-05 0.00016777915880084038 -0.00016777915880084038 0.0 0.00011984225420746952 -0.1614990383386612 1.0183411836624146 0.6664429903030396 0.03692679852247238 -0.05371170490980148 0.15889713168144226 -0.1614990383386612 1.0183411836624146 0.6435673832893372 0.03916478529572487 -0.06042566895484924 0.15889713168144226 0.3006705302995468 -0.2006663963286079 0.40051584800525136 -1.2102560218150997 1.209712009468057 -1.2085523289031386 -7.434986073656751e-05 -0.0001236300439687201 4.055553563673745e-05 0.00011320296143334447 -1.7950041403660058e-05 -0.0004033322104922505 11.979026267674753 -2.635493054303803 -2.5712370010007097 -0.7362682887604587 -1.1906743664069446 0.46663997015052155 0.30067425835220096 -0.20065592692118736 0.4005362931489709 -1.210247350692296 1.2096918126364111 -1.2084628502076804 0.0 0.0 0.0 0.0 0.0 0.0
806.144 -0.35273104182805426 -1.8722146886143172 -1.6036085167323897 0.33423055175691513 1.9237019015481494 0.0001745329251994221 -0.0 -0.0 -0.0 0.0 -0.0 -0.0 0.0 0.0 0.0 0.0 0.0 0.0 1.045022473969223e-17 0.8206195528958686 0.7152579249980945 0.06622853313744179 -2.3214211217277035e-17 0.0 1.199267726696214e-16 9.452305662766706 6.0390601450654335 0.27335755519509297 -9.637106281790038e-17 0.0 -0.35275346437563115 -1.872281853352682 -1.6036680380450647 0.3342876434326172 1.9236592054367065 0.00016815366689115763 -0.00036432043998502195 1.917476038215682e-05 0.00016777915880084038 -0.00016777915880084038 0.0 0.00011984225420746952 -0.1614990383386612 1.047500729560852 0.6679680347442627 0.04252176731824875 -0.05930667370557785 0.15889713168144226 -0.1614990383386612 1.0228272676467896 0.6450924277305603 0.04252176731824875 -0.06042566895484924 0.15665914118289948 0.30068175102806766 -0.2006705083588617 0.4005005077266932 -1.2102517394571295 1.209796018453043 -1.2084666616304123 -6.665448528458505e-05 -0.00011210407755901601 4.0555346143682565e-05 0.00011320293529805536 -1.7950023369524597e-05 -0.0003649907312812675 13.075275480702258 -3.7623764563744597 -3.0072458043391426 -0.736055686836794 -1.3279830014234444 0.5854686718569259 0.30067425835220096 -0.20065592692118736 0.4005362931489709 -1.210247350692296 1.2096918126364111 -1.2084628502076804 0.0 0.0 0.0 0.0 0.0 0.0
806.1519999999999 -0.35273104182805426 -1.8722146886143172 -1.6036085167323897 0.33423055175691513 1.9237019015481494 0.0001745329251994221 -0.0 -0.0 -0.0 0.0 -0.0 -0.0 0.0 0.0 0.0 0.0 0.0 0.0 1.045022473969223e-17 0.8206195528958686 0.7152579249980945 0.06622853313744179 -2.3214211217277035e-17 0.0 1.199267726696214e-16 9.452305662766706 6.0390601450654335 0.27335755519509297 -9.637106281790038e-17 0.0 -0.3527773062335413 -1.8722341696368616 -1.6036561171161097 0.33427560329437256 1.9236592054367065 0.0001561694371048361 -0.0003451456723269075 0.0009203884983435273 0.00016777915880084038 -0.00016777915880084038 0.0 0.00011984225420746952 -0.1570129543542862 1.034042477607727 0.6450924277305603 0.041402772068977356 -0.04923573136329651 0.16337309777736664 -0.1614990383386612 1.029556393623352 0.642042338848114 0.041402772068977356 -0.06042566895484924 0.15777812898159027 0.3006666235395008 -0.20067390301454924 0.4005196570109964 -1.2102284874934646 1.209767357922436 -1.2085263356484859 -0.000273155088874849 -2.929587696889597e-05 0.0003572307207548526 -0.0001981922006560654 -0.0008636585435789219 -0.0003469153269188189 13.427335901491912 -4.135912344022453 -2.1180615965345964 -0.7569061587185711 -1.2943667496575304 0.5693052303970785 0.30067425835220096 -0.20065592692118736 0.4005362931489709 -1.210247350692296 1.2096918126364111 -1.2084628502076804 0.0 0.0 0.0 0.0 0.0 0.0
806.16 -0.35273104182805426 -1.8722146886143172 -1.6036085167323897 0.33423055175691513 1.9237019015481494 0.0001745329251994221 -0.0 -0.0 -0.0 0.0 -0.0 -0.0 0.0 0.0 0.0 0.0 0.0 0.0 1.045022473969223e-17 0.8206195528958686 0.7152579249980945 0.06622853313744179 -2.3214211217277035e-17 0.0 1.199267726696214e-16 9.452305662766706 6.0390601450654335 0.27335755519509297 -9.637106281790038e-17 0.0 -0.35275346437563115 -1.8722460905658167 -1.6036680380450647 0.3342397212982178 1.923647165298462 0.00013182648399379104 -0.0003067961661145091 0.0009203884983435273 0.00014381069922819734 -0.00016777915880084038 0.0 0.00011984225420746952 -0.1547699123620987 1.0183411836624146 0.6267919540405273 0.044759754091501236 -0.06266365945339203 0.15665914118289948 -0.1614990383386612 1.034042477607727 0.6435673832893372 0.04028377681970596 -0.06042566895484924 0.15777812898159027 0.30067724172771865 -0.20066985269111712 0.4005093704846552 -1.2102781192265053 1.2097980833240054 -1.2084937792597241 -0.0002650917123569318 -1.788232785170815e-05 0.0003505525974418449 -0.00018989268228497826 -0.0008411716287153862 -0.00030848244618375054 13.430584778682924 -4.55705658025543 -1.233708406608531 -0.7256167406903399 -1.2299874790908212 0.6665187792251488 0.30067425835220096 -0.20065592692118736 0.4005362931489709 -1.210247350692296 1.2096918126364111 -1.2084628502076804 0.0 0.0 0.0 0.0 0.0 0.0
806.168 -0.35273104182805426 -1.8722146886143172 -1.6036085167323897 0.33423055175691513 1.9237019015481494 0.0001745329251994221 -0.0 -0.0 -0.0 0.0 -0.0 -0.0 0.0 0.0 0.0 0.0 0.0 0.0 1.045022473969223e-17 0.8206195528958686 0.7152579249980945 0.06622853313744179 -2.3214211217277035e-17 0.0 1.199267726696214e-16 9.452305662766706 6.0390601450654335 0.27335755519509297 -9.637106281790038e-17 0.0 -0.3527291456805628 -1.872281853352682 -1.6036561171161097 0.3343116044998169 1.9236232042312622 0.00013182648399379104 -0.00028762139845639467 0.002032524673268199 0.00014381069922819734 -0.00016777915880084038 0.0 0.00011984225420746952 -0.1592559963464737 1.025070309638977 0.6298419833183289 0.041402772068977356 -0.05706868693232536 0.16001611948013306 -0.1614990383386612 1.016098141670227 0.6435673832893372 0.04028377681970596 -0.06042566895484924 0.15777812898159027 0.30068453133769807 -0.20066540416563206 0.40050568472958903 -1.210257279472732 1.2097568227802857 -1.2085271214315685 -0.0005208051646579474 8.292342559014615e-05 0.0007413566467079405 -0.0005740963537943663 -0.0018848346384721369 -0.00029066553492624865 13.666241539451143 -4.389463210376809 -1.510334589383433 -0.7412505055605998 -1.2784605322090912 0.6266534271356579 0.30067425835220096 -0.20065592692118736 0.4005362931489709 -1.210247350692296 1.2096918126364111 -1.2084628502076804 0.0 0.0 0.0 0.0 0.0 0.0
806.1759999999999 -0.35273104182805426 -1.8722146886143172 -1.6036085167323897 0.33423055175691513 1.9237019015481494 0.0001745329251994221 -0.0 -0.0 -0.0 0.0 -0.0 -0.0 0.0 0.0 0.0 0.0 0.0 0.0 1.045022473969223e-17 0.8206195528958686 0.7152579249980945 0.06622853313744179 -2.3214211217277035e-17 0.0 1.199267726696214e-16 9.452305662766706 6.0390601450654335 0.27335755519509297 -9.637106281790038e-17 0.0 -0.35275346437563115 -1.8722341696368616 -1.6036441961871546 0.33427560329437256 1.9236711263656616 0.00011984225420746952 -0.00026844663079828024 0.002032524673268199 0.00014381069922819734 0.0 0.0 0.00011984225420746952 -0.1637420803308487 1.007125973701477 0.6481425166130066 0.038045790046453476 -0.06154466047883034 0.15777812898159027 -0.1614990383386612 1.0003968477249146 0.6435673832893372 0.038045790046453476 -0.06042566895484924 0.15777812898159027 0.3006712301941904 -0.20066570035015205 0.4005229810240342 -1.21026694238601 1.2097136629699103 -1.2085351102216875 -0.0005304263924181327 9.365122520265393e-05 0.0007543045123721315 -0.000632080551728082 -0.0020422728018797184 -0.0002716114340692901 12.255365941166353 -2.924273533802143 -1.8098126696189591 -0.7310017441220801 -1.15705537572448 0.5268875275070937 0.30067425835220096 -0.20065592692118736 0.4005362931489709 -1.210247350692296 1.2096918126364111 -1.2084628502076804 0.0 0.0 0.0 0.0 0.0 0.0
806.184 -0.35273104182805426 -1.8722146886143172 -1.6036085167323897 0.33423055175691513 1.9237019015481494 0.0001745329251994221 -0.0 -0.0 -0.0 0.0 -0.0 -0.0 0.0 0.0 0.0 0.0 0.0 0.0 1.045022473969223e-17 0.8206195528958686 0.7152579249980945 0.06622853313744179 -2.3214211217277035e-17 0.0 1.199267726696214e-16 9.452305662766706 6.0390601450654335 0.27335755519509297 -9.637106281790038e-17 0.0 -0.3527410666095179 -1.8722341696368616 -1.603692356740133 0.33422768115997314 1.9236232042312622 0.00018013788212556392 -0.00024927189224399626 0.002032524673268199 0.00014381069922819734 0.0 0.0 0.00011984225420746952 -0.1592559963464737 1.007125973701477 0.6481425166130066 0.041402772068977356 -0.06378264725208282 0.15665914118289948 -0.1614990383386612 1.0003968477249146 0.642042338848114 0.041402772068977356 -0.06042566895484924 0.15777812898159027 0.30067827378248 -0.2006675402754929 0.40050584753234436 -1.2102477668518208 1.20985027512358 -1.208449602139739 -0.0005265463252156121 9.939595695011096e-05 0.0007543180030463511 -0.0006320552427311938 -0.0020422863507025472 -0.0002524474992756807 12.186175361502647 -3.1727838613113466 -1.7414044332027088 -0.7257722620415639 -1.1386228964125464 0.5577689601835389 0.30067425835220096 -0.20065592692118736 0.4005362931489709 -1.210247350692296 1.2096918126364111 -1.2084628502076804 0.0 0.0 0.0 0.0 0.0 0.0
806.192 -0.35273104182805426 -1.8722146886143172 -1.6036085167323897 0.33423055175691513 1.9237019015481494 0.0001745329251994221 -0.0 -0.0 -0.0 0.0 -0.0 -0.0 0.0 0.0 0.0 0.0 0.0 0.0 1.045022473969223e-17 0.8206195528958686 0.7152579249980945 0.06622853313744179 -2.3214211217277035e-17 0.0 1.199267726696214e-16 9.452305662766706 6.0390601450654335 0.27335755519509297 -9.637106281790038e-17 0.0 -0.35280114809145147 -1.8722222487079065 -1.6036441961871546 0.33427560329437256 1.9236111640930176 0.00011984225420746952 -0.00024927189224399626 0.001418932224623859 0.00014381069922819734 0.0 0.0 0.00011984225420746952 -0.1525268703699112 1.0138550996780396 0.6359421610832214 0.038045790046453476 -0.06042566895484924 0.15889713168144226 -0.1592559963464737 0.998153805732727 0.6389922499656677 0.04028377681970596 -0.05706868693232536 0.15777812898159027 0.30065887487524195 -0.20068395655689739 0.40052717101794105 -1.2102108094154014 1.2097828034808535 -1.2086226953010466 -0.00038336668412207784 4.698982323781629e-05 0.0005386947881332392 -0.0004201507168735181 -0.0014664551033925777 -0.00025168320944766185 12.83083265549513 -4.091069828036532 -1.5660203688490884 -0.7362101052796959 -1.2208103426901615 0.6176419459461461 0.30067425835220096 -0.20065592692118736 0.4005362931489709 -1.210247350692296 1.2096918126364111 -1.2084628502076804 0.0 0.0 0.0 0.0 0.0 0.0
806.1999999999999 -0.35273104182805426 -1.8722146886143172 -1.6036085167323897 0.33423055175691513 1.9237019015481494 0.0001745329251994221 -0.0 -0.0 -0.0 0.0 -0.0 -0.0 0.0 0.0 0.0 0.0 0.0 0.0 1.045022473969223e-17 0.8206195528958686 0.7152579249980945 0.06622853313744179 -2.3214211217277035e-17 0.0 1.199267726696214e-16 9.452305662766706 6.0390601450654335 0.27335755519509297 -9.637106281790038e-17 0.0 -0.3527172247516077 -1.8722460905658167 -1.6036561171161097 0.3342636823654175 1.9236232042312622 0.00013182648399379104 -0.00023009712458588183 0.001073786523193121 0.00014381069922819734 0.0 0.0 0.00011984225420746952 -0.1502838283777237 0.980209469795227 0.6374672055244446 0.04028377681970596 -0.067139632999897 0.1521831601858139 -0.1547699123620987 1.002639889717102 0.6435673832893372 0.038045790046453476 -0.05818767845630646 0.15777812898159027 0.3006824147867049 -0.20066017257951207 0.40051454733834385 -1.2102682305873773 1.2097584282373177 -1.2085098624795174 -0.00029894733692429823 2.3216744634087422e-05 0.0004174231196133885 -0.00030078955406300444 -0.0011425943957872062 -0.00023209072387450272 11.36664267201621 -3.0196061606671014 -0.9815494717659606 -0.7050472730037703 -1.014505197783952 0.5608164617805791 0.30067425835220096 -0.20065592692118736 0.4005362931489709 -1.210247350692296 1.2096918126364111 -1.2084628502076804 0.0 0.0 0.0 0.0 0.0 0.0
806.208 -0.35273104182805426 -1.8722146886143172 -1.6036085167323897 0.33423055175691513 1.9237019015481494 0.0001745329251994221 -0.0 -0.0 -0.0 0.0 -0.0 -0.0 0.0 0.0 0.0 0.0 0.0 0.0 1.045022473969223e-17 0.8206195528958686 0.7152579249980945 0.06622853313744179 -2.3214211217277035e-17 0.0 1.199267726696214e-16 9.452305662766706 6.0390601450654335 0.27335755519509297 -9.637106281790038e-17 0.0 -0.3527291456805628 -1.8722098509417933 -1.6036680380450647 0.33425164222717285 1.9236232042312622 0.0001561694371048361 -0.0002109223569277674 0.000862864195369184 0.00014381069922819734 0.0 0.0 0.00011984225420746952 -0.1637420803308487 1.0183411836624146 0.6633929014205933 0.041402772068977356 -0.06378264725208282 0.15665914118289948 -0.1614990383386612 1.0048829317092896 0.642042338848114 0.03916478529572487 -0.05930667370557785 0.15777812898159027 0.30067270695283954 -0.20066106602614034 0.40052302657775174 -1.2102393056418805 1.2097682403396686 -1.208509293712098 -0.0002458769470725207 1.0963002648981074e-05 0.00034330004526133596 -0.00022793308542685026 -0.0009446561944595932 -0.00021265602579403922 12.100860650600463 -2.829634088588054 -2.3872800228467574 -0.7258181968683285 -1.1738139038555695 0.5294963394245842 0.30067425835220096 -0.20065592692118736 0.4005362931489709 -1.210247350692296 1.2096918126364111 -1.2084628502076804 0.0 0.0 0.0 0.0 0.0 0.0
806.216 -0.35273104182805426 -1.8722146886143172 -1.6036085167323897 0.33423055175691513 1.9237019015481494 0.0001745329251994221 -0.0 -0.0 -0.0 0.0 -0.0 -0.0 0.0 0.0 0.0 0.0 0.0 0.0 1.045022473969223e-17 0.8206195528958686 0.7152579249980945 0.06622853313744179 -2.3214211217277035e-17 0.0 1.199267726696214e-16 9.452305662766706 6.0390601450654335 0.27335755519509297 -9.637106281790038e-17 0.0 -0.35276538530458623 -1.8722580114947718 -1.6036322752581995 0.33429956436157227 1.9236232042312622 0.0001561694371048361 -0.0002109223569277674 0.0007094661123119295 0.00014381069922819734 0.0 0.0 0.00011984225420746952 -0.1682281643152237 1.025070309638977 0.6359421610832214 0.038045790046453476 -0.05818767845630646 0.15554013848304749 -0.1592559963464737 1.0048829317092896 0.6450924277305603 0.03916478529572487 -0.06266365945339203 0.15777812898159027 0.30067230210882734 -0.20067451226934022 0.4005197804322018 -1.210206592986571 1.2097646867901133 -1.2085608632672924 -0.00021007092458347776 -2.142723447647178e-06 0.0002894030018696129 -0.00017496568687670942 -0.0008006973876864507 -0.0002124639953544538 13.54671391588444 -3.7752442342835026 -1.758996873796008 -0.7205988686685475 -1.2936317643182886 0.5812279387965981 0.30067425835220096 -0.20065592692118736 0.4005362931489709 -1.210247350692296 1.2096918126364111 -1.2084628502076804 0.0 0.0 0.0 0.0 0.0 0.0
806.2239999999999 -0.35273104182805426 -1.8722146886143172 -1.6036085167323897 0.33423055175691513 1.9237019015481494 0.0001745329251994221 -0.0 -0.0 -0.0 0.0 -0.0 -0.0 0.0 0.0 0.0 0.0 0.0 0.0 1.045022473969223e-17 0.8206195528958686 0.7152579249980945 0.06622853313744179 -2.3214211217277035e-17 0.0 1.199267726696214e-16 9.452305662766706 6.0390601450654335 0.27335755519509297 -9.637106281790038e-17 0.0 -0.3527291456805628 -1.8722341696368616 -1.6036561171161097 0.3342876434326172 1.9236711263656616 0.00014418520731851459 -0.0001917476038215682 0.0006135923322290182 0.00011984225420746952 0.0 0.0 0.00011984225420746952 -0.1637420803308487 0.9914246797561646 0.6633929014205933 0.04587874934077263 -0.06602063775062561 0.15777812898159027 -0.1614990383386612 1.0048829317092896 0.6435673832893372 0.03916478529572487 -0.05818767845630646 0.15777812898159027 0.30067532410571673 -0.20065808662311568 0.4005205874150353 -1.210260475691053 1.2097071365106422 -1.2084993493269962 -0.0001834861599773705 -4.683534992797076e-06 0.0002490263409906574 -0.00013353551224797543 -0.0006882344488328627 -0.00019308297152928662 11.039121958987097 -1.9016137261305424 -1.8274541806648823 -0.7311040970426794 -0.9839576462947764 0.46355342944486816 0.30067425835220096 -0.20065592692118736 0.4005362931489709 -1.210247350692296 1.2096918126364111 -1.2084628502076804 0.0 0.0 0.0 0.0 0.0 0.0
806.232 -0.35273104182805426 -1.8722146886143172 -1.6036085167323897 0.33423055175691513 1.9237019015481494 0.0001745329251994221 -0.0 -0.0 -0.0 0.0 -0.0 -0.0 0.0 0.0 0.0 0.0 0.0 0.0 1.045022473969223e-17 0.8206195528958686 0.7152579249980945 0.06622853313744179 -2.3214211217277035e-17 0.0 1.199267726696214e-16 9.452305662766706 6.0390601450654335 0.27335755519509297 -9.637106281790038e-17 0.0 -0.35276538530458623 -1.8722341696368616 -1.6036441961871546 0.33427560329437256 1.9236351251602173 0.000107858024421148 -0.0001917476038215682 0.0005368932615965605 0.00011984225420746952 0.0 0.0 0.00011984225420746952 -0.1592559963464737 1.020584225654602 0.6161166429519653 0.041402772068977356 -0.06154466047883034 0.15777812898159027 -0.1614990383386612 1.007125973701477 0.6435673832893372 0.041402772068977356 -0.06042566895484924 0.15777812898159027 0.3006688357385445 -0.2006722496302171 0.40052298170655043 -1.2102531014129867 1.209743296715695 -1.2085792116608505 -0.00016558658598138528 -1.1232631342743068e-05 0.0002220766053890072 -0.00010705962000789387 -0.0006162586231734631 -0.00019298896601418778 14.006081566288861 -4.797803703043433 -1.0244829573394618 -0.7308512688431804 -1.2841285680727925 0.6810697779229206 0.30067425835220096 -0.20065592692118736 0.4005362931489709 -1.210247350692296 1.2096918126364111 -1.2084628502076804 0.0 0.0 0.0 0.0 0.0 0.0
806.24 -0.35273104182805426 -1.8722146886143172 -1.6036085167323897 0.33423055175691513 1.9237019015481494 0.0001745329251994221 -0.0 -0.0 -0.0 0.0 -0.0 -0.0 0.0 0.0 0.0 0.0 0.0 0.0 1.045022473969223e-17 0.8206195528958686 0.7152579249980945 0.06622853313744179 -2.3214211217277035e-17 0.0 1.199267726696214e-16 9.452305662766706 6.0390601450654335 0.27335755519509297 -9.637106281790038e-17 0.0 -0.3527291456805628 -1.8722699324237269 -1.6037047545062464 0.3343116044998169 1.9236111640930176 0.00011984225420746952 -0.00017257283616345376 0.0004793690168298781 0.00011984225420746952 0.0 0.0 0.00011984225420746952 -0.1502838283777237 0.9869385957717896 0.6481425166130066 0.03692679852247238 -0.06266365945339203 0.15889713168144226 -0.1614990383386612 1.0093690156936646 0.6435673832893372 0.038045790046453476 -0.06154466047883034 0.15777812898159027 0.3006824756123377 -0.20066559030834602 0.40049631105162664 -1.21027652353328 1.2097912553382195 -1.2085190313558385 -0.0001482978916086169 -1.0396412641606475e-05 0.0002018667579776393 -8.716365619850338e-05 -0.0005622831940163787 -0.00017375046764905988 11.219630709863507 -2.78933460966343 -1.4853876795269154 -0.7362444084927662 -1.0412603135341483 0.5210166862113836 0.30067425835220096 -0.20065592692118736 0.4005362931489709 -1.210247350692296 1.2096918126364111 -1.2084628502076804 0.0 0.0 0.0 0.0 0.0 0.0
806.2479999999999 -0.35273104182805426 -1.8722146886143172 -1.6036085167323897 0.33423055175691513 1.9237019015481494 0.0001745329251994221 -0.0 -0.0 -0.0 0.0 -0.0 -0.0 0.0 0.0 0.0 0.0 0.0 0.0 1.045022473969223e-17 0.8206195528958686 0.7152579249980945 0.06622853313744179 -2.3214211217277035e-17 0.0 1.199267726696214e-16 9.452305662766706 6.0390601450654335 0.27335755519509297 -9.637106281790038e-17 0.0 -0.3527410666095179 -1.8722222487079065 -1.6036799589740198 0.3342636823654175 1.9236351251602173 0.00013182648399379104 -0.00017257283616345376 0.0004218447138555348 0.00011984225420746952 0.0 0.0 0.00011984225420746952 -0.1659851223230362 0.998153805732727 0.6298419833183289 0.04028377681970596 -0.0503547228872776 0.15665914118289948 -0.1614990383386612 1.007125973701477 0.6435673832893372 0.04364075884222984 -0.05930667370557785 0.15777812898159027 0.3006724233938274 -0.200664426438127 0.40051627636563947 -1.210262622642062 1.2097671709279754 -1.208518590761168 -0.00013488175681404755 -1.5306021088177176e-05 0.00018164955198299217 -6.7296031763544e-05 -0.000508297341628674 -0.00017367719304846077 12.737874855023904 -2.9967458802502396 -1.064846297596245 -0.7258808894225649 -1.1299361252075222 0.4807359783261127 0.30067425835220096 -0.20065592692118736 0.4005362931489709 -1.210247350692296 1.2096918126364111 -1.2084628502076804 0.0 0.0 0.0 0.0 0.0 0.0
806.256 -0.35273104182805426 -1.8722146886143172 -1.6036085167323897 0.33423055175691513 1.9237019015481494 0.0001745329251994221 -0.0 -0.0 -0.0 0.0 -0.0 -0.0 0.0 0.0 0.0 0.0 0.0 0.0 1.045022473969223e-17 0.8206195528958686 0.7152579249980945 0.06622853313744179 -2.3214211217277035e-17 0.0 1.199267726696214e-16 9.452305662766706 6.0390601450654335 0.27335755519509297 -9.637106281790038e-17 0.0 -0.35280114809145147 -1.8722341696368616 -1.6036322752581995 0.33427560329437256 1.9236232042312622 0.00011984225420746952 -0.00017257283616345376 0.0003834952076431364 0.00011984225420746952 0.0 0.0 0.00011984225420746952 -0.1592559963464737 1.0138550996780396 0.660342812538147 0.03580780327320099 -0.05371170490980148 0.15889713168144226 -0.1659851223230362 1.0048829317092896 0.6435673832893372 0.04028377681970596 -0.05818767845630646 0.15777812898159027 0.3006614796472943 -0.20068393166408582 0.4005263061815584 -1.2102164903137203 1.2097739563465706 -1.2086138522670558 -0.00012593711480905155 -1.857465842482815e-05 0.00016817450753809837 -5.407487487283515e-05 -0.0004723075966895782 -0.00017362482161404935 12.000158878561018 -2.787827098751307 -2.335328293478783 -0.7363559599398946 -1.1832997510179297 0.4791047770064119 0.30067425835220096 -0.20065592692118736 0.4005362931489709 -1.210247350692296 1.2096918126364111 -1.2084628502076804 0.0 0.0 0.0 0.0 0.0 0.0
806.264 -0.35273104182805426 -1.8722146886143172 -1.6036085167323897 0.33423055175691513 1.9237019015481494 0.0001745329251994221 -0.0 -0.0 -0.0 0.0 -0.0 -0.0 0.0 0.0 0.0 0.0 0.0 0.0 1.045022473969223e-17 0.8206195528958686 0.7152579249980945 0.06622853313744179 -2.3214211217277035e-17 0.0 1.199267726696214e-16 9.452305662766706 6.0390601450654335 0.27335755519509297 -9.637106281790038e-17 0.0 -0.3527773062335413 -1.8722222487079065 -1.6036441961871546 0.3342636823654175 1.9236232042312622 0.00014418520731851459 -0.00015339808305725455 0.00036432043998502195 0.00011984225420746952 0.0 0.0 0.00011984225420746952 -0.1659851223230362 1.0183411836624146 0.6359421610832214 0.03916478529572487 -0.05371170490980148 0.15554013848304749 -0.1637420803308487 1.011612057685852 0.6435673832893372 0.04028377681970596 -0.05818767845630646 0.15777812898159027 0.30066461510387676 -0.20067614726216332 0.40052624936957043 -1.2102150588357354 1.2097780614999902 -1.2085700300799103 -0.00011761298110822511 -1.4451377360179467e-05 0.00016143620946495194 -4.7438189684402654e-05 -0.0004543151346443771 -0.00015442790451874864 13.274121426730316 -3.561673503145729 -1.618956078273302 -0.7206621351712208 -1.246551848233079 0.5428051307825507 0.30067425835220096 -0.20065592692118736 0.4005362931489709 -1.210247350692296 1.2096918126364111 -1.2084628502076804 0.0 0.0 0.0 0.0 0.0 0.0
806.2719999999999 -0.35273104182805426 -1.8722146886143172 -1.6036085167323897 0.33423055175691513 1.9237019015481494 0.0001745329251994221 -0.0 -0.0 -0.0 0.0 -0.0 -0.0 0.0 0.0 0.0 0.0 0.0 0.0 1.045022473969223e-17 0.8206195528958686 0.7152579249980945 0.06622853313744179 -2.3214211217277035e-17 0.0 1.199267726696214e-16 9.452305662766706 6.0390601450654335 0.27335755519509297 -9.637106281790038e-17 0.0 -0.35275346437563115 -1.8722460905658167 -1.6036561171161097 0.33427560329437256 1.923647165298462 0.0001561694371048361 -0.00015339808305725455 0.00032597093377262354 0.00011984225420746952 0.0 0.0 0.00011984225420746952 -0.1525268703699112 1.043014645576477 0.6481425166130066 0.04364075884222984 -0.06042566895484924 0.15554013848304749 -0.1547699123620987 1.007125973701477 0.6435673832893372 0.04028377681970596 -0.05930667370557785 0.1544211506843567 0.3006741894988338 -0.20066874505726645 0.4005154683527072 -1.2102392794911114 1.2097688296046498 -1.2085093116650505 -0.00010865712289286032 -1.7734541705802556e-05 0.000147962032178565 -3.4177391512306185e-05 -0.00041832559956287357 -0.00015438357745531896 13.536412997699351 -4.738734502396393 -2.3186373048042768 -0.7204168600601826 -1.341555699631234 0.6710479045697346 0.30067425835220096 -0.20065592692118736 0.4005362931489709 -1.210247350692296 1.2096918126364111 -1.2084628502076804 0.0 0.0 0.0 0.0 0.0 0.0
806.28 -0.35273104182805426 -1.8722146886143172 -1.6036085167323897 0.33423055175691513 1.9237019015481494 0.0001745329251994221 -0.0 -0.0 -0.0 0.0 -0.0 -0.0 0.0 0.0 0.0 0.0 0.0 0.0 1.045022473969223e-17 0.8206195528958686 0.7152579249980945 0.06622853313744179 -2.3214211217277035e-17 0.0 1.199267726696214e-16 9.452305662766706 6.0390601450654335 0.27335755519509297 -9.637106281790038e-17 0.0 -0.3527773062335413 -1.8722580114947718 -1.6036203543292444 0.33429956436157227 1.9236111640930176 0.00018013788212556392 -0.00015339808305725455 0.0003067961661145091 0.00011984225420746952 0.0 0.0 0.00011984225420746952 -0.1525268703699112 0.966751217842102 0.631367027759552 0.041402772068977356 -0.06378264725208282 0.16225410997867584 -0.1592559963464737 1.007125973701477 0.6435673832893372 0.04028377681970596 -0.06266365945339203 0.15889713168144226 0.30066973057946145 -0.20067903578310547 0.40052310489549625 -1.2101723737421808 1.209783535871368 -1.2085692218341726 -0.00010418583067173487 -1.9369892508226437e-05 0.00014122446033823865 -2.756193891570391e-05 -0.0004003353692706411 -0.00015435469635018917 11.134849556733675 -2.6035514917097187 -0.5432943287107284 -0.7519491509687498 -0.9227974565412804 0.5108460105633971 0.30067425835220096 -0.20065592692118736 0.4005362931489709 -1.210247350692296 1.2096918126364111 -1.2084628502076804 0.0 0.0 0.0 0.0 0.0 0.0
806.288 -0.35273104182805426 -1.8722146886143172 -1.6036085167323897 0.33423055175691513 1.9237019015481494 0.0001745329251994221 -0.0 -0.0 -0.0 0.0 -0.0 -0.0 0.0 0.0 0.0 0.0 0.0 0.0 1.045022473969223e-17 0.8206195528958686 0.7152579249980945 0.06622853313744179 -2.3214211217277035e-17 0.0 1.199267726696214e-16 9.452305662766706 6.0390601450654335 0.27335755519509297 -9.637106281790038e-17 0.0 -0.3527410666095179 -1.8722341696368616 -1.6036561171161097 0.3343116044998169 1.923647165298462 0.0001561694371048361 -0.00013422331539914012 0.00028762139845639467 0.00011984225420746952 0.0 0.0 0.00011984225420746952 -0.1637420803308487 1.0003968477249146 0.6389922499656677 0.03916478529572487 -0.05706868693232536 0.16225410997867584 -0.1614990383386612 1.007125973701477 0.642042338848114 0.04028377681970596 -0.05706868693232536 0.15777812898159027 0.30067101136035185 -0.20066293962259163 0.40052243988674724 -1.2102242015689446 1.2097187928703625 -1.208533696704402 -9.586066607311866e-05 -1.524655726805894e-05 0.0001344842470432238 -2.0922654888022287e-05 -0.00038233805705305577 -0.00013515641156011982 12.382533730116299 -2.94546038603381 -1.39855508476134 -0.7518237066666795 -1.1215359988520395 0.5077731312354431 0.30067425835220096 -0.20065592692118736 0.4005362931489709 -1.210247350692296 1.2096918126364111 -1.2084628502076804 0.0 0.0 0.0 0.0 0.0 0.0
806.2959999999999 -0.35273104182805426 -1.8722146886143172 -1.6036085167323897 0.33423055175691513 1.9237019015481494 0.0001745329251994221 -0.0 -0.0 -0.0 0.0 -0.0 -0.0 0.0 0.0 0.0 0.0 0.0 0.0 1.045022473969223e-17 0.8206195528958686 0.7152579249980945 0.06622853313744179 -2.3214211217277035e-17 0.0 1.199267726696214e-16 9.452305662766706 6.0390601450654335 0.27335755519509297 -9.637106281790038e-17 0.0 -0.3527892271624964 -1.8722098509417933 -1.6036441961871546 0.3342636823654175 1.9236711263656616 0.00018013788212556392 -0.00013422331539914012 0.00026844663079828024 0.00011984225420746952 0.0 0.0 0.00011984225420746952 -0.1592559963464737 1.0048829317092896 0.6450924277305603 0.038045790046453476 -0.051473718136548996 0.15554013848304749 -0.1614990383386612 1.007125973701477 0.642042338848114 0.03916478529572487 -0.05930667370557785 0.1544211506843567 0.300659332281812 -0.20067472479515308 0.4005306048264828 -1.2102001864332983 1.2097579819001132 -1.2085257322356133 -9.138835745558727e-05 -1.6879802126555524e-05 0.00012774611664200238 -1.4315426707456291e-05 -0.00036434051594950095 -0.00013513422148114424 12.27276780218022 -2.990434319514212 -1.6806762799263901 -0.7207132588786888 -1.15372735820651 0.48541930539882594 0.30067425835220096 -0.20065592692118736 0.4005362931489709 -1.210247350692296 1.2096918126364111 -1.2084628502076804 0.0 0.0 0.0 0.0 0.0 0.0
806.304 -0.35273104182805426 -1.8722146886143172 -1.6036085167323897 0.33423055175691513 1.9237019015481494 0.0001745329251994221 -0.0 -0.0 -0.0 0.0 -0.0 -0.0 0.0 0.0 0.0 0.0 0.0 0.0 1.045022473969223e-17 0.8206195528958686 0.7152579249980945 0.06622853313744179 -2.3214211217277035e-17 0.0 1.199267726696214e-16 9.452305662766706 6.0390601450654335 0.27335755519509297 -9.637106281790038e-17 0.0 -0.3527773062335413 -1.8722098509417933 -1.603692356740133 0.33429956436157227 1.9236592054367065 0.00013182648399379104 -0.00013422331539914012 0.00024927189224399626 0.00011984225420746952 0.0 0.0 0.00011984225420746952 -0.1637420803308487 1.034042477607727 0.642042338848114 0.038045790046453476 -0.05706868693232536 0.15665914118289948 -0.1614990383386612 1.007125973701477 0.642042338848114 0.04028377681970596 -0.05930667370557785 0.15665914118289948 0.3006595707256491 -0.20067127861464876 0.40051994858504375 -1.210241207574256 1.2097454863697452 -1.2085526001453222 -8.690886752311915e-05 -1.8521111631272098e-05 0.00012100773875925553 -7.68567202562279e-06 -0.00034634837622984433 -0.00013511209727287934 13.595028782772683 -4.060375562320831 -2.0963963360370643 -0.7257207369969971 -1.332591932344516 0.5995331612161554 0.30067425835220096 -0.20065592692118736 0.4005362931489709 -1.210247350692296 1.2096918126364111 -1.2084628502076804 0.0 0.0 0.0 0.0 0.0 0.0
806.312 -0.35273104182805426 -1.8722146886143172 -1.6036085167323897 0.33423055175691513 1.9237019015481494 0.0001745329251994221 -0.0 -0.0 -0.0 0.0 -0.0 -0.0 0.0 0.0 0.0 0.0 0.0 0.0 1.045022473969223e-17 0.8206195528958686 0.7152579249980945 0.06622853313744179 -2.3214211217277035e-17 0.0 1.199267726696214e-16 9.452305662766706 6.0390601450654335 0.27335755519509297 -9.637106281790038e-17 0.0 -0.35280114809145147 -1.8722222487079065 -1.6036680380450647 0.3343116044998169 1.9236831665039062 0.00018013788212556392 -0.00013422331539914012 0.00023009712458588183 0.00011984225420746952 0.0 0.0 0.00011984225420746952 -0.1682281643152237 1.007125973701477 0.6496675610542297 0.03916478529572487 -0.05594969168305397 0.15665914118289948 -0.1614990383386612 1.007125973701477 0.6435673832893372 0.03916478529572487 -0.05930667370557785 0.15665914118289948 0.30065635314627287 -0.20067707228879866 0.40052330378367174 -1.210195171594206 1.2097478680471467 -1.2085337500700424 -8.243493388091648e-05 -2.0157997334069307e-05 0.00011427011908257258 -1.0680794115222157e-06 -0.0003283517420974669 -0.00013508589903485092 12.306355240544923 -2.588035678971334 -1.8314158697975527 -0.7259243532134486 -1.1489547330323977 0.4731028006073969 0.30067425835220096 -0.20065592692118736 0.4005362931489709 -1.210247350692296 1.2096918126364111 -1.2084628502076804 0.0 0.0 0.0 0.0 0.0 0.0
806.3199999999999 -0.35273104182805426 -1.8722146886143172 -1.6036085167323897 0.33423055175691513 1.9237019015481494 0.0001745329251994221 -0.0 -0.0 -0.0 0.0 -0.0 -0.0 0.0 0.0 0.0 0.0 0.0 0.0 1.045022473969223e-17 0.8206195528958686 0.7152579249980945 0.06622853313744179 -2.3214211217277035e-17 0.0 1.199267726696214e-16 9.452305662766706 6.0390601450654335 0.27335755519509297 -9.637106281790038e-17 0.0 -0.3527892271624964 -1.8722222487079065 -1.603692356740133 0.3342636823654175 1.9235992431640625 0.0001561694371048361 -0.00011504856229294091 0.00023009712458588183 9.58738019107841e-05 0.0 0.0 0.00011984225420746952 -0.1637420803308487 0.9914246797561646 0.6359421610832214 0.034688808023929596 -0.06378264725208282 0.15889713168144226 -0.1614990383386612 1.007125973701477 0.6435673832893372 0.038045790046453476 -0.05930667370557785 0.15889713168144226 0.30066294194198034 -0.2006819163836289 0.4005128197625384 -1.210210364670242 1.209851171295973 -1.2085538437619392 -7.82257992973533e-05 -1.450089500205633e-05 0.00010758865988856663 7.2155745961189435e-06 -0.00030586903075174697 -0.00011582917759905958 12.083847258250996 -2.814973490599259 -1.2453344162031048 -0.7363028245502952 -1.1070482049454216 0.5282227824054655 0.30067425835220096 -0.20065592692118736 0.4005362931489709 -1.210247350692296 1.2096918126364111 -1.2084628502076804 0.0 0.0 0.0 0.0 0.0 0.0
806.328 -0.35273104182805426 -1.8722146886143172 -1.6036085167323897 0.33423055175691513 1.9237019015481494 0.0001745329251994221 -0.0 -0.0 -0.0 0.0 -0.0 -0.0 0.0 0.0 0.0 0.0 0.0 0.0 1.045022473969223e-17 0.8206195528958686 0.7152579249980945 0.06622853313744179 -2.3214211217277035e-17 0.0 1.199267726696214e-16 9.452305662766706 6.0390601450654335 0.27335755519509297 -9.637106281790038e-17 0.0 -0.3527172247516077 -1.8722222487079065 -1.6036680380450647 0.33429956436157227 1.923647165298462 0.00018013788212556392 -0.00011504856229294091 0.0002109223569277674 9.58738019107841e-05 0.0 0.0 0.00011984225420746952 -0.1592559963464737 1.007125973701477 0.6511926054954529 0.03580780327320099 -0.05259270966053009 0.15665914118289948 -0.1614990383386612 1.007125973701477 0.6435673832893372 0.041402772068977356 -0.05930667370557785 0.15665914118289948 0.3006741558382746 -0.20065515860222521 0.4005223738812146 -1.210223098552801 1.2097228231807775 -1.2084900665680531 -7.375151319270035e-05 -1.6143908191089232e-05 0.0001008494148204585 1.3861945173543322e-05 -0.0002878686390169605 -0.00011579890442782063 12.102077961556345 -2.8563703148517017 -1.947370351127579 -0.7258510174207441 -1.1660953091345325 0.47964398122517604 0.30067425835220096 -0.20065592692118736 0.4005362931489709 -1.210247350692296 1.2096918126364111 -1.2084628502076804 0.0 0.0 0.0 0.0 0.0 0.0
806.336 -0.35273104182805426 -1.8722146886143172 -1.6036085167323897 0.33423055175691513 1.9237019015481494 0.0001745329251994221 -0.0 -0.0 -0.0 0.0 -0.0 -0.0 0.0 0.0 0.0 0.0 0.0 0.0 1.045022473969223e-17 0.8206195528958686 0.7152579249980945 0.06622853313744179 -2.3214211217277035e-17 0.0 1.199267726696214e-16 9.452305662766706 6.0390601450654335 0.27335755519509297 -9.637106281790038e-17 0.0 -0.35276538530458623 -1.8722341696368616 -1.6036441961871546 0.3342876434326172 1.9236232042312622 0.00011984225420746952 -0.00011504856229294091 0.0001917476038215682 9.58738019107841e-05 0.0 0.0 0.00011984225420746952 -0.1570129543542862 1.0273133516311646 0.631367027759552 0.04252176731824875 -0.06266365945339203 0.15554013848304749 -0.1614990383386612 1.007125973701477 0.6435673832893372 0.04028377681970596 -0.05930667370557785 0.15665914118289948 0.30066787058202227 -0.20067287728893293 0.40052391256268305 -1.210233370980377 1.2097474740560406 -1.20858758565217 -6.927766677290958e-05 -1.7779609677928836e-05 9.411270715832634e-05 2.047328235952209e-05 -0.00026987837224797515 -0.00011577539940545085 13.631398574354966 -4.609500644070997 -1.5707536744331672 -0.7205017197487912 -1.2895361878171199 0.6707671028156507 0.30067425835220096 -0.20065592692118736 0.4005362931489709 -1.210247350692296 1.2096918126364111 -1.2084628502076804 0.0 0.0 0.0 0.0 0.0 0.0
806.3439999999999 -0.35273104182805426 -1.8722146886143172 -1.6036085167323897 0.33423055175691513 1.9237019015481494 0.0001745329251994221 -0.0 -0.0 -0.0 0.0 -0.0 -0.0 0.0 0.0 0.0 0.0 0.0 0.0 1.045022473969223e-17 0.8206195528958686 0.7152579249980945 0.06622853313744179 -2.3214211217277035e-17 0.0 1.199267726696214e-16 9.452305662766706 6.0390601450654335 0.27335755519509297 -9.637106281790038e-17 0.0 -0.35276538530458623 -1.8722098509417933 -1.6036441961871546 0.3342876434326172 1.9236351251602173 0.00014418520731851459 -0.00011504856229294091 0.0001917476038215682 9.58738019107841e-05 0.0 0.0 0.00011984225420746952 -0.1727142482995987 1.0228272676467896 0.6557676792144775 0.04252176731824875 -0.05930667370557785 0.16001611948013306 -0.1659851223230362 1.007125973701477 0.6450924277305603 0.03916478529572487 -0.06154466047883034 0.15889713168144226 0.30066219512377723 -0.20066981670152384 0.40053245752214073 -1.2102104481127887 1.2097294643475587 -1.2085779049578027 -6.927946123421013e-05 -1.7778164592691166e-05 9.411141441049226e-05 2.0473290484176537e-05 -0.0002698769503238112 -0.0001157726648731413 12.760366798858488 -2.8118789436834697 -2.2143346269562416 -0.741465880268055 -1.204040041311448 0.5071245763005803 0.30067425835220096 -0.20065592692118736 0.4005362931489709 -1.210247350692296 1.2096918126364111 -1.2084628502076804 0.0 0.0 0.0 0.0 0.0 0.0
806.352 -0.35273104182805426 -1.8722146886143172 -1.6036085167323897 0.33423055175691513 1.9237019015481494 0.0001745329251994221 -0.0 -0.0 -0.0 0.0 -0.0 -0.0 0.0 0.0 0.0 0.0 0.0 0.0 1.045022473969223e-17 0.8206195528958686 0.7152579249980945 0.06622853313744179 -2.3214211217277035e-17 0.0 1.199267726696214e-16 9.452305662766706 6.0390601450654335 0.27335755519509297 -9.637106281790038e-17 0.0 -0.35275346437563115 -1.8721979300128382 -1.6037047545062464 0.3342636823654175 1.923647165298462 0.00013182648399379104 -0.00011504856229294091 0.0001917476038215682 9.58738019107841e-05 0.0 0.0 0.00011984225420746952 -0.1704712063074112 1.016098141670227 0.6145915985107422 0.04252176731824875 -0.05706868693232536 0.15554013848304749 -0.1659851223230362 1.007125973701477 0.6450924277305603 0.04028377681970596 -0.05818767845630646 0.15777812898159027 0.3006646313523303 -0.20066519270990493 0.40051790686882854 -1.2102626941669496 1.2097677974082395 -1.2085184727087694 -6.927512423305709e-05 -1.7780470980827668e-05 9.411158928391513e-05 2.0476500903925978e-05 -0.0002698752333607407 -0.000115780829159615 14.102773558017828 -4.129980912921074 -0.8770208633999395 -0.7205092451422516 -1.2574969332256751 0.6052614744194422 0.30067425835220096 -0.20065592692118736 0.4005362931489709 -1.210247350692296 1.2096918126364111 -1.2084628502076804 0.0 0.0 0.0 0.0 0.0 0.0
806.36 -0.35273104182805426 -1.8722146886143172 -1.6036085167323897 0.33423055175691513 1.9237019015481494 0.0001745329251994221 -0.0 -0.0 -0.0 0.0 -0.0 -0.0 0.0 0.0 0.0 0.0 0.0 0.0 1.045022473969223e-17 0.8206195528958686 0.7152579249980945 0.06622853313744179 -2.3214211217277035e-17 0.0 1.199267726696214e-16 9.452305662766706 6.0390601450654335 0.27335755519509297 -9.637106281790038e-17 0.0 -0.35276538530458623 -1.8722341696368616 -1.6036441961871546 0.3342636823654175 1.9236351251602173 0.00014418520731851459 -9.58738019107841e-05 0.00017257283616345376 9.58738019107841e-05 0.0 0.0 0.00011984225420746952 -0.1682281643152237 0.984695553779602 0.623741865158081 0.04252176731824875 -0.05930667370557785 0.1544211506843567 -0.1659851223230362 1.007125973701477 0.6450924277305603 0.041402772068977356 -0.05818767845630646 0.15665914118289948 0.30066979054718107 -0.20067260025408157 0.4005220602824267 -1.2102315476518721 1.2097706664997596 -1.208544138742121 -6.0953796872450165e-05 -1.3653788790823468e-05 8.737540265877883e-05 2.709848705031713e-05 -0.0002518831142339385 -9.657982947326277e-05 12.439897679283677 -2.7819064085193674 -0.6033401338171152 -0.7155313721950705 -1.0525647027619613 0.5046853747485752 0.30067425835220096 -0.20065592692118736 0.4005362931489709 -1.210247350692296 1.2096918126364111 -1.2084628502076804 0.0 0.0 0.0 0.0 0.0 0.0
806.3679999999999 -0.35273104182805426 -1.8722146886143172 -1.6036085167323897 0.33423055175691513 1.9237019015481494 0.0001745329251994221 -0.0 -0.0 -0.0 0.0 -0.0 -0.0 0.0 0.0 0.0 0.0 0.0 0.0 1.045022473969223e-17 0.8206195528958686 0.7152579249980945 0.06622853313744179 -2.3214211217277035e-17 0.0 1.199267726696214e-16 9.452305662766706 6.0390601450654335 0.27335755519509297 -9.637106281790038e-17 0.0 -0.3527773062335413 -1.872186009083883 -1.6036680380450647 0.33429956436157227 1.9236351251602173 0.00018013788212556392 -9.58738019107841e-05 0.00017257283616345376 9.58738019107841e-05 0.0 0.0 0.00011984225420746952 -0.1570129543542862 0.975723385810852 0.6511926054954529 0.038045790046453476 -0.0503547228872776 0.15889713168144226 -0.1659851223230362 1.007125973701477 0.6450924277305603 0.04028377681970596 -0.06154466047883034 0.15554013848304749 0.3006536401354043 -0.20067111687977923 0.4005351079370339 -1.2101731437380887 1.2097450446738833 -1.2085685075828687 -6.095644495461315e-05 -1.3650644636069263e-05 8.73725425956724e-05 2.7095502728454854e-05 -0.0002518834435117735 -9.657305924587359e-05 10.839802868169546 -1.7814786644966552 -1.3557858835810703 -0.7364932686121892 -0.9609239124282869 0.3806630300966755 0.30067425835220096 -0.20065592692118736 0.4005362931489709 -1.210247350692296 1.2096918126364111 -1.2084628502076804 0.0 0.0 0.0 0.0 0.0 0.0
806.376 -0.35273104182805426 -1.8722146886143172 -1.6036085167323897 0.33423055175691513 1.9237019015481494 0.0001745329251994221 -0.0 -0.0 -0.0 0.0 -0.0 -0.0 0.0 0.0 0.0 0.0 0.0 0.0 1.045022473969223e-17 0.8206195528958686 0.7152579249980945 0.06622853313744179 -2.3214211217277035e-17 0.0 1.199267726696214e-16 9.452305662766706 6.0390601450654335 0.27335755519509297 -9.637106281790038e-17 0.0 -0.35280114809145147 -1.8722341696368616 -1.6036561171161097 0.33427560329437256 1.9236351251602173 0.00019212211191188544 -9.58738019107841e-05 0.00015339808305725455 9.58738019107841e-05 0.0 0.0 0.00011984225420746952 -0.1614990383386612 0.9824525117874146 0.6191667318344116 0.04028377681970596 -0.06042566895484924 0.16001611948013306 -0.1659851223230362 1.007125973701477 0.6450924277305603 0.04028377681970596 -0.06042566895484924 0.15665914118289948 0.3006618373857933 -0.2006830546296229 0.4005196574593667 -1.2101793288028866 1.209819682454459 -1.208535151058378 -5.647826743012894e-05 -1.5290944014172027e-05 8.063740528794035e-05 3.3715325530030474e-05 -0.00023389050329884888 -9.655632494034612e-05 12.40419049222798 -3.1701329398948825 -0.47608914374661426 -0.7414833958938909 -1.0527021992127619 0.5418400648502182 0.30067425835220096 -0.20065592692118736 0.4005362931489709 -1.210247350692296 1.2096918126364111 -1.2084628502076804 0.0 0.0 0.0 0.0 0.0 0.0
806.384 -0.35273104182805426 -1.8722146886143172 -1.6036085167323897 0.33423055175691513 1.9237019015481494 0.0001745329251994221 -0.0 -0.0 -0.0 0.0 -0.0 -0.0 0.0 0.0 0.0 0.0 0.0 0.0 1.045022473969223e-17 0.8206195528958686 0.7152579249980945 0.06622853313744179 -2.3214211217277035e-17 0.0 1.199267726696214e-16 9.452305662766706 6.0390601450654335 0.27335755519509297 -9.637106281790038e-17 0.0 -0.35275346437563115 -1.872186009083883 -1.6036441961871546 0.33427560329437256 1.923647165298462 0.00016815366689115763 -9.58738019107841e-05 0.00015339808305725455 9.58738019107841e-05 0.0 0.0 0.00011984225420746952 -0.1682281643152237 0.993667721748352 0.6572927236557007 0.04252176731824875 -0.0682586282491684 0.16225410997867584 -0.1659851223230362 1.007125973701477 0.6450924277305603 0.04028377681970596 -0.06042566895484924 0.15665914118289948 0.3006599872979081 -0.20066355700441985 0.4005399041949218 -1.2101989669743205 1.2097130889673113 -1.2085508858672602 -5.648146398126934e-05 -1.529091198732007e-05 8.063536552026234e-05 3.3726496185703475e-05 -0.0002338874716444106 -9.654956863951769e-05 11.413467585470325 -2.0290873517643764 -1.7537546910147632 -0.7519036303710729 -1.022773682848816 0.48439514572658826 0.30067425835220096 -0.20065592692118736 0.4005362931489709 -1.210247350692296 1.2096918126364111 -1.2084628502076804 0.0 0.0 0.0 0.0 0.0 0.0
806.3919999999999 -0.35273104182805426 -1.8722146886143172 -1.6036085167323897 0.33423055175691513 1.9237019015481494 0.0001745329251994221 -0.0 -0.0 -0.0 0.0 -0.0 -0.0 0.0 0.0 0.0 0.0 0.0 0.0 1.045022473969223e-17 0.8206195528958686 0.7152579249980945 0.06622853313744179 -2.3214211217277035e-17 0.0 1.199267726696214e-16 9.452305662766706 6.0390601450654335 0.27335755519509297 -9.637106281790038e-17 0.0 -0.3527410666095179 -1.8722222487079065 -1.6036561171161097 0.3342636823654175 1.9236351251602173 0.00011984225420746952 -9.58738019107841e-05 0.00015339808305725455 -0.0 0.0 0.0 0.00011984225420746952 -0.1682281643152237 0.9824525117874146 0.6115415096282959 0.04028377681970596 -0.05930667370557785 0.16001611948013306 -0.1659851223230362 1.007125973701477 0.6374672055244446 0.04028377681970596 -0.06042566895484924 0.15665914118289948 0.3006720665684797 -0.2006643217364543 0.400522924886469 -1.2102610005839254 1.2097412008678945 -1.2085441350533859 -5.504279210216875e-05 -1.571504984685825e-05 5.3901914982006256e-05 6.684403005087166e-05 -0.00014391583845799866 -9.619596503221027e-05 12.823312524164999 -3.1338925482906874 -0.24888240593825495 -0.7414244914721327 -1.068667165592408 0.5336894105955754 0.30067425835220096 -0.20065592692118736 0.4005362931489709 -1.210247350692296 1.2096918126364111 -1.2084628502076804 0.0 0.0 0.0 0.0 0.0 0.0
806.4 -0.35273104182805426 -1.8722146886143172 -1.6036085167323897 0.33423055175691513 1.9237019015481494 0.0001745329251994221 -0.0 -0.0 -0.0 0.0 -0.0 -0.0 0.0 0.0 0.0 0.0 0.0 0.0 1.045022473969223e-17 0.8206195528958686 0.7152579249980945 0.06622853313744179 -2.3214211217277035e-17 0.0 1.199267726696214e-16 9.452305662766706 6.0390601450654335 0.27335755519509297 -9.637106281790038e-17 0.0 -0.3527410666095179 -1.8722098509417933 -1.6036799589740198 0.33427560329437256 1.923647165298462 0.00011984225420746952 -9.58738019107841e-05 0.00013422331539914012 -0.0 0.0 0.0 0.00011984225420746952 -0.1659851223230362 0.9824525117874146 0.652717649936676 0.034688808023929596 -0.06602063775062561 0.15665914118289948 -0.1659851223230362 1.007125973701477 0.6389922499656677 0.04028377681970596 -0.06042566895484924 0.15665914118289948 0.3006685756617974 -0.20066202456496776 0.4005215539620667 -1.2102665193147875 1.20973187529511 -1.2085355553433461 -5.056685452500024e-05 -1.7353719320221244e-05 4.7163626817873385e-05 7.346880014098076e-05 -0.00012592040040975476 -9.61724072282458e-05 11.084639874519626 -1.8114219345350608 -1.5865960947065358 -0.7259394896642074 -1.0222382424989052 0.45610685822443664 0.30067425835220096 -0.20065592692118736 0.4005362931489709 -1.210247350692296 1.2096918126364111 -1.2084628502076804 0.0 0.0 0.0 0.0 0.0 0.0
806.408 -0.35273104182805426 -1.8722146886143172 -1.6036085167323897 0.33423055175691513 1.9237019015481494 0.0001745329251994221 -0.0 -0.0 -0.0 0.0 -0.0 -0.0 0.0 0.0 0.0 0.0 0.0 0.0 1.045022473969223e-17 0.8206195528958686 0.7152579249980945 0.06622853313744179 -2.3214211217277035e-17 0.0 1.199267726696214e-16 9.452305662766706 6.0390601450654335 0.27335755519509297 -9.637106281790038e-17 0.0 -0.3527773062335413 -1.8722222487079065 -1.6036799589740198 0.3342636823654175 1.9236111640930176 0.00013182648399379104 -9.58738019107841e-05 0.00013422331539914012 -0.0 0.0 0.0 0.00011984225420746952 -0.1704712063074112 1.0093690156936646 0.631367027759552 0.041402772068977356 -0.06154466047883034 0.16113510727882385 -0.1659851223230362 1.0093690156936646 0.6450924277305603 0.04028377681970596 -0.05930667370557785 0.15665914118289948 0.3006651495713399 -0.2006772959652073 0.40051627679558577 -1.2102341443117899 1.2098115282810404 -1.2085629059896807 -5.056723889999722e-05 -1.735250089479688e-05 4.71643141710251e-05 7.346423480864314e-05 -0.00012592737326303419 -9.617514100659127e-05 13.137217617108409 -3.3384982139966897 -1.2810164551429224 -0.7466103019582024 -1.179434161532458 0.5608868164548789 0.30067425835220096 -0.20065592692118736 0.4005362931489709 -1.210247350692296 1.2096918126364111 -1.2084628502076804 0.0 0.0 0.0 0.0 0.0 0.0
806.4159999999999 -0.35273104182805426 -1.8722146886143172 -1.6036085167323897 0.33423055175691513 1.9237019015481494 0.0001745329251994221 -0.0 -0.0 -0.0 0.0 -0.0 -0.0 0.0 0.0 0.0 0.0 0.0 0.0 1.045022473969223e-17 0.8206195528958686 0.7152579249980945 0.06622853313744179 -2.3214211217277035e-17 0.0 1.199267726696214e-16 9.452305662766706 6.0390601450654335 0.27335755519509297 -9.637106281790038e-17 0.0 -0.35275346437563115 -1.8722460905658167 -1.6037047545062464 0.3343116044998169 1.9236111640930176 0.00014418520731851459 -9.58738019107841e-05 0.00013422331539914012 -0.0 0.0 0.0 0.00011984225420746952 -0.1682281643152237 1.0362855195999146 0.6298419833183289 0.034688808023929596 -0.06154466047883034 0.15889713168144226 -0.1659851223230362 1.0093690156936646 0.6389922499656677 0.04028377681970596 -0.05818767845630646 0.15889713168144226 0.30067203124449277 -0.20067086471502082 0.4005046888917092 -1.2102366644909306 1.209800356139561 -1.208535693899968 -5.056543639052658e-05 -1.7354445310417772e-05 4.716461252220331e-05 7.34672370360315e-05 -0.00012592561121836218 -9.617522113754752e-05 14.19822474998873 -4.445420126208095 -1.8431401622269419 -0.7360400983034955 -1.388050732844148 0.652040232857552 0.30067425835220096 -0.20065592692118736 0.4005362931489709 -1.210247350692296 1.2096918126364111 -1.2084628502076804 0.0 0.0 0.0 0.0 0.0 0.0
806.424 -0.35273104182805426 -1.8722146886143172 -1.6036085167323897 0.33423055175691513 1.9237019015481494 0.0001745329251994221 -0.0 -0.0 -0.0 0.0 -0.0 -0.0 0.0 0.0 0.0 0.0 0.0 0.0 1.045022473969223e-17 0.8206195528958686 0.7152579249980945 0.06622853313744179 -2.3214211217277035e-17 0.0 1.199267726696214e-16 9.452305662766706 6.0390601450654335 0.27335755519509297 -9.637106281790038e-17 0.0 -0.35275346437563115 -1.8722341696368616 -1.6036203543292444 0.33427560329437256 1.9236232042312622 0.0001561694371048361 -7.669904152862728e-05 0.00013422331539914012 -0.0 0.0 0.0 0.00011984225420746952 -0.1659851223230362 1.0093690156936646 0.6496675610542297 0.03580780327320099 -0.07161560654640198 0.14994516968727112 -0.1659851223230362 1.0093690156936646 0.6389922499656677 0.03916478529572487 -0.05818767845630646 0.15554013848304749 0.3006708701457144 -0.20066954238825596 0.4005296304283514 -1.2102070573785861 1.2097458628446558 -1.2085603780782013 -4.672066057332716e-05 -1.1587885249351919e-05 4.716440495054068e-05 7.346724421237614e-05 -0.0001259242076818803 -7.699367807486024e-05 12.250410852904901 -3.0022081085119696 -1.9397562190989162 -0.6946625360983684 -1.1942492047990765 0.5801276684641552 0.30067425835220096 -0.20065592692118736 0.4005362931489709 -1.210247350692296 1.2096918126364111 -1.2084628502076804 0.0 0.0 0.0 0.0 0.0 0.0
806.432 -0.35273104182805426 -1.8722146886143172 -1.6036085167323897 0.33423055175691513 1.9237019015481494 0.0001745329251994221 -0.0 -0.0 -0.0 0.0 -0.0 -0.0 0.0 0.0 0.0 0.0 0.0 0.0 1.045022473969223e-17 0.8206195528958686 0.7152579249980945 0.06622853313744179 -2.3214211217277035e-17 0.0 1.199267726696214e-16 9.452305662766706 6.0390601450654335 0.27335755519509297 -9.637106281790038e-17 0.0 -0.35281306902040654 -1.8722098509417933 -1.6036561171161097 0.3342876434326172 1.9236592054367065 0.00014418520731851459 -7.669904152862728e-05 0.00011504856229294091 -0.0 0.0 0.0 0.00011984225420746952 -0.1727142482995987 1.0138550996780396 0.6222168207168579 0.03580780327320099 -0.05594969168305397 0.15889713168144226 -0.1659851223230362 1.0093690156936646 0.6389922499656677 0.04028377681970596 -0.05930667370557785 0.15665914118289948 0.30065280627679947 -0.2006822223490824 0.4005291328184898 -1.2102045105439596 1.209757012381939 -1.2085869117339632 -4.224535117857456e-05 -1.3223957889682198e-05 4.042576780857172e-05 8.008579851153702e-05 -0.00010793076395041196 -7.697010762598374e-05 13.719506140338597 -3.622662754875582 -1.202625869070834 -0.7362270491947351 -1.2630341934566407 0.5582220889143613 0.30067425835220096 -0.20065592692118736 0.4005362931489709 -1.210247350692296 1.2096918126364111 -1.2084628502076804 0.0 0.0 0.0 0.0 0.0 0.0
806.4399999999999 -0.35273104182805426 -1.8722146886143172 -1.6036085167323897 0.33423055175691513 1.9237019015481494 0.0001745329251994221 -0.0 -0.0 -0.0 0.0 -0.0 -0.0 0.0 0.0 0.0 0.0 0.0 0.0 1.045022473969223e-17 0.8206195528958686 0.7152579249980945 0.06622853313744179 -2.3214211217277035e-17 0.0 1.199267726696214e-16 9.452305662766706 6.0390601450654335 0.27335755519509297 -9.637106281790038e-17 0.0 -0.35276538530458623 -1.8722098509417933 -1.6036561171161097 0.33425164222717285 1.9236592054367065 0.00013182648399379104 -7.669904152862728e-05 0.00011504856229294091 -0.0 0.0 0.0 0.00011984225420746952 -0.1637420803308487 1.0093690156936646 0.6344171166419983 0.04699774086475372 -0.05706868693232536 0.16225410997867584 -0.1659851223230362 1.0093690156936646 0.6389922499656677 0.04252176731824875 -0.05930667370557785 0.15889713168144226 0.30066525876346306 -0.20066894477390756 0.40052635018032373 -1.2102519030436338 1.2097467537246624 -1.208535740045222 -4.224450150700351e-05 -1.3226304475784527e-05 4.042612121793357e-05 8.009094049746843e-05 -0.00010792694022623664 -7.697415620998905e-05 12.961449287945577 -3.4778826541659535 -1.2559731036179556 -0.7517667336371459 -1.1372718390314607 0.5515923331173002 0.30067425835220096 -0.20065592692118736 0.4005362931489709 -1.210247350692296 1.2096918126364111 -1.2084628502076804 0.0 0.0 0.0 0.0 0.0 0.0
806.448 -0.35273104182805426 -1.8722146886143172 -1.6036085167323897 0.33423055175691513 1.9237019015481494 0.0001745329251994221 -0.0 -0.0 -0.0 0.0 -0.0 -0.0 0.0 0.0 0.0 0.0 0.0 0.0 1.045022473969223e-17 0.8206195528958686 0.7152579249980945 0.06622853313744179 -2.3214211217277035e-17 0.0 1.199267726696214e-16 9.452305662766706 6.0390601450654335 0.27335755519509297 -9.637106281790038e-17 0.0 -0.3527773062335413 -1.8722222487079065 -1.6036799589740198 0.3342636823654175 1.9236111640930176 0.00013182648399379104 -7.669904152862728e-05 0.00011504856229294091 -0.0 0.0 0.0 0.00011984225420746952 -0.1637420803308487 1.0497437715530396 0.6649179458618164 0.04364075884222984 -0.05371170490980148 0.1544211506843567 -0.1592559963464737 1.0093690156936646 0.6389922499656677 0.04028377681970596 -0.05930667370557785 0.15554013848304749 0.3006651495713399 -0.2006772959652073 0.40051627679558577 -1.2102341443117899 1.2098115282810404 -1.2085629059896807 -4.22439379229475e-05 -1.3226376748642327e-05 4.0426557195172504e-05 8.008965234663464e-05 -0.00010793363972409115 -7.697687614642244e-05 13.360719577088437 -3.773495435371511 -2.931575677793887 -0.7154231771608013 -1.348530896413388 0.5602396889093358 0.30067425835220096 -0.20065592692118736 0.4005362931489709 -1.210247350692296 1.2096918126364111 -1.2084628502076804 0.0 0.0 0.0 0.0 0.0 0.0
806.456 -0.35273104182805426 -1.8722146886143172 -1.6036085167323897 0.33423055175691513 1.9237019015481494 0.0001745329251994221 -0.0 -0.0 -0.0 0.0 -0.0 -0.0 0.0 0.0 0.0 0.0 0.0 0.0 1.045022473969223e-17 0.8206195528958686 0.7152579249980945 0.06622853313744179 -2.3214211217277035e-17 0.0 1.199267726696214e-16 9.452305662766706 6.0390601450654335 0.27335755519509297 -9.637106281790038e-17 0.0 -0.35280114809145147 -1.8721979300128382 -1.6037285963641565 0.33425164222717285 1.9236111640930176 0.00011984225420746952 -7.669904152862728e-05 0.00011504856229294091 -0.0 0.0 0.0 0.00011984225420746952 -0.1637420803308487 1.020584225654602 0.6222168207168579 0.03692679852247238 -0.06490164250135422 0.15889713168144226 -0.1637420803308487 1.0093690156936646 0.6405172944068909 0.04028377681970596 -0.06266365945339203 0.15665914118289948 0.3006563810184591 -0.20068295311461504 0.4005103282599331 -1.2102476478159965 1.209854360351799 -1.2085637542084349 -4.2243494918109474e-05 -1.3225299928688154e-05 4.042606700393961e-05 8.008707424335396e-05 -0.00010793552803921609 -7.698096499138259e-05 13.79415041855779 -4.41093052530627 -1.298204513563999 -0.7360892084094542 -1.2965041000578645 0.6647977632651135 0.30067425835220096 -0.20065592692118736 0.4005362931489709 -1.210247350692296 1.2096918126364111 -1.2084628502076804 0.0 0.0 0.0 0.0 0.0 0.0
806.4639999999999 -0.35273104182805426 -1.8722146886143172 -1.6036085167323897 0.33423055175691513 1.9237019015481494 0.0001745329251994221 -0.0 -0.0 -0.0 0.0 -0.0 -0.0 0.0 0.0 0.0 0.0 0.0 0.0 1.045022473969223e-17 0.8206195528958686 0.7152579249980945 0.06622853313744179 -2.3214211217277035e-17 0.0 1.199267726696214e-16 9.452305662766706 6.0390601450654335 0.27335755519509297 -9.637106281790038e-17 0.0 -0.35276538530458623 -1.8722222487079065 -1.6036799589740198 0.33429956436157227 1.923647165298462 0.00018013788212556392 -7.669904152862728e-05 0.00011504856229294091 -0.0 0.0 0.0 0.00011984225420746952 -0.1659851223230362 0.989181637763977 0.6481425166130066 0.04364075884222984 -0.05259270966053009 0.16001611948013306 -0.1682281643152237 1.0093690156936646 0.6405172944068909 0.04028377681970596 -0.05818767845630646 0.15665914118289948 0.3006646702499215 -0.20066969136301505 0.40051904966026547 -1.2102055423401823 1.209768461412528 -1.2085171536186745 -4.2243770689525925e-05 -1.3226549459039628e-05 4.042608735813242e-05 8.009094238303364e-05 -0.00010792837534089399 -7.697284188971795e-05 11.658556425367967 -2.052819507031347 -1.3823722709297133 -0.7415931321007347 -1.0120239453969146 0.41342686458745576 0.30067425835220096 -0.20065592692118736 0.4005362931489709 -1.210247350692296 1.2096918126364111 -1.2084628502076804 0.0 0.0 0.0 0.0 0.0 0.0
806.472 -0.35273104182805426 -1.8722146886143172 -1.6036085167323897 0.33423055175691513 1.9237019015481494 0.0001745329251994221 -0.0 -0.0 -0.0 0.0 -0.0 -0.0 0.0 0.0 0.0 0.0 0.0 0.0 1.045022473969223e-17 0.8206195528958686 0.7152579249980945 0.06622853313744179 -2.3214211217277035e-17 0.0 1.199267726696214e-16 9.452305662766706 6.0390601450654335 0.27335755519509297 -9.637106281790038e-17 0.0 -0.35275346437563115 -1.8722341696368616 -1.6036441961871546 0.3343116044998169 1.9236351251602173 0.00018013788212556392 -7.669904152862728e-05 0.00011504856229294091 -0.0 0.0 0.0 0.00011984225420746952 -0.1682281643152237 0.984695553779602 0.6222168207168579 0.04028377681970596 -0.05371170490980148 0.15665914118289948 -0.1659851223230362 1.0093690156936646 0.6405172944068909 0.04028377681970596 -0.05930667370557785 0.15665914118289948 0.3006683443195513 -0.2006676064913533 0.4005257643337998 -1.2101897577152738 1.2097379938421953 -1.2085424061115209 -4.224445316244163e-05 -1.3226884638140292e-05 4.0426285357637173e-05 8.009223381610583e-05 -0.00010792888053030171 -7.696880641278144e-05 12.521717149813474 -2.7375372264281355 -0.6044822811434247 -0.7259521592008782 -1.0654825231853031 0.47498454754222835 0.30067425835220096 -0.20065592692118736 0.4005362931489709 -1.210247350692296 1.2096918126364111 -1.2084628502076804 0.0 0.0 0.0 0.0 0.0 0.0
806.48 -0.35273104182805426 -1.8722146886143172 -1.6036085167323897 0.33423055175691513 1.9237019015481494 0.0001745329251994221 -0.0 -0.0 -0.0 0.0 -0.0 -0.0 0.0 0.0 0.0 0.0 0.0 0.0 1.045022473969223e-17 0.8206195528958686 0.7152579249980945 0.06622853313744179 -2.3214211217277035e-17 0.0 1.199267726696214e-16 9.452305662766706 6.0390601450654335 0.27335755519509297 -9.637106281790038e-17 0.0 -0.3527172247516077 -1.8722098509417933 -1.6037161985980433 0.3342876434326172 1.9236111640930176 0.0001561694371048361 -7.669904152862728e-05 0.00011504856229294091 -0.0 0.0 0.0 0.00011984225420746952 -0.1704712063074112 1.0138550996780396 0.642042338848114 0.034688808023929596 -0.06602063775062561 0.15554013848304749 -0.1659851223230362 1.0093690156936646 0.6405172944068909 0.04028377681970596 -0.05930667370557785 0.15665914118289948 0.30067293539105144 -0.20065762603617768 0.4005123795667374 -1.2102446272269 1.209778597174988 -1.2085007737845122 -4.2242599082200995e-05 -1.3228741547284397e-05 4.0426032318952075e-05 8.0096137026761e-05 -0.00010792881523755375 -7.697686267286767e-05 12.831632069119314 -3.1521314457147946 -1.8149258373278323 -0.7205605337824547 -1.234211547044051 0.5664538448700233 0.30067425835220096 -0.20065592692118736 0.4005362931489709 -1.210247350692296 1.2096918126364111 -1.2084628502076804 0.0 0.0 0.0 0.0 0.0 0.0
806.4879999999999 -0.35273104182805426 -1.8722146886143172 -1.6036085167323897 0.33423055175691513 1.9237019015481494 0.0001745329251994221 -0.0 -0.0 -0.0 0.0 -0.0 -0.0 0.0 0.0 0.0 0.0 0.0 0.0 1.045022473969223e-17 0.8206195528958686 0.7152579249980945 0.06622853313744179 -2.3214211217277035e-17 0.0 1.199267726696214e-16 9.452305662766706 6.0390601450654335 0.27335755519509297 -9.637106281790038e-17 0.0 -0.35276538530458623 -1.8721979300128382 -1.6036203543292444 0.3342876434326172 1.9236711263656616 0.00013182648399379104 -7.669904152862728e-05 0.00011504856229294091 -0.0 0.0 0.0 0.00011984225420746952 -0.1659851223230362 0.984695553779602 0.6466174721717834 0.03916478529572487 -0.05594969168305397 0.1544211506843567 -0.1659851223230362 1.0093690156936646 0.6405172944068909 0.04028377681970596 -0.05930667370557785 0.15665914118289948 0.3006590576524434 -0.20066572778046302 0.40054329398039357 -1.2102209243726825 1.2096666243673815 -1.2085855589145622 -4.2246083615072685e-05 -1.3225154445039744e-05 4.0425323848448275e-05 8.009095022727801e-05 -0.00010792553636742643 -7.696474588723993e-05 11.498084370111183 -1.9767608018927694 -1.3510628536403426 -0.715627187015459 -1.0250578313820722 0.4227950557317001 0.30067425835220096 -0.20065592692118736 0.4005362931489709 -1.210247350692296 1.2096918126364111 -1.2084628502076804 0.0 0.0 0.0 0.0 0.0 0.0
806.496 -0.35273104182805426 -1.8722146886143172 -1.6036085167323897 0.33423055175691513 1.9237019015481494 0.0001745329251994221 -0.0 -0.0 -0.0 0.0 -0.0 -0.0 0.0 0.0 0.0 0.0 0.0 0.0 1.045022473969223e-17 0.8206195528958686 0.7152579249980945 0.06622853313744179 -2.3214211217277035e-17 0.0 1.199267726696214e-16 9.452305662766706 6.0390601450654335 0.27335755519509297 -9.637106281790038e-17 0.0 -0.3527773062335413 -1.8722460905658167 -1.6036322752581995 0.334323525428772 1.9236592054367065 0.000107858024421148 -7.669904152862728e-05 0.00011504856229294091 -0.0 0.0 0.0 0.00011984225420746952 -0.1704712063074112 1.0317994356155396 0.6435673832893372 0.038045790046453476 -0.05706868693232536 0.1510641723871231 -0.1659851223230362 1.007125973701477 0.6405172944068909 0.03692679852247238 -0.06042566895484924 0.15665914118289948 0.3006652106231181 -0.2006734077064701 0.4005258205827576 -1.21023789704056 1.2096934598855131 -1.2086037838725283 -4.2244669519451616e-05 -1.3226002050271587e-05 4.0426409218387314e-05 8.008966120477034e-05 -0.0001079279094098957 -7.696746648089698e-05 13.555143578006497 -3.627052181601106 -2.1015171590619817 -0.6998318205431121 -1.3255731378520905 0.5638296138806783 0.30067425835220096 -0.20065592692118736 0.4005362931489709 -1.210247350692296 1.2096918126364111 -1.2084628502076804 0.0 0.0 0.0 0.0 0.0 0.0
806.504 -0.35273104182805426 -1.8722146886143172 -1.6036085167323897 0.33423055175691513 1.9237019015481494 0.0001745329251994221 -0.0 -0.0 -0.0 0.0 -0.0 -0.0 0.0 0.0 0.0 0.0 0.0 0.0 1.045022473969223e-17 0.8206195528958686 0.7152579249980945 0.06622853313744179 -2.3214211217277035e-17 0.0 1.199267726696214e-16 9.452305662766706 6.0390601450654335 0.27335755519509297 -9.637106281790038e-17 0.0 -0.3527291456805628 -1.8722341696368616 -1.6036561171161097 0.33427560329437256 1.923647165298462 0.00013182648399379104 -7.669904152862728e-05 0.00011504856229294091 -0.0 0.0 0.0 0.00011984225420746952 -0.1704712063074112 1.020584225654602 0.652717649936676 0.04364075884222984 -0.051473718136548996 0.15889713168144226 -0.1659851223230362 1.002639889717102 0.6405172944068909 0.04252176731824875 -0.05930667370557785 0.15665914118289948 0.300676287019529 -0.20066041412163804 0.4005196572351806 -1.2102635068262317 1.209729215064835 -1.2085176696622562 -4.224348132673893e-05 -1.3228390051891579e-05 4.042662078428714e-05 8.009485210846834e-05 -0.00010792547912728148 -7.697419590642235e-05 12.807061522420504 -2.819556548408387 -2.0624945930255487 -0.7362374136446603 -1.1921120789705384 0.4713615847547736 0.30067425835220096 -0.20065592692118736 0.4005362931489709 -1.210247350692296 1.2096918126364111 -1.2084628502076804 0.0 0.0 0.0 0.0 0.0 0.0
806.512 -0.35273104182805426 -1.8722146886143172 -1.6036085167323897 0.33423055175691513 1.9237019015481494 0.0001745329251994221 -0.0 -0.0 -0.0 0.0 -0.0 -0.0 0.0 0.0 0.0 0.0 0.0 0.0 1.045022473969223e-17 0.8206195528958686 0.7152579249980945 0.06622853313744179 -2.3214211217277035e-17 0.0 1.199267726696214e-16 9.452305662766706 6.0390601450654335 0.27335755519509297 -9.637106281790038e-17 0.0 -0.35276538530458623 -1.8722098509417933 -1.603692356740133 0.3342636823654175 1.9236111640930176 0.00016815366689115763 -7.669904152862728e-05 0.00011504856229294091 -0.0 0.0 0.0 0.00011984225420746952 -0.1682281643152237 1.0183411836624146 0.6206917762756348 0.04028377681970596 -0.0682586282491684 0.16001611948013306 -0.1659851223230362 1.0048829317092896 0.6405172944068909 0.041402772068977356 -0.05706868693232536 0.15665914118289948 0.3006648336790404 -0.20067270644959237 0.4005171759486676 -1.2102130354308194 1.2098199141585118 -1.2085273715241092 -4.224380007761825e-05 -1.3226636499291184e-05 4.0426224855827326e-05 8.009093900919707e-05 -0.00010793268121022994 -7.697687618890378e-05 13.836436747135574 -4.256257707840237 -1.143579557184855 -0.7412617153864518 -1.2641252479055989 0.6677085779304506 0.30067425835220096 -0.20065592692118736 0.4005362931489709 -1.210247350692296 1.2096918126364111 -1.2084628502076804 0.0 0.0 0.0 0.0 0.0 0.0
806.52 -0.35273104182805426 -1.8722146886143172 -1.6036085167323897 0.33423055175691513 1.9237019015481494 0.0001745329251994221 -0.0 -0.0 -0.0 0.0 -0.0 -0.0 0.0 0.0 0.0 0.0 0.0 0.0 1.045022473969223e-17 0.8206195528958686 0.7152579249980945 0.06622853313744179 -2.3214211217277035e-17 0.0 1.199267726696214e-16 9.452305662766706 6.0390601450654335 0.27335755519509297 -9.637106281790038e-17 0.0 -0.3527410666095179 -1.8722222487079065 -1.603692356740133 0.3342397212982178 1.9236711263656616 0.0001561694371048361 -7.669904152862728e-05 0.00011504856229294091 -0.0 0.0 0.0 0.00011984225420746952 -0.1659851223230362 1.025070309638977 0.660342812538147 0.04252176731824875 -0.05818767845630646 0.1544211506843567 -0.1659851223230362 1.007125973701477 0.642042338848114 0.04028377681970596 -0.05818767845630646 0.15665914118289948 0.30067453021267754 -0.20066222051962737 0.4005109663492367 -1.2102776239806317 1.2097831790428968 -1.2084487175671954 -4.2242564100506086e-05 -1.322828073445302e-05 4.042661870065434e-05 8.009355682332636e-05 -0.00010792354178557027 -7.698096643687901e-05 12.564710781167513 -3.004672597670216 -2.3905919800551874 -0.7153681753210884 -1.2174276295058668 0.5179012402512171 0.30067425835220096 -0.20065592692118736 0.4005362931489709 -1.210247350692296 1.2096918126364111 -1.2084628502076804 0.0 0.0 0.0 0.0 0.0 0.0
806.528 -0.35273104182805426 -1.8722146886143172 -1.6036085167323897 0.33423055175691513 1.9237019015481494 0.0001745329251994221 -0.0 -0.0 -0.0 0.0 -0.0 -0.0 0.0 0.0 0.0 0.0 0.0 0.0 1.045022473969223e-17 0.8206195528958686 0.7152579249980945 0.06622853313744179 -2.3214211217277035e-17 0.0 1.199267726696214e-16 9.452305662766706 6.0390601450654335 0.27335755519509297 -9.637106281790038e-17 0.0 -0.35281306902040654 -1.8721979300128382 -1.6037047545062464 0.3342876434326172 1.9236351251602173 0.0001561694371048361 -7.669904152862728e-05 0.00011504856229294091 -0.0 0.0 0.0 0.00011984225420746952 -0.1682281643152237 1.011612057685852 0.6405172944068909 0.04364075884222984 -0.0682586282491684 0.15889713168144226 -0.1659851223230362 1.007125973701477 0.642042338848114 0.04028377681970596 -0.06042566895484924 0.15665914118289948 0.30065075030821786 -0.2006834001391318 0.400519759184606 -1.2102003972340067 1.2098116600970692 -1.2085700441653542 -4.224442969296335e-05 -1.3224172570678197e-05 4.042559266877536e-05 8.008579464978623e-05 -0.00010793362795059278 -7.697423586559553e-05 12.79888523974202 -3.303387416814617 -1.545266038829926 -0.7362259312327187 -1.1640376968688801 0.5892388692958426 0.30067425835220096 -0.20065592692118736 0.4005362931489709 -1.210247350692296 1.2096918126364111 -1.2084628502076804 0.0 0.0 0.0 0.0 0.0 0.0
806.536 -0.35273104182805426 -1.8722146886143172 -1.6036085167323897 0.33423055175691513 1.9237019015481494 0.0001745329251994221 -0.0 -0.0 -0.0 0.0 -0.0 -0.0 0.0 0.0 0.0 0.0 0.0 0.0 1.045022473969223e-17 0.8206195528958686 0.7152579249980945 0.06622853313744179 -2.3214211217277035e-17 0.0 1.199267726696214e-16 9.452305662766706 6.0390601450654335 0.27335755519509297 -9.637106281790038e-17 0.0 -0.3527773062335413 -1.8722460905658167 -1.6036799589740198 0.33427560329437256 1.923647165298462 0.00014418520731851459 -7.669904152862728e-05 0.00011504856229294091 -0.0 0.0 0.0 0.00011984225420746952 -0.1659851223230362 1.025070309638977 0.6359421610832214 0.04364075884222984 -0.06602063775062561 0.1533021628856659 -0.1659851223230362 1.007125973701477 0.642042338848114 0.04028377681970596 -0.05706868693232536 0.15665914118289948 0.30066976179097044 -0.20067601829901952 0.40050881985543224 -1.2102472808491918 1.2098010242885358 -1.2085189572140185 -4.224303467752157e-05 -1.3227027584079288e-05 4.042700435121749e-05 8.008964969247449e-05 -0.00010792932224174966 -7.697821749058702e-05 13.492822012212665 -4.0251770138814145 -1.643814313766713 -0.7101106396278902 -1.2636280947576572 0.6382987009416841 0.30067425835220096 -0.20065592692118736 0.4005362931489709 -1.210247350692296 1.2096918126364111 -1.2084628502076804 0.0 0.0 0.0 0.0 0.0 0.0
806.544 -0.35273104182805426 -1.8722146886143172 -1.6036085167323897 0.33423055175691513 1.9237019015481494 0.0001745329251994221 -0.0 -0.0 -0.0 0.0 -0.0 -0.0 0.0 0.0 0.0 0.0 0.0 0.0 1.045022473969223e-17 0.8206195528958686 0.7152579249980945 0.06622853313744179 -2.3214211217277035e-17 0.0 1.199267726696214e-16 9.452305662766706 6.0390601450654335 0.27335755519509297 -9.637106281790038e-17 0.0 -0.35275346437563115 -1.8721979300128382 -1.6036680380450647 0.33429956436157227 1.9236592054367065 0.0001561694371048361 -7.669904152862728e-05 0.00011504856229294091 -0.0 0.0 0.0 0.00011984225420746952 -0.1659851223230362 1.020584225654602 0.6511926054954529 0.04587874934077263 -0.06490164250135422 0.15665914118289948 -0.1659851223230362 1.0093690156936646 0.642042338848114 0.04028377681970596 -0.05818767845630646 0.15665914118289948 0.3006612084977008 -0.2006629844639822 0.40053091873397617 -1.2102186819150809 1.2097085640255947 -1.2085425316769434 -4.224465449205729e-05 -1.3226131433970598e-05 4.0425331224779775e-05 8.009223299059798e-05 -0.00010792598823731516 -7.696876707607663e-05 12.727326032468984 -3.2972157543210794 -1.9711310017529067 -0.7257836458479329 -1.1856736382017417 0.5731771314904978 0.30067425835220096 -0.20065592692118736 0.4005362931489709 -1.210247350692296 1.2096918126364111 -1.2084628502076804 0.0 0.0 0.0 0.0 0.0 0.0
806.5519999999999 -0.35273104182805426 -1.8722146886143172 -1.6036085167323897 0.33423055175691513 1.9237019015481494 0.0001745329251994221 -0.0 -0.0 -0.0 0.0 -0.0 -0.0 0.0 0.0 0.0 0.0 0.0 0.0 1.045022473969223e-17 0.8206195528958686 0.7152579249980945 0.06622853313744179 -2.3214211217277035e-17 0.0 1.199267726696214e-16 9.452305662766706 6.0390601450654335 0.27335755519509297 -9.637106281790038e-17 0.0 -0.35275346437563115 -1.8722341696368616 -1.6036680380450647 0.33427560329437256 1.9236351251602173 0.00020410634169820696 -7.669904152862728e-05 0.00011504856229294091 -0.0 0.0 0.0 0.00011984225420746952 -0.1659851223230362 0.9869385957717896 0.642042338848114 0.038045790046453476 -0.06154466047883034 0.1544211506843567 -0.1659851223230362 1.007125973701477 0.642042338848114 0.04028377681970596 -0.05930667370557785 0.15665914118289948 0.3006715847614444 -0.20066877007790054 0.40051633320997126 -1.2101982821371327 1.2098003658678258 -1.208482871484105 -4.224352435641179e-05 -1.3227508520582704e-05 4.0426681459231515e-05 8.009222639310326e-05 -0.00010792886388937589 -7.697553612810136e-05 11.730254794938629 -2.3095230684362797 -1.2784086355657078 -0.7155445921843825 -1.0548358785845695 0.4762476426690413 0.30067425835220096 -0.20065592692118736 0.4005362931489709 -1.210247350692296 1.2096918126364111 -1.2084628502076804 0.0 0.0 0.0 0.0 0.0 0.0
806.56 -0.35273104182805426 -1.8722146886143172 -1.6036085167323897 0.33423055175691513 1.9237019015481494 0.0001745329251994221 -0.0 -0.0 -0.0 0.0 -0.0 -0.0 0.0 0.0 0.0 0.0 0.0 0.0 1.045022473969223e-17 0.8206195528958686 0.7152579249980945 0.06622853313744179 -2.3214211217277035e-17 0.0 1.199267726696214e-16 9.452305662766706 6.0390601450654335 0.27335755519509297 -9.637106281790038e-17 0.0 -0.3527172247516077 -1.8722098509417933 -1.6036799589740198 0.3342876434326172 1.9236232042312622 0.00019212211191188544 -7.669904152862728e-05 0.00011504856229294091 -0.0 0.0 0.0 0.00011984225420746952 -0.1682281643152237 1.016098141670227 0.6496675610542297 0.038045790046453476 -0.05706868693232536 0.15777812898159027 -0.1592559963464737 1.007125973701477 0.6435673832893372 0.04028377681970596 -0.05818767845630646 0.15665914118289948 0.3006723938781121 -0.20065647533010367 0.400522485050437 -1.2102079502438488 1.2097558925191432 -1.2084908650494155 -4.224360169870098e-05 -1.3228298284497585e-05 4.042592811859715e-05 8.009614117218055e-05 -0.0001079273903317858 -7.697278770431277e-05 12.65146947635173 -2.9278417600032305 -2.0103387734464055 -0.7310224726424824 -1.2074838922009121 0.506318689779206 0.30067425835220096 -0.20065592692118736 0.4005362931489709 -1.210247350692296 1.2096918126364111 -1.2084628502076804 0.0 0.0 0.0 0.0 0.0 0.0
806.568 -0.35273104182805426 -1.8722146886143172 -1.6036085167323897 0.33423055175691513 1.9237019015481494 0.0001745329251994221 -0.0 -0.0 -0.0 0.0 -0.0 -0.0 0.0 0.0 0.0 0.0 0.0 0.0 1.045022473969223e-17 0.8206195528958686 0.7152579249980945 0.06622853313744179 -2.3214211217277035e-17 0.0 1.199267726696214e-16 9.452305662766706 6.0390601450654335 0.27335755519509297 -9.637106281790038e-17 0.0 -0.35275346437563115 -1.8721979300128382 -1.6036680380450647 0.3343116044998169 1.923647165298462 0.00018013788212556392 -7.669904152862728e-05 0.00011504856229294091 -0.0 0.0 0.0 0.00011984225420746952 -0.1592559963464737 0.9914246797561646 0.6466174721717834 0.041402772068977356 -0.06042566895484924 0.15777812898159027 -0.1614990383386612 1.0093690156936646 0.6450924277305603 0.04028377681970596 -0.05818767845630646 0.15665914118289948 0.3006602433329833 -0.20066362194048612 0.4005318495592532 -1.2101900665461083 1.209718500944122 -1.2085421718250116 -4.2244803970847935e-05 -1.322602027039286e-05 4.0425252361981816e-05 8.009223487949901e-05 -0.00010792743274667438 -7.696741272331258e-05 11.641399392908202 -2.600405588534796 -1.4228871341178124 -0.7311205609236746 -1.0460582017539006 0.49498483121498366 0.30067425835220096 -0.20065592692118736 0.4005362931489709 -1.210247350692296 1.2096918126364111 -1.2084628502076804 0.0 0.0 0.0 0.0 0.0 0.0
806.5759999999999 -0.35273104182805426 -1.8722146886143172 -1.6036085167323897 0.33423055175691513 1.9237019015481494 0.0001745329251994221 -0.0 -0.0 -0.0 0.0 -0.0 -0.0 0.0 0.0 0.0 0.0 0.0 0.0 1.045022473969223e-17 0.8206195528958686 0.7152579249980945 0.06622853313744179 -2.3214211217277035e-17 0.0 1.199267726696214e-16 9.452305662766706 6.0390601450654335 0.27335755519509297 -9.637106281790038e-17 0.0 -0.3528249899493616 -1.872174088154928 -1.6037161985980433 0.3343116044998169 1.9235992431640625 0.00016815366689115763 -7.669904152862728e-05 0.00011504856229294091 -0.0 0.0 0.0 0.00011984225420746952 -0.1704712063074112 1.020584225654602 0.6344171166419983 0.041402772068977356 -0.06154466047883034 0.15554013848304749 -0.1682281643152237 1.0093690156936646 0.6496675610542297 0.041402772068977356 -0.05818767845630646 0.15665914118289948 0.3006410427891995 -0.20068724643114383 0.4005267980953123 -1.2101530778621774 1.2098214962813283 -1.208621821636449 -4.224536741187676e-05 -1.3222827028429321e-05 4.0424813346797855e-05 8.008451333865788e-05 -0.00010793888493480874 -7.697014614150625e-05 13.462486631077649 -3.6380565767743547 -1.5659679258701986 -0.7207166207362821 -1.2496429203251829 0.5854578103683221 0.30067425835220096 -0.20065592692118736 0.4005362931489709 -1.210247350692296 1.2096918126364111 -1.2084628502076804 0.0 0.0 0.0 0.0 0.0 0.0
806.584 -0.35273104182805426 -1.8722146886143172 -1.6036085167323897 0.33423055175691513 1.9237019015481494 0.0001745329251994221 -0.0 -0.0 -0.0 0.0 -0.0 -0.0 0.0 0.0 0.0 0.0 0.0 0.0 1.045022473969223e-17 0.8206195528958686 0.7152579249980945 0.06622853313744179 -2.3214211217277035e-17 0.0 1.199267726696214e-16 9.452305662766706 6.0390601450654335 0.27335755519509297 -9.637106281790038e-17 0.0 -0.3527773062335413 -1.872186009083883 -1.6036561171161097 0.3343116044998169 1.923647165298462 0.00020410634169820696 -7.669904152862728e-05 0.00011504856229294091 -0.0 0.0 0.0 0.00011984225420746952 -0.1659851223230362 1.025070309638977 0.6466174721717834 0.03580780327320099 -0.054830700159072876 0.16001611948013306 -0.1637420803308487 1.0093690156936646 0.652717649936676 0.038045790046453476 -0.05818767845630646 0.15665914118289948 0.3006524979437034 -0.20066971868700237 0.4005393624643747 -1.2101506961445563 1.2097270928704624 -1.2085587796963257 -4.2245848069554455e-05 -1.322448688319129e-05 4.042489007864964e-05 8.00896644873588e-05 -0.00010792935042255526 -7.696473168036165e-05 13.09468381009528 -3.4204618385208123 -2.121654939851831 -0.7414321519692179 -1.2771852859020165 0.5363993634452053 0.30067425835220096 -0.20065592692118736 0.4005362931489709 -1.210247350692296 1.2096918126364111 -1.2084628502076804 0.0 0.0 0.0 0.0 0.0 0.0
806.592 -0.35273104182805426 -1.8722146886143172 -1.6036085167323897 0.33423055175691513 1.9237019015481494 0.0001745329251994221 -0.0 -0.0 -0.0 0.0 -0.0 -0.0 0.0 0.0 0.0 0.0 0.0 0.0 1.045022473969223e-17 0.8206195528958686 0.7152579249980945 0.06622853313744179 -2.3214211217277035e-17 0.0 1.199267726696214e-16 9.452305662766706 6.0390601450654335 0.27335755519509297 -9.637106281790038e-17 0.0 -0.35276538530458623 -1.8722098509417933 -1.6036441961871546 0.3343355655670166 1.9236232042312622 0.00013182648399379104 -7.669904152862728e-05 0.00011504856229294091 -0.0 0.0 0.0 0.00011984225420746952 -0.1637420803308487 0.966751217842102 0.6633929014205933 0.044759754091501236 -0.06042566895484924 0.15554013848304749 -0.1614990383386612 1.0093690156936646 0.6557676792144775 0.03916478529572487 -0.05818767845630646 0.15665914118289948 0.3006583557733329 -0.20066938890123068 0.40053616163061256 -1.2101929700803689 1.2096914916324029 -1.2086292826289646 -4.224559490656186e-05 -1.3225384032301032e-05 4.042539360559846e-05 8.009095329544563e-05 -0.00010793127171149397 -7.696337679677793e-05 10.083876586792021 -0.9046001651864982 -1.421978978933346 -0.7209886783649214 -0.8469832891051244 0.35532444217632386 0.30067425835220096 -0.20065592692118736 0.4005362931489709 -1.210247350692296 1.2096918126364111 -1.2084628502076804 0.0 0.0 0.0 0.0 0.0 0.0
