Fleaurent/UniversalRobot/csv/prakt_movel_x400_Singular.csv
timestamp target_q_0 target_q_1 target_q_2 target_q_3 target_q_4 target_q_5 target_qd_0 target_qd_1 target_qd_2 target_qd_3 target_qd_4 target_qd_5 target_qdd_0 target_qdd_1 target_qdd_2 target_qdd_3 target_qdd_4 target_qdd_5 target_current_0 target_current_1 target_current_2 target_current_3 target_current_4 target_current_5 target_moment_0 target_moment_1 target_moment_2 target_moment_3 target_moment_4 target_moment_5 actual_q_0 actual_q_1 actual_q_2 actual_q_3 actual_q_4 actual_q_5 actual_qd_0 actual_qd_1 actual_qd_2 actual_qd_3 actual_qd_4 actual_qd_5 actual_current_0 actual_current_1 actual_current_2 actual_current_3 actual_current_4 actual_current_5 joint_control_output_0 joint_control_output_1 joint_control_output_2 joint_control_output_3 joint_control_output_4 joint_control_output_5 actual_TCP_pose_0 actual_TCP_pose_1 actual_TCP_pose_2 actual_TCP_pose_3 actual_TCP_pose_4 actual_TCP_pose_5 actual_TCP_speed_0 actual_TCP_speed_1 actual_TCP_speed_2 actual_TCP_speed_3 actual_TCP_speed_4 actual_TCP_speed_5 actual_TCP_force_0 actual_TCP_force_1 actual_TCP_force_2 actual_TCP_force_3 actual_TCP_force_4 actual_TCP_force_5 target_TCP_pose_0 target_TCP_pose_1 target_TCP_pose_2 target_TCP_pose_3 target_TCP_pose_4 target_TCP_pose_5 target_TCP_speed_0 target_TCP_speed_1 target_TCP_speed_2 target_TCP_speed_3 target_TCP_speed_4 target_TCP_speed_5
7712.0 1.6244145631790161 -2.085700337086813 2.3236467838287354 -3.472584072743551 -0.05377322832216436 0.11205138266086578 0.0 0.0 0.0 0.0 0.0 0.0 0.0 0.0 0.0 0.0 0.0 0.0 1.9747353935518702e-17 -0.01635456166548786 -0.6928915259581856 0.01968809579943538 -0.006510300211118856 0.0 2.2662062158878047e-16 -0.18838000544495248 -5.850216338782681 0.08126240276244055 -0.02702674429627759 0.0 1.6244984865188599 -2.0856884161578577 2.323622941970825 -3.4726079146014612 -0.053785149251119435 0.11202741414308548 0.0 0.0 -0.0 0.0 0.0 0.0 0.01345825381577015 -0.0672912672162056 -0.7198194265365601 0.05818767845630646 -0.04923573136329651 0.07385359704494476 0.006729126907885075 -0.0717773512005806 -0.7457451224327087 0.06378264725208282 -0.04923573136329651 0.09847146272659302 0.19969557876993466 -0.07273180858285139 0.3985950448526819 -1.1969365228324722 1.2180014360739193 -1.193855579643122 0.0 0.0 0.0 0.0 0.0 0.0 -1.9427423925038652 -3.6734804310360025 -2.930174836907284 -0.3386814644285369 -2.3730825979102774 0.7017092182231575 0.1996894554583975 -0.07274751472285904 0.39859117483232454 -1.196859983632481 1.2180842510740573 -1.193863433688838 0.0 0.0 0.0 0.0 0.0 0.0
7712.008 1.6244145631790161 -2.085700337086813 2.3236467838287354 -3.472584072743551 -0.05377322832216436 0.11205138266086578 0.0 0.0 0.0 0.0 0.0 0.0 0.0 0.0 0.0 0.0 0.0 0.0 1.9747353935518702e-17 -0.01635456166548786 -0.6928915259581856 0.01968809579943538 -0.006510300211118856 0.0 2.2662062158878047e-16 -0.18838000544495248 -5.850216338782681 0.08126240276244055 -0.02702674429627759 0.0 1.6243785619735718 -2.0856526533709925 2.3235630989074707 -3.472584072743551 -0.053760830556051076 0.11202741414308548 0.0 0.0 -0.0 0.0 0.0 0.0 0.0022430422250181437 -0.0650482252240181 -0.7365949153900146 0.054830700159072876 -0.04364075884222984 0.09175749868154526 0.004486084450036287 -0.0717773512005806 -0.7457451224327087 0.067139632999897 -0.04923573136329651 0.09959045052528381 0.1996873703007141 -0.0727625341447967 0.3986041416520064 -1.1968924174316637 1.218072831679661 -1.1939252291420668 0.0 0.0 0.0 0.0 0.0 0.0 2.671024792482318 -2.8626699278092445 -3.5291033231796805 -0.42566717510406393 0.36200407812592283 0.34842720652884174 0.1996894554583975 -0.07274751472285904 0.39859117483232454 -1.196859983632481 1.2180842510740573 -1.193863433688838 0.0 0.0 0.0 0.0 0.0 0.0
7712.016 1.6244145631790161 -2.085700337086813 2.3236467838287354 -3.472584072743551 -0.05377322832216436 0.11205138266086578 0.0 0.0 0.0 0.0 0.0 0.0 0.0 0.0 0.0 0.0 0.0 0.0 1.9747353935518702e-17 -0.01635456166548786 -0.6928915259581856 0.01968809579943538 -0.006510300211118856 0.0 2.2662062158878047e-16 -0.18838000544495248 -5.850216338782681 0.08126240276244055 -0.02702674429627759 0.0 1.6244264841079712 -2.085712258015768 2.323622941970825 -3.4726317564593714 -0.053785149251119435 0.11200307309627533 0.0 0.0 -0.0 0.0 0.0 0.0 0.011215210892260075 -0.0672912672162056 -0.7472701668739319 0.05930667370557785 -0.05259270966053009 0.09959045052528381 0.006729126907885075 -0.0717773512005806 -0.7457451224327087 0.06378264725208282 -0.04923573136329651 0.09959045052528381 0.199689916572653 -0.07273827648499523 0.39859695239545245 -1.196953240683705 1.218018357395469 -1.1939628189216227 0.0 0.0 0.0 0.0 0.0 0.0 1.1354791990107762 -2.939532308616182 -4.111713319751398 -0.4624154109050942 0.7035552704034751 0.3600957108968555 0.1996894554583975 -0.07274751472285904 0.39859117483232454 -1.196859983632481 1.2180842510740573 -1.193863433688838 0.0 0.0 0.0 0.0 0.0 0.0
7712.023999999999 1.6244145631790161 -2.085700337086813 2.3236467838287354 -3.472584072743551 -0.05377322832216436 0.11205138266086578 0.0 0.0 0.0 0.0 0.0 0.0 0.0 0.0 0.0 0.0 0.0 0.0 1.9747353935518702e-17 -0.01635456166548786 -0.6928915259581856 0.01968809579943538 -0.006510300211118856 0.0 2.2662062158878047e-16 -0.18838000544495248 -5.850216338782681 0.08126240276244055 -0.02702674429627759 0.0 1.6244385242462158 -2.085712258015768 2.3236589431762695 -3.4726079146014612 -0.053785149251119435 0.11201542615890503 0.0 0.0 -0.0 0.0 0.0 0.0 0.008972168900072575 -0.0695343092083931 -0.7259196043014526 0.07161560654640198 -0.04364075884222984 0.11078038811683655 0.006729126907885075 -0.0717773512005806 -0.7457451224327087 0.06490164250135422 -0.04923573136329651 0.09959045052528381 0.19969094353098693 -0.07273915651889469 0.3985897032383592 -1.196908017405691 1.2180457727681733 -1.1938994550510693 0.0 0.0 0.0 0.0 0.0 0.0 1.5194935205468068 -3.717065889373785 -3.595420003284844 -0.512435114879146 -0.6857862834101455 0.5162925546765537 0.1996894554583975 -0.07274751472285904 0.39859117483232454 -1.196859983632481 1.2180842510740573 -1.193863433688838 0.0 0.0 0.0 0.0 0.0 0.0
7712.031999999999 1.6244145631790161 -2.085700337086813 2.3236467838287354 -3.472584072743551 -0.05377322832216436 0.11205138266086578 0.0 0.0 0.0 0.0 0.0 0.0 0.0 0.0 0.0 0.0 0.0 0.0 1.9747353935518702e-17 -0.01635456166548786 -0.6928915259581856 0.01968809579943538 -0.006510300211118856 0.0 2.2662062158878047e-16 -0.18838000544495248 -5.850216338782681 0.08126240276244055 -0.02702674429627759 0.0 1.6243666410446167 -2.0856884161578577 2.3236589431762695 -3.4726079146014612 -0.053760830556051076 0.11203939467668533 0.0 0.0 -0.0 0.0 0.0 0.0 0.008972168900072575 -0.0740203931927681 -0.7381199598312378 0.0682586282491684 -0.05259270966053009 0.09063850343227386 0.006729126907885075 -0.0717773512005806 -0.7457451224327087 0.06602063775062561 -0.04923573136329651 0.09959045052528381 0.19968602632893573 -0.07275739169374959 0.3985875274345422 -1.1968524284970132 1.2181054878413151 -1.1938977305553742 0.0 0.0 0.0 0.0 0.0 0.0 -0.6241287102653349 -3.8288309967699434 -4.05549427253143 -0.4171511215281862 -2.084504142248057 0.6945288613513906 0.1996894554583975 -0.07274751472285904 0.39859117483232454 -1.196859983632481 1.2180842510740573 -1.193863433688838 0.0 0.0 0.0 0.0 0.0 0.0
7712.04 1.6244145631790161 -2.085700337086813 2.3236467838287354 -3.472584072743551 -0.05377322832216436 0.11205138266086578 0.0 0.0 0.0 0.0 0.0 0.0 0.0 0.0 0.0 0.0 0.0 0.0 1.9747353935518702e-17 -0.01635456166548786 -0.6928915259581856 0.01968809579943538 -0.006510300211118856 0.0 2.2662062158878047e-16 -0.18838000544495248 -5.850216338782681 0.08126240276244055 -0.02702674429627759 0.0 1.6244264841079712 -2.0856526533709925 2.32361102104187 -3.4726198355304163 -0.053760830556051076 0.11202741414308548 0.0 0.0 -0.0 0.0 0.0 0.0 0.006729126907885075 -0.0717773512005806 -0.7762459516525269 0.06042566895484924 -0.04699774086475372 0.11525636911392212 0.006729126907885075 -0.0717773512005806 -0.7457451224327087 0.06490164250135422 -0.04923573136329651 0.09959045052528381 0.19969074110201798 -0.0727515744535047 0.3985942607633464 -1.1969069250945181 1.218043935439616 -1.193880622464157 0.0 0.0 0.0 0.0 0.0 0.0 3.996042030202178 -2.49616425849832 -5.419471295093592 -0.5376110257263583 2.481903880533588 0.12115866622734137 0.1996894554583975 -0.07274751472285904 0.39859117483232454 -1.196859983632481 1.2180842510740573 -1.193863433688838 0.0 0.0 0.0 0.0 0.0 0.0
7712.048 1.6244145631790161 -2.085700337086813 2.3236467838287354 -3.472584072743551 -0.05377322832216436 0.11205138266086578 0.0 0.0 0.0 0.0 0.0 0.0 0.0 0.0 0.0 0.0 0.0 0.0 1.9747353935518702e-17 -0.01635456166548786 -0.6928915259581856 0.01968809579943538 -0.006510300211118856 0.0 2.2662062158878047e-16 -0.18838000544495248 -5.850216338782681 0.08126240276244055 -0.02702674429627759 0.0 1.6244624853134155 -2.085700337086813 2.323622941970825 -3.4726198355304163 -0.05373698869814092 0.11202741414308548 0.0 0.0 -0.0 0.0 0.0 0.0 0.008972168900072575 -0.0717773512005806 -0.7442200779914856 0.07049661129713058 -0.04699774086475372 0.10630441457033157 0.006729126907885075 -0.0717773512005806 -0.7457451224327087 0.06490164250135422 -0.04923573136329651 0.09959045052528381 0.19969274642474438 -0.07273109340097775 0.3985956291327665 -1.196962194922008 1.2179839448970327 -1.1938627640376653 0.0 0.0 0.0 0.0 0.0 0.0 1.2080180972191759 -3.4785867340524 -4.344739416979967 -0.49186243100564736 -0.5229457399016332 0.4913428986218752 0.1996894554583975 -0.07274751472285904 0.39859117483232454 -1.196859983632481 1.2180842510740573 -1.193863433688838 0.0 0.0 0.0 0.0 0.0 0.0
7712.056 1.6244145631790161 -2.085700337086813 2.3236467838287354 -3.472584072743551 -0.05377322832216436 0.11205138266086578 0.0 0.0 0.0 0.0 0.0 0.0 0.0 0.0 0.0 0.0 0.0 0.0 1.9747353935518702e-17 -0.01635456166548786 -0.6928915259581856 0.01968809579943538 -0.006510300211118856 0.0 2.2662062158878047e-16 -0.18838000544495248 -5.850216338782681 0.08126240276244055 -0.02702674429627759 0.0 1.6243785619735718 -2.085700337086813 2.32361102104187 -3.4726079146014612 -0.053760830556051076 0.11197910457849503 0.0 0.0 -0.0 0.0 0.0 0.0 0.011215210892260075 -0.0672912672162056 -0.748795211315155 0.07944856584072113 -0.04587874934077263 0.07721057534217834 0.006729126907885075 -0.0717773512005806 -0.7442200779914856 0.06490164250135422 -0.04923573136329651 0.09959045052528381 0.19968668536668055 -0.07275041104243002 0.3985982803776961 -1.1969445089041757 1.2180382774475946 -1.1939788267254865 0.0 0.0 0.0 0.0 0.0 0.0 -2.7826600174432023 -3.397929622579838 -4.640657267897293 -0.35333843507635315 -3.2970634153615768 0.7366545128499109 0.1996894554583975 -0.07274751472285904 0.39859117483232454 -1.196859983632481 1.2180842510740573 -1.193863433688838 0.0 0.0 0.0 0.0 0.0 0.0
7712.063999999999 1.6244145631790161 -2.085700337086813 2.3236467838287354 -3.472584072743551 -0.05377322832216436 0.11205138266086578 0.0 0.0 0.0 0.0 0.0 0.0 0.0 0.0 0.0 0.0 0.0 0.0 1.9747353935518702e-17 -0.01635456166548786 -0.6928915259581856 0.01968809579943538 -0.006510300211118856 0.0 2.2662062158878047e-16 -0.18838000544495248 -5.850216338782681 0.08126240276244055 -0.02702674429627759 0.0 1.6244264841079712 -2.085700337086813 2.32361102104187 -3.472595993672506 -0.05373698869814092 0.11201542615890503 0.0 0.0 -0.0 0.0 0.0 0.0 0.01570129580795765 -0.0583190992474556 -0.7289696931838989 0.0682586282491684 -0.04923573136329651 0.09287648648023605 0.006729126907885075 -0.0717773512005806 -0.7442200779914856 0.06602063775062561 -0.04923573136329651 0.1007094457745552 0.19969022693185634 -0.07273990410706392 0.39859813835107016 -1.196945400975886 1.2180107185360534 -1.1938891340725517 0.0 0.0 0.0 0.0 0.0 0.0 -1.0589504472244777 -2.9486708263224917 -3.428645232256158 -0.4296393170862315 -0.5087358898328371 0.46381966233712274 0.1996894554583975 -0.07274751472285904 0.39859117483232454 -1.196859983632481 1.2180842510740573 -1.193863433688838 0.0 0.0 0.0 0.0 0.0 0.0
7712.071999999999 1.6244145631790161 -2.085700337086813 2.3236467838287354 -3.472584072743551 -0.05377322832216436 0.11205138266086578 0.0 0.0 0.0 0.0 0.0 0.0 0.0 0.0 0.0 0.0 0.0 0.0 1.9747353935518702e-17 -0.01635456166548786 -0.6928915259581856 0.01968809579943538 -0.006510300211118856 0.0 2.2662062158878047e-16 -0.18838000544495248 -5.850216338782681 0.08126240276244055 -0.02702674429627759 0.0 1.624450445175171 -2.0856884161578577 2.3236467838287354 -3.4726436773883265 -0.053760830556051076 0.11201542615890503 0.0 0.0 -0.0 0.0 0.0 0.0 0.011215210892260075 -0.0650482252240181 -0.7442200779914856 0.06937761604785919 -0.051473718136548996 0.11078038811683655 0.006729126907885075 -0.0650482252240181 -0.7442200779914856 0.06490164250135422 -0.04923573136329651 0.1018284410238266 0.19969194168602897 -0.07273718230439581 0.3985898808497348 -1.1969439141403855 1.2180087435892082 -1.1938899272431163 0.0 0.0 0.0 0.0 0.0 0.0 1.3109051790483452 -2.9859744414153853 -4.212153486537207 -0.5143826515068205 0.718025668214949 0.35661703438618114 0.1996894554583975 -0.07274751472285904 0.39859117483232454 -1.196859983632481 1.2180842510740573 -1.193863433688838 0.0 0.0 0.0 0.0 0.0 0.0
7712.08 1.6244145631790161 -2.085700337086813 2.3236467838287354 -3.472584072743551 -0.05377322832216436 0.11205138266086578 0.0 0.0 0.0 0.0 0.0 0.0 0.0 0.0 0.0 0.0 0.0 0.0 1.9747353935518702e-17 -0.01635456166548786 -0.6928915259581856 0.01968809579943538 -0.006510300211118856 0.0 2.2662062158878047e-16 -0.18838000544495248 -5.850216338782681 0.08126240276244055 -0.02702674429627759 0.0 1.6244025230407715 -2.085712258015768 2.323622941970825 -3.472595993672506 -0.05379707018007451 0.11196711659431458 0.0 0.0 -0.0 0.0 0.0 0.0 0.004486084450036287 -0.0740203931927681 -0.7503202557563782 0.051473718136548996 -0.04699774086475372 0.1007094457745552 0.006729126907885075 -0.0740203931927681 -0.7442200779914856 0.06490164250135422 -0.04923573136329651 0.1018284410238266 0.19968834178392894 -0.07274709160655093 0.3985971664690188 -1.1969367134670037 1.2180451043711453 -1.1939891808311283 0.0 0.0 0.0 0.0 0.0 0.0 3.356017245024649 -3.1150328772661258 -4.160481223825111 -0.4679827500753638 1.00199321660863 0.3201726744473248 0.1996894554583975 -0.07274751472285904 0.39859117483232454 -1.196859983632481 1.2180842510740573 -1.193863433688838 0.0 0.0 0.0 0.0 0.0 0.0
7712.088 1.6244145631790161 -2.085700337086813 2.3236467838287354 -3.472584072743551 -0.05377322832216436 0.11205138266086578 0.0 0.0 0.0 0.0 0.0 0.0 0.0 0.0 0.0 0.0 0.0 0.0 1.9747353935518702e-17 -0.01635456166548786 -0.6928915259581856 0.01968809579943538 -0.006510300211118856 0.0 2.2662062158878047e-16 -0.18838000544495248 -5.850216338782681 0.08126240276244055 -0.02702674429627759 0.0 1.6244145631790161 -2.0857365767108362 2.323622941970825 -3.472595993672506 -0.05373698869814092 0.11206336319446564 0.0 0.0 -0.0 0.0 0.0 0.0 0.0022430422250181437 -0.0628051832318306 -0.748795211315155 0.06266365945339203 -0.044759754091501236 0.10518541932106018 0.006729126907885075 -0.0672912672162056 -0.7442200779914856 0.06490164250135422 -0.04923573136329651 0.1007094457745552 0.19968889738742182 -0.07273376780251664 0.39859873440419447 -1.1969212806280798 1.2180295457774521 -1.1938811030288223 0.0 0.0 0.0 0.0 0.0 0.0 3.405775322396132 -2.5190250290673633 -4.199711982397425 -0.4893892680590913 1.3638957988364822 0.2264451683293571 0.1996894554583975 -0.07274751472285904 0.39859117483232454 -1.196859983632481 1.2180842510740573 -1.193863433688838 0.0 0.0 0.0 0.0 0.0 0.0
7712.096 1.6244145631790161 -2.085700337086813 2.3236467838287354 -3.472584072743551 -0.05377322832216436 0.11205138266086578 0.0 0.0 0.0 0.0 0.0 0.0 0.0 0.0 0.0 0.0 0.0 0.0 1.9747353935518702e-17 -0.01635456166548786 -0.6928915259581856 0.01968809579943538 -0.006510300211118856 0.0 2.2662062158878047e-16 -0.18838000544495248 -5.850216338782681 0.08126240276244055 -0.02702674429627759 0.0 1.624450445175171 -2.0856407324420374 2.3236348628997803 -3.472595993672506 -0.05373698869814092 0.11197910457849503 0.0 0.0 -0.0 0.0 0.0 0.0 0.004486084450036287 -0.0695343092083931 -0.7442200779914856 0.0503547228872776 -0.03916478529572487 0.09287648648023605 0.006729126907885075 -0.0717773512005806 -0.7442200779914856 0.06490164250135422 -0.04923573136329651 0.1007094457745552 0.19969277809771566 -0.07275063434507542 0.3985883099759652 -1.1969253787059035 1.2180184908663223 -1.1938348110524408 0.0 0.0 0.0 0.0 0.0 0.0 3.148153050082009 -2.9243601263851224 -3.804805407902405 -0.4314141614837976 0.7184630472065925 0.2972208849277814 0.1996894554583975 -0.07274751472285904 0.39859117483232454 -1.196859983632481 1.2180842510740573 -1.193863433688838 0.0 0.0 0.0 0.0 0.0 0.0
7712.103999999999 1.6244145631790161 -2.085700337086813 2.3236467838287354 -3.472584072743551 -0.05377322832216436 0.11205138266086578 0.0 0.0 0.0 0.0 0.0 0.0 0.0 0.0 0.0 0.0 0.0 0.0 1.9747353935518702e-17 -0.01635456166548786 -0.6928915259581856 0.01968809579943538 -0.006510300211118856 0.0 2.2662062158878047e-16 -0.18838000544495248 -5.850216338782681 0.08126240276244055 -0.02702674429627759 0.0 1.6244264841079712 -2.085724178944723 2.323622941970825 -3.4725478331195276 -0.053760830556051076 0.11199108511209488 0.0 0.0 -0.0 0.0 0.0 0.0 0.006729126907885075 -0.0672912672162056 -0.7731958627700806 0.06154466047883034 -0.048116736114025116 0.07944856584072113 0.006729126907885075 -0.0740203931927681 -0.7457451224327087 0.06266365945339203 -0.04923573136329651 0.1007094457745552 0.1996901539069173 -0.07274050866590268 0.398598048128298 -1.1969249342035249 1.2180335633173216 -1.1938982387147647 0.0 0.0 0.0 0.0 0.0 0.0 0.24645173115872154 -2.4531439147855005 -5.2045276212501745 -0.36770487216607994 -0.3082149967002958 0.3853577864282792 0.1996894554583975 -0.07274751472285904 0.39859117483232454 -1.196859983632481 1.2180842510740573 -1.193863433688838 0.0 0.0 0.0 0.0 0.0 0.0
7712.112 1.6244145631790161 -2.085700337086813 2.3236467838287354 -3.472584072743551 -0.05377322832216436 0.11205138266086578 0.0 0.0 0.0 0.0 0.0 0.0 0.0 0.0 0.0 0.0 0.0 0.0 1.9747353935518702e-17 -0.01635456166548786 -0.6928915259581856 0.01968809579943538 -0.006510300211118856 0.0 2.2662062158878047e-16 -0.18838000544495248 -5.850216338782681 0.08126240276244055 -0.02702674429627759 0.0 1.6244264841079712 -2.085712258015768 2.323598861694336 -3.4726436773883265 -0.053760830556051076 0.11197910457849503 0.0 0.0 -0.0 0.0 0.0 0.0 0.006729126907885075 -0.0672912672162056 -0.7045690417289734 0.07385359704494476 -0.0503547228872776 0.07049661129713058 0.006729126907885075 -0.0695343092083931 -0.7426950335502625 0.06490164250135422 -0.04923573136329651 0.1007094457745552 0.1996898338491729 -0.07273442909492794 0.3986016281471474 -1.1970094015903476 1.2179728790183273 -1.1939888772307192 0.0 0.0 0.0 0.0 0.0 0.0 -3.0978369454846746 -4.286464035305372 -2.6901735443978003 -0.31974265754522607 -4.885758374251325 0.9946988174846199 0.1996894554583975 -0.07274751472285904 0.39859117483232454 -1.196859983632481 1.2180842510740573 -1.193863433688838 0.0 0.0 0.0 0.0 0.0 0.0
7712.12 1.6244145631790161 -2.085700337086813 2.3236467838287354 -3.472584072743551 -0.05377322832216436 0.11205138266086578 0.0 0.0 0.0 0.0 0.0 0.0 0.0 0.0 0.0 0.0 0.0 0.0 1.9747353935518702e-17 -0.01635456166548786 -0.6928915259581856 0.01968809579943538 -0.006510300211118856 0.0 2.2662062158878047e-16 -0.18838000544495248 -5.850216338782681 0.08126240276244055 -0.02702674429627759 0.0 1.6243906021118164 -2.0856645742999476 2.323598861694336 -3.4726079146014612 -0.053748909627096 0.11200307309627533 0.0 0.0 -0.0 0.0 0.0 0.0 0.01570129580795765 -0.0695343092083931 -0.7762459516525269 0.06937761604785919 -0.0503547228872776 0.12532731890678406 0.006729126907885075 -0.0740203931927681 -0.748795211315155 0.06602063775062561 -0.04923573136329651 0.1007094457745552 0.19968801672574785 -0.07275542032295246 0.3985976808963629 -1.1969226484448177 1.2180447846214137 -1.193925021080218 0.0 0.0 0.0 0.0 0.0 0.0 2.501667945627444 -2.5510456491964484 -5.607936688605976 -0.5844546312688501 2.63671258538613 0.12537430526851367 0.1996894554583975 -0.07274751472285904 0.39859117483232454 -1.196859983632481 1.2180842510740573 -1.193863433688838 0.0 0.0 0.0 0.0 0.0 0.0
7712.128 1.6244145631790161 -2.085700337086813 2.3236467838287354 -3.472584072743551 -0.05377322832216436 0.11205138266086578 0.0 0.0 0.0 0.0 0.0 0.0 0.0 0.0 0.0 0.0 0.0 0.0 1.9747353935518702e-17 -0.01635456166548786 -0.6928915259581856 0.01968809579943538 -0.006510300211118856 0.0 2.2662062158878047e-16 -0.18838000544495248 -5.850216338782681 0.08126240276244055 -0.02702674429627759 0.0 1.6244385242462158 -2.0856645742999476 2.323598861694336 -3.4726079146014612 -0.053760830556051076 0.11199108511209488 0.0 0.0 -0.0 0.0 0.0 0.0 0.008972168900072575 -0.0672912672162056 -0.7121942043304443 0.06154466047883034 -0.044759754091501236 0.12085133790969849 0.006729126907885075 -0.0695343092083931 -0.748795211315155 0.06490164250135422 -0.04923573136329651 0.1007094457745552 0.19969150337966593 -0.07274682828859858 0.39859777234041655 -1.1969480019379792 1.21801205622115 -1.1939077973649006 0.0 0.0 0.0 0.0 0.0 0.0 3.351746030513404 -3.616212464342985 -2.76456856818291 -0.561427349828815 0.9906692582237498 0.36285284767739123 0.1996894554583975 -0.07274751472285904 0.39859117483232454 -1.196859983632481 1.2180842510740573 -1.193863433688838 0.0 0.0 0.0 0.0 0.0 0.0
7712.1359999999995 1.6244145631790161 -2.085700337086813 2.3236467838287354 -3.472584072743551 -0.05377322832216436 0.11205138266086578 0.0 0.0 0.0 0.0 0.0 0.0 0.0 0.0 0.0 0.0 0.0 0.0 1.9747353935518702e-17 -0.01635456166548786 -0.6928915259581856 0.01968809579943538 -0.006510300211118856 0.0 2.2662062158878047e-16 -0.18838000544495248 -5.850216338782681 0.08126240276244055 -0.02702674429627759 0.0 1.6244744062423706 -2.0856526533709925 2.3236589431762695 -3.4726079146014612 -0.05377322832216436 0.11199108511209488 0.0 0.0 -0.0 0.0 0.0 0.0 0.01345825381577015 -0.0740203931927681 -0.759470522403717 0.05818767845630646 -0.03692679852247238 0.1007094457745552 0.006729126907885075 -0.0695343092083931 -0.7457451224327087 0.06490164250135422 -0.04923573136329651 0.1007094457745552 0.19969433582065993 -0.07274570119903695 0.3985846382763127 -1.1969080828487078 1.2180305283876556 -1.1938363250572313 0.0 0.0 0.0 0.0 0.0 0.0 1.9374850908895855 -3.091012229473529 -4.696045308567653 -0.4676073964995268 0.6162780842864388 0.3031461723088876 0.1996894554583975 -0.07274751472285904 0.39859117483232454 -1.196859983632481 1.2180842510740573 -1.193863433688838 0.0 0.0 0.0 0.0 0.0 0.0
7712.143999999999 1.6244145631790161 -2.085700337086813 2.3236467838287354 -3.472584072743551 -0.05377322832216436 0.11205138266086578 0.0 0.0 0.0 0.0 0.0 0.0 0.0 0.0 0.0 0.0 0.0 0.0 1.9747353935518702e-17 -0.01635456166548786 -0.6928915259581856 0.01968809579943538 -0.006510300211118856 0.0 2.2662062158878047e-16 -0.18838000544495248 -5.850216338782681 0.08126240276244055 -0.02702674429627759 0.0 1.6244025230407715 -2.0856764952289026 2.3236348628997803 -3.472595993672506 -0.05373698869814092 0.11202741414308548 0.0 0.0 -0.0 0.0 0.0 0.0 0.006729126907885075 -0.0740203931927681 -0.7152442932128906 0.05594969168305397 -0.03916478529572487 0.12644630670547485 0.006729126907885075 -0.0695343092083931 -0.748795211315155 0.06490164250135422 -0.04923573136329651 0.1007094457745552 0.199688822516402 -0.07275139129858049 0.3985912942048705 -1.1968917032143904 1.2180579473747215 -1.1938617335536372 0.0 0.0 0.0 0.0 0.0 0.0 5.069152173915092 -3.852897295844074 -2.870870348148532 -0.5879800217463587 1.4339382508135732 0.3140087757422817 0.1996894554583975 -0.07274751472285904 0.39859117483232454 -1.196859983632481 1.2180842510740573 -1.193863433688838 0.0 0.0 0.0 0.0 0.0 0.0
7712.152 1.6244145631790161 -2.085700337086813 2.3236467838287354 -3.472584072743551 -0.05377322832216436 0.11205138266086578 0.0 0.0 0.0 0.0 0.0 0.0 0.0 0.0 0.0 0.0 0.0 0.0 1.9747353935518702e-17 -0.01635456166548786 -0.6928915259581856 0.01968809579943538 -0.006510300211118856 0.0 2.2662062158878047e-16 -0.18838000544495248 -5.850216338782681 0.08126240276244055 -0.02702674429627759 0.0 1.624450445175171 -2.0856764952289026 2.323586940765381 -3.4726079146014612 -0.053760830556051076 0.11200307309627533 0.0 0.0 -0.0 0.0 0.0 0.0 0.006729126907885075 -0.0740203931927681 -0.788446307182312 0.07497258484363556 -0.054830700159072876 0.1018284410238266 0.006729126907885075 -0.0717773512005806 -0.7472701668739319 0.06490164250135422 -0.04923573136329651 0.1007094457745552 0.19969220112621852 -0.07274109648468433 0.3986011944709093 -1.1969615558577025 1.2179968908361274 -1.1939082826241318 0.0 0.0 0.0 0.0 0.0 0.0 0.8194644222691811 -2.7641785647055586 -6.290096752721744 -0.47187712767657775 -0.006509051688545974 0.4057922861009666 0.1996894554583975 -0.07274751472285904 0.39859117483232454 -1.196859983632481 1.2180842510740573 -1.193863433688838 0.0 0.0 0.0 0.0 0.0 0.0
7712.16 1.6244145631790161 -2.085700337086813 2.3236467838287354 -3.472584072743551 -0.05377322832216436 0.11205138266086578 0.0 0.0 0.0 0.0 0.0 0.0 0.0 0.0 0.0 0.0 0.0 0.0 1.9747353935518702e-17 -0.01635456166548786 -0.6928915259581856 0.01968809579943538 -0.006510300211118856 0.0 2.2662062158878047e-16 -0.18838000544495248 -5.850216338782681 0.08126240276244055 -0.02702674429627759 0.0 1.6244025230407715 -2.085700337086813 2.3236589431762695 -3.4726198355304163 -0.05380899110902959 0.11196711659431458 0.0 0.0 -0.0 0.0 0.0 0.0 0.004486084450036287 -0.0740203931927681 -0.7472701668739319 0.0503547228872776 -0.044759754091501236 0.10518541932106018 0.006729126907885075 -0.0717773512005806 -0.7503202557563782 0.06266365945339203 -0.04923573136329651 0.1007094457745552 0.19968842547648277 -0.07275022057408866 0.3985888506308965 -1.1969133676650123 1.2180650603603682 -1.193980127518033 0.0 0.0 0.0 0.0 0.0 0.0 4.007607321581811 -3.1315002539974097 -4.01508716624168 -0.48924224613467476 1.3888439195809656 0.27604745702115696 0.1996894554583975 -0.07274751472285904 0.39859117483232454 -1.196859983632481 1.2180842510740573 -1.193863433688838 0.0 0.0 0.0 0.0 0.0 0.0
7712.168 1.6244145631790161 -2.085700337086813 2.3236467838287354 -3.472584072743551 -0.05377322832216436 0.11205138266086578 0.0 0.0 0.0 0.0 0.0 0.0 0.0 0.0 0.0 0.0 0.0 0.0 1.9747353935518702e-17 -0.01635456166548786 -0.6928915259581856 0.01968809579943538 -0.006510300211118856 0.0 2.2662062158878047e-16 -0.18838000544495248 -5.850216338782681 0.08126240276244055 -0.02702674429627759 0.0 1.624450445175171 -2.0856645742999476 2.3236348628997803 -3.4725597540484827 -0.053785149251119435 0.11197910457849503 0.0 0.0 -0.0 0.0 0.0 0.0 0.004486084450036287 -0.0762634351849556 -0.7762459516525269 0.04252176731824875 -0.04587874934077263 0.10966140031814575 0.006729126907885075 -0.0717773512005806 -0.7472701668739319 0.067139632999897 -0.0503547228872776 0.1007094457745552 0.19969263667125622 -0.07275180202284175 0.39859079269877146 -1.1968903724135165 1.2180565671962307 -1.193862957568865 0.0 0.0 0.0 0.0 0.0 0.0 5.578834684433624 -2.4682770605311632 -5.048336459681447 -0.5129266842185407 3.4173312066736896 0.02930389631314444 0.1996894554583975 -0.07274751472285904 0.39859117483232454 -1.196859983632481 1.2180842510740573 -1.193863433688838 0.0 0.0 0.0 0.0 0.0 0.0
7712.1759999999995 1.6244145631790161 -2.085700337086813 2.3236467838287354 -3.472584072743551 -0.05377322832216436 0.11205138266086578 0.0 0.0 0.0 0.0 0.0 0.0 0.0 0.0 0.0 0.0 0.0 0.0 1.9747353935518702e-17 -0.01635456166548786 -0.6928915259581856 0.01968809579943538 -0.006510300211118856 0.0 2.2662062158878047e-16 -0.18838000544495248 -5.850216338782681 0.08126240276244055 -0.02702674429627759 0.0 1.6243906021118164 -2.0856645742999476 2.323622941970825 -3.4726079146014612 -0.053748909627096 0.11196711659431458 0.0 0.0 -0.0 0.0 0.0 0.0 0.01345825381577015 -0.0717773512005806 -0.748795211315155 0.07161560654640198 -0.05259270966053009 0.10742340981960297 0.006729126907885075 -0.0717773512005806 -0.7472701668739319 0.06490164250135422 -0.04923573136329651 0.1007094457745552 0.19968804287532047 -0.07275625573168744 0.3985927774936145 -1.1969323167057564 1.2180401876959022 -1.1939332625466978 0.0 0.0 0.0 0.0 0.0 0.0 0.21999942149916688 -3.4493340955303182 -4.555702128662944 -0.49726538410957427 -0.37521726610734374 0.4996166902182333 0.1996894554583975 -0.07274751472285904 0.39859117483232454 -1.196859983632481 1.2180842510740573 -1.193863433688838 0.0 0.0 0.0 0.0 0.0 0.0
7712.183999999999 1.6244146192584157 -2.085700777621785 2.3236469700407945 -3.4725837349910837 -0.05377328277003812 0.1120512939098249 2.803972688783304e-05 -0.0002202674979557616 9.310598848146949e-05 0.0001688762929179303 -2.7223963839103392e-05 -4.437552644300572e-05 0.00350496586097913 -0.0275334372444702 0.011638248560183686 0.021109536614741287 -0.003402995479887924 -0.005546940805375715 0.0010989396604948456 -0.02354150238441717 -0.691014688555074 0.022969583877025614 -0.007088196333355156 -0.0011157612582551992 0.004910198806704883 -0.2098647705041092 -5.8473708852493615 0.08223837628582148 -0.027122052270385555 -0.0003960904020894637 1.6243906021118164 -2.0856884161578577 2.323598861694336 -3.472584072743551 -0.053785149251119435 0.11202741414308548 0.0 0.0 -0.0 0.0 0.0 0.0 0.006729126907885075 -0.0695343092083931 -0.7304947376251221 0.06378264725208282 -0.054830700159072876 0.09847146272659302 0.006729126907885075 -0.0717773512005806 -0.7472701668739319 0.06490164250135422 -0.04923573136329651 0.1007094457745552 0.19968781675825303 -0.07275455189248235 0.3986000300164038 -1.1968848695171508 1.2180800803682277 -1.1939353398692274 0.0 0.0 0.0 0.0 0.0 0.0 1.7135801781516862 -2.8990515137308477 -3.4561623135688815 -0.462193667202456 0.5735766971153147 0.38179072342148435 0.1996894555494913 -0.0727474347239773 0.39859117524554355 -1.196859987226886 1.2180842484410377 -1.1938634381457622 4.554251546400458e-08 3.9999440476183476e-05 2.0660946624222764e-07 -2.7377420401961543e-06 -2.0598672592841485e-07 -1.525085884272373e-07
7712.192 1.6244150678975176 -2.085704301903305 2.3236484597313423 -3.472581032962799 -0.05377371835690514 0.11205058390063406 0.0001261807238884784 -0.000991204614443211 0.0004189739850544951 0.0007599475921362284 -0.00012250977541615807 -0.00019969030107236637 0.012267624625080669 -0.09636713956093118 0.0407334995716282 0.07388391240228726 -0.011910726447131835 -0.019414346828670083 0.004517498829610557 -0.04683270045699951 -0.6847822331858188 0.03421645454359621 -0.009087801034103058 -0.004924903033548295 0.0171858253059102 -0.2635550338418286 -5.840259841693969 0.08467778706637069 -0.02736020684240195 -0.0013863202639948446 1.6244025230407715 -2.085700337086813 2.3236348628997803 -3.4726198355304163 -0.053785149251119435 0.11197910457849503 0.0 0.0 -0.0 0.0 0.0 0.0 0.011215210892260075 -0.0695343092083931 -0.7091441750526428 0.06490164250135422 -0.04923573136329651 0.1186133474111557 0.004486084450036287 -0.0785064771771431 -0.7304947376251221 0.07385359704494476 -0.05259270966053009 0.11078038811683655 0.19968839889386714 -0.07274743010851298 0.39859357121684386 -1.1969343966527957 1.2180427868904684 -1.193971014827909 0.0 0.0 0.0 0.0 0.0 0.0 5.77424543205347 -1.2352964662637764 -2.24885514786759 -0.5802032056713975 5.685058813560693 -0.25956680193131365 0.19968945627815657 -0.07274679473293034 0.398591178551295 -1.1968600159821232 1.2180842273768833 -1.1938634738011527 2.049413130098791e-07 0.00017999748214223233 9.297425980484173e-07 -1.231983918078211e-05 -9.269402665778542e-07 -6.862886479226585e-07
7712.2 1.6244165821057548 -2.085716196376369 2.32365348735916 -3.4725719135051407 -0.053775188513461636 0.11204818760826667 0.0003364995083214339 -0.002643220167419136 0.0011172372919843931 0.0020265653797310913 -0.00032671017961609817 -0.0005325113599413 0.02628984805411944 -0.2065019441219906 0.08728291336623725 0.15832722344935787 -0.025525050524992512 -0.041602632358616706 0.011263213200612715 -0.09422836072298668 -0.6718807564805871 0.057986844651376504 -0.013341367119682701 -0.012955926827971871 0.036827975487408036 -0.34940386421816444 -5.8288891959340745 0.08857970786555729 -0.027741052480657745 -0.002970719168831743 1.6244744062423706 -2.0856645742999476 2.3236348628997803 -3.4726198355304163 -0.05377322832216436 0.11201542615890503 0.0 0.0 -0.0 0.0 0.0 0.0 0.011215210892260075 -0.1121521145105362 -0.7548953890800476 0.10294743627309799 -0.0503547228872776 0.10406643152236938 0.006729126907885075 -0.1099090725183487 -0.7213444709777832 0.09175749868154526 -0.05371170490980148 0.10966140031814575 0.1996940970210591 -0.0727409108664532 0.3985904957096566 -1.1969236553223321 1.218017584943707 -1.1938547483930642 0.0 0.0 0.0 0.0 0.0 0.0 5.930789650043776 0.17356302276742927 -4.914623447140348 -0.5514605932899863 6.272236013481132 -0.46545290528629457 0.1996894587374517 -0.07274463476314444 0.3985911897082063 -1.1968601130310499 1.2180841562853557 -1.1938635941380964 5.465101917853021e-07 0.00047999328571407676 2.4793135948512957e-06 -3.285290448235283e-05 -2.4718407111410595e-06 -1.8301030611940113e-06
7712.208 1.6244201716560815 -2.085744390824196 2.323665404219795 -3.4725502963214736 -0.05377867364260336 0.11204250743792057 0.0007011274565573172 -0.005506747498436649 0.0023274459930302444 0.004222201160698076 -0.0006807323661029953 -0.0011094178746268387 0.04557849352948541 -0.3579409163771891 0.15127608763073142 0.274454472620873 -0.044252773310862144 -0.07211331433569235 0.022346037032832836 -0.1737696647794661 -0.6499893031986895 0.09882173508020776 -0.02068140534406636 -0.026734408275098247 0.06384082730487933 -0.4673419224606828 -5.813269120906332 0.09394338805832983 -0.028264644985633594 -0.005149395436768784 1.6244624853134155 -2.085712258015768 2.323622941970825 -3.4726436773883265 -0.05373698869814092 0.11202741414308548 0.0 0.0 -0.0 0.0 0.0 0.0 0.01345825381577015 -0.2153320610523224 -0.6755932569503784 0.13092228770256042 -0.06042566895484924 0.11078038811683655 0.01345825381577015 -0.2198181450366974 -0.6877935528755188 0.13204127550125122 -0.054830700159072876 0.10630441457033157 0.19969247783456143 -0.07272612057316148 0.39859654183036997 -1.1969872129464951 1.2179657531094072 -1.19388989366383 0.0 0.0 0.0 0.0 0.0 0.0 9.180451991799455 -2.3725931253602375 -2.665423257182906 -0.6441599936251883 4.706312091314115 -0.0795102885385473 0.19968946456689624 -0.07273951483476294 0.3985912161542179 -1.1968603430729392 1.2180839877720775 -1.1938638793812157 1.1385628952388933e-06 0.0009999860119042046 5.165236655847678e-06 -6.844355100456894e-05 -5.149668147877304e-06 -3.8127147105153752e-06
7712.215999999999 1.6244271837786177 -2.085799458678098 2.3236886773935463 -3.472508072454964 -0.05378548180783316 0.11203141307161456 0.0012623347088995746 -0.009912281892873704 0.004188939756966508 0.007600629843683211 -0.0012256212413589037 -0.0019970196940438494 0.07015090654278218 -0.5506917993046319 0.2326867204920329 0.42230358537314194 -0.06811110940698854 -0.11095022742712632 0.038781376759285884 -0.293576047705764 -0.61677363077224 0.16123186882118826 -0.03194170007674579 -0.04778068353288755 0.09823515311692774 -0.6172790260316029 -5.793415754022811 0.10076911587787435 -0.02893164265889535 -0.00792262288988881 1.6244025230407715 -2.0857957045184534 2.323622941970825 -3.4726079146014612 -0.05372506776918584 0.11199108511209488 0.0 -0.01395922526717186 -0.0 0.0 0.0 0.0 0.0336456336081028 -0.01345825381577015 -0.6191667318344116 0.2204417884349823 -0.05930667370557785 0.07609158009290695 0.0314025916159153 -0.01345825381577015 -0.6481425166130066 0.2014188915491104 -0.06042566895484924 0.0850435346364975 0.1996871899643166 -0.07271960601033386 0.3986035341947616 -1.1970249744056436 1.2179607251267823 -1.193988016147599 -0.0001830694933116262 0.0034400241269870865 0.001164322906540993 -0.013939181165905618 -0.0007475999520351065 1.7111266128946126e-05 12.516312204388084 19.510827283462813 2.798286306483437 -0.6244468592137181 35.056582258597174 -4.7401618071149745 0.19968947595252426 -0.0727295149746445 0.39859126780658427 -1.1968607923734724 1.2180836586444628 -1.1938644364966626 2.0494132024161207e-06 0.001799974821426967 9.297425980734152e-06 -0.00012319839180862657 -9.269402666579309e-06 -6.862886479229385e-06
7712.223999999999 1.6244393047249537 -2.0858946177147866 2.323728887374327 -3.4724351008704204 -0.05379725028576843 0.11201224112261904 0.002062675411989301 -0.016190445042242995 0.006840627938699258 0.012416246499268833 -0.0020027035783542354 -0.003261989356899753 0.10004258788621581 -0.7847703936711614 0.33146102271659383 0.6019520819482028 -0.09713529212441646 -0.15812120785698797 0.06159495096553204 -0.3140020186831854 -0.5698795977056288 0.20649612887160218 -0.04795934865329617 -0.07760697714283075 0.14003324286258131 -0.7991063673757665 -5.769353739162764 0.10905941197156505 -0.029743850653916545 -0.011290961089443939 1.6243906021118164 -2.085879627858297 2.3236589431762695 -3.4725478331195276 -0.053748909627096 0.11201542615890503 0.0 -0.0196157805621624 -0.0 0.0070706931874156 0.0 0.0 0.0762634351849556 -0.3499145805835724 -0.5688403844833374 0.3267461955547333 -0.1018284410238266 0.048116736114025116 0.0672912672162056 -0.3454284965991974 -0.5779905915260315 0.3088423013687134 -0.10406643152236938 0.05818767845630646 0.199685544431815 -0.07270963868960999 0.3986035926037141 -1.1969796328742592 1.2180029381870823 -1.1939884241835061 -0.00022399989199584598 0.004230418796801998 0.001660190395969403 -0.012527645562012685 -0.0006638185557439635 -2.0604242631803376e-05 -5.984426305328556 -4.624163998516766 -3.6068779928319974 -0.5744584483705886 -6.032768540209269 1.1697643592000604 0.19968949562690252 -0.07271223521635836 0.39859135706187376 -1.1968615687646942 1.2180830899115724 -1.1938653991920938 3.347374895685888e-06 0.0029399588749990445 1.5185795768900845e-05 -0.00020122403995464133 -1.5140024355853242e-05 -1.1209381249865764e-05
7712.232 1.6244585627543633 -2.0860457313820326 2.3237927235482303 -3.4723192019410223 -0.053815948529885915 0.11198179447718787 0.0031452120288231566 -0.024672083654699896 0.010420650832832858 0.018924553508376775 -0.0030538106472336657 -0.004971111289202742 0.13531707710423194 -1.0602048265571127 0.4475028617667 0.8135383761384927 -0.13138838360992877 -0.2136402415378736 0.0918299179000564 -0.3359899854659246 -0.513790083322875 0.20930081519781932 -0.06957816866675322 -0.11771404917371703 0.18927527021566654 -1.0126993620491107 -5.741119535904783 0.1188205518657167 -0.030704922171451068 -0.015255408727494939 1.6243785619735718 -2.0861075560199183 2.3236827850341797 -3.472355667744772 -0.05377322832216436 0.11199108511209488 0.0 -0.02003762498497963 0.011001518927514553 0.024327976629137993 0.0 0.0 0.1502838283777237 -0.0560760572552681 -0.5276642441749573 0.2741535007953644 -0.12085133790969849 0.011189938522875309 0.1390686184167862 -0.0426178015768528 -0.5230891108512878 0.24953563511371613 -0.12532731890678406 -0.002237987704575062 0.19968260942612776 -0.07267509837349627 0.3986185889837986 -1.1969865185048418 1.218011191235944 -1.1940439163419887 -0.00013650901217051385 0.0024790263449213034 -0.00048640495694424223 0.015268184998400334 0.0008409096565441686 -0.00017001652478818854 0.8550081074979292 19.031815632038104 2.2283949222390413 -0.6453031833770516 35.280628806200255 -4.6145886028835745 0.19968952686905234 -0.0726847956001922 0.3985914987959676 -1.196862801644936 1.218082186783842 -1.193866927916616 5.100761719200821e-06 0.004479937333331185 2.3140260219129155e-05 -0.0003066271085020866 -2.307051330398143e-05 -1.7080961903720876e-05
7712.24 1.6244873332376673 -2.0862713110482094 2.3238879764805644 -3.472146146351361 -0.053843883236125656 0.11193634117362003 0.00455383726440438 -0.03568840863228357 0.01506589565767294 0.0273828546174757 -0.004421597751378273 -0.00719135181397382 0.17607815444765293 -1.3770406221979592 0.5806556031050102 1.0572876386373657 -0.17097338801807593 -0.27753006559638477 0.1305567463269093 -0.36175808704600637 -0.5083135398395402 0.21259908130350394 -0.09765382148871696 -0.16958743091420656 0.24602716567353278 -1.2579210758060106 -5.7087655052898025 0.13006441257795293 -0.03182122378819358 -0.019817589394041046 1.6244864463806152 -2.086214844380514 2.3237786293029785 -3.4721878210650843 -0.05385715166200811 0.11197910457849503 0.00293373828753829 -0.035722579807043076 0.009251821786165237 0.02183525823056698 0.0 0.0 0.2153320610523224 -0.2198181450366974 -0.5566400289535522 0.26520153880119324 -0.16225410997867584 -0.06602063775062561 0.1996307522058487 -0.2265472710132599 -0.5490148067474365 0.2674395442008972 -0.1678490787744522 -0.06602063775062561 0.19968993552737976 -0.0726516571355631 0.39860923287227484 -1.1968917016400145 1.2180620253462038 -1.1939202337869208 -0.0001432943003496238 0.007203598272316242 0.0011681205813601754 -0.004630403752200806 -0.00022836349472618456 0.002805203492243889 -8.383997305348295 9.769474909753479 -1.0370138969206288 -0.508175771216933 20.55586666127417 -2.432561002128518 0.1996895735045959 -0.07264383617314434 0.39859171036406105 -1.196864641978692 1.2180808386726083 -1.1938692098607164 7.377887526338039e-06 0.006479909357141313 3.347073353124159e-05 -0.0004435142105123793 -3.336984959965368e-05 -2.4706391325075656e-05
7712.248 1.6245283467275835 -2.0865925195185513 2.3240235257571227 -3.471899637639121 -0.05388370635309414 0.11187161264029745 0.006333713596752263 -0.04957118000607346 0.02091134035662695 0.03805119150701365 -0.006149980540400644 -0.009989953422689856 0.2224845415434854 -1.7353464217237362 0.7306805873692513 1.3335421111922439 -0.2160478486277963 -0.34982520108950454 0.17888636279336112 -0.3914326625340254 -0.5019306874672999 0.21641551417608929 -0.13306101073813192 -0.23469330470938518 0.3103901093300306 -1.5346261373963124 -5.6723647886417465 0.14281063486158158 -0.033102877791874 -0.02497996813419825 1.6245583295822144 -2.086586300526754 2.323970079421997 -3.4719961325274866 -0.053928677235738576 0.11189483851194382 0.012386894784867764 -0.04122573509812355 0.03245328366756439 0.03410710394382477 -0.013134711422026157 -0.016466325148940086 0.0964508131146431 -0.1861725002527237 -0.5444396734237671 0.3066043257713318 -0.12644630670547485 -0.09287648648023605 0.0986938551068306 -0.1839294582605362 -0.5505398511886597 0.3054853081703186 -0.12308932095766068 -0.09511447697877884 0.19969138584840077 -0.07257465246122081 0.3986023953417138 -1.1969405943739362 1.2180242539808717 -1.1939771287753076 0.0005532187211185376 0.007514540600347066 -0.0029590628320246472 0.008827210705875518 0.00014216090475839216 -0.0009557095751477664 24.382099789314243 15.321834382759466 -0.8893545096891426 -0.6942926176737998 26.415006327426436 -3.768460101340462 0.19968963990559235 -0.07258551698893013 0.3985920116006624 -1.1968672622964107 1.218078919189367 -1.193872458956125 1.0247065983629319e-05 0.008999874107140201 4.648712990450198e-05 -0.0006159919590449577 -4.6347013332226065e-05 -3.431443239465442e-05
7712.255999999999 1.6245847010123982 -2.0870331761958054 2.324209321907521 -3.4715612863175656 -0.053938427046707815 0.11178280108739229 0.008531852800684301 -0.0666529408139136 0.02808919751436053 0.05119355704438424 -0.008284710378237055 -0.013434556533697095 0.2747674004915047 -2.135220100980017 0.8972321447166973 1.6427956921713236 -0.26684122972955143 -0.43057538887590485 0.23798719889289574 -0.42514187578133805 -0.4946049277120206 0.22077845903357718 -0.17670313622024184 -0.2366110825826121 0.3825118314565557 -1.8426649826634458 -5.632017006057749 0.1570890878210799 -0.034565002954220575 -0.030746096793461738 1.6245464086532593 -2.086933437977926 2.324090003967285 -3.4716957251178187 -0.053940598164693654 0.11178698390722275 0.003624029690399766 -0.05554927885532379 0.009946906939148903 0.04448544606566429 -0.006807039957493544 -0.007262440398335457 0.1816864162683487 -0.2063598781824112 -0.4422619342803955 0.2853434383869171 -0.1365172564983368 -0.11413737386465073 0.1861725002527237 -0.1996307522058487 -0.46666261553764343 0.2730345129966736 -0.14099322259426117 -0.12532731890678406 0.19968750192624235 -0.07252228574529478 0.3986079882238369 -1.1969561534833593 1.2180289158618158 -1.1940202587066737 -0.0002471961142027463 0.009710635855077669 0.0028012750797400767 -0.008382392991379705 -0.0006564906571693136 -0.003394204469882417 21.638472462528718 14.451004653502721 3.858819912854165 -0.6027796211844668 25.50743058049485 -3.7305326654070186 0.19968973099063606 -0.07250551810797796 0.3985924248195944 -1.1968708566942041 1.218076286144673 -1.193876915875633 1.3776610908018027e-05 0.01209983074404451 6.249936353949674e-05 -0.0008281669671633651 -6.231098458895265e-05 -4.613384799649846e-05
7712.263999999999 1.6246598783610728 -2.087619764277896 2.3244563607127118 -3.4711105732557006 -0.05401142881955412 0.11166455582281509 0.011197861488851187 -0.08726729998657086 0.0367278294778481 0.06707941703427361 -0.010874114695658776 -0.017593351506623896 0.3332510860208607 -2.576794896582158 1.079828995435946 1.9857324987361717 -0.3236755396777151 -0.51984937161585 0.28070962429365487 -0.4630166664122269 -0.4863043389914212 0.2257210518232738 -0.21196779637761773 -0.23850996461229207 0.46260000603438606 -2.18188818704752 -5.587854815377315 0.17294261434556696 -0.0362291862785052 -0.037120884078973 1.6245943307876587 -2.087519947682516 2.324293375015259 -3.471191708241598 -0.05403644243349248 0.11171469837427139 0.021341508254408836 -0.07418714463710785 0.033124398440122604 0.06114351749420166 -0.020373182371258736 -0.025430526584386826 0.1009368970990181 -0.1906585842370987 -0.5978161692619324 0.26072555780410767 -0.24953563511371613 -0.18351499736309052 0.1166381984949112 -0.1929016262292862 -0.5962911248207092 0.2584875822067261 -0.25960657000541687 -0.1868719756603241 0.19968585795570082 -0.07242615843659511 0.3986177983630419 -1.1968946644162815 1.218086870884223 -1.1940228637516337 0.0008941346442767037 0.014497178563025842 -0.00021682135596766302 -0.0053869304807032245 -0.0007884233870083528 0.0006699497550536141 36.99915697340296 23.039900167920035 -1.2360516285750731 -0.3002941563459367 34.69244485377775 -4.967308033022797 0.1996898522248213 -0.07239903959742956 0.3985929748139924 -1.1968756408334127 1.218072781546577 -1.1938828480328252 1.803483606379622e-05 0.015839778428568173 8.181734863458577e-05 -0.001084145847927255 -8.157074345706576e-05 -6.03934010113831e-05
7712.272 1.6247577693946973 -2.0883814403700427 2.3247766479616 -3.470524799750013 -0.05410649321135175 0.11151097824260435 0.014384884142727834 -0.11174925967958126 0.04695040403587189 0.08598556883797828 -0.01397003372566946 -0.022535263118737534 0.39837783173458086 -3.0602449616262994 1.277821819752974 2.3632689754630833 -0.3869898787513355 -0.6177389515142047 0.2895597598284985 -0.5051917490937415 -0.47700292761883445 0.23128237783706737 -0.21287783199342983 -0.24062599563586412 0.5509381656309709 -2.5521505243157825 -5.540051390487391 0.1904300260745888 -0.0381252344810618 -0.04411088531077481 1.6247141361236572 -2.0881665388690394 2.3245809078216553 -3.4706876913653772 -0.05420381227602178 0.11160684376955032 0.014726215973496437 -0.09318933635950089 0.057380471378564835 0.07125820219516754 -0.022338595241308212 -0.010785803198814392 0.2534637749195099 -0.2377624809741974 -0.36753493547439575 0.2730345129966736 -0.11301837861537933 -0.12980328500270844 0.2691650688648224 -0.2624359428882599 -0.3751601278781891 0.2551305890083313 -0.11301837861537933 -0.13204127550125122 0.19968870555637125 -0.07230969405478595 0.39861592706443716 -1.1968379844942831 1.218135103887351 -1.1940361538786755 0.00023600332917194262 0.015982381868910156 -0.0035424869334422814 0.024603195862482306 -0.00012033671768790492 -0.008051946149386875 23.079025119093973 17.062171465106925 7.5328001577778965 -0.552078088283447 30.03508508926982 -4.611512072603434 0.19969000961978042 -0.0722608015311435 0.39859368885630525 -1.1968818519400275 1.218068231598492 -1.1938905495817058 2.3090055245707888e-05 0.02027971632142189 0.00010475099939130119 -0.0013880352144015288 -0.0001044352700214513 -7.732185431856392e-05
7712.28 1.6248827052974946 -2.0893500468293746 2.325183152468178 -3.469779021512425 -0.05422783178471935 0.11131561523150967 0.018150782878489792 -0.140435575781894 0.05887325758728613 0.10819836005830731 -0.017628992823244368 -0.02833016879723889 0.4707373419702448 -3.585789512789093 1.4903566939267796 2.7765989025411284 -0.4573698871968635 -0.7243632098126694 0.2993716402765253 -0.5518066125512244 -0.4666821033532407 0.23750875470793234 -0.21393644056317812 -0.2429678117035559 0.6479047492910595 -2.9533142239442935 -5.488828901485259 0.20962930106595962 -0.040293274793391745 -0.05172460372309329 1.624846339225769 -2.0890167395221155 2.324916362762451 -3.4700515905963343 -0.05420381227602178 0.11148662865161896 0.01733398251235485 -0.12103108316659927 0.048536114394664764 0.09740778058767319 -0.006255765445530415 -0.029409289360046387 0.0986938551068306 -0.2444916069507599 -0.6054413318634033 0.2506546378135681 -0.26184457540512085 -0.2842244505882263 0.1031799390912056 -0.2579498589038849 -0.6054413318634033 0.23498870432376862 -0.26184457540512085 -0.2875814139842987 0.1996904057698487 -0.07213983348797706 0.39862025304686133 -1.1969039234194412 1.2180472408475713 -1.1939377440988286 0.00016542957074210416 0.022755897446293787 0.0005170580160321382 -0.004540826898400571 0.0008164259218066244 0.01049465283389988 33.38811198810787 26.254777185807992 -1.1629265282558003 0.1447489551499849 33.56942767427832 -5.06931294473296 0.19969020973362042 -0.07208504398969107 0.39859459669829544 -1.1968897488039179 1.2180624466963481 -1.193900341416224 2.901058215890071e-05 0.025479643583324194 0.00013161023001203204 -0.0017439416796533882 -0.00013121354436673415 -9.714797079972629e-05
7712.288 1.6250395004322578 -2.0905601270372625 2.325689744884785 -3.468845963638983 -0.05438012845191409 0.1110714507033474 0.02255960416931645 -0.17366513081166118 0.07260392946277756 0.1340162830206636 -0.021913660591599476 -0.03504915066269728 0.5511026613533323 -4.153694378720898 1.7163339844364294 3.2272403702945356 -0.5355834710443884 -0.8398727331822989 0.3102119790505086 -0.6030064468589231 -0.4553324124091587 0.24445513513973513 -0.21516590022968105 -0.245544863285997 0.753996149346275 -3.3852506760101178 -5.43446810859871 0.23064091678902604 -0.04278630338629875 -0.059972792258348416 1.6250860691070557 -2.0902021566974085 2.325407028198242 -3.469175163899557 -0.05450278917421514 0.11122222244739532 0.028148548677563667 -0.15381993353366852 0.06653641909360886 0.11754128336906433 -0.03238137811422348 -0.025909895077347755 0.2489776909351349 -0.3229980766773224 -0.6740682125091553 0.24617864191532135 -0.12756529450416565 -0.1667300909757614 0.2467346489429474 -0.3252411186695099 -0.6283169388771057 0.2383456975221634 -0.11525636911392212 -0.16449210047721863 0.19969667695422458 -0.07191642562400859 0.3986236126368017 -1.1969220686241626 1.2180419685605732 -1.1940540432157545 0.0006157679757292874 0.028492974459059687 -0.00020340763778735937 0.0042896285182587686 -0.0012823842607570582 -0.004863468345089631 32.05299917839351 26.09242042876738 -4.699367756395112 -0.4245666058307551 44.528537177062134 -6.727803386321944 0.19969045967101814 -0.07186552706035695 0.3985957305710377 -1.1968996117778234 1.2180552214249172 -1.193912571169632 3.586473062116518e-05 0.03149955937498918 0.00016270495469948205 -0.00215597185675134 -0.0001622145465699551 -0.00012010051332877432
7712.295999999999 1.6252335078792386 -2.092048943582286 2.3263111195414834 -3.4676959135352545 -0.05456859465257846 0.11077089501658899 0.02768339796562566 -0.21177928503025 0.08823882676372659 0.16375294992777495 -0.026894658320320987 -0.04276477962505901 0.6404742245386513 -4.764269277323603 1.954362162618628 3.717083363388919 -0.6226247160901889 -0.9644536202952159 0.3221632239073086 -0.6589428955028894 -0.4429555686275982 0.25218661965324746 -0.2165936216642946 -0.24836753923285487 0.8698549602956138 -3.8478395250843374 -5.377319218557174 0.2535912207045579 -0.04567331775269001 -0.06886873966442048 1.6252413988113403 -2.091579262410299 2.3259339332580566 -3.4681432882892054 -0.054622952138082326 0.11098216474056244 0.021916750818490982 -0.1894082874059677 0.08048605918884277 0.14615961909294128 -0.014117417857050896 -0.04002731293439865 0.3095398247241974 -0.2983246147632599 -0.47428780794143677 0.2752724885940552 -0.23275071382522583 -0.2864624261856079 0.2938385307788849 -0.3005676567554474 -0.48038798570632935 0.2674395442008972 -0.24394066631793976 -0.2864624261856079 0.1996950231439316 -0.0716625936540018 0.3986342687279493 -1.196978992620346 1.2179928641530804 -1.1940761446267112 -0.00016343154221368483 0.03456894437457625 -0.00019900230363324056 -0.0028575330916406727 0.000799724820544823 0.006918663907129615 2.998646140634613 25.919517759597625 3.9219324649099057 0.13001602571611204 34.5283567988152 -5.228463807681019 0.19969076708311023 -0.07159553083714411 0.3985971251849194 -1.1969117427760818 1.218046334553139 -1.1939276132136887 4.37208142268197e-05 0.0383994628571272 0.00019834508766247746 -0.0026282323587731166 -0.00019774725670234944 -0.00014640824478032795
7712.304 1.6254706910138317 -2.0938564989989636 2.3270626961972067 -3.4662965887887163 -0.05479904048967299 0.11040577202305832 0.03360447571576126 -0.2551221529223149 0.10586047354537464 0.1977404380105015 -0.03265280739110865 -0.05155142731178803 0.7401347187669495 -5.417858486508109 2.202705847706007 4.24843601034082 -0.719768633848458 -1.0983309608411278 0.3353274636337797 -0.7197744841343229 -0.4295668330165918 0.26078006181794544 -0.2182534518187789 -0.25144728780560044 0.9963050995692393 -4.340963672408647 -5.317814197064884 0.278635698540074 -0.049043221740983564 -0.07842851892078241 1.6254096031188965 -2.093362633381979 2.326688289642334 -3.466811005269186 -0.054850403462545216 0.11063312739133835 0.029567480087280273 -0.22825634479522705 0.09726397693157196 0.18275943398475647 -0.041201766580343246 -0.04527640342712402 0.2220611870288849 -0.2848663628101349 -0.4392118453979492 0.2551305890083313 -0.19918090105056763 -0.23051273822784424 0.2086029201745987 -0.2893524467945099 -0.4346367418766022 0.24394066631793976 -0.1868719756603241 -0.22827474772930145 0.19969049004706543 -0.07134869851936207 0.3986333556478782 -1.1969783680447255 1.2180173087434811 -1.1941613921276373 4.658279080511081e-05 0.039708424953208823 -0.00017195469039958653 0.006393828160572277 -0.0008600511394368885 -0.012640307922219604 31.40971224704879 32.68275052334473 6.5158985960829465 -0.16060917578204062 49.58448606108071 -7.310076022699819 0.19969114016757078 -0.07126785542076892 0.3985988177296397 -1.1969264652730398 1.2180355490282857 -1.1939458686576663 5.2647146740063486e-05 0.04623935319046451 0.00023884054311591182 -0.0031648297988071707 -0.00023812065482784346 -0.00017629992802397216
7712.312 1.625757715030447 -2.096025558194439 2.32796049819444 -3.464612977141699 -0.05507796572447887 0.1099673035539173 0.040418222732654795 -0.30404072611868466 0.12553429115619494 0.23633297143414325 -0.03928193037741232 -0.06148559802683016 0.8517183771116921 -6.114821649546221 2.4592272013525367 4.824066677955218 -0.8286403732879589 -1.241771339380266 0.34983134499203206 -0.7856665150537389 -0.41519780345172624 0.2703257354965256 -0.22018731942479142 -0.25479672690319116 1.1343961013198953 -4.864498115932878 -5.256480786665178 0.30596193756357015 -0.05300976260061846 -0.08867116603112665 1.6256732940673828 -2.0954583326922815 2.327562093734741 -3.4652021566974085 -0.055089775715963185 0.11023689806461334 0.03677719086408615 -0.28029665350914 0.11210044473409653 0.2166508287191391 -0.03043993189930916 -0.058363176882267 0.2893524467945099 -0.2938385307788849 -0.3858354091644287 0.24729764461517334 -0.19694292545318604 -0.268558531999588 0.2960815727710724 -0.3095398247241974 -0.3858354091644287 0.24170267581939697 -0.20589487254619598 -0.26520153880119324 0.1996899171680207 -0.07096781273794893 0.39863398041126435 -1.1969930151969561 1.2180017981710585 -1.1941576883125893 1.9603253713081436e-05 0.05140364875433664 0.0009912523179927653 -0.010001579854419525 -1.4287482455521953e-05 0.005095151260794509 21.431622612727242 35.62828541232465 9.486512040394913 -0.005020574491981722 53.13718742516903 -7.857380969082931 0.1996915876686064 -0.07087482091866229 0.3986008478742078 -1.196944124301098 1.2180226119687962 -1.1939677653471146 6.271204180839906e-05 0.05507922953572657 0.00028450123528608764 -0.0037698707899539285 -0.00028364372099131134 -0.0002100043259139114
7712.32 1.6261020633823067 -2.0986016709379216 2.329021003053135 -3.4626071460963526 -0.05541267559678875 0.10944609122633697 0.04823662037436396 -0.35888472742533645 0.14730484781607572 0.27991087423584665 -0.04689236176779792 -0.07264626803765926 0.9772997052136453 -6.855500163331474 2.721319582485098 5.447237850212925 -0.9513039237982 -1.3950837513536383 0.36583233878947874 -0.8567901276713512 -0.3998996901584209 0.2809290138481891 -0.22244733655876323 -0.2584297323851938 1.2854597766232614 -5.418289732624434 -5.19395854663759 0.3357919932367929 -0.057717858737147784 -0.09961874543290924 1.6259849071502686 -2.0979841391192835 2.3285915851593018 -3.463353935872213 -0.055376831685201466 0.10972045361995697 0.04224199801683426 -0.33555829524993896 0.13791446387767792 0.2611362636089325 -0.044868938624858856 -0.07180947810411453 0.3342132866382599 -0.2871094048023224 -0.4819130003452301 0.19358593225479126 -0.19134794175624847 -0.2551305890083313 0.3185119926929474 -0.3050537407398224 -0.4849630892276764 0.17456303536891937 -0.1857529729604721 -0.2517736256122589 0.199688080432552 -0.07050157692083464 0.39863809994312854 -1.197117329668686 1.2179101968594443 -1.1942720703563152 -0.00012536737854572526 0.060161811362086606 0.0003291505128972897 -0.008438836320147537 -0.0004591977319691666 -0.004103111565207661 27.61385413522083 44.82568182197145 7.672198211627346 -0.11078784935286311 73.27249322482983 -10.491131338179734 0.1996921188769337 -0.07040826744497533 0.39860325776694144 -1.1969650864483368 1.2180072546555765 -1.193993757862371 7.398381295175007e-05 0.0649790910536418 0.0003356370784199274 -0.004447461945337574 -0.0003346254352186155 -0.0002477502012951102
7712.3279999999995 1.626512185542988 -2.1016331916878688 2.3302609610065823 -3.4602380203721674 -0.05581142787706561 0.10883209558022282 0.05719268895224919 -0.4200060295510612 0.17119150479580905 0.32888468135669163 -0.05561537994782938 -0.08511521248522946 1.1195085722356537 -7.640162765715594 2.985832122466666 6.121725890105623 -1.0903772725039318 -1.5586180559462748 0.3835268245930339 -0.9333200982671663 -0.38374716916144747 0.29271197841189367 -0.22509851439552592 -0.2623614882818808 1.4511836798293705 -6.0021239355860025 -5.131017314418056 0.36838373566180566 -0.06335181518792261 -0.11129623952095564 1.6263443231582642 -2.1009772459613245 2.3298962116241455 -3.461062256489889 -0.05576020876039678 0.10915607213973999 0.050583016127347946 -0.39191293716430664 0.1679229587316513 0.30655649304389954 -0.051412325352430344 -0.08132494986057281 0.3252411186695099 -0.2377624809741974 -0.42091137170791626 0.2204417884349823 -0.1510641723871231 -0.2696775197982788 0.3364563286304474 -0.2512207329273224 -0.4163362383842468 0.21260882914066315 -0.14770719408988953 -0.26520153880119324 0.19968547221133573 -0.06996678474750913 0.3986246730576521 -1.1970713754400801 1.2179547669120734 -1.1942719502916437 -9.008383880808233e-05 0.07014636034080843 -0.0012544746852818872 0.0010850352070521994 7.78569487254501e-05 -0.002598964164257431 32.77673208298596 52.94632216202023 11.037663715540312 -0.07067900934704963 82.3342012669272 -12.115929997094167 0.1996927436297759 -0.06985955512057831 0.3986060920354634 -1.1969897398556701 1.2179891925215809 -1.194024327516781 8.653077364743484e-05 0.0759989369049709 0.00039255798679948704 -0.005201709878111242 -0.00039137477749840745 -0.0002897663169959227
7712.335999999999 1.626997684451934 -2.105171292450705 2.3316971763552177 -3.4574611265779924 -0.056283619520803185 0.10811461274626899 0.06423441880119804 -0.4645308572767338 0.18779368913907682 0.36542783441931576 -0.062484618959826654 -0.09426408604253858 0.8802162311186065 -5.565603465709078 2.0752730429084707 4.567894132828015 -0.8586548764996597 -1.1436091946636397 0.35525019289653725 -0.8090358925428053 -0.40437598117170487 0.2782999186487703 -0.22477038885588077 -0.2560178267197694 1.0972970794943695 -4.352482605673422 -5.3564279691626515 0.2966643160464151 -0.05774816441070115 -0.08166170176334653 1.626787781715393 -2.1043899695025843 2.3313567638397217 -3.4583852926837366 -0.05621511140932256 0.10838682949542999 0.059192486107349396 -0.4481716752052307 0.18074609339237213 0.3555959463119507 -0.06121542304754257 -0.08889898657798767 0.3454284965991974 -0.2108459621667862 -0.3797352612018585 0.2887004017829895 -0.12308932095766068 -0.28198644518852234 0.3319702446460724 -0.2198181450366974 -0.3797352612018585 0.27862948179244995 -0.11189938336610794 -0.2853434383869171 0.19968468567478564 -0.06935686868288303 0.3986129932998799 -1.1970927614147409 1.2179534174998579 -1.194325247336477 -6.371785212618418e-05 0.08018569289230025 0.0005974394383672625 -0.000901216035197795 -0.00038297708256918023 -0.004035729812445979 12.98301886567397 42.514166107149386 10.022824979656315 0.04594798814832664 59.39388527242752 -9.26351337331027 0.19969347231094578 -0.06921956407306333 0.3986093977866979 -1.1970184942134745 1.217968125139432 -1.194059982354578 9.563927366493007e-05 0.08399882500048393 0.00043387988072796937 -0.005749258287126296 -0.0004325721216925272 -0.0003202680341102089
7712.344 1.6275408338464303 -2.1090658664676436 2.333264501886458 -3.4543896912027017 -0.05681207454133119 0.10732372795533383 0.07161288583532224 -0.5091234615021916 0.20396153498462963 0.4025273161596776 -0.0696887800746528 -0.10346628762533719 0.9223083792655253 -5.574075528182218 2.020980730694101 4.637435217545227 -0.9005201393532686 -1.150275197849826 0.36030136966938814 -0.8237427581042831 -0.4003743256443489 0.2823434760614604 -0.2265125033719006 -0.25695995836696334 1.1244498335128823 -4.324135495379833 -5.37269252566651 0.30070374683018575 -0.06052162430753752 -0.08213770105286253 1.6273634433746338 -2.1082328001605433 2.332937717437744 -3.455456558858053 -0.0566943327533167 0.1076902449131012 0.06770607829093933 -0.4870580732822418 0.20195816457271576 0.38363903760910034 -0.06291718035936356 -0.09656888991594315 0.3476715385913849 -0.3095398247241974 -0.44988715648651123 0.21148984134197235 -0.1365172564983368 -0.31331828236579895 0.3342132866382599 -0.3050537407398224 -0.44988715648651123 0.20701386034488678 -0.1186133474111557 -0.3088423013687134 0.199687944488343 -0.06864325131303263 0.3986095782604895 -1.1971510035571546 1.217877988998506 -1.194291352311018 6.889441987948309e-05 0.08804680035651238 -0.0008913133427770749 0.001777103552386359 0.000137620053790982 0.0025796774891739056 16.365584244223548 39.606007006393476 7.635269232950935 0.18372143274947958 58.52494647169787 -8.869720630186404 0.1996942738602418 -0.06851557392082842 0.3986130341130205 -1.1970501238044688 1.217944950275458 -1.1940992025485841 0.00010474777214543439 0.09199871309624044 0.00047520177510303115 -0.006296806696615398 -0.0004737694654030684 -0.0003507697509440293
7712.352 1.6281445156059133 -2.1133174292606336 2.3349592810436937 -3.4510190946547628 -0.057399659854912244 0.10645900126919862 0.07937588099713773 -0.5537764556019914 0.21964939224314514 0.44022474671539946 -0.0772755471036464 -0.1127250495031358 0.9703743952269358 -5.581624262474979 1.9609821573144393 4.712178819465236 -0.9483458786241992 -1.157345234724827 0.36582973685691206 -0.8308786887334578 -0.3967324167609032 0.2865621226779958 -0.22841203205168353 -0.2579179902422836 1.1554448605396097 -4.292209480450041 -5.390653956393107 0.3050243229172977 -0.06370021027832012 -0.08264255117599571 1.6279629468917847 -2.112471882496969 2.3345775604248047 -3.452228371297018 -0.05729276338686162 0.10682513564825058 0.07508835941553116 -0.5311025381088257 0.20231769979000092 0.4212694764137268 -0.07053915411233902 -0.10948788374662399 0.3454284965991974 -0.2669220268726349 -0.30805832147598267 0.3043663203716278 -0.18127700686454773 -0.2361077070236206 0.3386993706226349 -0.3028106987476349 -0.33398401737213135 0.3267461955547333 -0.1868719756603241 -0.23386971652507782 0.19968811415408813 -0.06786563041244661 0.39862426360946357 -1.1973065267159078 1.217767735631729 -1.1944864192092182 4.576092189204496e-05 0.09641322372643359 0.0022753829534299923 -0.01719271321343209 -0.000769128280099668 0.0021949285625028707 12.25942668674361 38.8014078815334 11.762019061137382 -0.1743424703770541 56.06746111380401 -8.317670324465686 0.19969514827768606 -0.0677475846638804 0.39861700101441994 -1.1970846285707575 1.2179196677171888 -1.1941419880623443 0.0001138562701190207 0.09999860119220663 0.0005165236697677849 -0.006844355106304222 -0.0005149668088904587 -0.0003812714676516048
7712.36 1.6288120141067806 -2.1179264191076843 2.336777487418913 -3.447344400279182 -0.058049644107025955 0.10551996934021271 0.08757637641783622 -0.5984777849076872 0.2348104306547593 0.47855764150204544 -0.08529780806383565 -0.12204297391093519 1.0250619275873114 -5.587666163211977 1.8951298014517683 4.791611848330747 -1.0027826200236563 -1.164740550974923 0.37189095104492986 -0.8376836733378956 -0.3934736928067987 0.2909526480258755 -0.23048849747662203 -0.2588908704717371 1.1906948759310345 -4.2563479320151325 -5.4103509768476945 0.3095880042806413 -0.06733023157691209 -0.08317062852346632 1.6286580562591553 -2.116913143788473 2.336313486099243 -3.4486997763263147 -0.05793887773622686 0.10593605786561966 0.08247064054012299 -0.5762398838996887 0.2340758889913559 0.46848735213279724 -0.08523181080818176 -0.12144813686609268 0.2960815727710724 -0.2601929008960724 -0.4346367418766022 0.2719154953956604 -0.204775869846344 -0.22603675723075867 0.2938385307788849 -0.2669220268726349 -0.4224364161491394 0.25960657000541687 -0.20589487254619598 -0.22491776943206787 0.1996926347439152 -0.0670532566849381 0.39863272174628095 -1.1973645193409095 1.2177089445098486 -1.1945184041011152 6.916814420309525e-05 0.10242981663055165 -0.0009343303553364646 0.0046215467526319765 2.2390525692955273e-05 -0.005411805408456885 25.213879601972796 43.8625052725966 7.391387615865097 -0.2397229798324423 65.75667209797676 -9.474250470231057 0.19969609556328913 -0.0669155963022295 0.3986212984908837 -1.1971220084491767 1.2178922772328349 -1.1941883388560852 0.000122964767474993 0.1079984892884168 0.0005578455647784027 -0.007391903516215296 -0.0005561641521329775 -0.00041177318421657194
7712.3679999999995 1.6295470611823917 -2.1228931564017604 2.338714714892624 -3.443360390515922 -0.05876574283404867 0.10450615090307114 0.09627342621617568 -0.6432098806076267 0.24939653529693587 0.5175585560646772 -0.09381456048711075 -0.13142191722200527 1.0871312247924327 -5.59151196249244 1.8232630802720722 4.875114320328964 -1.0645940529093871 -1.1723679138837608 0.37854933182206507 -0.8441171736910763 -0.39062263554823196 0.31927087118794695 -0.23276439688058886 -0.25987723400551327 1.2306854460204808 -4.216128811774729 -5.431825900528311 0.31434897604401435 -0.07146607218775547 -0.08371527562669771 1.6293771266937256 -2.121798340474264 2.3381690979003906 -3.4448826948748987 -0.05859738985170537 0.10487844794988632 0.09092671424150467 -0.6216840744018555 0.23604130744934082 0.508754312992096 -0.08925851434469223 -0.13367204368114471 0.2579498589038849 -0.3005676567554474 -0.2928079068660736 0.3368171453475952 -0.19582392275333405 -0.2696775197982788 0.2557068169116974 -0.3050537407398224 -0.2989080846309662 0.33122217655181885 -0.19358593225479126 -0.26408255100250244 0.19969300191137623 -0.06615806538429912 0.3986480454728222 -1.1975764940641873 1.217546034785033 -1.1946946885259901 5.11322505071573e-05 0.11132260019598869 0.0017705197689395799 -0.010815960730542806 -0.00035203415385398997 -0.0011664275183272004 23.73629496127435 38.09932232901585 11.64541727282662 -0.023757164716064587 50.380230647113365 -7.626758411499691 0.19969711571703597 -0.06601960883588566 0.3986259265423978 -1.1971622633712915 1.2178627785712852 -1.1942382548867168 0.0001320732641606612 0.11599837738492208 0.0005991674601973741 -0.007939451926373598 -0.0005973614951017556 -0.0004422749006234783
7712.375999999999 1.6303538888836726 -2.1282177956822403 2.340766166943504 -3.439061610536919 -0.059552171464793524 0.10341705326783535 0.10553322077830164 -0.6879486697402644 0.2633582036648504 0.5572540666842386 -0.10289197102860169 -0.1408628549655033 1.1574743202657447 -5.592348641579703 1.7452085459893178 4.961938827445181 -1.134676317686368 -1.180117217937253 0.38587937230088837 -0.850130551634174 -0.38820480187249756 0.323235977259854 -0.23526572020888004 -0.26087534739555307 1.2759876492970728 -4.171053405249113 -5.455124681151101 0.31925217592011734 -0.07617157024773408 -0.08426863018124542 1.6301684379577637 -2.1270421187030237 2.3402884006500244 -3.440646473561422 -0.05938750902284795 0.10377328097820282 0.0992102101445198 -0.6669557094573975 0.26317358016967773 0.550579309463501 -0.10057161748409271 -0.1360449194908142 0.2534637749195099 -0.4149627983570099 -0.41023609042167664 0.2696775197982788 -0.19470493495464325 -0.29765236377716064 0.2467346489429474 -0.4373932480812073 -0.4087110459804535 0.26296356320381165 -0.1868719756603241 -0.29877135157585144 0.19969428567001352 -0.0652183789366212 0.3986339707489356 -1.197561548026031 1.217563766541338 -1.194708876102001 3.481211244905273e-05 0.11837550573511775 -0.0007979001032811329 0.010445728263926762 0.0002882861935045617 -0.0044701751726341984 29.294829401775747 34.318803704448705 6.758244261814212 0.10664138385087221 47.461252583529166 -7.060034863054862 0.19969820873896635 -0.06505962226486016 0.3986308851689465 -1.1972053932633968 1.217831171462106 -1.1942917361078262 0.00014118176025134074 0.12399826548177231 0.000640489356094283 -0.008487000336811991 -0.0006385588377655333 -0.0004727766168510192
7712.384 1.6312372913945445 -2.133900269079273 2.342926645144464 -3.4344424208007416 -0.06041370752329733 0.10225217998031039 0.11543032718867857 -0.732662413335421 0.276644445398394 0.597663554492495 -0.11260462220157516 -0.15036572437880344 1.2371383012971162 -5.589217949394584 1.6607802166929488 5.0511859760320466 -1.214081396621684 -1.1878586766625177 0.39396756107872316 -0.855665641692814 -0.3862468523449839 0.32726948567196 -0.23802257444505662 -0.26188304398548035 1.3272734599548928 -4.120532849869715 -5.4802969526707725 0.3242315330417615 -0.08152169096739803 -0.0848214245244404 1.6310197114944458 -2.132573906575338 2.3424909114837646 -3.436181370412008 -0.06027347246278936 0.10264413803815842 0.10954540222883224 -0.7094469666481018 0.2778662443161011 0.5908942222595215 -0.10538927465677261 -0.15495602786540985 0.3252411186695099 -0.2691650688648224 -0.5002135038375854 0.33234116435050964 -0.21708481013774872 -0.3390551507472992 0.3274841606616974 -0.3050537407398224 -0.5047886371612549 0.31443727016448975 -0.21372783184051514 -0.34017413854599 0.19969516933807518 -0.06422811556992045 0.39862037174719084 -1.1975253050923658 1.2176048629375658 -1.1947526318360502 0.00012695273110899016 0.12626825012546325 -0.0012030540328756706 0.00401812697449585 0.0008715748416752952 0.0008187336112055438 7.157326574708079 44.91867414901359 3.743872103492211 0.2855482061165137 56.11248668076651 -8.545438669451002 0.1996993746291043 -0.0640356365891614 0.39863617437051296 -1.1972513980465165 1.2177974556155378 -1.1943487824696868 0.0001502902555478759 0.13199815357902348 0.0006818112525481778 -0.009034548747564803 -0.0006797561800868146 -0.0005032783328814595
7712.392 1.6322026977458137 -2.139940219666089 2.345190536871572 -3.4294970602467787 -0.06135576368500839 0.1010110398444595 0.12604915575525755 -0.7773103391332279 0.2892026860224264 0.6387977544022135 -0.12303698636934697 -0.15992924063627423 1.3273535708223718 -5.580990724725856 1.5697800780040474 5.14177498871482 -1.3040455209714763 -1.1954395321838487 0.40291458529029606 -0.8606530478357904 -0.38477657581987457 0.3313529622165533 -0.24106993818621147 -0.26289764789628184 1.38533446442453 -4.063872010603988 -5.5073960664574875 0.32920786053282164 -0.0876045583398015 -0.08536275067465209 1.631954550743103 -2.1384528318988245 2.3447296619415283 -3.431368652974264 -0.06115943590273076 0.10140639543533325 0.12037914246320724 -0.7592437863349915 0.284817099571228 0.6287164092063904 -0.11538412421941757 -0.1547403186559677 0.2714081108570099 -0.3902893364429474 -0.4193863272666931 0.40059980750083923 -0.31108027696609497 -0.3200322389602661 0.2893524467945099 -0.3768310844898224 -0.4193863272666931 0.3726249635219574 -0.2898194193840027 -0.3222702145576477 0.19969651933033428 -0.06316856742363545 0.3986200638842421 -1.1975845661709907 1.2175559763876629 -1.1947872703068432 6.715148960236345e-05 0.13613544684499201 0.00043193777823556136 -0.0007925212120195126 9.224146856191443e-06 0.0014771291123220683 7.0568655136142056 34.047013836227904 3.63519080945496 0.2166225662181779 36.95517521910188 -5.552744541013221 0.19970061338745657 -0.06294765180880282 0.39864179414707795 -1.1973002776363968 1.2177616307224979 -1.1944093939192448 0.00015939874993031196 0.1399980416767179 0.000723133149643607 -0.009582097158672526 -0.0007209535220214318 -0.000533780048683241
7712.4 1.6332562573253733 -2.146336922919006 2.3475518022645185 -3.424219722191293 -0.06238447369441147 0.09969315753532397 0.13748570159278886 -0.8218410283818863 0.3009786764101979 0.6806570221910989 -0.1342851761829892 -0.16955068217676691 1.4295682296914143 -5.566336156082305 1.4719987984714369 5.232408473610672 -1.4060237267052802 -1.2026801925615858 0.41283800110605695 -0.8650101074701797 -0.38382290912938577 0.33546345708268194 -0.24444857632407152 -0.2639158847410387 1.4511046682998772 -4.0002501511524216 -5.5364791253828525 0.33408633055980014 -0.09452392661146346 -0.08587978451024515 1.633009433746338 -2.1447628180133265 2.347184181213379 -3.4261720816241663 -0.062128845845357716 0.10015703737735748 0.1291036605834961 -0.8040552139282227 0.3028653562068939 0.6819503903388977 -0.12712866067886353 -0.1630333960056305 0.3095398247241974 -0.3386993706226349 -0.48343804478645325 0.3222702145576477 -0.2887004017829895 -0.3424121141433716 0.3072967827320099 -0.3768310844898224 -0.46666261553764343 0.31108027696609497 -0.28198644518852234 -0.3681489825248718 0.1996994365134781 -0.06202943301889849 0.3986016664101007 -1.1975488709072835 1.21755941023089 -1.1946786158310276 -6.523626654487923e-06 0.14238395018940464 -0.0007366064227988476 0.017319845226017573 0.0010012869637835034 -0.0018547414258762043 7.216711810077405 40.82261088348323 3.669666968204403 0.2959007168586 50.148890290663864 -7.270760237936324 0.19970192501404604 -0.061795667923793526 0.39864774449862084 -1.1973520319435091 1.2177236964545768 -1.1944735704001288 0.0001685072433648302 0.14799792977492268 0.0007644550474758291 -0.010129645570184266 -0.0007621508635224167 -0.0005642817642333588
7712.407999999999 1.6344049406178727 -2.1530891941278956 2.3500039604925864 -3.418604645398406 -0.0635067935893856 0.09829808607049953 0.14984962152978493 -0.8661905076679054 0.3119164100861392 0.7232292633710166 -0.14645903200059454 -0.17922563976979863 1.545489992124508 -5.543684910752384 1.3672167094926635 5.321530147489706 -1.5217319772006659 -1.2093696991289649 0.42387547969887057 -0.8686384526260302 -0.3834159507365557 0.33957262602927635 -0.2482061523231937 -0.2649337767782152 1.5256883427942773 -3.9286977192328547 -5.567607014925301 0.33875344505651167 -0.10240219294714097 -0.086357462105702 1.6341723203659058 -2.151407543812887 2.3496265411376953 -3.4205310980426233 -0.06317073503603154 0.0987391546368599 0.14313958585262299 -0.8519154191017151 0.3093847632408142 0.7179749608039856 -0.13683588802814484 -0.1871216893196106 0.3229980766773224 -0.3162689507007599 -0.46666261553764343 0.2853434383869171 -0.21260882914066315 -0.2383456975221634 0.3229980766773224 -0.3297272026538849 -0.4712377190589905 0.2741535007953644 -0.21148984134197235 -0.24282166361808777 0.19970400163380922 -0.06083193265928856 0.3986037124945864 -1.197584033817492 1.2175073383775465 -1.1945965021073512 2.6830462865614457e-05 0.15253709942423946 0.000496633821390557 -0.01209001617893859 0.00022913258646122155 0.0023267257283578293 22.423605936234686 44.14101542432005 5.451369331625551 -0.2145965671795839 63.07674648833583 -8.881216170873298 0.19970330950890414 -0.06057968493414594 0.3986540254251197 -1.1974066608730471 1.2176836524640342 -1.1945413118526427 0.0001776157357371523 0.1559978178736833 0.000805776946148864 -0.010677193982154894 -0.0008033482045367519 -0.0005947834794935388
7712.415999999999 1.6356566581433636 -2.1601952791667696 2.352540075398868 -3.412646223296186 -0.06473062121633788 0.09682542145483936 0.16326672067524203 -0.9102799861827152 0.3219580509588784 0.7664874555187491 -0.15968462095045127 -0.18894772299330756 1.6771373931821383 -5.511184814351227 1.2552051090924041 5.407274018466565 -1.6531986187320913 -1.2152604029386158 0.43618876324442807 -0.8714210819748659 -0.3835869671173263 0.34364567502301935 -0.25239858506064583 -0.26594651970692895 1.6103940924073872 -3.8480684035751906 -5.600844432142883 0.3430733951961013 -0.11138407756029663 -0.08677809959263774 1.6354190111160278 -2.1583645979510706 2.352259874343872 -3.4146507422076624 -0.06427175203432256 0.09718906879425049 0.15456774830818176 -0.8952887058258057 0.3164314925670624 0.7570914626121521 -0.14963503181934357 -0.1859232783317566 0.3319702446460724 -0.3476715385913849 -0.37668517231941223 0.3435311019420624 -0.2584875822067261 -0.3099612891674042 0.3207550346851349 -0.4396362900733948 -0.38431036472320557 0.31331828236579895 -0.27862948179244995 -0.2898194193840027 0.19970785526172874 -0.05957678703609025 0.3985807770056131 -1.1976451250887665 1.2174358458133276 -1.1945054630376686 -7.665528127140625e-05 0.16047813805442104 0.0011499069680492092 -0.008125426967172753 -0.00019313740822904832 0.0007589321289213223 7.858467381991882 38.68422331947285 7.444561409414494 0.13044909458650294 47.06520133512684 -6.852742744346365 0.19970476687207814 -0.059299702839866665 0.3986606369265501 -1.1974641643249249 1.217641498383801 -1.194612618213766 0.00018672422688991144 0.16399770597306199 0.0008470988457719231 -0.011224742394646783 -0.0008445455450021813 -0.0006252851944266083
7712.424 1.6370204012265783 -2.1676527255071125 2.3551527406183403 -3.4063391349114838 -0.06606493768516586 0.09527481986828647 0.1778819404908079 -0.9540131658006449 0.33104387462876605 0.8103866810264458 -0.17410723987834195 -0.19870821661489127 1.8269024769457347 -5.466647452241208 1.1357279587359548 5.487403188462094 -1.8028273659863348 -1.2200617026979637 0.44996849862970295 -0.8732188371000896 -0.38436839051571736 0.3476400906392393 -0.2570917091396521 -0.26694833771711535 1.706776614098774 -3.7570054205730896 -5.636259914302365 0.34688367797663067 -0.12164112842750434 -0.08712094600455349 1.6368095874786377 -2.1656082312213343 2.3549063205718994 -3.408433262501852 -0.06561261812318975 0.09560377895832062 0.16841192543506622 -0.9416149258613586 0.32757681608200073 0.7997313141822815 -0.1727406233549118 -0.20682376623153687 0.3768310844898224 -0.2714081108570099 -0.315683513879776 0.3603160083293915 -0.2584875822067261 -0.3580780327320099 0.3745880424976349 -0.3028106987476349 -0.33398401737213135 0.36702999472618103 -0.2842244505882263 -0.3536020517349243 0.1997146455932601 -0.05827417431331729 0.3985679767508461 -1.1976308277344898 1.2174401990008072 -1.1944704408245106 -0.0001325013864344055 0.16826892747090808 0.0010678049962095702 -0.021604328963308817 -0.0010419480392671009 -0.00868089110282614 -6.430364885402362 42.26285263330663 10.701575176088292 0.34702906635852304 47.72307636292373 -7.124725157726705 0.19970629710356375 -0.05795572164096561 0.3986675790028871 -1.1975245421937721 1.217597233827476 -1.1946874894171506 0.00019583271658709877 0.17199759407309168 0.0008884207464668973 -0.011772290807730703 -0.0008857428848514494 -0.0006557869089901963
7712.432 1.6385064090473032 -2.175458229713546 2.357834064293104 -3.3996785018311937 -0.06751997523539544 0.0936460178321524 0.19386296199983508 -0.9972730352751495 0.33911222706161126 0.8548605691809523 -0.1898950362887017 -0.20849567797861948 1.9976276886283957 -5.407483684313083 1.0085440541056505 5.5592360193133095 -1.9734745512949674 -1.2234326704660263 0.4654401579265923 -0.8738661516062359 -0.3857938065755921 0.3515041100381482 -0.2623633127036798 -0.2679323128066689 1.8166879770850666 -3.6539007435876605 -5.673925869994771 0.34998980847273214 -0.13337724605599616 -0.08736165669996754 1.6382840871810913 -2.1732352415667933 2.3575997352600098 -3.4019411245929163 -0.06704932848085576 0.09396980702877045 0.18561168015003204 -0.984988272190094 0.3400404155254364 0.8538281321525574 -0.18582740426063538 -0.20811805129051208 0.3611297905445099 -0.4082336723804474 -0.4224364161491394 0.31443727016448975 -0.29429537057876587 -0.3200322389602661 0.3701019585132599 -0.4463654160499573 -0.40413591265678406 0.303247332572937 -0.31219929456710815 -0.31667524576187134 0.19971834791386503 -0.05689678734724579 0.3985628862079892 -1.197686483443101 1.2173973696911047 -1.1945299878313216 4.0813891288563404e-05 0.17574299025940557 0.00025528269851558214 0.00021438527913628458 6.467727010495197e-05 -0.004886166866748877 5.186997379239137 35.986318952207505 5.482438514455261 0.17232879488286068 43.99997413449784 -6.1400870695762375 0.19970790020340828 -0.05654774133744673 0.3986748516541045 -1.19758779436894 1.2175508583893253 -1.1947659253931244 0.00020494120484977285 0.17999748217382178 0.0009297426483592779 -0.012319839221486911 -0.0009269402240099275 -0.0006862886231377671
7712.44 1.6401263674352466 -2.183607456875481 2.3605756535413494 -3.392660076392099 -0.06910741700199186 0.0919388558670793 0.21140456470341704 -1.039918040095408 0.34609950517327237 0.8998170243194196 -0.20724338843029128 -0.218295464785526 2.1927003379477448 -5.330625602532307 0.8734097639576388 5.619556892308405 -2.168544017698698 -1.2249733508633147 0.48287130515446075 -0.8731659112975386 -0.3878979302111154 0.3551748738610641 -0.26830564556514774 -0.2688901834967199 1.9423406842602795 -3.536845688750507 -5.713918616866749 0.3521589295001559 -0.14683546998804003 -0.0874716720650967 1.639878273010254 -2.181305710469381 2.360365152359009 -3.394980255757467 -0.068641487752096 0.09228789806365967 0.20248547196388245 -1.0288792848587036 0.34569695591926575 0.8960605263710022 -0.2003762423992157 -0.21981465816497803 0.3207550346851349 -0.3386993706226349 -0.42091137170791626 0.3345791697502136 -0.33234116435050964 -0.20813286304473877 0.3566437065601349 -0.3633728325366974 -0.41328614950180054 0.3267461955547333 -0.3099612891674042 -0.20589487254619598 0.1997205234247525 -0.055445620382141736 0.3985633938260745 -1.1976874480551019 1.2174048755969544 -1.1945817668395728 5.057498841539253e-06 0.1844397580413296 0.0006846708281206395 -0.00751927610696845 -0.00012248456226193288 -0.0027661529345287695 17.989965870206717 41.746740281409416 5.836942007860145 -0.3667412950351531 55.50524257800387 -7.249190785932879 0.1997095761716568 -0.055075761929312475 0.39868245488017573 -1.197653920734489 1.2175023716442825 -1.1948479260686808 0.00021404969144154436 0.18799737027527252 0.0009710645515792464 -0.01286738763600022 -0.0009681375623968266 -0.0007167903368146134
7712.447999999999 1.6418936461259015 -2.1920948264672218 2.363368598876397 -3.3852804673916097 -0.0708406354275759 0.09015330624827525 0.23073391500544654 -1.081777495348911 0.3519401647483848 0.9451330898622999 -0.22638021903315236 -0.22808918069822412 2.4161687877536884 -5.232431906687873 0.7300824468890534 5.664508192860046 -2.392103825357636 -1.224214489087265 0.5025805311046725 -0.8708832271201751 -0.39071656787499726 0.3585761931253773 -0.2750285140754232 -0.26981210734628314 2.0863853034357374 -3.403570912112222 -5.75631843117535 0.3531120775939414 -0.16230632515646742 -0.08741748402225433 1.641628384590149 -2.1897109190570276 2.3631668090820312 -3.387635056172506 -0.07034141222109014 0.09047341346740723 0.22083571553230286 -1.0734797716140747 0.34876492619514465 0.9398269057273865 -0.23362049460411072 -0.22916236519813538 0.3364563286304474 -0.4643097519874573 -0.4346367418766022 0.3726249635219574 -0.20701386034488678 -0.28310543298721313 0.3297272026538849 -0.4396362900733948 -0.44073688983917236 0.3737439513206482 -0.20589487254619598 -0.2909384071826935 0.19972359743068516 -0.05392773332243302 0.3985672691252352 -1.1977478177333254 1.2173591048279242 -1.1946326949281247 -6.84921399304226e-05 0.19202803326808557 0.0016225365390834213 -0.014669856067030765 -0.0016907340609452076 -0.017821405913690223 22.495502462396832 32.3414597152765 2.7605158130003784 0.006310942053128238 35.243532538219554 -5.534959105777317 0.19971132500831565 -0.053539783416558816 0.39869038868107587 -1.1977229211691989 1.2174517731479482 -1.1949334913674827 0.0002231581761370868 0.19599725837745574 0.0010123864562602545 -0.013414936051372053 -0.0010093348999273112 -0.000747292049966878
7712.455999999999 1.643816991447387 -2.2008839077305904 2.36619413681252 -3.3775633102515026 -0.07272850513898188 0.08829572397788087 0.24713308832233763 -1.100645361163998 0.3496072520758387 0.9712028029574535 -0.2426776929763818 -0.23318889266708392 2.049896664611386 -2.3584832268858658 -0.29161408406826184 3.2587141368942003 -2.0371842429036806 -0.6374639961074756 0.4651216346364122 -0.6754905033841759 -0.42136266305029824 0.33105151351048867 -0.2749188911146157 -0.2601746083409116 1.586680221363537 -1.1047187125592408 -6.007636989839967 0.23197620066424807 -0.15119888955910918 -0.04551939157004651 1.6435346603393555 -2.198427979146139 2.366028070449829 -3.379990879689352 -0.07226878801454717 0.08856304734945297 0.24020221829414368 -1.1146095991134644 0.3515692353248596 0.986325740814209 -0.24510137736797333 -0.23793481290340424 0.3140259087085724 -0.3229980766773224 -0.3782102167606354 0.36367300152778625 -0.23275071382522583 -0.2562496066093445 0.3207550346851349 -0.3499145805835724 -0.388885498046875 0.34912607073783875 -0.23163172602653503 -0.2584875822067261 0.19972659160591547 -0.0523526874552074 0.3985672090551356 -1.1978047633123259 1.2173379413052878 -1.1947769550196423 -0.0001310515257950566 0.20049575490126104 0.0020527183922367837 -0.01532161016148131 -0.001098484699110813 -0.010183437141768503 18.616094059074662 26.32650099927704 5.18821405958644 -0.05956618329531793 27.464367133582808 -4.2885516876844205 0.19971314060967402 -0.051945139078868635 0.3986986254267258 -1.1977945559938652 1.2173992381730636 -1.1950223240964826 0.00022771240735838447 0.19999720243273286 0.0010330474159020245 -0.013688710263679495 -0.001029933563923335 -0.0007625429036922718
7712.464 1.6458435847634985 -2.2096732339246223 2.368952315543176 -3.3697693517574296 -0.0747194174837631 0.08642884884910108 0.2596695410513031 -1.0966051320209274 0.33993612886557795 0.9771996343025929 -0.25520529565139854 -0.23352218390263121 1.5670565911206809 0.5050286428838202 -1.2088904012825945 0.7496039181424247 -1.565950334377092 -0.04166140444341118 0.419567664992985 -0.47533689771759985 -0.4515598294495516 0.30038407639898573 -0.272240131269736 -0.24992427631610376 1.0104367272839592 1.190424678402672 -6.231820478777874 0.10366500138461343 -0.13185284059647545 -0.0029749159070906624 1.6455119848251343 -2.207360569630758 2.368805408477783 -3.3720696608172815 -0.07435161272157842 0.08667702972888947 0.25416144728660583 -1.1185787916183472 0.3527436852455139 0.9936600923538208 -0.2678714096546173 -0.24093087017536163 0.2803802788257599 -0.3633728325366974 -0.3919355869293213 0.3849338889122009 -0.24282166361808777 -0.3345791697502136 0.2781372368335724 -0.3566437065601349 -0.388885498046875 0.34688809514045715 -0.24058367311954498 -0.32898420095443726 0.1997254056702222 -0.05074650297016647 0.39858518416656263 -1.1978153577971031 1.2173758557379972 -1.194985583116613 -0.0001487527716521238 0.20122542873607302 0.0002954756708616578 -0.013823404763700056 -0.0014753903809684207 -0.01901557606717257 16.19276896007609 7.0572282418903205 1.739632536017052 0.39674269401771545 -3.86268614814296 -0.4403059522512977 0.19971496220810803 -0.050345250346092524 0.3987068893502551 -1.1978664297538872 1.2173465235834053 -1.195111450855925 0.00022769736114380815 0.1999838693990424 0.001032978971434713 -0.013688530548291267 -0.0010298018137065979 -0.0007623200967827204
7712.472 1.647974122589903 -2.2184275412721375 2.371632882461989 -3.3619301882042922 -0.07681421953238399 0.08455963089740723 0.27312038120872384 -1.0918294334314582 0.3301884538991712 0.9824477627937104 -0.2686514303361727 -0.233763542398429 1.6813550196775953 0.5969623236836419 -1.2184593708008464 0.6560160613896804 -1.6807668355967724 -0.030169811974723598 0.4311126269439412 -0.46293802489235547 -0.4565819282439197 0.2984983555301706 -0.2762147180658221 -0.24974911180217613 1.085477341445181 1.321035664402164 -6.24325748276349 0.09436622531012497 -0.13948829393599746 -0.002154335763679088 1.6477055549621582 -2.2162211577044886 2.3714990615844727 -3.3641613165484827 -0.07650691667665654 0.08476667106151581 0.2667592763900757 -1.1064220666885376 0.33565419912338257 0.9916227459907532 -0.26815903186798096 -0.2359454333782196 0.2669220268726349 -0.5046845078468323 -0.37058499455451965 0.41290873289108276 -0.21820379793643951 -0.22827474772930145 0.2669220268726349 -0.4329071640968323 -0.3721100389957428 0.41067075729370117 -0.20813286304473877 -0.2204417884349823 0.19973012981606342 -0.0491191976005227 0.39860142324597203 -1.1979314588366494 1.217286003694895 -1.1951241126063292 -0.0001336175318634265 0.2013060594975005 0.0012379655561906013 -0.015820075669786864 -0.001094880595882264 -0.0066848409908549684 39.21378891289917 -3.6753984140135274 0.22627718775795205 -0.08323937021835166 -13.106888469103636 0.9205832691668006 0.19971678378979513 -0.0487453764277942 0.3987151531977572 -1.1979383024948973 1.2172938050133646 -1.1952005764605778 0.0002276978720666019 0.19998431383039852 0.0010329812470366497 -0.013688529846373507 -0.0010298019931459718 -0.0007623236834873792
7712.48 1.6502161151242989 -2.227140178332352 2.3742350714868357 -3.354052550459939 -0.07902045697287097 0.0826889345012034 0.2875466994622804 -1.0861756074450355 0.3203418847882846 0.9868045902090239 -0.28307769087531015 -0.23389035097978778 1.8032897816945697 0.7067282483028403 -1.2308211388608186 0.5446034269141892 -1.8032825673921782 -0.01585107266984659 0.44339545688470894 -0.44929659550314066 -0.4617047500502686 0.29627806219931124 -0.2804994950218073 -0.24951416762044412 1.1647233737783713 1.463714776141972 -6.255286878751971 0.08394388288058231 -0.14772387285563604 -0.0011318775461357353 1.6498997211456299 -2.22496205965151 2.3740251064300537 -3.356072727833883 -0.07873374620546514 0.08284470438957214 0.2798748016357422 -1.1014940738677979 0.3268337845802307 0.9988852143287659 -0.2845774292945862 -0.23800671100616455 0.2669220268726349 -0.2489776909351349 -0.3126334547996521 0.4196226894855499 -0.21260882914066315 -0.31555625796318054 0.2646789848804474 -0.2489776909351349 -0.3095833659172058 0.41514670848846436 -0.20813286304473877 -0.31443727016448975 0.1997315119979822 -0.04753732729403778 0.3986309108489232 -1.1979341919799527 1.2173142206750946 -1.1952208286500479 -0.00016636159593247542 0.20076227063751578 0.0010399212996211927 -0.01456116749647432 -0.0009418647459828185 -0.010003083547981923 23.684036978785365 12.255813104927794 5.4523807274518195 0.3047644251780576 0.10155740096883956 -1.303059050064541 0.199718605376046 -0.04714549846020059 0.3987234170660762 -1.1980101741168079 1.2172410824448237 -1.1952897013943038 0.00022769846672381747 0.19998483233414363 0.0010329839027744914 -0.013688529027336247 -0.0010298022388294335 -0.0007623279651301361
7712.487999999999 1.6525777009217537 -2.2358038285841983 2.3767580978795575 -3.34614390071532 -0.08134630715387825 0.08081771077883187 0.3030335192349606 -1.0795701752484939 0.3103981753363059 0.9901864066194619 -0.29856950740907773 -0.2338939153527313 1.9358524715850227 0.8256790245677048 -1.2429636814973375 0.42272705130474986 -1.9364770667209472 -0.00044554661794010686 0.4566980412215121 -0.4349952294799772 -0.46684417706748765 0.2938006129417819 -0.2851495050298532 -0.2492486425357042 1.251024965114143 1.611563314039868 -6.267205689789069 0.07274168263057375 -0.15672237495370328 -3.181514734724921e-05 1.652297019958496 -2.2337272802936 2.376587152481079 -3.3479836622821253 -0.08110410371889287 0.0809946358203888 0.2943325638771057 -1.0934982299804688 0.3112782835960388 1.0002753734588623 -0.2942846417427063 -0.2317749261856079 0.3499145805835724 -0.3544006645679474 -0.2958579957485199 0.4565494954586029 -0.26520153880119324 -0.3591970205307007 0.3319702446460724 -0.4037475883960724 -0.3050082325935364 0.4554305076599121 -0.2551305890083313 -0.36367300152778625 0.19973567894607935 -0.045926183994954926 0.3986405089408637 -1.1979036372284706 1.2173379948085 -1.1952120320709432 -0.00021680479399337262 0.20115264813738312 0.0020620979702795704 -0.014521089390935708 -0.0010146075591666414 -0.005236154350309062 7.962419516434962 0.91491986417186 4.214151233634253 0.52740995568074 -15.210812763657042 0.8255602660647507 0.1997204269667434 -0.04554561647952439 0.3987316809550379 -1.1980820446190017 1.2171883558779601 -1.1953788256577467 0.00022769903856246785 0.19998533059141246 0.0010329864544278157 -0.013688528241180374 -0.0010298025237003609 -0.0007623322157836709
7712.496 1.6550677305579713 -2.244410567768581 2.379201193063434 -3.338212394210302 -0.08380066281011977 0.078946981817532 0.3196738397775501 -1.0719342638225988 0.3003595057694606 0.992503270517907 -0.3152203153665457 -0.23376510944106133 2.080040067823689 0.9544889282368796 -1.2548336958556685 0.2896079873056373 -2.081350994683498 0.01610073895874642 0.47111601405462805 -0.4199841448590537 -0.4719976139651539 0.29104560602537 -0.29019949807967266 -0.24895072941037277 1.3450565129083742 1.7649531130592129 -6.27900057090744 0.06070138872256607 -0.1665552319370229 0.0011497054668272056 1.6547660827636719 -2.242504421864645 2.3791732788085938 -3.3399317900287073 -0.08352262178529912 0.07914457470178604 0.3112255334854126 -1.0865952968597412 0.3097922205924988 1.0104140043258667 -0.3104633390903473 -0.23738352954387665 0.3319702446460724 -0.3611297905445099 -0.3187336027622223 0.337936133146286 -0.29877135157585144 -0.35024508833885193 0.3409424126148224 -0.3880462944507599 -0.3187336027622223 0.3356981575489044 -0.2584875822067261 -0.3412931263446808 0.19973578345081144 -0.04430362026973347 0.3986314172307525 -1.1979056183627097 1.2173353534177884 -1.1952028639524055 -0.00011905835124703845 0.2002508194843638 0.00020965340445826996 -0.0046739921509900365 0.0003226614833881745 -0.004584525305380528 21.284190903816516 2.9829430463997952 5.970065778165294 0.4776779932429142 -6.879960829635258 0.2516255574161955 0.19972224856172724 -0.04394573064653203 0.3987399448638309 -1.1981539140015076 1.217135625312175 -1.1954679492509654 0.00022769958816812268 0.19998580878326794 0.0010329889028678836 -0.013688527488703296 -0.0010298028481461013 -0.0007623364343521625
7712.504 1.6576958319839459 -2.25295181562222 2.3815636070109694 -3.330266934012641 -0.08639319767272102 0.07707784496816514 0.33756910181786726 -1.063182674845431 0.2902283348708179 0.993658089805 -0.33313202492118515 -0.23349423852033394 2.236907755039645 1.0939486221459849 -1.2663963623303354 0.14435241088663064 -2.2389636943299305 0.0338588650909237 0.4867514767776002 -0.40420516564531933 -0.47716298093698445 0.2879904208058011 -0.2956871969552884 -0.2486182737719036 1.4475255282479542 1.9243365290071335 -6.290663372484927 0.04775767163476088 -0.17729843533186793 0.0024177599795475887 1.657379388809204 -2.2512458006488245 2.3815195560455322 -3.331963364277975 -0.08601266542543584 0.07719788700342178 0.3293840289115906 -1.079500675201416 0.29816752672195435 1.0032234191894531 -0.3238377273082733 -0.23362049460411072 0.3252411186695099 -0.4598236680030823 -0.40718600153923035 0.38157689571380615 -0.2573685944080353 -0.3066043257713318 0.3185119926929474 -0.4508515000343323 -0.3995607793331146 0.3715059459209442 -0.28086745738983154 -0.29429537057876587 0.19973415425559554 -0.04264997311544652 0.39865729387031085 -1.1982112000138716 1.2170846820189216 -1.1954314973445652 -0.00020841581207353623 0.2018720209010771 0.0005658385317157694 -0.01263142263040098 -0.00045722147106973195 0.0002659894366172078 41.13522320493047 -3.581825505056994 0.07566588291463978 0.28797480128626246 -15.250540139646677 1.039155284536184 0.19972407016077778 -0.04234584111638904 0.398748208791675 -1.1982257822643683 1.2170828907468703 -1.1955570721740139 0.00022770011634172776 0.19998626771354294 0.0010329912521514744 -0.013688526769730716 -0.0010298032113888948 -0.0007623406206155322
7712.512 1.6604724803372204 -2.2614182836478864 2.383844610522296 -3.3223172299998804 -0.08913443655453346 0.07521147750044524 0.35682975252507426 -1.0532234844023298 0.2800074133226649 0.9935461843222725 -0.3524155878977355 -0.2330710138497722 2.4075813384008757 1.2448988053876398 -1.2776151935191271 -0.013988185340943482 -2.4104453720687964 0.052903083820218105 0.5037145170106103 -0.3875961237932885 -0.48233816235822036 0.2846109247494621 -0.30165361304364335 -0.24824901252320988 1.5591867089143143 2.090194711286777 -6.3021865176367555 0.03384115271551329 -0.18903306284103794 0.003777650506350314 1.6602084636688232 -2.259723965321676 2.3837342262268066 -3.3239591757403772 -0.08868247667421514 0.07533583790063858 0.3464687466621399 -1.0687819719314575 0.28503280878067017 1.0039185285568237 -0.34926825761795044 -0.23882164061069489 0.2422485649585724 -0.3566437065601349 -0.41328614950180054 0.44647854566574097 -0.34800708293914795 -0.28198644518852234 0.2467346489429474 -0.3431854546070099 -0.42396146059036255 0.4397645890712738 -0.3356981575489044 -0.28198644518852234 0.19973926239189424 -0.04103149509415447 0.39868246788592043 -1.198357550213188 1.2169338025549175 -1.1954428617000823 -0.0002884002057390217 0.2008483276304726 0.0011462506737478324 -0.019597971071801463 -0.000981815435119739 -0.008033831903170219 51.66732663221269 2.7619789517296365 -0.8134394543321383 0.17274860775287904 -12.037148774060059 0.6926268497191349 0.1997258917637206 -0.040745948038018634 0.3987564727378241 -1.1982976494076312 1.2170301521814606 -1.1956461944269356 0.00022770062418190755 0.1999867081580647 0.001032993506179168 -0.013688526084068982 -0.001029803612651564 -0.000762344774361796
