Fleaurent/UniversalRobot/csv/prakt_movel_x400_Singular.csv
timestamp target_q_0 target_q_1 target_q_2 target_q_3 target_q_4 target_q_5 target_qd_0 target_qd_1 target_qd_2 target_qd_3 target_qd_4 target_qd_5 target_qdd_0 target_qdd_1 target_qdd_2 target_qdd_3 target_qdd_4 target_qdd_5 target_current_0 target_current_1 target_current_2 target_current_3 target_current_4 target_current_5 target_moment_0 target_moment_1 target_moment_2 target_moment_3 target_moment_4 target_moment_5 actual_q_0 actual_q_1 actual_q_2 actual_q_3 actual_q_4 actual_q_5 actual_qd_0 actual_qd_1 actual_qd_2 actual_qd_3 actual_qd_4 actual_qd_5 actual_current_0 actual_current_1 actual_current_2 actual_current_3 actual_current_4 actual_current_5 joint_control_output_0 joint_control_output_1 joint_control_output_2 joint_control_output_3 joint_control_output_4 joint_control_output_5 actual_TCP_pose_0 actual_TCP_pose_1 actual_TCP_pose_2 actual_TCP_pose_3 actual_TCP_pose_4 actual_TCP_pose_5 actual_TCP_speed_0 actual_TCP_speed_1 actual_TCP_speed_2 actual_TCP_speed_3 actual_TCP_speed_4 actual_TCP_speed_5 actual_TCP_force_0 actual_TCP_force_1 actual_TCP_force_2 actual_TCP_force_3 actual_TCP_force_4 actual_TCP_force_5 target_TCP_pose_0 target_TCP_pose_1 target_TCP_pose_2 target_TCP_pose_3 target_TCP_pose_4 target_TCP_pose_5 target_TCP_speed_0 target_TCP_speed_1 target_TCP_speed_2 target_TCP_speed_3 target_TCP_speed_4 target_TCP_speed_5
883.584 -0.5324999547834715 -1.5954054692480177 -1.9350465416861127 0.38885935734433663 2.1034708145035665 0.0001745329251994221 -0.0 -0.0 -0.0 0.0 -0.0 -0.0 0.0 0.0 0.0 0.0 0.0 0.0 1.1376295825519693e-19 0.5366703776660761 0.6986372253114864 0.060799631939498465 3.678790513610345e-17 0.0 1.305543638796082e-18 6.181637315307669 5.89872838284027 0.2509498241377594 1.5272065389720524e-16 0.0 -0.5325411001788538 -1.5953815619098108 -1.935019318257467 0.38888585567474365 2.103496789932251 0.00018013788212556392 1.917476038215682e-05 5.752428114647046e-05 -2.3968450477696024e-05 7.190534961409867e-05 -2.3968450477696024e-05 2.3968450477696024e-05 0.01345825381577015 0.7222595810890198 0.7975965142250061 0.002237987704575062 -0.06042566895484924 0.134279265999794 0.011215210892260075 0.7222595810890198 0.8052217364311218 0.001118993852287531 -0.06490164250135422 0.1376362442970276 0.20059924756017078 -0.20044523695944802 0.4005957701146532 -1.2107418414219406 1.2090460776225285 -1.2079093537528542 -1.3669557007803817e-05 1.2187892023012873e-05 1.4459626771513637e-05 -2.9534560935274716e-05 -9.08633316413133e-05 -4.848740951143549e-06 2.2149582102060568 -7.600698933318564 -8.482548538768253 -0.6204418467319257 -1.2185012086894937 0.9075489132851778 0.2006146915044232 -0.20044331888099298 0.4005800203876072 -1.2107734338629361 1.2090999735328394 -1.2078415276969243 0.0 0.0 0.0 0.0 0.0 0.0
883.592 -0.5324999547834715 -1.5954054692480177 -1.9350465416861127 0.38885935734433663 2.1034708145035665 0.0001745329251994221 -0.0 -0.0 -0.0 0.0 -0.0 -0.0 0.0 0.0 0.0 0.0 0.0 0.0 1.1376295825519693e-19 0.5366703776660761 0.6986372253114864 0.060799631939498465 3.678790513610345e-17 0.0 1.305543638796082e-18 6.181637315307669 5.89872838284027 0.2509498241377594 1.5272065389720524e-16 0.0 -0.5325411001788538 -1.5953696409808558 -1.935019318257467 0.38888585567474365 2.1034252643585205 0.00020410634169820696 1.917476038215682e-05 5.752428114647046e-05 -2.3968450477696024e-05 7.190534961409867e-05 -2.3968450477696024e-05 2.3968450477696024e-05 0.02243042178452015 0.7267456650733948 0.8097968697547913 -0.002237987704575062 -0.067139632999897 0.13875523209571838 0.01345825381577015 0.7289887070655823 0.8052217364311218 0.001118993852287531 -0.06490164250135422 0.1376362442970276 0.20059669278881226 -0.2004496263055381 0.40059904437457083 -1.2106872657985512 1.2090997142503899 -1.207953713424528 -1.3669762764618282e-05 1.2187930907607109e-05 1.445971165116676e-05 -2.9534313521703068e-05 -9.086519097331739e-05 -4.848493691801053e-06 1.7032199668364327 -7.973901637336722 -9.071083845356897 -0.6411934302510803 -1.2538785019998304 0.9695155898991715 0.2006146915044232 -0.20044331888099298 0.4005800203876072 -1.2107734338629361 1.2090999735328394 -1.2078415276969243 0.0 0.0 0.0 0.0 0.0 0.0
883.5999999999999 -0.5324999547834715 -1.5954054692480177 -1.9350465416861127 0.38885935734433663 2.1034708145035665 0.0001745329251994221 -0.0 -0.0 -0.0 0.0 -0.0 -0.0 0.0 0.0 0.0 0.0 0.0 0.0 1.1376295825519693e-19 0.5366703776660761 0.6986372253114864 0.060799631939498465 3.678790513610345e-17 0.0 1.305543638796082e-18 6.181637315307669 5.89872838284027 0.2509498241377594 1.5272065389720524e-16 0.0 -0.5325411001788538 -1.5954292456256312 -1.934995476399557 0.38890981674194336 2.1034252643585205 0.0001561694371048361 1.917476038215682e-05 5.752428114647046e-05 -2.3968450477696024e-05 4.793690095539205e-05 -2.3968450477696024e-05 2.3968450477696024e-05 0.01345825381577015 0.7357178330421448 0.8006466031074524 -0.002237987704575062 -0.067139632999897 0.13092228770256042 0.011215210892260075 0.7289887070655823 0.8052217364311218 0.001118993852287531 -0.06490164250135422 0.1376362442970276 0.20060759968177835 -0.20045606201662225 0.4005907830324756 -1.210725575848697 1.2090873442488168 -1.2079797742032141 -1.1905978073119642e-05 1.1152400068599421e-05 1.2759617303106306e-05 -1.7386288589316665e-05 -7.020334603382821e-05 -4.833858436716106e-06 2.4743448185859225 -8.304500688729425 -8.971796589321626 -0.6047050644332511 -1.3495644723516322 0.9967807809467807 0.2006146915044232 -0.20044331888099298 0.4005800203876072 -1.2107734338629361 1.2090999735328394 -1.2078415276969243 0.0 0.0 0.0 0.0 0.0 0.0
883.608 -0.5324999547834715 -1.5954054692480177 -1.9350465416861127 0.38885935734433663 2.1034708145035665 0.0001745329251994221 -0.0 -0.0 -0.0 0.0 -0.0 -0.0 0.0 0.0 0.0 0.0 0.0 0.0 1.1376295825519693e-19 0.5366703776660761 0.6986372253114864 0.060799631939498465 3.678790513610345e-17 0.0 1.305543638796082e-18 6.181637315307669 5.89872838284027 0.2509498241377594 1.5272065389720524e-16 0.0 -0.5325411001788538 -1.5953577200519007 -1.935007397328512 0.388921856880188 2.103484630584717 0.00018013788212556392 1.917476038215682e-05 5.752428114647046e-05 -2.3968450477696024e-05 4.793690095539205e-05 -2.3968450477696024e-05 2.3968450477696024e-05 0.01345825381577015 0.7245026230812073 0.8006466031074524 0.002237987704575062 -0.07049661129713058 0.1376362442970276 0.011215210892260075 0.7200165390968323 0.8052217364311218 0.001118993852287531 -0.06490164250135422 0.1376362442970276 0.20059143450180475 -0.2004416619696108 0.40060806925983916 -1.2107173455433287 1.208992382934932 -1.2079744773569083 -1.1906854956488776e-05 1.1152514842338916e-05 1.2758146247428707e-05 -1.738481306583124e-05 -7.020279488376282e-05 -4.832378344339216e-06 2.0962934342048922 -7.796221902447852 -8.627270812121367 -0.6360164571623268 -1.2209527989808326 0.9705030448085039 0.2006146915044232 -0.20044331888099298 0.4005800203876072 -1.2107734338629361 1.2090999735328394 -1.2078415276969243 0.0 0.0 0.0 0.0 0.0 0.0
883.616 -0.5324999547834715 -1.5954054692480177 -1.9350465416861127 0.38885935734433663 2.1034708145035665 0.0001745329251994221 -0.0 -0.0 -0.0 0.0 -0.0 -0.0 0.0 0.0 0.0 0.0 0.0 0.0 1.1376295825519693e-19 0.5366703776660761 0.6986372253114864 0.060799631939498465 3.678790513610345e-17 0.0 1.305543638796082e-18 6.181637315307669 5.89872838284027 0.2509498241377594 1.5272065389720524e-16 0.0 -0.5325411001788538 -1.5953696409808558 -1.935019318257467 0.38886189460754395 2.1034486293792725 0.00018013788212556392 1.917476038215682e-05 5.752428114647046e-05 -2.3968450477696024e-05 4.793690095539205e-05 -2.3968450477696024e-05 2.3968450477696024e-05 0.011215210892260075 0.7267456650733948 0.806746780872345 0.002237987704575062 -0.07161560654640198 0.13875523209571838 0.011215210892260075 0.7245026230812073 0.8052217364311218 0.001118993852287531 -0.06490164250135422 0.1376362442970276 0.20059845545288682 -0.20044873723567655 0.4005973433197201 -1.2107222247631966 1.2090920789233985 -1.2079354126098223 -1.1906233249188689e-05 1.1152320733926804e-05 1.2758870454596388e-05 -1.7386542921942917e-05 -7.020263737587005e-05 -4.834108810484372e-06 2.083508162441656 -7.574284637322651 -8.868814049841712 -0.6411908172570612 -1.2256179281752484 0.9574467685731214 0.2006146915044232 -0.20044331888099298 0.4005800203876072 -1.2107734338629361 1.2090999735328394 -1.2078415276969243 0.0 0.0 0.0 0.0 0.0 0.0
883.6239999999999 -0.5324999547834715 -1.5954054692480177 -1.9350465416861127 0.38885935734433663 2.1034708145035665 0.0001745329251994221 -0.0 -0.0 -0.0 0.0 -0.0 -0.0 0.0 0.0 0.0 0.0 0.0 0.0 1.1376295825519693e-19 0.5366703776660761 0.6986372253114864 0.060799631939498465 3.678790513610345e-17 0.0 1.305543638796082e-18 6.181637315307669 5.89872838284027 0.2509498241377594 1.5272065389720524e-16 0.0 -0.5325291792498987 -1.5953696409808558 -1.935007397328512 0.38890981674194336 2.1034727096557617 0.0001561694371048361 1.917476038215682e-05 5.752428114647046e-05 -2.3968450477696024e-05 4.793690095539205e-05 -2.3968450477696024e-05 2.3968450477696024e-05 0.008972168900072575 0.7312317490577698 0.8113219141960144 0.0 -0.06490164250135422 0.13987423479557037 0.01345825381577015 0.7245026230812073 0.8052217364311218 0.001118993852287531 -0.06490164250135422 0.1376362442970276 0.20059726541368977 -0.2004422741582159 0.40060394314191317 -1.2107412439753924 1.2090019507072252 -1.207973375522144 -1.190676295291062e-05 1.1152326107148766e-05 1.2758464501551425e-05 -1.73844704066405e-05 -7.020299619263728e-05 -4.8328732366934835e-06 2.2641288608513115 -7.37201107016781 -9.161652954902761 -0.6463934458042414 -1.263879099767851 0.9095329605000213 0.2006146915044232 -0.20044331888099298 0.4005800203876072 -1.2107734338629361 1.2090999735328394 -1.2078415276969243 0.0 0.0 0.0 0.0 0.0 0.0
883.632 -0.5324999547834715 -1.5954054692480177 -1.9350465416861127 0.38885935734433663 2.1034708145035665 0.0001745329251994221 -0.0 -0.0 -0.0 0.0 -0.0 -0.0 0.0 0.0 0.0 0.0 0.0 0.0 1.1376295825519693e-19 0.5366703776660761 0.6986372253114864 0.060799631939498465 3.678790513610345e-17 0.0 1.305543638796082e-18 6.181637315307669 5.89872838284027 0.2509498241377594 1.5272065389720524e-16 0.0 -0.532576862965719 -1.595405403767721 -1.9350431601153772 0.3888739347457886 2.1034252643585205 0.00014418520731851459 1.917476038215682e-05 5.752428114647046e-05 -2.3968450477696024e-05 4.793690095539205e-05 -2.3968450477696024e-05 2.3968450477696024e-05 0.006729126907885075 0.7222595810890198 0.8006466031074524 0.001118993852287531 -0.06042566895484924 0.14323121309280396 0.011215210892260075 0.7245026230812073 0.7991215586662292 0.001118993852287531 -0.06378264725208282 0.1376362442970276 0.20059817382778947 -0.2004618554974776 0.40058198178407467 -1.210733175018555 1.209160100001534 -1.2079681225967036 -1.1905178990774598e-05 1.1152530977358416e-05 1.2759573629502845e-05 -1.739003063290844e-05 -7.020199650535393e-05 -4.835091593870972e-06 2.3606439272532556 -7.11576886435091 -8.60474980987591 -0.6621249986856428 -1.1982318406936145 0.8676073025583589 0.2006146915044232 -0.20044331888099298 0.4005800203876072 -1.2107734338629361 1.2090999735328394 -1.2078415276969243 0.0 0.0 0.0 0.0 0.0 0.0
883.64 -0.5324999547834715 -1.5954054692480177 -1.9350465416861127 0.38885935734433663 2.1034708145035665 0.0001745329251994221 -0.0 -0.0 -0.0 0.0 -0.0 -0.0 0.0 0.0 0.0 0.0 0.0 0.0 1.1376295825519693e-19 0.5366703776660761 0.6986372253114864 0.060799631939498465 3.678790513610345e-17 0.0 1.305543638796082e-18 6.181637315307669 5.89872838284027 0.2509498241377594 1.5272065389720524e-16 0.0 -0.5325411001788538 -1.595393482838766 -1.934995476399557 0.3888739347457886 2.1034252643585205 0.00016815366689115763 1.917476038215682e-05 5.752428114647046e-05 -2.3968450477696024e-05 4.793690095539205e-05 -2.3968450477696024e-05 2.3968450477696024e-05 0.008972168900072575 0.7200165390968323 0.8052217364311218 0.0 -0.06490164250135422 0.1376362442970276 0.011215210892260075 0.7245026230812073 0.806746780872345 0.001118993852287531 -0.06490164250135422 0.1376362442970276 0.2006025734448307 -0.20045310812771674 0.4005980536542234 -1.2107168095488565 1.2090931400879525 -1.2079708901655921 -1.1906248651376088e-05 1.115243073087613e-05 1.27592129691618e-05 -1.738629418363043e-05 -7.020334429976873e-05 -4.833860236933085e-06 2.0632153361502557 -7.031209500177238 -8.727557089582387 -0.6361532854584899 -1.199965226406125 0.8814556303783507 0.2006146915044232 -0.20044331888099298 0.4005800203876072 -1.2107734338629361 1.2090999735328394 -1.2078415276969243 0.0 0.0 0.0 0.0 0.0 0.0
883.6479999999999 -0.5324999547834715 -1.5954054692480177 -1.9350465416861127 0.38885935734433663 2.1034708145035665 0.0001745329251994221 -0.0 -0.0 -0.0 0.0 -0.0 -0.0 0.0 0.0 0.0 0.0 0.0 0.0 1.1376295825519693e-19 0.5366703776660761 0.6986372253114864 0.060799631939498465 3.678790513610345e-17 0.0 1.305543638796082e-18 6.181637315307669 5.89872838284027 0.2509498241377594 1.5272065389720524e-16 0.0 -0.5324929396258753 -1.5953577200519007 -1.9350550810443323 0.38893377780914307 2.1034727096557617 0.00018013788212556392 1.917476038215682e-05 5.752428114647046e-05 -2.3968450477696024e-05 4.793690095539205e-05 -2.3968450477696024e-05 2.3968450477696024e-05 0.006729126907885075 0.7289887070655823 0.8097968697547913 0.002237987704575062 -0.05706868693232536 0.1353982537984848 0.011215210892260075 0.7245026230812073 0.8052217364311218 0.001118993852287531 -0.06490164250135422 0.1376362442970276 0.20060042523085633 -0.20043254010941527 0.4005961162946095 -1.2107438731537015 1.2089968044861972 -1.2079197266192314 -1.1906954994302866e-05 1.115166256413111e-05 1.2758270618962203e-05 -1.7382165332518364e-05 -7.020348216532763e-05 -4.8331171417424716e-06 2.394971935317008 -7.041051604054778 -9.013206211855458 -0.625664940842561 -1.2463495788678722 0.8458237621745127 0.2006146915044232 -0.20044331888099298 0.4005800203876072 -1.2107734338629361 1.2090999735328394 -1.2078415276969243 0.0 0.0 0.0 0.0 0.0 0.0
883.656 -0.5324999547834715 -1.5954054692480177 -1.9350465416861127 0.38885935734433663 2.1034708145035665 0.0001745329251994221 -0.0 -0.0 -0.0 0.0 -0.0 -0.0 0.0 0.0 0.0 0.0 0.0 0.0 1.1376295825519693e-19 0.5366703776660761 0.6986372253114864 0.060799631939498465 3.678790513610345e-17 0.0 1.305543638796082e-18 6.181637315307669 5.89872838284027 0.2509498241377594 1.5272065389720524e-16 0.0 -0.5325411001788538 -1.595405403767721 -1.9350312391864222 0.3888978958129883 2.1034486293792725 0.00016815366689115763 1.917476038215682e-05 5.752428114647046e-05 -2.3968450477696024e-05 4.793690095539205e-05 -2.3968450477696024e-05 2.3968450477696024e-05 0.01345825381577015 0.7245026230812073 0.8021716475486755 0.0 -0.07049661129713058 0.14099322259426117 0.011215210892260075 0.7245026230812073 0.8052217364311218 0.001118993852287531 -0.06602063775062561 0.1376362442970276 0.2006035264118917 -0.200451703949371 0.40058688151290694 -1.210734088660445 1.2090965657251829 -1.2079350395596504 -1.1905835600564508e-05 1.115221599530246e-05 1.2759312751923488e-05 -1.7386779926947064e-05 -7.020249534935454e-05 -4.8343507979225815e-06 2.06041283016546 -7.734971586188861 -8.728103855789517 -0.6515538334069816 -1.226048593754254 0.9654815638695098 0.2006146915044232 -0.20044331888099298 0.4005800203876072 -1.2107734338629361 1.2090999735328394 -1.2078415276969243 0.0 0.0 0.0 0.0 0.0 0.0
883.664 -0.5324999547834715 -1.5954054692480177 -1.9350465416861127 0.38885935734433663 2.1034708145035665 0.0001745329251994221 -0.0 -0.0 -0.0 0.0 -0.0 -0.0 0.0 0.0 0.0 0.0 0.0 0.0 1.1376295825519693e-19 0.5366703776660761 0.6986372253114864 0.060799631939498465 3.678790513610345e-17 0.0 1.305543638796082e-18 6.181637315307669 5.89872838284027 0.2509498241377594 1.5272065389720524e-16 0.0 -0.5325411001788538 -1.595393482838766 -1.935007397328512 0.38888585567474365 2.1034727096557617 0.00018013788212556392 1.917476038215682e-05 5.752428114647046e-05 -2.3968450477696024e-05 4.793690095539205e-05 -2.3968450477696024e-05 2.3968450477696024e-05 0.01345825381577015 0.7222595810890198 0.8052217364311218 0.004475975409150124 -0.06378264725208282 0.1365172564983368 0.011215210892260075 0.7245026230812073 0.8052217364311218 0.0033569815568625927 -0.06490164250135422 0.1376362442970276 0.2006017496290662 -0.20044870356727887 0.4005956984023223 -1.210730432548055 1.2090638386434098 -1.2079271033968006 -1.1906171295872917e-05 1.1152374594398646e-05 1.2759019069750291e-05 -1.7386293988276183e-05 -7.020220706021148e-05 -4.833860735899127e-06 2.0016538671790256 -7.370970601521334 -8.67262267077389 -0.6308957693219949 -1.1862764241673756 0.9042329260932165 0.2006146915044232 -0.20044331888099298 0.4005800203876072 -1.2107734338629361 1.2090999735328394 -1.2078415276969243 0.0 0.0 0.0 0.0 0.0 0.0
883.6719999999999 -0.5324999547834715 -1.5954054692480177 -1.9350465416861127 0.38885935734433663 2.1034708145035665 0.0001745329251994221 -0.0 -0.0 -0.0 0.0 -0.0 -0.0 0.0 0.0 0.0 0.0 0.0 0.0 1.1376295825519693e-19 0.5366703776660761 0.6986372253114864 0.060799631939498465 3.678790513610345e-17 0.0 1.305543638796082e-18 6.181637315307669 5.89872838284027 0.2509498241377594 1.5272065389720524e-16 0.0 -0.532564942036764 -1.5953577200519007 -1.9350312391864222 0.38890981674194336 2.103496789932251 0.00016815366689115763 1.917476038215682e-05 5.752428114647046e-05 -2.3968450477696024e-05 4.793690095539205e-05 -2.3968450477696024e-05 2.3968450477696024e-05 0.01794433780014515 0.7132874131202698 0.8128469586372375 0.002237987704575062 -0.06154466047883034 0.13987423479557037 0.011215210892260075 0.7245026230812073 0.8052217364311218 0.001118993852287531 -0.06378264725208282 0.1376362442970276 0.20058764855086966 -0.20044599933503437 0.40060081492264177 -1.2107300533784504 1.2090266114272816 -1.207963779362014 -1.1906258693693085e-05 1.115263182261063e-05 1.2758253855042553e-05 -1.7387226300000892e-05 -7.020165190903975e-05 -4.833119595818971e-06 1.434728779141924 -6.810409162602417 -8.774828574164593 -0.646636951531681 -1.1209141607738695 0.8476079898481668 0.2006146915044232 -0.20044331888099298 0.4005800203876072 -1.2107734338629361 1.2090999735328394 -1.2078415276969243 0.0 0.0 0.0 0.0 0.0 0.0
883.68 -0.5324999547834715 -1.5954054692480177 -1.9350465416861127 0.38885935734433663 2.1034708145035665 0.0001745329251994221 -0.0 -0.0 -0.0 0.0 -0.0 -0.0 0.0 0.0 0.0 0.0 0.0 0.0 1.1376295825519693e-19 0.5366703776660761 0.6986372253114864 0.060799631939498465 3.678790513610345e-17 0.0 1.305543638796082e-18 6.181637315307669 5.89872838284027 0.2509498241377594 1.5272065389720524e-16 0.0 -0.5325411001788538 -1.595393482838766 -1.9350431601153772 0.3888498544692993 2.103484630584717 0.00020410634169820696 1.917476038215682e-05 5.752428114647046e-05 -2.3968450477696024e-05 4.793690095539205e-05 -2.3968450477696024e-05 2.3968450477696024e-05 0.01345825381577015 0.7357178330421448 0.8128469586372375 0.0 -0.06266365945339203 0.13987423479557037 0.011215210892260075 0.7245026230812073 0.8052217364311218 0.001118993852287531 -0.06378264725208282 0.1376362442970276 0.20060455854134412 -0.20044933110532445 0.40058354361214576 -1.2107372107052374 1.209129019544918 -1.207844476438227 -1.1905573954672992e-05 1.115209688176318e-05 1.2759308750103474e-05 -1.7387774246064432e-05 -7.02010472967836e-05 -4.8353428636105645e-06 2.2470147738347883 -7.743088285986315 -9.307400718065656 -0.6462402710321202 -1.2931737621716721 0.9297184485880411 0.2006146915044232 -0.20044331888099298 0.4005800203876072 -1.2107734338629361 1.2090999735328394 -1.2078415276969243 0.0 0.0 0.0 0.0 0.0 0.0
883.688 -0.5324999547834715 -1.5954054692480177 -1.9350465416861127 0.38885935734433663 2.1034708145035665 0.0001745329251994221 -0.0 -0.0 -0.0 0.0 -0.0 -0.0 0.0 0.0 0.0 0.0 0.0 0.0 1.1376295825519693e-19 0.5366703776660761 0.6986372253114864 0.060799631939498465 3.678790513610345e-17 0.0 1.305543638796082e-18 6.181637315307669 5.89872838284027 0.2509498241377594 1.5272065389720524e-16 0.0 -0.5325411001788538 -1.5953815619098108 -1.9350312391864222 0.38886189460754395 2.1034727096557617 0.00019212211191188544 1.917476038215682e-05 5.752428114647046e-05 -2.3968450477696024e-05 4.793690095539205e-05 -2.3968450477696024e-05 2.3968450477696024e-05 0.004486084450036287 0.7312317490577698 0.8219972252845764 -0.002237987704575062 -0.06490164250135422 0.1365172564983368 0.011215210892260075 0.7245026230812073 0.8052217364311218 0.001118993852287531 -0.06602063775062561 0.1376362442970276 0.2006010641461065 -0.20044827341064908 0.400590870538558 -1.210731019904539 1.2091008118073359 -1.2078901756652665 -1.1905936178982647e-05 1.1152217984968195e-05 1.275903306643673e-05 -1.7387034215949655e-05 -7.020176992866409e-05 -4.8346016049619835e-06 2.1622611792489144 -6.711129348440909 -9.551881585395195 -0.6308185034639506 -1.2753650238353902 0.8551155874166657 0.2006146915044232 -0.20044331888099298 0.4005800203876072 -1.2107734338629361 1.2090999735328394 -1.2078415276969243 0.0 0.0 0.0 0.0 0.0 0.0
883.6959999999999 -0.5324999547834715 -1.5954054692480177 -1.9350465416861127 0.38885935734433663 2.1034708145035665 0.0001745329251994221 -0.0 -0.0 -0.0 0.0 -0.0 -0.0 0.0 0.0 0.0 0.0 0.0 0.0 1.1376295825519693e-19 0.5366703776660761 0.6986372253114864 0.060799631939498465 3.678790513610345e-17 0.0 1.305543638796082e-18 6.181637315307669 5.89872838284027 0.2509498241377594 1.5272065389720524e-16 0.0 -0.5325167814837855 -1.5953457991229456 -1.9349592367755335 0.38888585567474365 2.1034607887268066 0.00013182648399379104 1.917476038215682e-05 5.752428114647046e-05 -2.3968450477696024e-05 4.793690095539205e-05 -2.3968450477696024e-05 2.3968450477696024e-05 0.01345825381577015 0.7222595810890198 0.7914963960647583 -0.001118993852287531 -0.06602063775062561 0.1376362442970276 0.011215210892260075 0.7245026230812073 0.8052217364311218 0.001118993852287531 -0.06490164250135422 0.1376362442970276 0.2005961852544647 -0.2004387281651016 0.4006217149413568 -1.2107467990381215 1.2089482141406438 -1.208028648024376 -1.1907602317045479e-05 1.1152498855778867e-05 1.2758079489785389e-05 -1.738261424977694e-05 -7.020408238991058e-05 -4.831880210562847e-06 2.289313784806888 -7.946964624661766 -8.36610993753542 -0.6360202941894084 -1.2414849509520287 0.9620958942919512 0.2006146915044232 -0.20044331888099298 0.4005800203876072 -1.2107734338629361 1.2090999735328394 -1.2078415276969243 0.0 0.0 0.0 0.0 0.0 0.0
883.704 -0.5324999547834715 -1.5954054692480177 -1.9350465416861127 0.38885935734433663 2.1034708145035665 0.0001745329251994221 -0.0 -0.0 -0.0 0.0 -0.0 -0.0 0.0 0.0 0.0 0.0 0.0 0.0 1.1376295825519693e-19 0.5366703776660761 0.6986372253114864 0.060799631939498465 3.678790513610345e-17 0.0 1.305543638796082e-18 6.181637315307669 5.89872838284027 0.2509498241377594 1.5272065389720524e-16 0.0 -0.532564942036764 -1.5953214804278772 -1.935019318257467 0.3888978958129883 2.1034252643585205 0.00018013788212556392 1.917476038215682e-05 5.752428114647046e-05 -2.3968450477696024e-05 4.793690095539205e-05 -2.3968450477696024e-05 2.3968450477696024e-05 0.008972168900072575 0.7177734971046448 0.8006466031074524 0.002237987704575062 -0.07049661129713058 0.14099322259426117 0.011215210892260075 0.7245026230812073 0.8052217364311218 0.001118993852287531 -0.06490164250135422 0.13875523209571838 0.20058070382984805 -0.20044782244786133 0.4006131182061991 -1.2106779512202326 1.2090533637876 -1.208036026112293 -1.1906831153401662e-05 1.1152774497500536e-05 1.275790360875543e-05 -1.7386479440387415e-05 -7.020380731006645e-05 -4.832369856490978e-06 2.035988369133806 -7.206282588498503 -8.482254000204945 -0.6518063066642366 -1.165017985381256 0.9218866355569371 0.2006146915044232 -0.20044331888099298 0.4005800203876072 -1.2107734338629361 1.2090999735328394 -1.2078415276969243 0.0 0.0 0.0 0.0 0.0 0.0
883.712 -0.5324999547834715 -1.5954054692480177 -1.9350465416861127 0.38885935734433663 2.1034708145035665 0.0001745329251994221 -0.0 -0.0 -0.0 0.0 -0.0 -0.0 0.0 0.0 0.0 0.0 0.0 0.0 1.1376295825519693e-19 0.5366703776660761 0.6986372253114864 0.060799631939498465 3.678790513610345e-17 0.0 1.305543638796082e-18 6.181637315307669 5.89872838284027 0.2509498241377594 1.5272065389720524e-16 0.0 -0.532564942036764 -1.5953577200519007 -1.935019318257467 0.38886189460754395 2.1034727096557617 0.00014418520731851459 1.917476038215682e-05 5.752428114647046e-05 -2.3968450477696024e-05 4.793690095539205e-05 -2.3968450477696024e-05 2.3968450477696024e-05 0.008972168900072575 0.7155304551124573 0.8006466031074524 0.001118993852287531 -0.06266365945339203 0.12980328500270844 0.011215210892260075 0.7245026230812073 0.8052217364311218 0.001118993852287531 -0.06378264725208282 0.1376362442970276 0.2005911207930137 -0.20045003511468454 0.40060061484966764 -1.2107457092725165 1.2090644714865095 -1.2079710274943378 -1.1906117486815912e-05 1.1152633030838903e-05 1.2758582452766506e-05 -1.7387971805644943e-05 -7.020179073392606e-05 -4.833862644265504e-06 2.05813668751228 -6.935133564005297 -8.460120221143764 -0.5998208914180717 -1.1880364517771784 0.8631274802515255 0.2006146915044232 -0.20044331888099298 0.4005800203876072 -1.2107734338629361 1.2090999735328394 -1.2078415276969243 0.0 0.0 0.0 0.0 0.0 0.0
883.7199999999999 -0.5324999547834715 -1.5954054692480177 -1.9350465416861127 0.38885935734433663 2.1034708145035665 0.0001745329251994221 -0.0 -0.0 -0.0 0.0 -0.0 -0.0 0.0 0.0 0.0 0.0 0.0 0.0 1.1376295825519693e-19 0.5366703776660761 0.6986372253114864 0.060799631939498465 3.678790513610345e-17 0.0 1.305543638796082e-18 6.181637315307669 5.89872838284027 0.2509498241377594 1.5272065389720524e-16 0.0 -0.5325291792498987 -1.5953696409808558 -1.934995476399557 0.38883793354034424 2.1034486293792725 0.0001561694371048361 1.917476038215682e-05 5.752428114647046e-05 -2.3968450477696024e-05 4.793690095539205e-05 -2.3968450477696024e-05 2.3968450477696024e-05 0.011215210892260075 0.7245026230812073 0.7930214405059814 0.001118993852287531 -0.067139632999897 0.13987423479557037 0.008972168900072575 0.7245026230812073 0.8052217364311218 0.001118993852287531 -0.06490164250135422 0.1376362442970276 0.20060250058652954 -0.2004473450385184 0.40060204271104094 -1.2107455129997335 1.2090720957747916 -1.2079442426237756 -1.190648246104756e-05 1.115229078110366e-05 1.275893571893559e-05 -1.7385711552014277e-05 -7.020284328437049e-05 -4.834111055637407e-06 2.3822493508195666 -7.90441068236146 -8.410882055926216 -0.6463515806339161 -1.2329311112514265 0.9638225403003734 0.2006146915044232 -0.20044331888099298 0.4005800203876072 -1.2107734338629361 1.2090999735328394 -1.2078415276969243 0.0 0.0 0.0 0.0 0.0 0.0
883.728 -0.5324999547834715 -1.5954054692480177 -1.9350465416861127 0.38885935734433663 2.1034708145035665 0.0001745329251994221 -0.0 -0.0 -0.0 0.0 -0.0 -0.0 0.0 0.0 0.0 0.0 0.0 0.0 1.1376295825519693e-19 0.5366703776660761 0.6986372253114864 0.060799631939498465 3.678790513610345e-17 0.0 1.305543638796082e-18 6.181637315307669 5.89872838284027 0.2509498241377594 1.5272065389720524e-16 0.0 -0.5325411001788538 -1.595393482838766 -1.9350431601153772 0.3888498544692993 2.1034252643585205 0.00021609055693261325 1.917476038215682e-05 5.752428114647046e-05 -2.3968450477696024e-05 4.793690095539205e-05 -2.3968450477696024e-05 2.3968450477696024e-05 0.01570129580795765 0.7267456650733948 0.7853962182998657 0.001118993852287531 -0.07273460179567337 0.1365172564983368 0.011215210892260075 0.7245026230812073 0.8021716475486755 0.001118993852287531 -0.06490164250135422 0.1376362442970276 0.20060455902702695 -0.20045422043431801 0.4005835451153789 -1.2107003164104266 1.209178430174445 -1.2078793719165808 -1.1905597562458664e-05 1.1152096941596576e-05 1.2759510988233795e-05 -1.738777257602914e-05 -7.020247021153411e-05 -4.835342426483787e-06 2.416175079621273 -8.670506682575192 -8.218260260489085 -0.63062592406087 -1.2677093093090948 1.0529816394767793 0.2006146915044232 -0.20044331888099298 0.4005800203876072 -1.2107734338629361 1.2090999735328394 -1.2078415276969243 0.0 0.0 0.0 0.0 0.0 0.0
883.736 -0.5324999547834715 -1.5954054692480177 -1.9350465416861127 0.38885935734433663 2.1034708145035665 0.0001745329251994221 -0.0 -0.0 -0.0 0.0 -0.0 -0.0 0.0 0.0 0.0 0.0 0.0 0.0 1.1376295825519693e-19 0.5366703776660761 0.6986372253114864 0.060799631939498465 3.678790513610345e-17 0.0 1.305543638796082e-18 6.181637315307669 5.89872838284027 0.2509498241377594 1.5272065389720524e-16 0.0 -0.5325167814837855 -1.5953696409808558 -1.935007397328512 0.3888739347457886 2.1034607887268066 0.00016815366689115763 1.917476038215682e-05 5.752428114647046e-05 -2.3968450477696024e-05 4.793690095539205e-05 -2.3968450477696024e-05 2.3968450477696024e-05 0.006729126907885075 0.7155304551124573 0.7869212627410889 0.001118993852287531 -0.06490164250135422 0.13875523209571838 0.004486084450036287 0.7245026230812073 0.806746780872345 0.001118993852287531 -0.06490164250135422 0.1376362442970276 0.2006023905160166 -0.2004423192436044 0.40060139727063704 -1.210742019340234 1.2090386166719507 -1.2079361453948996 -1.1906697383737808e-05 1.1152123791982664e-05 1.2758718691445414e-05 -1.738434191032373e-05 -7.020306054154916e-05 -4.833614051076363e-06 2.4199258598704905 -7.391842985632526 -8.024309854127939 -0.6412706513626885 -1.181564268495003 0.911181946301979 0.2006146915044232 -0.20044331888099298 0.4005800203876072 -1.2107734338629361 1.2090999735328394 -1.2078415276969243 0.0 0.0 0.0 0.0 0.0 0.0
883.7439999999999 -0.5324999547834715 -1.5954054692480177 -1.9350465416861127 0.38885935734433663 2.1034708145035665 0.0001745329251994221 -0.0 -0.0 -0.0 0.0 -0.0 -0.0 0.0 0.0 0.0 0.0 0.0 0.0 1.1376295825519693e-19 0.5366703776660761 0.6986372253114864 0.060799631939498465 3.678790513610345e-17 0.0 1.305543638796082e-18 6.181637315307669 5.89872838284027 0.2509498241377594 1.5272065389720524e-16 0.0 -0.5325167814837855 -1.5953815619098108 -1.934995476399557 0.3888739347457886 2.1034607887268066 0.00022807478671893477 1.917476038215682e-05 5.752428114647046e-05 -2.3968450477696024e-05 4.793690095539205e-05 -2.3968450477696024e-05 2.3968450477696024e-05 0.008972168900072575 0.7245026230812073 0.7930214405059814 0.002237987704575062 -0.06378264725208282 0.1376362442970276 0.008972168900072575 0.7245026230812073 0.8052217364311218 0.001118993852287531 -0.06490164250135422 0.1376362442970276 0.20060489236583143 -0.20044380256934616 0.400601324911055 -1.2106978732439764 1.2090670237705339 -1.2078920548937626 -1.1906665443885675e-05 1.1152169597411252e-05 1.2758885985848576e-05 -1.7384342390529176e-05 -7.020306068637469e-05 -4.833614163331575e-06 2.4937420664275307 -7.716934097077656 -8.3846254636686 -0.6359960109043609 -1.2309271658146967 0.9327544285977502 0.2006146915044232 -0.20044331888099298 0.4005800203876072 -1.2107734338629361 1.2090999735328394 -1.2078415276969243 0.0 0.0 0.0 0.0 0.0 0.0
883.752 -0.5324999547834715 -1.5954054692480177 -1.9350465416861127 0.38885935734433663 2.1034708145035665 0.0001745329251994221 -0.0 -0.0 -0.0 0.0 -0.0 -0.0 0.0 0.0 0.0 0.0 0.0 0.0 1.1376295825519693e-19 0.5366703776660761 0.6986372253114864 0.060799631939498465 3.678790513610345e-17 0.0 1.305543638796082e-18 6.181637315307669 5.89872838284027 0.2509498241377594 1.5272065389720524e-16 0.0 -0.5325411001788538 -1.595393482838766 -1.9350312391864222 0.3888739347457886 2.1034486293792725 0.00022807478671893477 1.917476038215682e-05 5.752428114647046e-05 -2.3968450477696024e-05 4.793690095539205e-05 -2.3968450477696024e-05 2.3968450477696024e-05 0.01794433780014515 0.7132874131202698 0.8097968697547913 0.0 -0.06266365945339203 0.1376362442970276 0.011215210892260075 0.7245026230812073 0.8052217364311218 0.001118993852287531 -0.06490164250135422 0.1376362442970276 0.20060273389728858 -0.20045123781531574 0.40058845336471427 -1.2106931188383228 1.2091354730565325 -1.2078815268001162 -1.1905856030627346e-05 1.1152207912919151e-05 1.2759249402219692e-05 -1.7387030026528205e-05 -7.020234864064549e-05 -4.8345991762152165e-06 1.4910707677156858 -6.9494250266901725 -8.730080299193183 -0.636179367769868 -1.1472235961043888 0.8642963524717929 0.2006146915044232 -0.20044331888099298 0.4005800203876072 -1.2107734338629361 1.2090999735328394 -1.2078415276969243 0.0 0.0 0.0 0.0 0.0 0.0
883.76 -0.5324999547834715 -1.5954054692480177 -1.9350465416861127 0.38885935734433663 2.1034708145035665 0.0001745329251994221 -0.0 -0.0 -0.0 0.0 -0.0 -0.0 0.0 0.0 0.0 0.0 0.0 0.0 1.1376295825519693e-19 0.5366703776660761 0.6986372253114864 0.060799631939498465 3.678790513610345e-17 0.0 1.305543638796082e-18 6.181637315307669 5.89872838284027 0.2509498241377594 1.5272065389720524e-16 0.0 -0.532564942036764 -1.5953577200519007 -1.9350431601153772 0.3888498544692993 2.103484630584717 0.00016815366689115763 1.917476038215682e-05 5.752428114647046e-05 -2.3968450477696024e-05 4.793690095539205e-05 -2.3968450477696024e-05 2.3968450477696024e-05 0.006729126907885075 0.7200165390968323 0.8280973434448242 0.0033569815568625927 -0.06042566895484924 0.134279265999794 0.011215210892260075 0.7245026230812073 0.8052217364311218 0.001118993852287531 -0.06490164250135422 0.1376362442970276 0.20059211360886423 -0.20044960957872984 0.40059336034035753 -1.2107430988693777 1.209098334890885 -1.2079164893045218 -1.1905787209981302e-05 1.1152466122372374e-05 1.27586908558814e-05 -1.7388711315474753e-05 -7.020106795305409e-05 -4.834603826574748e-06 1.662959420716997 -5.932692351835142 -9.375467874933255 -0.620691414205985 -1.1550794949463559 0.7701278564327754 0.2006146915044232 -0.20044331888099298 0.4005800203876072 -1.2107734338629361 1.2090999735328394 -1.2078415276969243 0.0 0.0 0.0 0.0 0.0 0.0
883.7679999999999 -0.5324999547834715 -1.5954054692480177 -1.9350465416861127 0.38885935734433663 2.1034708145035665 0.0001745329251994221 -0.0 -0.0 -0.0 0.0 -0.0 -0.0 0.0 0.0 0.0 0.0 0.0 0.0 1.1376295825519693e-19 0.5366703776660761 0.6986372253114864 0.060799631939498465 3.678790513610345e-17 0.0 1.305543638796082e-18 6.181637315307669 5.89872838284027 0.2509498241377594 1.5272065389720524e-16 0.0 -0.5325291792498987 -1.5953815619098108 -1.9350550810443323 0.38886189460754395 2.103484630584717 0.00020410634169820696 1.917476038215682e-05 5.752428114647046e-05 -2.3968450477696024e-05 4.793690095539205e-05 -2.3968450477696024e-05 2.3968450477696024e-05 0.01570129580795765 0.7132874131202698 0.7899713516235352 0.0 -0.06490164250135422 0.14099322259426117 0.01570129580795765 0.7245026230812073 0.8052217364311218 0.001118993852287531 -0.06490164250135422 0.1376362442970276 0.2006035604853918 -0.20044493618393452 0.40058447047632617 -1.2107397236228492 1.209109694794734 -1.2078451003245827 -1.1905808830943435e-05 1.1151927514946323e-05 1.2759069796030315e-05 -1.7386687836738832e-05 -7.020140104157956e-05 -4.835094168298716e-06 1.992698356930334 -7.644032520254905 -8.100821697085065 -0.6515799216964345 -1.1640231500734708 0.9319648069367268 0.2006146915044232 -0.20044331888099298 0.4005800203876072 -1.2107734338629361 1.2090999735328394 -1.2078415276969243 0.0 0.0 0.0 0.0 0.0 0.0
883.776 -0.5324999547834715 -1.5954054692480177 -1.9350465416861127 0.38885935734433663 2.1034708145035665 0.0001745329251994221 -0.0 -0.0 -0.0 0.0 -0.0 -0.0 0.0 0.0 0.0 0.0 0.0 0.0 1.1376295825519693e-19 0.5366703776660761 0.6986372253114864 0.060799631939498465 3.678790513610345e-17 0.0 1.305543638796082e-18 6.181637315307669 5.89872838284027 0.2509498241377594 1.5272065389720524e-16 0.0 -0.5325411001788538 -1.5953696409808558 -1.9350431601153772 0.38883793354034424 2.1034131050109863 0.00019212211191188544 1.917476038215682e-05 5.752428114647046e-05 -2.3968450477696024e-05 4.793690095539205e-05 -2.3968450477696024e-05 2.3968450477696024e-05 0.008972168900072575 0.7379608750343323 0.8021716475486755 0.0033569815568625927 -0.06042566895484924 0.14099322259426117 0.011215210892260075 0.7245026230812073 0.8052217364311218 0.001118993852287531 -0.06490164250135422 0.1376362442970276 0.200600325510995 -0.200452734191916 0.4005892439820266 -1.2107091212288095 1.2091656304144125 -1.2079153116379546 -1.190585253585137e-05 1.115213569638794e-05 1.2759211429901347e-05 -1.738752773160598e-05 -7.020290663111812e-05 -4.835095763817655e-06 2.7318235973280673 -7.989018504443725 -8.93808582205245 -0.6515193959389962 -1.2953759208972726 0.9395530401715483 0.2006146915044232 -0.20044331888099298 0.4005800203876072 -1.2107734338629361 1.2090999735328394 -1.2078415276969243 0.0 0.0 0.0 0.0 0.0 0.0
883.784 -0.5324999547834715 -1.5954054692480177 -1.9350465416861127 0.38885935734433663 2.1034708145035665 0.0001745329251994221 -0.0 -0.0 -0.0 0.0 -0.0 -0.0 0.0 0.0 0.0 0.0 0.0 0.0 1.1376295825519693e-19 0.5366703776660761 0.6986372253114864 0.060799631939498465 3.678790513610345e-17 0.0 1.305543638796082e-18 6.181637315307669 5.89872838284027 0.2509498241377594 1.5272065389720524e-16 0.0 -0.532564942036764 -1.595393482838766 -1.935019318257467 0.38888585567474365 2.103484630584717 0.00019212211191188544 1.917476038215682e-05 5.752428114647046e-05 -2.3968450477696024e-05 4.793690095539205e-05 -2.3968450477696024e-05 2.3968450477696024e-05 0.004486084450036287 0.7177734971046448 0.8006466031074524 0.002237987704575062 -0.06154466047883034 0.13875523209571838 0.006729126907885075 0.7245026230812073 0.8052217364311218 0.001118993852287531 -0.06490164250135422 0.1376362442970276 0.20059702394960008 -0.200452522442793 0.40059249821884957 -1.210719102593741 1.209088692439815 -1.2079177030722328 -1.1905772884986715e-05 1.1152584177487956e-05 1.2759017134093179e-05 -1.7388213128959058e-05 -7.020136157634208e-05 -4.8341070812156035e-06 2.283921082226754 -6.7854390481159355 -8.481909516036833 -0.6413674766794449 -1.1711472744783626 0.8455985557914444 0.2006146915044232 -0.20044331888099298 0.4005800203876072 -1.2107734338629361 1.2090999735328394 -1.2078415276969243 0.0 0.0 0.0 0.0 0.0 0.0
883.7919999999999 -0.5324999547834715 -1.5954054692480177 -1.9350465416861127 0.38885935734433663 2.1034708145035665 0.0001745329251994221 -0.0 -0.0 -0.0 0.0 -0.0 -0.0 0.0 0.0 0.0 0.0 0.0 0.0 1.1376295825519693e-19 0.5366703776660761 0.6986372253114864 0.060799631939498465 3.678790513610345e-17 0.0 1.305543638796082e-18 6.181637315307669 5.89872838284027 0.2509498241377594 1.5272065389720524e-16 0.0 -0.5325291792498987 -1.595417324696676 -1.9350312391864222 0.38888585567474365 2.1034727096557617 0.00014418520731851459 1.917476038215682e-05 5.752428114647046e-05 -2.3968450477696024e-05 4.793690095539205e-05 -2.3968450477696024e-05 2.3968450477696024e-05 0.006729126907885075 0.7312317490577698 0.8158970475196838 0.0033569815568625927 -0.06042566895484924 0.1365172564983368 0.01345825381577015 0.7245026230812073 0.8052217364311218 0.001118993852287531 -0.06490164250135422 0.1376362442970276 0.20060935679163924 -0.20044935080913062 0.4005827540985283 -1.2107750107188762 1.2090796110393982 -1.2079074261838165 -1.1905729255277297e-05 1.1152027216074649e-05 1.2759508347027822e-05 -1.738643834508752e-05 -7.02018337657186e-05 -4.83484593543433e-06 2.284084275928821 -6.985111567563523 -9.229074525447482 -0.6308316492130961 -1.242874236204647 0.8568516531985154 0.2006146915044232 -0.20044331888099298 0.4005800203876072 -1.2107734338629361 1.2090999735328394 -1.2078415276969243 0.0 0.0 0.0 0.0 0.0 0.0
883.8 -0.5324999547834715 -1.5954054692480177 -1.9350465416861127 0.38885935734433663 2.1034708145035665 0.0001745329251994221 -0.0 -0.0 -0.0 0.0 -0.0 -0.0 0.0 0.0 0.0 0.0 0.0 0.0 1.1376295825519693e-19 0.5366703776660761 0.6986372253114864 0.060799631939498465 3.678790513610345e-17 0.0 1.305543638796082e-18 6.181637315307669 5.89872838284027 0.2509498241377594 1.5272065389720524e-16 0.0 -0.5325530211078089 -1.5953815619098108 -1.9350312391864222 0.38886189460754395 2.1034371852874756 0.00018013788212556392 1.917476038215682e-05 5.752428114647046e-05 -2.3968450477696024e-05 4.793690095539205e-05 -2.3968450477696024e-05 2.3968450477696024e-05 0.008972168900072575 0.7289887070655823 0.7823461294174194 0.004475975409150124 -0.06937761604785919 0.13316026329994202 0.008972168900072575 0.7245026230812073 0.8052217364311218 0.001118993852287531 -0.06378264725208282 0.1376362442970276 0.20059867485776353 -0.2004535904904899 0.4005908714913403 -1.2107174127261273 1.2091300907296396 -1.2079339314481685 -1.1905817363824343e-05 1.115235995217051e-05 1.2759154082257093e-05 -1.7387870095901922e-05 -7.02024141171269e-05 -4.834601327860666e-06 2.810765918095649 -8.475417716463337 -8.090462096796411 -0.6151164899728863 -1.272153984976261 1.0212842795592054 0.2006146915044232 -0.20044331888099298 0.4005800203876072 -1.2107734338629361 1.2090999735328394 -1.2078415276969243 0.0 0.0 0.0 0.0 0.0 0.0
883.808 -0.5324999547834715 -1.5954054692480177 -1.9350465416861127 0.38885935734433663 2.1034708145035665 0.0001745329251994221 -0.0 -0.0 -0.0 0.0 -0.0 -0.0 0.0 0.0 0.0 0.0 0.0 0.0 1.1376295825519693e-19 0.5366703776660761 0.6986372253114864 0.060799631939498465 3.678790513610345e-17 0.0 1.305543638796082e-18 6.181637315307669 5.89872838284027 0.2509498241377594 1.5272065389720524e-16 0.0 -0.5325048605548304 -1.5953577200519007 -1.935007397328512 0.38893377780914307 2.1034131050109863 0.0001561694371048361 1.917476038215682e-05 5.752428114647046e-05 -2.3968450477696024e-05 4.793690095539205e-05 -2.3968450477696024e-05 2.3968450477696024e-05 0.008972168900072575 0.7245026230812073 0.8280973434448242 0.001118993852287531 -0.06602063775062561 0.13987423479557037 0.011215210892260075 0.7245026230812073 0.8052217364311218 0.001118993852287531 -0.06378264725208282 0.1376362442970276 0.20059782196145512 -0.20043976818889098 0.4006089173993294 -1.2107151858141922 1.2089965977405053 -1.2080274358404233 -1.1907356878842053e-05 1.1152101598326285e-05 1.2758318926211214e-05 -1.7382020294908194e-05 -7.02052843524068e-05 -4.832131519371533e-06 1.6619341939228902 -6.394599692224161 -9.523705564255271 -0.6466353533083328 -1.187088339903706 0.8341799030816132 0.2006146915044232 -0.20044331888099298 0.4005800203876072 -1.2107734338629361 1.2090999735328394 -1.2078415276969243 0.0 0.0 0.0 0.0 0.0 0.0
883.8159999999999 -0.5324999547834715 -1.5954054692480177 -1.9350465416861127 0.38885935734433663 2.1034708145035665 0.0001745329251994221 -0.0 -0.0 -0.0 0.0 -0.0 -0.0 0.0 0.0 0.0 0.0 0.0 0.0 1.1376295825519693e-19 0.5366703776660761 0.6986372253114864 0.060799631939498465 3.678790513610345e-17 0.0 1.305543638796082e-18 6.181637315307669 5.89872838284027 0.2509498241377594 1.5272065389720524e-16 0.0 -0.5325530211078089 -1.5953696409808558 -1.935007397328512 0.38886189460754395 2.1034607887268066 0.00018013788212556392 1.917476038215682e-05 5.752428114647046e-05 -2.3968450477696024e-05 4.793690095539205e-05 -2.3968450477696024e-05 2.3968450477696024e-05 0.008972168900072575 0.7245026230812073 0.8082718253135681 0.002237987704575062 -0.06602063775062561 0.1353982537984848 0.008972168900072575 0.7245026230812073 0.8052217364311218 0.001118993852287531 -0.06490164250135422 0.1376362442970276 0.200596012223425 -0.20045010907778368 0.40060054286230423 -1.210719210257292 1.2090815203574992 -1.2079445838481537 -1.1906223238937357e-05 1.1152536916855625e-05 1.2758790356641022e-05 -1.7387135078779205e-05 -7.020228388035534e-05 -4.833862658341947e-06 2.1172490953066796 -7.167242047125879 -8.868599959400019 -0.6257038528982052 -1.2171387425338775 0.8978721982756488 0.2006146915044232 -0.20044331888099298 0.4005800203876072 -1.2107734338629361 1.2090999735328394 -1.2078415276969243 0.0 0.0 0.0 0.0 0.0 0.0
883.824 -0.5324999547834715 -1.5954054692480177 -1.9350465416861127 0.38885935734433663 2.1034708145035665 0.0001745329251994221 -0.0 -0.0 -0.0 0.0 -0.0 -0.0 0.0 0.0 0.0 0.0 0.0 0.0 1.1376295825519693e-19 0.5366703776660761 0.6986372253114864 0.060799631939498465 3.678790513610345e-17 0.0 1.305543638796082e-18 6.181637315307669 5.89872838284027 0.2509498241377594 1.5272065389720524e-16 0.0 -0.532576862965719 -1.595417324696676 -1.9350550810443323 0.3888498544692993 2.1034371852874756 0.00018013788212556392 0.0 5.752428114647046e-05 -2.3968450477696024e-05 4.793690095539205e-05 -2.3968450477696024e-05 2.3968450477696024e-05 0.011215210892260075 0.7200165390968323 0.7914963960647583 0.004475975409150124 -0.06490164250135422 0.13875523209571838 0.01345825381577015 0.7245026230812073 0.8052217364311218 0.001118993852287531 -0.06602063775062561 0.1376362442970276 0.20060255373553668 -0.20046343338496522 0.4005738001946611 -1.210724860731497 1.2092101787041505 -1.2078953642676928 -1.5748585069255917e-05 7.305885581761314e-06 1.2759920966390343e-05 -1.739101970561937e-05 -7.020112720559427e-05 -2.4010841811302176e-05 2.3075277116821087 -7.6899942494787075 -8.189240587186552 -0.64124432733656 -1.1825867419428082 0.9357511062895636 0.2006146915044232 -0.20044331888099298 0.4005800203876072 -1.2107734338629361 1.2090999735328394 -1.2078415276969243 0.0 0.0 0.0 0.0 0.0 0.0
883.832 -0.5324999547834715 -1.5954054692480177 -1.9350465416861127 0.38885935734433663 2.1034708145035665 0.0001745329251994221 -0.0 -0.0 -0.0 0.0 -0.0 -0.0 0.0 0.0 0.0 0.0 0.0 0.0 1.1376295825519693e-19 0.5366703776660761 0.6986372253114864 0.060799631939498465 3.678790513610345e-17 0.0 1.305543638796082e-18 6.181637315307669 5.89872838284027 0.2509498241377594 1.5272065389720524e-16 0.0 -0.5325411001788538 -1.5953696409808558 -1.9350550810443323 0.38888585567474365 2.103389263153076 0.00019212211191188544 0.0 5.752428114647046e-05 -2.3968450477696024e-05 4.793690095539205e-05 -2.3968450477696024e-05 2.3968450477696024e-05 0.006729126907885075 0.7312317490577698 0.7853962182998657 0.001118993852287531 -0.06602063775062561 0.134279265999794 0.011215210892260075 0.7245026230812073 0.8052217364311218 0.001118993852287531 -0.06602063775062561 0.1376362442970276 0.2005968535766608 -0.20045264533770887 0.40058944573191 -1.2106884542620493 1.2091517193698256 -1.2079609950956696 -1.5749644270510322e-05 7.305737950924878e-06 1.2759046080961869e-05 -1.7386780856489307e-05 -7.02039164288215e-05 -2.4009112724711757e-05 2.9189064017192776 -8.282572017582917 -8.313033653856577 -0.6203638889743002 -1.3049624141324585 0.9897715013464622 0.2006146915044232 -0.20044331888099298 0.4005800203876072 -1.2107734338629361 1.2090999735328394 -1.2078415276969243 0.0 0.0 0.0 0.0 0.0 0.0
883.8399999999999 -0.5324999547834715 -1.5954054692480177 -1.9350465416861127 0.38885935734433663 2.1034708145035665 0.0001745329251994221 -0.0 -0.0 -0.0 0.0 -0.0 -0.0 0.0 0.0 0.0 0.0 0.0 0.0 1.1376295825519693e-19 0.5366703776660761 0.6986372253114864 0.060799631939498465 3.678790513610345e-17 0.0 1.305543638796082e-18 6.181637315307669 5.89872838284027 0.2509498241377594 1.5272065389720524e-16 0.0 -0.5325411001788538 -1.5954292456256312 -1.935019318257467 0.38886189460754395 2.1034486293792725 0.00013182648399379104 0.0 5.752428114647046e-05 -2.3968450477696024e-05 4.793690095539205e-05 -2.3968450477696024e-05 2.3968450477696024e-05 0.011215210892260075 0.7312317490577698 0.8204721808433533 0.0 -0.067139632999897 0.1376362442970276 0.011215210892260075 0.7245026230812073 0.8052217364311218 0.001118993852287531 -0.06602063775062561 0.1376362442970276 0.2006112319870811 -0.20045624404393547 0.4005809817307903 -1.2107733293717104 1.2091212344093762 -1.2079243084872269 -1.5749135096573256e-05 7.305506117380357e-06 1.2759900285616214e-05 -1.738777067479958e-05 -7.020191202420591e-05 -2.4010100964387017e-05 1.955602042538072 -7.180690321395389 -9.452767556443732 -0.6359757872395632 -1.2581199375621197 0.9042080409483287 0.2006146915044232 -0.20044331888099298 0.4005800203876072 -1.2107734338629361 1.2090999735328394 -1.2078415276969243 0.0 0.0 0.0 0.0 0.0 0.0
883.848 -0.5324999547834715 -1.5954054692480177 -1.9350465416861127 0.38885935734433663 2.1034708145035665 0.0001745329251994221 -0.0 -0.0 -0.0 0.0 -0.0 -0.0 0.0 0.0 0.0 0.0 0.0 0.0 1.1376295825519693e-19 0.5366703776660761 0.6986372253114864 0.060799631939498465 3.678790513610345e-17 0.0 1.305543638796082e-18 6.181637315307669 5.89872838284027 0.2509498241377594 1.5272065389720524e-16 0.0 -0.5324929396258753 -1.5953815619098108 -1.934995476399557 0.38886189460754395 2.1034131050109863 0.00018013788212556392 0.0 5.752428114647046e-05 -2.3968450477696024e-05 4.793690095539205e-05 -2.3968450477696024e-05 2.3968450477696024e-05 0.01570129580795765 0.7289887070655823 0.7838711738586426 0.001118993852287531 -0.06602063775062561 0.1353982537984848 0.011215210892260075 0.7245026230812073 0.8052217364311218 0.001118993852287531 -0.06490164250135422 0.1376362442970276 0.20061055759382962 -0.20044346704823418 0.40060047185286374 -1.210725041592957 1.2090723887500399 -1.2079354889803806 -1.5750335762551422e-05 7.305208040776854e-06 1.2759120080499053e-05 -1.738291629472838e-05 -7.020447144667698e-05 -2.4008622760035697e-05 2.5977314892284173 -8.713301357262278 -8.217389324604323 -0.6254613414856941 -1.2882429257044605 1.025252899498423 0.2006146915044232 -0.20044331888099298 0.4005800203876072 -1.2107734338629361 1.2090999735328394 -1.2078415276969243 0.0 0.0 0.0 0.0 0.0 0.0
883.856 -0.5324999547834715 -1.5954054692480177 -1.9350465416861127 0.38885935734433663 2.1034708145035665 0.0001745329251994221 -0.0 -0.0 -0.0 0.0 -0.0 -0.0 0.0 0.0 0.0 0.0 0.0 0.0 1.1376295825519693e-19 0.5366703776660761 0.6986372253114864 0.060799631939498465 3.678790513610345e-17 0.0 1.305543638796082e-18 6.181637315307669 5.89872838284027 0.2509498241377594 1.5272065389720524e-16 0.0 -0.5325167814837855 -1.5953696409808558 -1.934995476399557 0.38888585567474365 2.1034607887268066 0.00016815366689115763 0.0 5.752428114647046e-05 -2.3968450477696024e-05 4.793690095539205e-05 -2.3968450477696024e-05 2.3968450477696024e-05 0.004486084450036287 0.7334747910499573 0.8143720030784607 0.004475975409150124 -0.0682586282491684 0.14323121309280396 0.011215210892260075 0.7245026230812073 0.8052217364311218 0.001118993852287531 -0.06490164250135422 0.1376362442970276 0.2006014598215766 -0.20044178614773767 0.40060544306308704 -1.2107357752527557 1.2090178164722207 -1.2079548179901678 -1.575031767444733e-05 7.305731301962281e-06 1.275860905461759e-05 -1.738385026738822e-05 -7.020335089284613e-05 -2.4007882023224015e-05 2.369235054543755 -7.193846688759396 -9.20201444734062 -0.6619919241111601 -1.2340469219444876 0.9104798599017704 0.2006146915044232 -0.20044331888099298 0.4005800203876072 -1.2107734338629361 1.2090999735328394 -1.2078415276969243 0.0 0.0 0.0 0.0 0.0 0.0
883.8639999999999 -0.5324999547834715 -1.5954054692480177 -1.9350465416861127 0.38885935734433663 2.1034708145035665 0.0001745329251994221 -0.0 -0.0 -0.0 0.0 -0.0 -0.0 0.0 0.0 0.0 0.0 0.0 0.0 1.1376295825519693e-19 0.5366703776660761 0.6986372253114864 0.060799631939498465 3.678790513610345e-17 0.0 1.305543638796082e-18 6.181637315307669 5.89872838284027 0.2509498241377594 1.5272065389720524e-16 0.0 -0.5325411001788538 -1.5953696409808558 -1.9350674788104456 0.38888585567474365 2.1034607887268066 0.00014418520731851459 0.0 5.752428114647046e-05 -2.3968450477696024e-05 4.793690095539205e-05 -2.3968450477696024e-05 2.3968450477696024e-05 0.01345825381577015 0.7200165390968323 0.8082718253135681 0.001118993852287531 -0.06266365945339203 0.1365172564983368 0.011215210892260075 0.7245026230812073 0.8052217364311218 0.001118993852287531 -0.06490164250135422 0.1376362442970276 0.2005969087853951 -0.20044677326531055 0.40058611592407234 -1.2107608279198834 1.2090871218754002 -1.2079338862540452 -1.5749370337000288e-05 7.305659578182486e-06 1.2758842657146191e-05 -1.7387037687845762e-05 -7.020205105146984e-05 -2.400936938661215e-05 1.8752651323731075 -7.112977321012487 -8.799555624875767 -0.630906492882045 -1.1910257392056673 0.8777826676846529 0.2006146915044232 -0.20044331888099298 0.4005800203876072 -1.2107734338629361 1.2090999735328394 -1.2078415276969243 0.0 0.0 0.0 0.0 0.0 0.0
883.872 -0.5324999547834715 -1.5954054692480177 -1.9350465416861127 0.38885935734433663 2.1034708145035665 0.0001745329251994221 -0.0 -0.0 -0.0 0.0 -0.0 -0.0 0.0 0.0 0.0 0.0 0.0 0.0 1.1376295825519693e-19 0.5366703776660761 0.6986372253114864 0.060799631939498465 3.678790513610345e-17 0.0 1.305543638796082e-18 6.181637315307669 5.89872838284027 0.2509498241377594 1.5272065389720524e-16 0.0 -0.532576862965719 -1.5953577200519007 -1.9350789229022425 0.38888585567474365 2.1034371852874756 0.00020410634169820696 0.0 5.752428114647046e-05 -2.3968450477696024e-05 4.793690095539205e-05 -2.3968450477696024e-05 2.3968450477696024e-05 0.011215210892260075 0.7289887070655823 0.796071469783783 -0.002237987704575062 -0.06602063775062561 0.13987423479557037 0.011215210892260075 0.7245026230812073 0.8052217364311218 -0.001118993852287531 -0.06490164250135422 0.1376362442970276 0.20058723633403425 -0.20045440679698276 0.40058631687655666 -1.2106885339124691 1.2091588160071198 -1.20793384152584 -1.5749164312343457e-05 7.30622801631136e-06 1.275875422154529e-05 -1.7389537374554928e-05 -7.020200059904096e-05 -2.400935924051638e-05 2.4599292526736103 -7.993265977899405 -8.682446311892807 -0.646344395270365 -1.284441776792547 0.9659370220297692 0.2006146915044232 -0.20044331888099298 0.4005800203876072 -1.2107734338629361 1.2090999735328394 -1.2078415276969243 0.0 0.0 0.0 0.0 0.0 0.0
883.88 -0.5324999547834715 -1.5954054692480177 -1.9350465416861127 0.38885935734433663 2.1034708145035665 0.0001745329251994221 -0.0 -0.0 -0.0 0.0 -0.0 -0.0 0.0 0.0 0.0 0.0 0.0 0.0 1.1376295825519693e-19 0.5366703776660761 0.6986372253114864 0.060799631939498465 3.678790513610345e-17 0.0 1.305543638796082e-18 6.181637315307669 5.89872838284027 0.2509498241377594 1.5272065389720524e-16 0.0 -0.5325291792498987 -1.595393482838766 -1.935007397328512 0.3888978958129883 2.1034727096557617 0.00019212211191188544 0.0 5.752428114647046e-05 -2.3968450477696024e-05 4.793690095539205e-05 -2.3968450477696024e-05 2.3968450477696024e-05 0.008972168900072575 0.7312317490577698 0.8036966919898987 -0.002237987704575062 -0.06154466047883034 0.13204127550125122 0.011215210892260075 0.7245026230812073 0.8052217364311218 0.002237987704575062 -0.06490164250135422 0.1376362442970276 0.2006032533436511 -0.20044579200436127 0.4005965528045401 -1.2107240969659434 1.2090502124817084 -1.20791892270496 -1.5749874261206633e-05 7.305731706354875e-06 1.2758947404791066e-05 -1.73852080606937e-05 -7.02025609231283e-05 -2.4008372512503057e-05 2.477295678303577 -7.601164979390998 -8.971595383675572 -0.6099661188503979 -1.3113612866530744 0.9128097668823233 0.2006146915044232 -0.20044331888099298 0.4005800203876072 -1.2107734338629361 1.2090999735328394 -1.2078415276969243 0.0 0.0 0.0 0.0 0.0 0.0
883.8879999999999 -0.5324999547834715 -1.5954054692480177 -1.9350465416861127 0.38885935734433663 2.1034708145035665 0.0001745329251994221 -0.0 -0.0 -0.0 0.0 -0.0 -0.0 0.0 0.0 0.0 0.0 0.0 0.0 1.1376295825519693e-19 0.5366703776660761 0.6986372253114864 0.060799631939498465 3.678790513610345e-17 0.0 1.305543638796082e-18 6.181637315307669 5.89872838284027 0.2509498241377594 1.5272065389720524e-16 0.0 -0.5325411001788538 -1.595393482838766 -1.9350312391864222 0.3888739347457886 2.1034727096557617 0.00021609055693261325 0.0 5.752428114647046e-05 -2.3968450477696024e-05 4.793690095539205e-05 -2.3968450477696024e-05 2.3968450477696024e-05 0.01570129580795765 0.7177734971046448 0.8036966919898987 0.004475975409150124 -0.06378264725208282 0.1365172564983368 0.011215210892260075 0.7245026230812073 0.8052217364311218 0.002237987704575062 -0.06490164250135422 0.1376362442970276 0.20060273368907167 -0.2004492545935275 0.40058845271877225 -1.2107133298086987 1.2091120569587708 -1.2078726158215585 -1.5749412877849254e-05 7.305698536713219e-06 1.2759167370570905e-05 -1.7387030707195346e-05 -7.020177147442849e-05 -2.4009359746233904e-05 1.8281976925422703 -7.320985679202525 -8.528566500706912 -0.6309072978640333 -1.157113705212007 0.9001198377230861 0.2006146915044232 -0.20044331888099298 0.4005800203876072 -1.2107734338629361 1.2090999735328394 -1.2078415276969243 0.0 0.0 0.0 0.0 0.0 0.0
883.896 -0.5324999547834715 -1.5954054692480177 -1.9350465416861127 0.38885935734433663 2.1034708145035665 0.0001745329251994221 -0.0 -0.0 -0.0 0.0 -0.0 -0.0 0.0 0.0 0.0 0.0 0.0 0.0 1.1376295825519693e-19 0.5366703776660761 0.6986372253114864 0.060799631939498465 3.678790513610345e-17 0.0 1.305543638796082e-18 6.181637315307669 5.89872838284027 0.2509498241377594 1.5272065389720524e-16 0.0 -0.5325411001788538 -1.5953338781939905 -1.935019318257467 0.3888978958129883 2.1034011840820312 0.00016815366689115763 0.0 5.752428114647046e-05 -2.3968450477696024e-05 4.793690095539205e-05 -2.3968450477696024e-05 2.3968450477696024e-05 0.008972168900072575 0.7177734971046448 0.7945464849472046 0.001118993852287531 -0.06154466047883034 0.1353982537984848 0.008972168900072575 0.7245026230812073 0.8052217364311218 0.001118993852287531 -0.06490164250135422 0.1376362442970276 0.2005881406918137 -0.20044658495249873 0.4006097159849365 -1.2106898889012194 1.2090586798048621 -1.2080353236451389 -1.5750455777258677e-05 7.306231522268435e-06 1.2758199849154544e-05 -1.7385060341839087e-05 -7.020464812316169e-05 -2.400738626681478e-05 2.279655796033538 -7.266651343806673 -8.31457816431818 -0.6258451466389137 -1.1962845274835916 0.8852097000089458 0.2006146915044232 -0.20044331888099298 0.4005800203876072 -1.2107734338629361 1.2090999735328394 -1.2078415276969243 0.0 0.0 0.0 0.0 0.0 0.0
883.904 -0.5324999547834715 -1.5954054692480177 -1.9350465416861127 0.38885935734433663 2.1034708145035665 0.0001745329251994221 -0.0 -0.0 -0.0 0.0 -0.0 -0.0 0.0 0.0 0.0 0.0 0.0 0.0 1.1376295825519693e-19 0.5366703776660761 0.6986372253114864 0.060799631939498465 3.678790513610345e-17 0.0 1.305543638796082e-18 6.181637315307669 5.89872838284027 0.2509498241377594 1.5272065389720524e-16 0.0 -0.532576862965719 -1.5953457991229456 -1.934995476399557 0.38888585567474365 2.1034607887268066 0.00020410634169820696 0.0 5.752428114647046e-05 -2.3968450477696024e-05 4.793690095539205e-05 -2.3968450477696024e-05 2.3968450477696024e-05 0.01570129580795765 0.7245026230812073 0.7991215586662292 -0.0033569815568625927 -0.05930667370557785 0.13875523209571838 0.011215210892260075 0.7245026230812073 0.8036966919898987 0.001118993852287531 -0.06490164250135422 0.1376362442970276 0.2005843057122946 -0.20045083507585004 0.40061198738783405 -1.2106746902003807 1.2090583104656563 -1.2079912446659355 -1.5750140544332157e-05 7.306832508781565e-06 1.2758197099646524e-05 -1.7387577104611818e-05 -7.020259645454412e-05 -2.4007389266967434e-05 2.1868979189199877 -7.754098403351876 -8.708766723127487 -0.6412851403420867 -1.2602191530633355 0.9149558924841616 0.2006146915044232 -0.20044331888099298 0.4005800203876072 -1.2107734338629361 1.2090999735328394 -1.2078415276969243 0.0 0.0 0.0 0.0 0.0 0.0
883.9119999999999 -0.5324999547834715 -1.5954054692480177 -1.9350465416861127 0.38885935734433663 2.1034708145035665 0.0001745329251994221 -0.0 -0.0 -0.0 0.0 -0.0 -0.0 0.0 0.0 0.0 0.0 0.0 0.0 1.1376295825519693e-19 0.5366703776660761 0.6986372253114864 0.060799631939498465 3.678790513610345e-17 0.0 1.305543638796082e-18 6.181637315307669 5.89872838284027 0.2509498241377594 1.5272065389720524e-16 0.0 -0.5325048605548304 -1.5953577200519007 -1.9350312391864222 0.3888739347457886 2.1034252643585205 0.0001561694371048361 0.0 5.752428114647046e-05 -2.3968450477696024e-05 4.793690095539205e-05 -2.3968450477696024e-05 2.3968450477696024e-05 0.01570129580795765 0.7267456650733948 0.817422091960907 0.001118993852287531 -0.06266365945339203 0.14099322259426117 0.011215210892260075 0.7245026230812073 0.8036966919898987 0.001118993852287531 -0.06490164250135422 0.1376362442970276 0.20060233205611394 -0.20044138834659023 0.4005982707330405 -1.2107428341629465 1.2090606891493199 -1.2079529838523866 -1.5750164213588572e-05 7.305360178871336e-06 1.2758711085965462e-05 -1.7383748588743056e-05 -7.020397389196683e-05 -2.4008620282303593e-05 1.7978833042566336 -7.225366589425037 -9.234260494308002 -0.6516609399632262 -1.2136224450328228 0.8870261241048648 0.2006146915044232 -0.20044331888099298 0.4005800203876072 -1.2107734338629361 1.2090999735328394 -1.2078415276969243 0.0 0.0 0.0 0.0 0.0 0.0
883.92 -0.5324999547834715 -1.5954054692480177 -1.9350465416861127 0.38885935734433663 2.1034708145035665 0.0001745329251994221 -0.0 -0.0 -0.0 0.0 -0.0 -0.0 0.0 0.0 0.0 0.0 0.0 0.0 1.1376295825519693e-19 0.5366703776660761 0.6986372253114864 0.060799631939498465 3.678790513610345e-17 0.0 1.305543638796082e-18 6.181637315307669 5.89872838284027 0.2509498241377594 1.5272065389720524e-16 0.0 -0.5325411001788538 -1.5953577200519007 -1.935019318257467 0.38888585567474365 2.1034371852874756 0.00018013788212556392 0.0 5.752428114647046e-05 -2.3968450477696024e-05 4.793690095539205e-05 -2.3968450477696024e-05 2.3968450477696024e-05 0.01345825381577015 0.7267456650733948 0.8235222101211548 -0.002237987704575062 -0.06378264725208282 0.1365172564983368 0.011215210892260075 0.7245026230812073 0.8052217364311218 0.001118993852287531 -0.06490164250135422 0.1376362442970276 0.20059413728968759 -0.20044714308107053 0.40060231622416576 -1.210707446561527 1.2090691701959282 -1.2079719109272304 -1.5750062739930957e-05 7.306041228310369e-06 1.2758560843790746e-05 -1.738580143055734e-05 -7.020334850568376e-05 -2.400812797045052e-05 1.7154638390731156 -6.886068803831128 -9.50519106936466 -0.6309362084136833 -1.242080422285036 0.8642774550509512 0.2006146915044232 -0.20044331888099298 0.4005800203876072 -1.2107734338629361 1.2090999735328394 -1.2078415276969243 0.0 0.0 0.0 0.0 0.0 0.0
883.928 -0.5324999547834715 -1.5954054692480177 -1.9350465416861127 0.38885935734433663 2.1034708145035665 0.0001745329251994221 -0.0 -0.0 -0.0 0.0 -0.0 -0.0 0.0 0.0 0.0 0.0 0.0 0.0 1.1376295825519693e-19 0.5366703776660761 0.6986372253114864 0.060799631939498465 3.678790513610345e-17 0.0 1.305543638796082e-18 6.181637315307669 5.89872838284027 0.2509498241377594 1.5272065389720524e-16 0.0 -0.5325530211078089 -1.5953815619098108 -1.935019318257467 0.38888585567474365 2.1034131050109863 0.00019212211191188544 0.0 5.752428114647046e-05 -2.3968450477696024e-05 4.793690095539205e-05 -2.3968450477696024e-05 2.3968450477696024e-05 0.004486084450036287 0.7267456650733948 0.7945464849472046 -0.002237987704575062 -0.06602063775062561 0.1376362442970276 0.006729126907885075 0.7245026230812073 0.8052217364311218 0.001118993852287531 -0.06490164250135422 0.1376362442970276 0.2005968586539779 -0.20045452046117834 0.4005957724845114 -1.210687811584535 1.209122189134092 -1.2079709309845459 -1.5749761404086815e-05 7.306074092908929e-06 1.2759054814265227e-05 -1.7387128740054605e-05 -7.020342827893103e-05 -2.400862051483168e-05 2.643314075568899 -7.5711451436341495 -8.584478118404963 -0.6360399448998995 -1.2768858068751736 0.9311610953205255 0.2006146915044232 -0.20044331888099298 0.4005800203876072 -1.2107734338629361 1.2090999735328394 -1.2078415276969243 0.0 0.0 0.0 0.0 0.0 0.0
883.9359999999999 -0.5324999547834715 -1.5954054692480177 -1.9350465416861127 0.38885935734433663 2.1034708145035665 0.0001745329251994221 -0.0 -0.0 -0.0 0.0 -0.0 -0.0 0.0 0.0 0.0 0.0 0.0 0.0 1.1376295825519693e-19 0.5366703776660761 0.6986372253114864 0.060799631939498465 3.678790513610345e-17 0.0 1.305543638796082e-18 6.181637315307669 5.89872838284027 0.2509498241377594 1.5272065389720524e-16 0.0 -0.5325167814837855 -1.595405403767721 -1.934995476399557 0.3888978958129883 2.1034607887268066 0.00016815366689115763 0.0 5.752428114647046e-05 -2.3968450477696024e-05 4.793690095539205e-05 -2.3968450477696024e-05 2.3968450477696024e-05 0.008972168900072575 0.7334747910499573 0.8052217364311218 0.0 -0.06602063775062561 0.1376362442970276 0.011215210892260075 0.7245026230812073 0.8052217364311218 0.001118993852287531 -0.06490164250135422 0.1376362442970276 0.20060824038947564 -0.20044577007444278 0.4005964807191832 -1.2107419468382152 1.2090385242648298 -1.207936235566092 -1.5749984902969075e-05 7.305534284592867e-06 1.2759155308267765e-05 -1.7384337839028666e-05 -7.02030623261562e-05 -2.4008372524811428e-05 2.4594124830988826 -7.746685118403412 -9.01624130843418 -0.6359063641083098 -1.2935583916628839 0.94562487842995 0.2006146915044232 -0.20044331888099298 0.4005800203876072 -1.2107734338629361 1.2090999735328394 -1.2078415276969243 0.0 0.0 0.0 0.0 0.0 0.0
883.944 -0.5324999547834715 -1.5954054692480177 -1.9350465416861127 0.38885935734433663 2.1034708145035665 0.0001745329251994221 -0.0 -0.0 -0.0 0.0 -0.0 -0.0 0.0 0.0 0.0 0.0 0.0 0.0 1.1376295825519693e-19 0.5366703776660761 0.6986372253114864 0.060799631939498465 3.678790513610345e-17 0.0 1.305543638796082e-18 6.181637315307669 5.89872838284027 0.2509498241377594 1.5272065389720524e-16 0.0 -0.5325291792498987 -1.595393482838766 -1.9350431601153772 0.3888978958129883 2.1034727096557617 0.00020410634169820696 0.0 5.752428114647046e-05 -2.3968450477696024e-05 4.793690095539205e-05 -2.3968450477696024e-05 2.3968450477696024e-05 0.01794433780014515 0.7222595810890198 0.7975965142250061 0.002237987704575062 -0.05818767845630646 0.13316026329994202 0.008972168900072575 0.7245026230812073 0.8052217364311218 0.001118993852287531 -0.06154466047883034 0.1376362442970276 0.2006034139062334 -0.20044584597726608 0.4005869532837993 -1.2107246581282636 1.2090870502158395 -1.2078820506684325 -1.574949197530289e-05 7.30550584331279e-06 1.2759063426463134e-05 -1.7385943254101468e-05 -7.020212529991757e-05 -2.4009111259219543e-05 2.096715609629291 -7.800091391102186 -8.483488834445232 -0.6152361822815122 -1.2215564532769234 0.9135567018522288 0.2006146915044232 -0.20044331888099298 0.4005800203876072 -1.2107734338629361 1.2090999735328394 -1.2078415276969243 0.0 0.0 0.0 0.0 0.0 0.0
883.952 -0.5324999547834715 -1.5954054692480177 -1.9350465416861127 0.38885935734433663 2.1034708145035665 0.0001745329251994221 -0.0 -0.0 -0.0 0.0 -0.0 -0.0 0.0 0.0 0.0 0.0 0.0 0.0 1.1376295825519693e-19 0.5366703776660761 0.6986372253114864 0.060799631939498465 3.678790513610345e-17 0.0 1.305543638796082e-18 6.181637315307669 5.89872838284027 0.2509498241377594 1.5272065389720524e-16 0.0 -0.5325530211078089 -1.5953457991229456 -1.9350431601153772 0.38888585567474365 2.1034371852874756 0.00019212211191188544 0.0 5.752428114647046e-05 -2.3968450477696024e-05 4.793690095539205e-05 -2.3968450477696024e-05 2.3968450477696024e-05 0.006729126907885075 0.7200165390968323 0.806746780872345 0.001118993852287531 -0.067139632999897 0.13987423479557037 0.008972168900072575 0.7245026230812073 0.8036966919898987 0.001118993852287531 -0.06602063775062561 0.1376362442970276 0.20058929957218197 -0.2004480689631852 0.40059918864621546 -1.2106961384579886 1.2090939983058429 -1.207962496835975 -1.5749851710314185e-05 7.306155857021686e-06 1.275843222837171e-05 -1.7386882894172498e-05 -7.020299589039141e-05 -2.400837411898717e-05 2.0747608818627983 -6.895412716066689 -8.74986859345375 -0.6465639217656266 -1.1838484363137292 0.8806803194622415 0.2006146915044232 -0.20044331888099298 0.4005800203876072 -1.2107734338629361 1.2090999735328394 -1.2078415276969243 0.0 0.0 0.0 0.0 0.0 0.0
883.9599999999999 -0.5324999547834715 -1.5954054692480177 -1.9350465416861127 0.38885935734433663 2.1034708145035665 0.0001745329251994221 -0.0 -0.0 -0.0 0.0 -0.0 -0.0 0.0 0.0 0.0 0.0 0.0 0.0 1.1376295825519693e-19 0.5366703776660761 0.6986372253114864 0.060799631939498465 3.678790513610345e-17 0.0 1.305543638796082e-18 6.181637315307669 5.89872838284027 0.2509498241377594 1.5272065389720524e-16 0.0 -0.5325530211078089 -1.595417324696676 -1.9350312391864222 0.3888739347457886 2.1034252643585205 0.00016815366689115763 0.0 5.752428114647046e-05 -2.3968450477696024e-05 4.793690095539205e-05 -2.3968450477696024e-05 2.3968450477696024e-05 0.01345825381577015 0.7222595810890198 0.8036966919898987 0.0055949692614376545 -0.06602063775062561 0.13987423479557037 0.011215210892260075 0.7245026230812073 0.8052217364311218 0.001118993852287531 -0.06490164250135422 0.1376362442970276 0.20060545494769108 -0.20045855622226175 0.4005819093204528 -1.2107267725133806 1.2091539034378884 -1.2079329481248733 -1.574915771992459e-05 7.305731403821385e-06 1.2759740923754688e-05 -1.7388357362162964e-05 -7.020241124081971e-05 -2.4009852088277673e-05 2.0109693312244152 -7.474869170103907 -8.598675554182199 -0.6464880425355987 -1.171080515024263 0.923215771428806 0.2006146915044232 -0.20044331888099298 0.4005800203876072 -1.2107734338629361 1.2090999735328394 -1.2078415276969243 0.0 0.0 0.0 0.0 0.0 0.0
883.968 -0.5324999547834715 -1.5954054692480177 -1.9350465416861127 0.38885935734433663 2.1034708145035665 0.0001745329251994221 -0.0 -0.0 -0.0 0.0 -0.0 -0.0 0.0 0.0 0.0 0.0 0.0 0.0 1.1376295825519693e-19 0.5366703776660761 0.6986372253114864 0.060799631939498465 3.678790513610345e-17 0.0 1.305543638796082e-18 6.181637315307669 5.89872838284027 0.2509498241377594 1.5272065389720524e-16 0.0 -0.5325291792498987 -1.595393482838766 -1.934995476399557 0.38888585567474365 2.1034727096557617 0.00022807478671893477 0.0 5.752428114647046e-05 -2.3968450477696024e-05 4.793690095539205e-05 -2.3968450477696024e-05 2.3968450477696024e-05 0.01345825381577015 0.7177734971046448 0.806746780872345 0.0033569815568625927 -0.07273460179567337 0.13987423479557037 0.01794433780014515 0.7245026230812073 0.8052217364311218 0.001118993852287531 -0.06602063775062561 0.1376362442970276 0.20060408557170872 -0.20044629416938461 0.4005988982534969 -1.2106976403642862 1.2090673742470337 -1.207892392318818 -1.5749941676071316e-05 7.305771648769591e-06 1.2758980393160883e-05 -1.7385212049560918e-05 -7.020255952227183e-05 -2.4008374865804225e-05 1.726148423316645 -7.25602329781935 -8.65073052309122 -0.6464697880196539 -1.1520618955264788 0.9364201135359987 0.2006146915044232 -0.20044331888099298 0.4005800203876072 -1.2107734338629361 1.2090999735328394 -1.2078415276969243 0.0 0.0 0.0 0.0 0.0 0.0
883.976 -0.5324999547834715 -1.5954054692480177 -1.9350465416861127 0.38885935734433663 2.1034708145035665 0.0001745329251994221 -0.0 -0.0 -0.0 0.0 -0.0 -0.0 0.0 0.0 0.0 0.0 0.0 0.0 1.1376295825519693e-19 0.5366703776660761 0.6986372253114864 0.060799631939498465 3.678790513610345e-17 0.0 1.305543638796082e-18 6.181637315307669 5.89872838284027 0.2509498241377594 1.5272065389720524e-16 0.0 -0.5325530211078089 -1.5953815619098108 -1.9349835554706019 0.38890981674194336 2.1034486293792725 0.00018013788212556392 0.0 5.752428114647046e-05 -2.3968450477696024e-05 4.793690095539205e-05 -2.3968450477696024e-05 2.3968450477696024e-05 0.02243042178452015 0.7267456650733948 0.8036966919898987 0.001118993852287531 -0.06937761604785919 0.1365172564983368 0.011215210892260075 0.7245026230812073 0.8052217364311218 0.001118993852287531 -0.06602063775062561 0.1376362442970276 0.2005949347600791 -0.20045050527606365 0.40060707134980617 -1.210697786943436 1.209038250452218 -1.2080003818040876 -1.5750192879222546e-05 7.3063702699345955e-06 1.275867514190133e-05 -1.738589892979797e-05 -7.020330421184363e-05 -2.400738724934126e-05 1.8183777600256574 -8.257295120175831 -8.799363470561605 -0.63081233070087 -1.243627934498691 1.0032639338411562 0.2006146915044232 -0.20044331888099298 0.4005800203876072 -1.2107734338629361 1.2090999735328394 -1.2078415276969243 0.0 0.0 0.0 0.0 0.0 0.0
883.9839999999999 -0.5324999547834715 -1.5954054692480177 -1.9350465416861127 0.38885935734433663 2.1034708145035665 0.0001745329251994221 -0.0 -0.0 -0.0 0.0 -0.0 -0.0 0.0 0.0 0.0 0.0 0.0 0.0 1.1376295825519693e-19 0.5366703776660761 0.6986372253114864 0.060799631939498465 3.678790513610345e-17 0.0 1.305543638796082e-18 6.181637315307669 5.89872838284027 0.2509498241377594 1.5272065389720524e-16 0.0 -0.532576862965719 -1.5953815619098108 -1.9350431601153772 0.38890981674194336 2.1034486293792725 0.00016815366689115763 0.0 5.752428114647046e-05 -2.3968450477696024e-05 4.793690095539205e-05 -2.3968450477696024e-05 2.3968450477696024e-05 0.004486084450036287 0.7267456650733948 0.8128469586372375 0.002237987704575062 -0.067139632999897 0.13875523209571838 0.011215210892260075 0.7245026230812073 0.8052217364311218 0.001118993852287531 -0.06266365945339203 0.1376362442970276 0.20059042356311094 -0.2004553779619737 0.40059107215583684 -1.2107109854514846 1.2091020801680086 -1.2079800023868972 -1.574938155550248e-05 7.306369314910351e-06 1.2758868535570145e-05 -1.7388797951635106e-05 -7.020216360486481e-05 -2.4008618562358806e-05 2.211403703684734 -6.883073686043075 -9.061648768883124 -0.6413412861237607 -1.2176342959486377 0.8796683193914144 0.2006146915044232 -0.20044331888099298 0.4005800203876072 -1.2107734338629361 1.2090999735328394 -1.2078415276969243 0.0 0.0 0.0 0.0 0.0 0.0
883.992 -0.5324999547834715 -1.5954054692480177 -1.9350465416861127 0.38885935734433663 2.1034708145035665 0.0001745329251994221 -0.0 -0.0 -0.0 0.0 -0.0 -0.0 0.0 0.0 0.0 0.0 0.0 0.0 1.1376295825519693e-19 0.5366703776660761 0.6986372253114864 0.060799631939498465 3.678790513610345e-17 0.0 1.305543638796082e-18 6.181637315307669 5.89872838284027 0.2509498241377594 1.5272065389720524e-16 0.0 -0.5325411001788538 -1.5953577200519007 -1.9350312391864222 0.3888498544692993 2.1034486293792725 0.00018013788212556392 0.0 5.752428114647046e-05 -2.3968450477696024e-05 4.793690095539205e-05 -2.3968450477696024e-05 2.3968450477696024e-05 0.01345825381577015 0.7200165390968323 0.8036966919898987 0.004475975409150124 -0.05930667370557785 0.134279265999794 0.011215210892260075 0.7245026230812073 0.8052217364311218 0.001118993852287531 -0.06266365945339203 0.1376362442970276 0.20059683942046852 -0.2004477740382275 0.4005965612055792 -1.2107253938231461 1.2091025748306181 -1.2079259793406598 -1.5749733234628282e-05 7.30586023627647e-06 1.2758774823922822e-05 -1.7386791495986996e-05 -7.020249061797423e-05 -2.4009117682502533e-05 2.0205066738941664 -7.227034826004303 -8.576098311500607 -0.6205692989410748 -1.1787931205826279 0.87154652889674 0.2006146915044232 -0.20044331888099298 0.4005800203876072 -1.2107734338629361 1.2090999735328394 -1.2078415276969243 0.0 0.0 0.0 0.0 0.0 0.0
884.0 -0.5324999547834715 -1.5954054692480177 -1.9350465416861127 0.38885935734433663 2.1034708145035665 0.0001745329251994221 -0.0 -0.0 -0.0 0.0 -0.0 -0.0 0.0 0.0 0.0 0.0 0.0 0.0 1.1376295825519693e-19 0.5366703776660761 0.6986372253114864 0.060799631939498465 3.678790513610345e-17 0.0 1.305543638796082e-18 6.181637315307669 5.89872838284027 0.2509498241377594 1.5272065389720524e-16 0.0 -0.5325167814837855 -1.595393482838766 -1.9350312391864222 0.3888739347457886 2.103484630584717 0.00016815366689115763 0.0 5.752428114647046e-05 -2.3968450477696024e-05 4.793690095539205e-05 -2.3968450477696024e-05 2.3968450477696024e-05 0.01570129580795765 0.7334747910499573 0.806746780872345 0.002237987704575062 -0.06602063775062561 0.13987423479557037 0.011215210892260075 0.7245026230812073 0.8052217364311218 0.001118993852287531 -0.06602063775062561 0.1376362442970276 0.20060760814942483 -0.20044339434459454 0.4005884523990025 -1.2107657612843317 1.2090626428973799 -1.2078812224464064 -1.5749566970824667e-05 7.305315519628381e-06 1.2759126759602715e-05 -1.7385323835636086e-05 -7.020190855773225e-05 -2.400935983923381e-05 2.2088406285910875 -8.054225074652978 -9.014052377330405 -0.646219212596595 -1.2693555357902537 0.9709622764583942 0.2006146915044232 -0.20044331888099298 0.4005800203876072 -1.2107734338629361 1.2090999735328394 -1.2078415276969243 0.0 0.0 0.0 0.0 0.0 0.0
884.0079999999999 -0.5324999547834715 -1.5954054692480177 -1.9350465416861127 0.38885935734433663 2.1034708145035665 0.0001745329251994221 -0.0 -0.0 -0.0 0.0 -0.0 -0.0 0.0 0.0 0.0 0.0 0.0 0.0 1.1376295825519693e-19 0.5366703776660761 0.6986372253114864 0.060799631939498465 3.678790513610345e-17 0.0 1.305543638796082e-18 6.181637315307669 5.89872838284027 0.2509498241377594 1.5272065389720524e-16 0.0 -0.5325411001788538 -1.5953457991229456 -1.935019318257467 0.38888585567474365 2.1034131050109863 0.00021609055693261325 0.0 5.752428114647046e-05 -2.3968450477696024e-05 4.793690095539205e-05 -2.3968450477696024e-05 2.3968450477696024e-05 0.008972168900072575 0.7155304551124573 0.8143720030784607 -0.001118993852287531 -0.06266365945339203 0.13987423479557037 0.011215210892260075 0.7245026230812073 0.8052217364311218 0.001118993852287531 -0.06490164250135422 0.1376362442970276 0.20059158196855562 -0.200447624851501 0.4006055890999135 -1.2106664793276416 1.2090935311600697 -1.2079725108916401 -1.575024127325045e-05 7.306118709139861e-06 1.2758436892210754e-05 -1.7385555235116975e-05 -7.020407073331192e-05 -2.4007881385125958e-05 1.7424458028934138 -6.399550216244014 -8.94767281770796 -0.6466924956834186 -1.1588042509304946 0.8189816162223366 0.2006146915044232 -0.20044331888099298 0.4005800203876072 -1.2107734338629361 1.2090999735328394 -1.2078415276969243 0.0 0.0 0.0 0.0 0.0 0.0
884.016 -0.5324999547834715 -1.5954054692480177 -1.9350465416861127 0.38885935734433663 2.1034708145035665 0.0001745329251994221 -0.0 -0.0 -0.0 0.0 -0.0 -0.0 0.0 0.0 0.0 0.0 0.0 0.0 1.1376295825519693e-19 0.5366703776660761 0.6986372253114864 0.060799631939498465 3.678790513610345e-17 0.0 1.305543638796082e-18 6.181637315307669 5.89872838284027 0.2509498241377594 1.5272065389720524e-16 0.0 -0.5325411001788538 -1.5953577200519007 -1.935007397328512 0.38888585567474365 2.1034252643585205 0.00020410634169820696 0.0 5.752428114647046e-05 -2.3968450477696024e-05 4.793690095539205e-05 -2.3968450477696024e-05 2.3968450477696024e-05 0.008972168900072575 0.7200165390968323 0.8204721808433533 0.0055949692614376545 -0.06602063775062561 0.14323121309280396 0.011215210892260075 0.7245026230812073 0.8052217364311218 0.001118993852287531 -0.06490164250135422 0.1376362442970276 0.20059408372020895 -0.20044810681016506 0.4006055164471216 -1.2106810310442084 1.2090789186801418 -1.2079723960471607 -1.575021373797789e-05 7.306116530670135e-06 1.275856276918724e-05 -1.7385556046922947e-05 -7.020377943774977e-05 -2.4007881602858643e-05 1.7020692550894787 -6.463016291601672 -9.081771951494153 -0.6622685674390292 -1.1243863529435685 0.839821108321349 0.2006146915044232 -0.20044331888099298 0.4005800203876072 -1.2107734338629361 1.2090999735328394 -1.2078415276969243 0.0 0.0 0.0 0.0 0.0 0.0
884.024 -0.5324999547834715 -1.5954054692480177 -1.9350465416861127 0.38885935734433663 2.1034708145035665 0.0001745329251994221 -0.0 -0.0 -0.0 0.0 -0.0 -0.0 0.0 0.0 0.0 0.0 0.0 0.0 1.1376295825519693e-19 0.5366703776660761 0.6986372253114864 0.060799631939498465 3.678790513610345e-17 0.0 1.305543638796082e-18 6.181637315307669 5.89872838284027 0.2509498241377594 1.5272065389720524e-16 0.0 -0.5325411001788538 -1.5953815619098108 -1.935019318257467 0.38888585567474365 2.103484630584717 0.00018013788212556392 0.0 5.752428114647046e-05 -2.3968450477696024e-05 4.793690095539205e-05 -2.3968450477696024e-05 2.3968450477696024e-05 0.008972168900072575 0.7267456650733948 0.7991215586662292 -0.001118993852287531 -0.0682586282491684 0.13987423479557037 0.011215210892260075 0.7245026230812073 0.8052217364311218 0.001118993852287531 -0.06490164250135422 0.1376362442970276 0.2005992476953179 -0.20044623838826212 0.4005957704589856 -1.210736092159717 1.209055035187863 -1.20791830767253 -1.5749707086119234e-05 7.305886269991903e-06 1.275881116515453e-05 -1.7386293850159834e-05 -7.020192118955609e-05 -2.4008621104000498e-05 2.368523435521222 -7.681305529160649 -8.704424650188209 -0.6463181020818544 -1.2567555366653833 0.9506573343640411 0.2006146915044232 -0.20044331888099298 0.4005800203876072 -1.2107734338629361 1.2090999735328394 -1.2078415276969243 0.0 0.0 0.0 0.0 0.0 0.0
884.0319999999999 -0.5324999547834715 -1.5954054692480177 -1.9350465416861127 0.38885935734433663 2.1034708145035665 0.0001745329251994221 -0.0 -0.0 -0.0 0.0 -0.0 -0.0 0.0 0.0 0.0 0.0 0.0 0.0 1.1376295825519693e-19 0.5366703776660761 0.6986372253114864 0.060799631939498465 3.678790513610345e-17 0.0 1.305543638796082e-18 6.181637315307669 5.89872838284027 0.2509498241377594 1.5272065389720524e-16 0.0 -0.5325167814837855 -1.5953815619098108 -1.9350312391864222 0.3888739347457886 2.1034486293792725 0.00020410634169820696 0.0 5.752428114647046e-05 -2.3968450477696024e-05 4.793690095539205e-05 -2.3968450477696024e-05 2.3968450477696024e-05 0.01345825381577015 0.7200165390968323 0.8021716475486755 0.001118993852287531 -0.067139632999897 0.1376362442970276 0.011215210892260075 0.7245026230812073 0.8052217364311218 0.0 -0.06490164250135422 0.1376362442970276 0.2006050531976685 -0.20044485805416168 0.40059172563558315 -1.2107191594405962 1.2090957877660629 -1.207890601762406 -1.5749769075473232e-05 7.305393005357646e-06 1.2759043435136873e-05 -1.738507724033456e-05 -7.020291651262768e-05 -2.4009113200573535e-05 1.963622681120993 -7.4384831527051505 -8.605751853676175 -0.6360321720203426 -1.1959314547006317 0.925431488599204 0.2006146915044232 -0.20044331888099298 0.4005800203876072 -1.2107734338629361 1.2090999735328394 -1.2078415276969243 0.0 0.0 0.0 0.0 0.0 0.0
884.04 -0.5324999547834715 -1.5954054692480177 -1.9350465416861127 0.38885935734433663 2.1034708145035665 0.0001745329251994221 -0.0 -0.0 -0.0 0.0 -0.0 -0.0 0.0 0.0 0.0 0.0 0.0 0.0 1.1376295825519693e-19 0.5366703776660761 0.6986372253114864 0.060799631939498465 3.678790513610345e-17 0.0 1.305543638796082e-18 6.181637315307669 5.89872838284027 0.2509498241377594 1.5272065389720524e-16 0.0 -0.532564942036764 -1.595405403767721 -1.9350312391864222 0.3888739347457886 2.1034131050109863 0.00018013788212556392 0.0 5.752428114647046e-05 -2.3968450477696024e-05 4.793690095539205e-05 -2.3968450477696024e-05 2.3968450477696024e-05 0.011215210892260075 0.7132874131202698 0.8036966919898987 0.004475975409150124 -0.06378264725208282 0.13987423479557037 0.011215210892260075 0.7177734971046448 0.8036966919898987 0.002237987704575062 -0.06154466047883034 0.1376362442970276 0.20060051010757152 -0.20046044765166823 0.40058518199374565 -1.2107034566052812 1.2091669154610662 -1.2079511885003507 -1.5749225598398287e-05 7.3059966248682245e-06 1.27595763790752e-05 -1.738894836460423e-05 -7.02026404685077e-05 -2.4009605640786657e-05 1.8359329641334512 -6.84610168768532 -8.431784724020597 -0.6466585932486242 -1.1167579390914923 0.8609930962966507 0.2006146915044232 -0.20044331888099298 0.4005800203876072 -1.2107734338629361 1.2090999735328394 -1.2078415276969243 0.0 0.0 0.0 0.0 0.0 0.0
884.048 -0.5324999547834715 -1.5954054692480177 -1.9350465416861127 0.38885935734433663 2.1034708145035665 0.0001745329251994221 -0.0 -0.0 -0.0 0.0 -0.0 -0.0 0.0 0.0 0.0 0.0 0.0 0.0 1.1376295825519693e-19 0.5366703776660761 0.6986372253114864 0.060799631939498465 3.678790513610345e-17 0.0 1.305543638796082e-18 6.181637315307669 5.89872838284027 0.2509498241377594 1.5272065389720524e-16 0.0 -0.532576862965719 -1.595417324696676 -1.934995476399557 0.38888585567474365 2.1034727096557617 0.00020410634169820696 0.0 5.752428114647046e-05 -2.3968450477696024e-05 2.3968450477696024e-05 -2.3968450477696024e-05 2.3968450477696024e-05 0.011215210892260075 0.7267456650733948 0.8082718253135681 0.004475975409150124 -0.054830700159072876 0.14211222529411316 0.011215210892260075 0.7245026230812073 0.8021716475486755 0.001118993852287531 -0.06378264725208282 0.1376362442970276 0.2005996379584979 -0.20045886247405284 0.4005923536579799 -1.210698959605583 1.2091119800999046 -1.2079264695938596 -1.3986022442489537e-05 6.270751568873254e-06 1.1058486698576275e-05 -5.240043017239105e-06 -4.954017192274028e-05 -2.399398671189607e-05 2.2436909862649075 -7.1851478411370895 -8.865357720356466 -0.6569360550221455 -1.1981585110294826 0.8472638621077668 0.2006146915044232 -0.20044331888099298 0.4005800203876072 -1.2107734338629361 1.2090999735328394 -1.2078415276969243 0.0 0.0 0.0 0.0 0.0 0.0
884.0559999999999 -0.5324999547834715 -1.5954054692480177 -1.9350465416861127 0.38885935734433663 2.1034708145035665 0.0001745329251994221 -0.0 -0.0 -0.0 0.0 -0.0 -0.0 0.0 0.0 0.0 0.0 0.0 0.0 1.1376295825519693e-19 0.5366703776660761 0.6986372253114864 0.060799631939498465 3.678790513610345e-17 0.0 1.305543638796082e-18 6.181637315307669 5.89872838284027 0.2509498241377594 1.5272065389720524e-16 0.0 -0.5325167814837855 -1.5953815619098108 -1.9350431601153772 0.3888739347457886 2.1034607887268066 0.00019212211191188544 0.0 5.752428114647046e-05 -2.3968450477696024e-05 2.3968450477696024e-05 -2.3968450477696024e-05 2.3968450477696024e-05 0.0022430422250181437 0.7245026230812073 0.7930214405059814 0.002237987704575062 -0.067139632999897 0.1376362442970276 0.011215210892260075 0.7245026230812073 0.8052217364311218 0.001118993852287531 -0.06490164250135422 0.1376362442970276 0.20060510657784972 -0.20044387460531876 0.4005885254327982 -1.2107368622312904 1.209091539933571 -1.2078811190494154 -1.3986281208179526e-05 6.269828244977007e-06 1.1058074368432665e-05 -5.237558960250415e-06 -4.954048010766034e-05 -2.3994479263619572e-05 2.671112276806035 -7.417625422799376 -8.384068043602568 -0.6359677804866137 -1.2310441477064342 0.9237441534966853 0.2006146915044232 -0.20044331888099298 0.4005800203876072 -1.2107734338629361 1.2090999735328394 -1.2078415276969243 0.0 0.0 0.0 0.0 0.0 0.0
884.064 -0.5324999547834715 -1.5954054692480177 -1.9350465416861127 0.38885935734433663 2.1034708145035665 0.0001745329251994221 -0.0 -0.0 -0.0 0.0 -0.0 -0.0 0.0 0.0 0.0 0.0 0.0 0.0 1.1376295825519693e-19 0.5366703776660761 0.6986372253114864 0.060799631939498465 3.678790513610345e-17 0.0 1.305543638796082e-18 6.181637315307669 5.89872838284027 0.2509498241377594 1.5272065389720524e-16 0.0 -0.5325048605548304 -1.5953815619098108 -1.935007397328512 0.3888498544692993 2.1034607887268066 0.00020410634169820696 0.0 5.752428114647046e-05 -2.3968450477696024e-05 2.3968450477696024e-05 -2.3968450477696024e-05 2.3968450477696024e-05 0.011215210892260075 0.7267456650733948 0.8052217364311218 0.0 -0.06490164250135422 0.13987423479557037 0.011215210892260075 0.7245026230812073 0.8052217364311218 0.001118993852287531 -0.06490164250135422 0.1376362442970276 0.200609107040974 -0.20044246951605738 0.4005964161889545 -1.210730578512227 1.2090783056373864 -1.2078727416518542 -1.3986601210130043e-05 6.269806394822924e-06 1.1058125562714641e-05 -5.236729068867946e-06 -4.954068625311019e-05 -2.399423794687385e-05 2.195936438799463 -7.499951634583505 -8.872273211031532 -0.6463374314539817 -1.240711291073739 0.9200932269183305 0.2006146915044232 -0.20044331888099298 0.4005800203876072 -1.2107734338629361 1.2090999735328394 -1.2078415276969243 0.0 0.0 0.0 0.0 0.0 0.0
884.072 -0.5324999547834715 -1.5954054692480177 -1.9350465416861127 0.38885935734433663 2.1034708145035665 0.0001745329251994221 -0.0 -0.0 -0.0 0.0 -0.0 -0.0 0.0 0.0 0.0 0.0 0.0 0.0 1.1376295825519693e-19 0.5366703776660761 0.6986372253114864 0.060799631939498465 3.678790513610345e-17 0.0 1.305543638796082e-18 6.181637315307669 5.89872838284027 0.2509498241377594 1.5272065389720524e-16 0.0 -0.5325530211078089 -1.5953338781939905 -1.9350431601153772 0.3888498544692993 2.1034252643585205 0.0001561694371048361 0.0 5.752428114647046e-05 -2.3968450477696024e-05 2.3968450477696024e-05 -2.3968450477696024e-05 2.3968450477696024e-05 0.0022430422250181437 0.7177734971046448 0.8189471364021301 0.002237987704575062 -0.067139632999897 0.14323121309280396 0.006729126907885075 0.7245026230812073 0.8052217364311218 0.001118993852287531 -0.06490164250135422 0.1376362442970276 0.20058939283608024 -0.2004491047741416 0.4005999063004066 -1.2107232780087507 1.2091067894186676 -1.2079789180442622 -1.3986493295704735e-05 6.2705537568325725e-06 1.1057527550361181e-05 -5.2388686371392365e-06 -4.9541429131336835e-05 -2.399399193790962e-05 1.8711254991138997 -6.061811640649803 -9.062300258981836 -0.6622666323164959 -1.1351353467856806 0.8120083945375207 0.2006146915044232 -0.20044331888099298 0.4005800203876072 -1.2107734338629361 1.2090999735328394 -1.2078415276969243 0.0 0.0 0.0 0.0 0.0 0.0
884.0799999999999 -0.5324999547834715 -1.5954054692480177 -1.9350465416861127 0.38885935734433663 2.1034708145035665 0.0001745329251994221 -0.0 -0.0 -0.0 0.0 -0.0 -0.0 0.0 0.0 0.0 0.0 0.0 0.0 1.1376295825519693e-19 0.5366703776660761 0.6986372253114864 0.060799631939498465 3.678790513610345e-17 0.0 1.305543638796082e-18 6.181637315307669 5.89872838284027 0.2509498241377594 1.5272065389720524e-16 0.0 -0.5324929396258753 -1.595393482838766 -1.9350312391864222 0.38883793354034424 2.1034486293792725 0.00021609055693261325 0.0 5.752428114647046e-05 -2.3968450477696024e-05 2.3968450477696024e-05 -2.3968450477696024e-05 2.3968450477696024e-05 0.02018737979233265 0.7245026230812073 0.806746780872345 -0.004475975409150124 -0.06154466047883034 0.14211222529411316 0.01345825381577015 0.7245026230812073 0.8052217364311218 0.001118993852287531 -0.06490164250135422 0.1376362442970276 0.2006150360794366 -0.20044313168862038 0.4005858983976694 -1.2107341180687383 1.2091257495580832 -1.2078267437897892 -1.3986324532183056e-05 6.269417973640506e-06 1.1058411573306824e-05 -5.237122093364093e-06 -4.954045853557573e-05 -2.3995222369879617e-05 1.841735876257105 -7.743424493118082 -8.978023024870264 -0.6566664476390057 -1.249367272588507 0.9245324637135445 0.2006146915044232 -0.20044331888099298 0.4005800203876072 -1.2107734338629361 1.2090999735328394 -1.2078415276969243 0.0 0.0 0.0 0.0 0.0 0.0
884.088 -0.5324999547834715 -1.5954054692480177 -1.9350465416861127 0.38885935734433663 2.1034708145035665 0.0001745329251994221 -0.0 -0.0 -0.0 0.0 -0.0 -0.0 0.0 0.0 0.0 0.0 0.0 0.0 1.1376295825519693e-19 0.5366703776660761 0.6986372253114864 0.060799631939498465 3.678790513610345e-17 0.0 1.305543638796082e-18 6.181637315307669 5.89872838284027 0.2509498241377594 1.5272065389720524e-16 0.0 -0.5325167814837855 -1.595405403767721 -1.935019318257467 0.38886189460754395 2.1034486293792725 0.00018013788212556392 0.0 5.752428114647046e-05 -2.3968450477696024e-05 2.3968450477696024e-05 -2.3968450477696024e-05 2.3968450477696024e-05 0.008972168900072575 0.7245026230812073 0.7914963960647583 0.0033569815568625927 -0.06154466047883034 0.134279265999794 0.011215210892260075 0.7245026230812073 0.8052217364311218 0.001118993852287531 -0.06490164250135422 0.1376362442970276 0.2006109961760841 -0.20044836284179726 0.40058752647235296 -1.210743038015474 1.2091053807392889 -1.207889513311761 -1.3986255897971534e-05 6.2697988872844925e-06 1.1058485252121908e-05 -5.237807447815712e-06 -4.9540625925574246e-05 -2.3994727538058116e-05 2.5550291259719655 -7.732548578527603 -8.310596354283268 -0.6203961788329079 -1.234028037198041 0.9236377050854017 0.2006146915044232 -0.20044331888099298 0.4005800203876072 -1.2107734338629361 1.2090999735328394 -1.2078415276969243 0.0 0.0 0.0 0.0 0.0 0.0
884.096 -0.5324999547834715 -1.5954054692480177 -1.9350465416861127 0.38885935734433663 2.1034708145035665 0.0001745329251994221 -0.0 -0.0 -0.0 0.0 -0.0 -0.0 0.0 0.0 0.0 0.0 0.0 0.0 1.1376295825519693e-19 0.5366703776660761 0.6986372253114864 0.060799631939498465 3.678790513610345e-17 0.0 1.305543638796082e-18 6.181637315307669 5.89872838284027 0.2509498241377594 1.5272065389720524e-16 0.0 -0.532576862965719 -1.595405403767721 -1.9350431601153772 0.38886189460754395 2.1034131050109863 0.00018013788212556392 0.0 5.752428114647046e-05 -2.3968450477696024e-05 2.3968450477696024e-05 -2.3968450477696024e-05 2.3968450477696024e-05 0.01570129580795765 0.7222595810890198 0.8113219141960144 0.0033569815568625927 -0.067139632999897 0.13875523209571838 0.011215210892260075 0.7245026230812073 0.8052217364311218 0.001118993852287531 -0.06490164250135422 0.1376362442970276 0.20059905958412202 -0.20046337712685028 0.40058112759236175 -1.2107040954925967 1.209196605701762 -1.207941196669004 -1.398572934609718e-05 6.270509340988753e-06 1.105859930363893e-05 -5.2412745869573955e-06 -4.954087127883005e-05 -2.3995219603317976e-05 1.7497929833924375 -7.320629277821624 -8.892905488893451 -0.6413280663197539 -1.1803528621413657 0.9157128998674313 0.2006146915044232 -0.20044331888099298 0.4005800203876072 -1.2107734338629361 1.2090999735328394 -1.2078415276969243 0.0 0.0 0.0 0.0 0.0 0.0
884.1039999999999 -0.5324999547834715 -1.5954054692480177 -1.9350465416861127 0.38885935734433663 2.1034708145035665 0.0001745329251994221 -0.0 -0.0 -0.0 0.0 -0.0 -0.0 0.0 0.0 0.0 0.0 0.0 0.0 1.1376295825519693e-19 0.5366703776660761 0.6986372253114864 0.060799631939498465 3.678790513610345e-17 0.0 1.305543638796082e-18 6.181637315307669 5.89872838284027 0.2509498241377594 1.5272065389720524e-16 0.0 -0.532576862965719 -1.595393482838766 -1.9350312391864222 0.38888585567474365 2.1034607887268066 0.0001561694371048361 0.0 5.752428114647046e-05 -2.3968450477696024e-05 2.3968450477696024e-05 -2.3968450477696024e-05 2.3968450477696024e-05 0.01345825381577015 0.7200165390968323 0.8143720030784607 0.0 -0.06490164250135422 0.1365172564983368 0.011215210892260075 0.7245026230812073 0.8052217364311218 0.001118993852287531 -0.067139632999897 0.1376362442970276 0.20059468802581468 -0.20045689530565444 0.4005892990237011 -1.2107317974295821 1.2091083979637571 -1.2079611484769386 -1.3985942954063237e-05 6.270691053910102e-06 1.1058195086644132e-05 -5.240288717481293e-06 -4.954031100352279e-05 -2.3994233015041372e-05 1.7085223633090127 -6.9185409357948835 -9.018895248191098 -0.6309649339592986 -1.1910912526131496 0.8721697217304285 0.2006146915044232 -0.20044331888099298 0.4005800203876072 -1.2107734338629361 1.2090999735328394 -1.2078415276969243 0.0 0.0 0.0 0.0 0.0 0.0
884.112 -0.5324999547834715 -1.5954054692480177 -1.9350465416861127 0.38885935734433663 2.1034708145035665 0.0001745329251994221 -0.0 -0.0 -0.0 0.0 -0.0 -0.0 0.0 0.0 0.0 0.0 0.0 0.0 1.1376295825519693e-19 0.5366703776660761 0.6986372253114864 0.060799631939498465 3.678790513610345e-17 0.0 1.305543638796082e-18 6.181637315307669 5.89872838284027 0.2509498241377594 1.5272065389720524e-16 0.0 -0.5325291792498987 -1.595393482838766 -1.9350550810443323 0.38890981674194336 2.1034131050109863 0.0001561694371048361 0.0 5.752428114647046e-05 -2.3968450477696024e-05 2.3968450477696024e-05 -2.3968450477696024e-05 2.3968450477696024e-05 0.01345825381577015 0.7289887070655823 0.8158970475196838 -0.002237987704575062 -0.06266365945339203 0.1353982537984848 0.011215210892260075 0.7245026230812073 0.8052217364311218 0.001118993852287531 -0.06602063775062561 0.1376362442970276 0.2006025908387415 -0.20045025787073684 0.4005846010501575 -1.2107317889927172 1.2091082250503449 -1.20796120060633 -1.3986200457802157e-05 6.269943973617589e-06 1.105824477345237e-05 -5.237921083845747e-06 -4.9541704204339114e-05 -2.399423024396847e-05 1.9716765413020516 -7.276152205574647 -9.311809908772569 -0.6256607779212423 -1.2707264668696838 0.8912241622637318 0.2006146915044232 -0.20044331888099298 0.4005800203876072 -1.2107734338629361 1.2090999735328394 -1.2078415276969243 0.0 0.0 0.0 0.0 0.0 0.0
884.12 -0.5324999547834715 -1.5954054692480177 -1.9350465416861127 0.38885935734433663 2.1034708145035665 0.0001745329251994221 -0.0 -0.0 -0.0 0.0 -0.0 -0.0 0.0 0.0 0.0 0.0 0.0 0.0 1.1376295825519693e-19 0.5366703776660761 0.6986372253114864 0.060799631939498465 3.678790513610345e-17 0.0 1.305543638796082e-18 6.181637315307669 5.89872838284027 0.2509498241377594 1.5272065389720524e-16 0.0 -0.5325411001788538 -1.5953338781939905 -1.9350312391864222 0.3888978958129883 2.1034252643585205 0.00022807478671893477 0.0 5.752428114647046e-05 -2.3968450477696024e-05 2.3968450477696024e-05 -2.3968450477696024e-05 2.3968450477696024e-05 0.008972168900072575 0.7379608750343323 0.7914963960647583 0.002237987704575062 -0.06490164250135422 0.1376362442970276 0.011215210892260075 0.7245026230812073 0.8052217364311218 0.001118993852287531 -0.06266365945339203 0.1376362442970276 0.20058819426315047 -0.2004446198191946 0.40060651538230113 -1.2106602813906444 1.2090797113714884 -1.2079641335501297 -1.398684709740336e-05 6.270551524429233e-06 1.1057325534436463e-05 -5.237038536420503e-06 -4.954222220691184e-05 -2.3992753746791897e-05 2.92468251541956 -8.492775610270376 -8.624875138399574 -0.6359140473048923 -1.3264861790982665 1.0018684861322806 0.2006146915044232 -0.20044331888099298 0.4005800203876072 -1.2107734338629361 1.2090999735328394 -1.2078415276969243 0.0 0.0 0.0 0.0 0.0 0.0
884.1279999999999 -0.5324999547834715 -1.5954054692480177 -1.9350465416861127 0.38885935734433663 2.1034708145035665 0.0001745329251994221 -0.0 -0.0 -0.0 0.0 -0.0 -0.0 0.0 0.0 0.0 0.0 0.0 0.0 1.1376295825519693e-19 0.5366703776660761 0.6986372253114864 0.060799631939498465 3.678790513610345e-17 0.0 1.305543638796082e-18 6.181637315307669 5.89872838284027 0.2509498241377594 1.5272065389720524e-16 0.0 -0.5325411001788538 -1.595393482838766 -1.9350431601153772 0.38886189460754395 2.1034607887268066 0.00020410634169820696 0.0 5.752428114647046e-05 -2.3968450477696024e-05 2.3968450477696024e-05 -2.3968450477696024e-05 2.3968450477696024e-05 0.01345825381577015 0.7222595810890198 0.8036966919898987 0.0 -0.05930667370557785 0.13987423479557037 0.011215210892260075 0.7267456650733948 0.8052217364311218 0.001118993852287531 -0.06490164250135422 0.1376362442970276 0.200603673024324 -0.20045077452244225 0.40058439869777357 -1.210722792435601 1.209136065957962 -1.2078714494041622 -1.3985972884384544e-05 6.270076279228661e-06 1.1058302997237636e-05 -5.239258480076658e-06 -4.954006094705341e-05 -2.3994973907495947e-05 2.087082452454012 -7.33974124299937 -8.728383637490099 -0.6464346572945054 -1.2114976490819744 0.8808540079372665 0.2006146915044232 -0.20044331888099298 0.4005800203876072 -1.2107734338629361 1.2090999735328394 -1.2078415276969243 0.0 0.0 0.0 0.0 0.0 0.0
884.136 -0.5324999547834715 -1.5954054692480177 -1.9350465416861127 0.38885935734433663 2.1034708145035665 0.0001745329251994221 -0.0 -0.0 -0.0 0.0 -0.0 -0.0 0.0 0.0 0.0 0.0 0.0 0.0 1.1376295825519693e-19 0.5366703776660761 0.6986372253114864 0.060799631939498465 3.678790513610345e-17 0.0 1.305543638796082e-18 6.181637315307669 5.89872838284027 0.2509498241377594 1.5272065389720524e-16 0.0 -0.5325530211078089 -1.5953696409808558 -1.935019318257467 0.3888739347457886 2.1034607887268066 0.00019212211191188544 0.0 5.752428114647046e-05 -2.3968450477696024e-05 2.3968450477696024e-05 -2.3968450477696024e-05 2.3968450477696024e-05 0.011215210892260075 0.7245026230812073 0.796071469783783 -0.002237987704575062 -0.06490164250135422 0.134279265999794 0.011215210892260075 0.7245026230812073 0.8052217364311218 0.001118993852287531 -0.06602063775062561 0.1376362442970276 0.20059518003165935 -0.20044960690717709 0.4005981974020616 -1.210710368145984 1.209087066783076 -1.20793582797076 -1.3986387448904887e-05 6.270532102620753e-06 1.1057864183119824e-05 -5.238616980353825e-06 -4.954072672874909e-05 -2.3993740855703498e-05 2.3367296664271118 -7.739645650808137 -8.585661269696155 -0.6204055365928035 -1.2684424339270826 0.939832618968772 0.2006146915044232 -0.20044331888099298 0.4005800203876072 -1.2107734338629361 1.2090999735328394 -1.2078415276969243 0.0 0.0 0.0 0.0 0.0 0.0
