Fleaurent/UniversalRobot/csv/robolib_movel_x400_Singular.csv
timestamp target_q_0 target_q_1 target_q_2 target_q_3 target_q_4 target_q_5 target_qd_0 target_qd_1 target_dq_2 target_qd_3 target_qd_4 target_qd_5 target_TCP_pose_0 target_TCP_pose_1 target_TCP_pose_2 target_TCP_pose_3 target_TCP_pose_4 target_TCP_pose_5 target_TCP_speed_0 target_TCP_speed_1 target_TCP_speed_2 target_TCP_speed_3 target_TCP_speed_4 target_TCP_speed_5 target_TCP_acc_0 target_TCP_acc_1 target_TCP_acc_2 target_TCP_acc_3 target_TCP_acc_4 target_TCP_acc_5
0.0 -0.5325564462264847 -1.595267091148341 -1.9351178277208148 0.3887636286132983 2.103514506141045 -0.00013977898740433916 -1.187362817656962 -2.7022359982270006 3.806937646085474 1.703233276001362 3.6059576498073698 3.8442046860412518 200.0 -200.0 400.0 2.4186 -2.4185 2.4185 0.0 0.0 0.0 0.0 0.0 0.0 0.0 1000.0 0.0 0.0 0.0 0.0 
0.008 -0.5324208250519904 -1.5951391347010322 -1.9352496397794192 0.38876704455610067 2.103378884967877 -0.0001397678130313183 -1.1876611718455838 -2.702222897749394 3.8064985700291354 1.7034338508673754 3.6062574565884957 3.8437607973112247 200.0 -199.968 400.0 2.4186 -2.4185 2.4185 0.0 8.0 0.0 0.0 0.0 0.0 0.0 1000.0 0.0 0.0 0.0 0.0 
0.016 -0.5320137704061803 -1.594755231905445 -1.9356449891760668 0.38877935482496184 2.102971830326041 -0.00013973430032161943 -1.188555453302861 -2.702184848686329 3.8051851246628483 1.7040378928342665 3.6071488682609942 3.8424380691385487 200.0 -199.872 400.0 2.4186 -2.4185 2.4185 0.0 16.0 0.0 0.0 0.0 0.0 0.0 1000.0 0.0 0.0 0.0 0.0 
0.024 -0.5313347083331683 -1.5941152822313018 -1.9363036155795625 0.38879780582576906 2.102292768259656 -0.00013967848055173741 -1.1900491398685438 -2.7021230453217 3.802995159700222 1.7050442901370115 3.6086432856458948 3.840225888159393 200.0 -199.712 400.0 2.4186 -2.4185 2.4185 0.0 24.0 0.0 0.0 0.0 0.0 0.0 1000.0 0.0 0.0 0.0 0.0 
0.032 -0.5303826802740335 -1.593219117564007 -1.9372250851244561 0.3888236592395753 2.1013407402098023 -0.00013960040601092495 -1.1921442289348465 -2.7020411590230067 3.799933917961316 1.7064564780935894 3.610736535934985 3.8371310573708977 200.0 -199.488 400.0 2.4186 -2.4185 2.4185 0.0 32.0 0.0 0.0 0.0 0.0 0.0 1000.0 0.0 0.0 0.0 0.0 
0.04 -0.5291563401085577 -1.5920665013591735 -1.9384087904368557 0.38885476035343736 2.1001144000562677 -0.00013950015024530088 -1.1948460880173184 -2.7019432116264577 3.796002813212745 1.708275762000944 3.6134383257149816 3.8331466851681397 200.0 -199.2 400.0 2.4186 -2.4185 2.4185 0.0 40.0 0.0 0.0 0.0 0.0 0.0 1000.0 0.0 0.0 0.0 0.0 
0.048 -0.5276539499944155 -1.5906571274604255 -1.9398539506625834 0.3888913644424088 2.0986120099567325 -0.00013937780840255507 -1.1981596804157755 -2.701835253396992 3.7912082076974443 1.710506578677778 3.616749177133613 3.8282765739244624 200.0 -198.848 400.0 2.4186 -2.4185 2.4185 0.0 48.0 0.0 0.0 0.0 0.0 0.0 1000.0 0.0 0.0 0.0 0.0 
0.056 -0.5258733749844704 -1.588990618581951 -1.941559611489708 0.3889309920624413 2.0968314349640638 -0.00013923349768025164 -1.202092940412877 -2.701723895543883 3.785553645684921 1.7131519212625625 3.620680822543336 3.8225136804344073 200.0 -198.432 400.0 2.4186 -2.4185 2.4185 0.0 56.0 0.0 0.0 0.0 0.0 0.0 1000.0 0.0 0.0 0.0 0.0 
0.064 -0.523812076397185 -1.5870665244577775 -1.9435246451552428 0.388972524636757 2.0947701363967344 -0.00013906735788166169 -1.2066541358870344 -2.701617496615601 3.77904600872213 1.7162170430282417 3.6252400104055544 3.815857258587446 200.0 -197.952 400.0 2.4186 -2.4185 2.4185 0.0 64.0 0.0 0.0 0.0 0.0 0.0 1000.0 0.0 0.0 0.0 0.0 
0.072 -0.5214671039093517 -1.5848843196601865 -1.9457477504235776 0.38901418951279876 2.092425163931545 -0.00013887955208403998 -1.211853217228196 -2.701525597708808 3.771692462280311 1.7197077042043727 3.630436513663186 3.808304420599999 200.0 -197.408 400.0 2.4186 -2.4185 2.4185 0.0 72.00000000000001 0.0 0.0 0.0 0.0 0.0 1000.0 0.0 0.0 0.0 0.0 
0.08 -0.518835086334501 -1.5824434010902837 -1.9482274525220014 0.3890532366336217 2.08979314638204 -0.00013867026742531434 -1.2177020718545815 -2.701458845067262 3.7634999555278155 1.723629958674311 3.6362844390417175 3.799848778225174 200.0 -196.8 400.0 2.4186 -2.4185 2.4185 0.0 80.0 0.0 0.0 0.0 0.0 0.0 1000.0 0.0 0.0 0.0 0.0 
0.088 -0.5159122210442737 -1.5797430851442709 -1.9509621030165105 0.389089383580127 2.0868702811198685 -0.00013843971601629418 -1.22421232364881 -2.7014300014909405 3.7544803574568126 1.7279932109774059 3.6427886495796655 3.7904948646748995 200.0 -196.12800000000001 400.0 2.4186 -2.4185 2.4185 0.0 88.0 0.0 0.0 0.0 0.0 0.0 1000.0 0.0 0.0 0.0 0.0 
0.096 -0.512694261983897 -1.5767826045596904 -1.9539498796089336 0.38911723760659545 2.0836523220902716 -0.00013818813598674996 -1.2314003386899077 -2.7014517851984414 3.7446390917484527 1.7328037242893104 3.6499747583384643 3.780226393187553 200.0 -195.392 400.0 2.4186 -2.4185 2.4185 0.0 96.0 0.0 0.0 0.0 0.0 0.0 1000.0 0.0 0.0 0.0 0.0 
0.104 -0.5091765062265203 -1.5735611049466274 -1.957188785834297 0.3891364405138882 2.080134566366417 -0.00013791579267507929 -1.2392806608968847 -2.7015398205103724 3.733990283178131 1.7380734622926994 3.6578490959302985 3.769048737831296 200.0 -194.59199999999998 400.0 2.4186 -2.4185 2.4185 0.0 104.00000000000001 0.0 0.0 0.0 0.0 0.0 1000.0 0.0 0.0 0.0 0.0 
0.112 -0.5053537790046518 -1.5700776410097377 -1.9606766506352624 0.389141412962255 2.076311839180827 -0.00013762297997278766 -1.2478727865235673 -2.7017097073935856 3.7225414155620657 1.7438113951173733 3.666439268079511 3.7569459684040565 200.0 -193.728 400.0 2.4186 -2.4185 2.4185 0.0 112.0 0.0 0.0 0.0 0.0 0.0 1000.0 0.0 0.0 0.0 0.0 
0.12 -0.5012204171502344 -1.566331172467998 -1.964411127788396 0.3891305638388465 2.0721784773654623 -0.00013731002183669762 -1.2571952209346249 -2.7019797178982436 3.7103070328189993 1.7500314243046402 3.6757578727103883 3.74391942078943 200.0 -192.8 400.0 2.4186 -2.4185 2.4185 0.0 120.0 0.0 0.0 0.0 0.0 0.0 1000.0 0.0 0.0 0.0 0.0 
0.128 -0.4967702508680176 -1.5623205596802339 -1.968389695154991 0.3891009973339994 2.0677283111250953 -0.00013697727398368463 -1.2672690278620433 -2.7023693072955552 3.697300811738215 1.7567479769366041 3.68582346966726 3.7299655158880367 200.0 -191.808 400.0 2.4186 -2.4185 2.4185 0.0 128.0 0.0 0.0 0.0 0.0 0.0 1000.0 0.0 0.0 0.0 0.0 
0.136 -0.4919965837598399 -1.5580445589858982 -1.972609653727158 0.38904454556507595 2.062954644061586 -0.00013662512578485996 -1.2781205283180592 -2.7028979949108303 3.6835296947576683 1.76397300624219 3.6966762335815533 3.715059101711993 200.0 -190.752 400.0 2.4186 -2.4185 2.4185 0.0 136.0 0.0 0.0 0.0 0.0 0.0 1000.0 0.0 0.0 0.0 0.0 
0.144 -0.48689217101028337 -1.553501817772236 -1.9770681264378738 0.38896292747196615 2.057850231359542 -0.0001362540023785208 -1.2897714775819784 -2.7035898408688572 3.6690162577766214 1.7717283682171288 3.7083184318942 3.699217007477376 200.0 -189.632 400.0 2.4186 -2.4185 2.4185 0.0 144.00000000000003 0.0 0.0 0.0 0.0 0.0 1000.0 0.0 0.0 0.0 0.0 
0.152 -0.48144919563689115 -1.5486908692809447 -1.9817620567017107 0.38884337375609324 2.0524072560365303 -0.00013586436702390655 -1.3022551518732461 -2.7044663702285416 3.6537627141567377 1.7800264700401618 3.7208103014911824 3.682395784756986 200.0 -188.448 400.0 2.4186 -2.4185 2.4185 0.0 152.0 0.0 0.0 0.0 0.0 0.0 1000.0 0.0 0.0 0.0 0.0 
0.16 -0.4756592427008588 -1.5436101271698053 -1.9866882066509717 0.3886996158191991 2.0466173031537767 -0.00013545672372090314 -1.3155896289769053 -2.7055587006654416 3.6378111509517073 1.7889024819373938 3.7341093843625814 3.6646637208879955 200.0 -187.2 400.0 2.4186 -2.4185 2.4185 0.0 160.0 0.0 0.0 0.0 0.0 0.0 1000.0 0.0 0.0 0.0 0.0 
0.168 -0.4695132713668544 -1.5382578798475897 -1.9918431550299889 0.388497108324354 2.0404713318759775 -0.00013503162012437384 -1.3298269059648449 -2.706885516737327 3.6211338197695406 1.7983570195274923 3.7483635556614785 3.6458868279530128 200.0 -185.888 400.0 2.4186 -2.4185 2.4185 0.0 168.0 0.0 0.0 0.0 0.0 0.0 1000.0 0.0 0.0 0.0 0.0 
0.176 -0.46300158469356134 -1.5326322846039206 -1.9972232947083508 0.38825712473750684 2.0339596452618554 -0.00013458965078585956 -1.3449848935541016 -2.708483990735586 3.6037855851343386 1.8084356271090476 3.7635037127463447 3.6261660278655174 200.0 -184.512 400.0 2.4186 -2.4185 2.4185 0.0 176.0 0.0 0.0 0.0 0.0 0.0 1000.0 0.0 0.0 0.0 0.0 
0.184 -0.4561137970297455 -1.5267313615598126 -2.0028248297718387 0.3879349189004131 2.0270718576602116 -0.00013413146076005523 -1.3611272932371388 -2.710373553012257 3.5857259201196827 1.8191381657428334 3.779719919647506 3.6053250295706567 200.0 -183.072 400.0 2.4186 -2.4185 2.4185 0.0 184.0 0.0 0.0 0.0 0.0 0.0 1000.0 0.0 0.0 0.0 0.0 
0.192 -0.44883879888438827 -1.5205529874694443 -2.0086437721478587 0.3874779349309767 2.019796859580065 -0.00013365774961885448 -1.3783255059861652 -2.712572976480896 3.566904468610325 1.830465002376454 3.797232816138337 3.583154354012935 200.0 -181.56799999999998 400.0 2.4186 -2.4185 2.4185 0.0 192.0 0.0 0.0 0.0 0.0 0.0 1000.0 0.0 0.0 0.0 0.0 
0.2 -0.4411647191339019 -1.5140948894095019 -2.014675937720117 0.38717817353982564 2.012122779897874 -0.00013316927592198 -1.3964298976625844 -2.715208972300087 3.5477696574460302 1.8426537758242743 3.814929897662584 3.5608977811901257 200.0 -180.0 400.0 2.4186 -2.4185 2.4185 0.0 200.0 0.0 0.0 0.0 0.0 0.0 0.0 0.0 0.0 0.0 0.0 
0.208 -0.4332384060701804 -1.507486984261904 -2.020794936253874 0.38677533508013395 2.0041964669041743 -0.00013267665364685968 -1.4152787918908627 -2.718177110619206 3.528345448343764 1.8553026041427472 3.8335024590006586 3.537896767462521 200.0 -178.4 400.0 2.4186 -2.4185 2.4185 0.0 200.0 0.0 0.0 0.0 0.0 0.0 0.0 0.0 0.0 0.0 0.0 
0.216 -0.42521401015643456 -1.500860565884619 -2.026877202968175 0.3861473714108934 1.9961720710607962 -0.00013219006255072834 -1.434595871616719 -2.72138975928797 3.508839436153305 1.8680974755121147 3.8530886499163515 3.514062973854822 200.0 -176.8 400.0 2.4186 -2.4185 2.4185 0.0 200.0 0.0 0.0 0.0 0.0 0.0 0.0 0.0 0.0 0.0 0.0 
0.224 -0.4170900012000667 -1.4942153132214482 -2.032922636241991 0.38555814656259346 1.98804806217515 -0.00013170966105258253 -1.4542182132320987 -2.7249329973444185 3.4896292696568416 1.8812183003713598 3.8726772064185457 3.4905098856671195 200.0 -175.2 400.0 2.4186 -2.4185 2.4185 0.0 200.0 0.0 0.0 0.0 0.0 0.0 0.0 0.0 0.0 0.0 0.0 
0.232 -0.4088648262602588 -1.4875509087082222 -2.0389311264062817 0.3849029881266546 1.9798228873064279 -0.00013123561310894046 -1.4742214510842804 -2.728778169761387 3.470562563423294 1.8946080113637787 3.8926781713949055 3.466793848586893 200.0 -173.6 400.0 2.4186 -2.4185 2.4185 0.0 200.0 0.0 0.0 0.0 0.0 0.0 0.0 0.0 0.0 0.0 0.0 
0.24 -0.40053690962476374 -1.4808670385078533 -2.044902555759438 0.3841894113527715 1.9714949707423912 -0.00013076808845511456 -1.4946088863354383 -2.732931819189454 3.451648291960007 1.9082816233453794 3.913069351792591 3.4429451980817554 200.0 -172.0 400.0 2.4186 -2.4185 2.4185 0.0 200.0 0.0 0.0 0.0 0.0 0.0 0.0 0.0 0.0 0.0 0.0 
0.248 -0.3921046528151926 -1.47416339276135 -2.0508367985815528 0.3834249910819052 1.963062714004662 -0.00013030726285905407 -1.5153840893813697 -2.737400804323496 3.432895463456643 1.9222537244527225 3.9338289495915264 3.4189946356318908 200.0 -170.4 400.0 2.4186 -2.4185 2.4185 0.0 200.0 0.0 0.0 0.0 0.0 0.0 0.0 0.0 0.0 0.0 0.0 
0.256 -0.38356643462319795 -1.4674396658554674 -2.056733721147689 0.38260005819813214 1.954524495884903 -0.00012985331838851724 -1.5365617574323107 -2.74218651129496 3.414288582152271 1.9365295547332406 3.9550009236223582 3.394899460519187 200.0 -168.8 400.0 2.4186 -2.4185 2.4185 0.0 200.0 0.0 0.0 0.0 0.0 0.0 0.0 0.0 0.0 0.0 0.0 
0.264 -0.37492061118012665 -1.4606955567077486 -2.062593181740331 0.38171691865303403 1.9458786725144723 -0.00012940644369238694 -1.5581491915575065 -2.7472944120755316 3.395829270481416 1.9511213402378962 3.976583850757692 3.3706677432840353 200.0 -167.2 400.0 2.4186 -2.4185 2.4185 0.0 200.0 0.0 0.0 0.0 0.0 0.0 0.0 0.0 0.0 0.0 0.0 
0.272 -0.3661655160628716 -1.4539307690697112 -2.06841503066119 0.38077642531748745 1.9371235774702744 -0.0001289668342969973 -1.5801548476195801 -2.7527297107285875 3.377517118685261 1.9660406463644686 3.9985821182366936 3.346301303211902 200.0 -165.6 400.0 2.4186 -2.4185 2.4185 0.0 200.0 0.0 0.0 0.0 0.0 0.0 0.0 0.0 0.0 0.0 0.0 
0.28 -0.35729946043883 -1.447145011848996 -2.07419911024257 0.3797772927061196 1.928257521919717 -0.00012853469291840256 -1.6025887238876 -2.7584970737228915 3.3593487376037086 1.9812982513554929 4.021008365053988 3.3217927045187206 200.0 -164.0 400.0 2.4186 -2.4185 2.4185 0.0 200.0 0.0 0.0 0.0 0.0 0.0 0.0 0.0 0.0 0.0 0.0 
0.288 -0.34832073325305757 -1.4403379994513394 -2.0799452548584534 0.37871870740877345 1.919278794807868 -0.0001281102297915819 -1.625460730450064 -2.7646015103160897 3.341321460912127 1.9969055078857045 4.0438736307660115 3.297136378706049 200.0 -162.4 400.0 2.4186 -2.4185 2.4185 0.0 200.0 0.0 0.0 0.0 0.0 0.0 0.0 0.0 0.0 0.0 0.0 
0.296 -0.339227601460907 -1.4335094521432614 -2.0856532909355217 0.37760125805686107 1.9101856630900929 -0.00012769366301764636 -1.6487801563029558 -2.7710487296113144 3.3234346469736398 2.012874665638977 4.067183982279539 3.2723326482220645 200.0 -160.8 400.0 2.4186 -2.4185 2.4185 0.0 200.0 0.0 0.0 0.0 0.0 0.0 0.0 0.0 0.0 0.0 0.0 
0.304 -0.33001831030963436 -1.4266590964364179 -2.091323036964297 0.3764235479224407 1.9009763720136605 -0.00012728521893018915 -1.6725577065827086 -2.7778439339764533 3.305684901859288 2.0292174636202143 4.090953052978982 3.247373146235537 200.0 -159.2 400.0 2.4186 -2.4185 2.4185 0.0 200.0 0.0 0.0 0.0 0.0 0.0 0.0 0.0 0.0 0.0 0.0 
0.312 -0.32069108367268395 -1.4197866654946207 -2.0969543035106 0.37518464204333735 1.8916491454520297 -0.00012688513248200283 -1.6968040171319554 -2.784992684994285 3.2880695316524857 2.045946233144846 4.1151929399383285 3.222251307233088 200.0 -157.6 400.0 2.4186 -2.4185 2.4185 0.0 200.0 0.0 0.0 0.0 0.0 0.0 0.0 0.0 0.0 0.0 0.0 
0.32 -0.31124412444057814 -1.412891899564571 -2.1025468932275406 0.37388533450207095 1.8822021862957348 -0.00012649364765347594 -1.72152896026197 -2.792501412696132 3.2705883156491877 2.063074254707346 4.13990968408024 3.1969678920551714 200.0 -156.0 400.0 2.4186 -2.4185 2.4185 0.0 200.0 0.0 0.0 0.0 0.0 0.0 0.0 0.0 0.0 0.0 0.0 
0.328 -0.30167561497259054 -1.405974546431418 -2.1081006008682346 0.37252419535152015 1.8726336769040666 -0.0001261110178840769 -1.7467439242957015 -2.8003759317040555 3.2532379499081885 2.080614406339887 4.165117649685903 3.171513844472665 200.0 -154.4 400.0 2.4186 -2.4185 2.4185 0.0 200.0 0.0 0.0 0.0 0.0 0.0 0.0 0.0 0.0 0.0 0.0 
0.336 -0.2919837176136113 -1.399034361900311 -2.1136152132994734 0.37110154649612914 1.8629417796219274 -0.00012573750652843623 -1.772459545544813 -2.808622959845103 3.2360176318579197 2.098580513827977 4.190825113208115 3.1458875332439176 200.0 -152.8 400.0 2.4186 -2.4185 2.4185 0.0 200.0 0.0 0.0 0.0 0.0 0.0 0.0 0.0 0.0 0.0 0.0 
0.344 -0.28216657528090616 -1.3920711103051797 -2.119090509516551 0.369616291775114 1.8531246373666004 -0.0001253733873386522 -1.7986874892144744 -2.8172488960564435 3.2189246088438916 2.116986393020602 4.217045680341966 3.1200809433752386 200.0 -151.2 400.0 2.4186 -2.4185 2.4185 0.0 200.0 0.0 0.0 0.0 0.0 0.0 0.0 0.0 0.0 0.0 0.0 
0.352 -0.2722223121257157 -1.3850845650460415 -2.1245262606594837 0.36806826795216585 1.843180374289342 -0.00012501894497456316 -1.8254391531835419 -2.826260753648077 3.201957475693234 2.1358465449068635 4.2437898720239335 3.0940899195650617 200.0 -149.6 400.0 2.4186 -2.4185 2.4185 0.0 200.0 0.0 0.0 0.0 0.0 0.0 0.0 0.0 0.0 0.0 0.0 
0.36 -0.2621490342749577 -1.3780745091562123 -2.12992223003084 0.3664568998439408 1.8331070965170868 -0.00012467447554386423 -1.8527264057516544 -2.8356656332089663 3.1851142868488855 2.1551758091131274 4.271069924923187 3.0679082761880028 200.0 -148.0 400.0 2.4186 -2.4185 2.4185 0.0 200.0 0.0 0.0 0.0 0.0 0.0 0.0 0.0 0.0 0.0 0.0 
0.368 -0.25194483065858764 -1.371040735900873 -2.135278173115419 0.3647818250379826 1.822902892979809 -0.00012434028717408637 -1.8805612565793866 -2.845470986282293 3.168393431228428 2.1749895345796166 4.298897589316515 3.041530524173514 200.0 -146.4 400.0 2.4186 -2.4185 2.4185 0.0 200.0 0.0 0.0 0.0 0.0 0.0 0.0 0.0 0.0 0.0 0.0 
0.376 -0.24160777392849142 -1.3639830494085277 -2.140593837602018 0.3630427946841408 1.8125658363294113 -0.0001240167006186103 -1.908955922279382 -2.8556845903875097 3.151793492148467 2.1953035588908016 4.3272845054159035 3.01495143201339 200.0 -144.8 400.0 2.4186 -2.4185 2.4185 0.0 200.0 0.0 0.0 0.0 0.0 0.0 0.0 0.0 0.0 0.0 0.0 
0.384 -0.2311359214751303 -1.3569012653369856 -2.1458689634075205 0.36123887698986823 1.8020939839563748 -0.00012370404989905714 -1.9379231981893659 -2.866314199250237 3.1353121288577155 2.216134148502604 4.356244904659416 2.988162456694675 200.0 -143.2 400.0 2.4186 -2.4185 2.4185 0.0 200.0 0.0 0.0 0.0 0.0 0.0 0.0 0.0 0.0 0.0 0.0 
0.392 -0.22052731654848845 -1.3497952115755756 -2.151103282703572 0.35937011460090984 1.791485379110704 -0.00012340268298657593 -1.9674756838312584 -2.877368295598571 3.1189484003036085 2.2374982139337343 4.385789983599946 2.9611591121739043 200.0 -141.6 400.0 2.4186 -2.4185 2.4185 0.0 200.0 0.0 0.0 0.0 0.0 0.0 0.0 0.0 0.0 0.0 0.0 
0.4 -0.20977998949026366 -1.3426647289854334 -2.1562965199460797 0.35743567351048666 1.780738052134117 -0.00012311296252474842 -1.9976266373056155 -2.88885526369965 3.1027001665963483 2.2594131489339233 4.415934165596223 2.9339326883777535 200.0 -140.0 400.0 2.4186 -2.4185 2.4185 0.0 200.0 0.0 0.0 0.0 0.0 0.0 0.0 0.0 0.0 0.0 0.0 
0.408 -0.19889195908460255 -1.3355096721797932 -2.161448391907809 0.3554354855471744 1.7698500218107815 -0.0001228352665970445 -2.028389249516142 -2.9007841615979015 3.086566394027493 2.2818969748345053 4.446689610543124 2.9064775945156223 200.0 -138.4 400.0 2.4186 -2.4185 2.4185 0.0 200.0 0.0 0.0 0.0 0.0 0.0 0.0 0.0 0.0 0.0 0.0 
0.416 -0.1878612340350998 -1.328329910346335 -2.166558607714333 0.3533688679507254 1.7588192968443164 -0.0001225699895419948 -2.059777232493577 -2.9131640795111498 3.0705452144635528 2.3049683121526625 4.478070787041996 2.878785127506628 200.0 -136.8 400.0 2.4186 -2.4185 2.4185 0.0 200.0 0.0 0.0 0.0 0.0 0.0 0.0 0.0 0.0 0.0 0.0 
0.424 -0.1766858145761807 -1.3211253281137878 -2.1716268688836107 0.35123537904214985 1.7476438774691687 -0.00012231754281949998 -2.091804457747115 -2.9260045586462855 3.0546351264235496 2.328646443922408 4.510091646868114 2.8508473031796355 200.0 -135.2 400.0 2.4186 -2.4185 2.4185 0.0 200.0 0.0 0.0 0.0 0.0 0.0 0.0 0.0 0.0 0.0 0.0 
0.432 -0.16536369422744124 -1.3138958264651048 -2.1766528693694656 0.34903487847682513 1.7363217572049598 -0.00012207835593197386 -2.1244849647331714 -2.9393156515397174 3.0388350812283775 2.3529513011895355 4.542765492723963 2.8226571373721967 200.0 -133.6 400.0 2.4186 -2.4185 2.4185 0.0 200.0 0.0 0.0 0.0 0.0 0.0 0.0 0.0 0.0 0.0 0.0 
0.44 -0.15389286169995176 -1.306641323699697 -2.1816362956092434 0.34676682459999086 1.7248509247627868 -0.00012185287740431501 -2.1578332028748743 -2.9531075719206514 3.0231434906225205 2.3779035546103353 4.576107196526146 2.794205405253272 200.0 -132.0 400.0 2.4186 -2.4185 2.4185 0.0 200.0 0.0 0.0 0.0 0.0 0.0 0.0 0.0 0.0 0.0 0.0 
0.448 -0.14227130296402213 -1.2993617564473683 -2.1865768265759398 0.3444307774453146 1.713229366112985 -0.00012164157582703099 -2.1918638458900324 -2.9673909639712654 3.007558934389025 2.4035246274313784 4.610131592886311 2.765482907801749 200.0 -130.4 400.0 2.4186 -2.4185 2.4185 0.0 200.0 0.0 0.0 0.0 0.0 0.0 0.0 0.0 0.0 0.0 0.0 
0.456 -0.13049700348840654 -1.2920570807367768 -2.191474133835075 0.34202648986328854 1.7014550667243369 -0.00012144494096719507 -2.226591782330145 -2.982176977176696 2.9920802899818817 2.429836696623361 4.644853235523765 2.7364808831280802 200.0 -128.8 400.0 2.4186 -2.4185 2.4185 0.0 200.0 0.0 0.0 0.0 0.0 0.0 0.0 0.0 0.0 0.0 0.0 
0.464 -0.11856795066143722 -1.2847272731214394 -2.196327881606628 0.3395534545814898 1.6895260139852035 -0.00012126348495230385 -2.262032230753441 -2.997477028032202 2.97670608882526 2.456862822131572 4.680287755432782 2.707188868665096 200.0 -127.19999999999999 400.0 2.4186 -2.4185 2.4185 0.0 200.0 0.0 0.0 0.0 0.0 0.0 0.0 0.0 0.0 0.0 0.0 
0.472 -0.10648213640512094 -1.2773723318665184 -2.201137726832297 0.3370114491147027 1.6774401998176236 -0.00012109774353252949 -2.298200606454687 -3.0133031288962897 2.961435289460038 2.4846268736822514 4.716450245905568 2.6775972164985267 200.0 -125.6 400.0 2.4186 -2.4185 2.4185 0.0 200.0 0.0 0.0 0.0 0.0 0.0 0.0 0.0 0.0 0.0 0.0 
0.48 -0.0942375599937586 -1.26999227819984 -2.2059033192484256 0.33440010894593786 1.6651956234959295 -0.00012094827742732232 -2.3351126178248167 -3.0296676609398636 2.946266669884804 2.5131536736215407 4.753356522156995 2.6476950638037846 200.0 -124.0 400.0 2.4186 -2.4185 2.4185 0.0 200.0 0.0 0.0 0.0 0.0 0.0 0.0 0.0 0.0 0.0 0.0 
0.488 -0.08183223108925608 -1.2625871576308785 -2.2106243014648537 0.3317190992938768 1.6527902946820607 -0.00012081567376282652 -2.3727842208231826 -3.0465834916346752 2.9311990705523723 2.54246900995989 4.791022610783196 2.6174711003448956 200.0 -122.4 400.0 2.4186 -2.4185 2.4185 0.0 200.0 0.0 0.0 0.0 0.0 0.0 0.0 0.0 0.0 0.0 0.0 
0.496 -0.06926417300586074 -1.2551570413416822 -2.2153003090500367 0.3289681313269277 1.6402222366902999 -0.00012070054760712378 -2.4112316163018046 -3.064064007414994 2.916231417057131 2.5725996789415233 4.829464710549945 2.5869136122143845 200.0 -120.80000000000001 400.0 2.4186 -2.4185 2.4185 0.0 200.0 0.0 0.0 0.0 0.0 0.0 0.0 0.0 0.0 0.0 0.0 
0.504 -0.05653142621768881 -1.2477020276540438 -2.2199309706227153 0.3261469398836989 1.6274894899948003 -0.00012060354361092442 -2.4504712506371717 -3.0821231230029973 2.9013626876477066 2.603573545383978 4.868699257612211 2.5560103388109465 200.0 -119.2 400.0 2.4186 -2.4185 2.4185 0.0 200.0 0.0 0.0 0.0 0.0 0.0 0.0 0.0 0.0 0.0 0.0 
0.512 -0.04363205212305532 -1.2402222435775418 -2.224515907950452 0.3232552943379412 1.6145901159939156 -0.00012052533776198622 -2.4905198114995732 -3.1007753127662725 2.886591928276741 2.6354195949945867 4.908742898580096 2.5247484853836877 200.0 -117.6 400.0 2.4186 -2.4185 2.4185 0.0 200.0 0.0 0.0 0.0 0.0 0.0 0.0 0.0 0.0 0.0 0.0 
0.52 -0.030564137080268505 -1.2327178464434334 -2.229054736055347 0.3202929476334371 1.601522201045994 -0.00012046663926226432 -2.531394219388556 -3.1200355996926348 2.8719181779214296 2.668168023490461 4.949612615383279 2.4931144288128433 200.0 -116.0 400.0 2.4186 -2.4185 2.4185 0.0 200.0 0.0 0.0 0.0 0.0 0.0 0.0 0.0 0.0 0.0 0.0 
0.528 -0.017325796730261134 -1.2251890256297928 -2.23354706332723 0.31725967497221275 1.5882838607920124 -0.00012042819253758742 -2.5731116158760563 -3.1399196060837595 2.8573405233350706 2.701850288616801 4.991325616761589 2.461093855558387 200.0 -114.39999999999999 400.0 2.4186 -2.4185 2.4185 0.0 200.0 0.0 0.0 0.0 0.0 0.0 0.0 0.0 0.0 0.0 0.0 
0.536 -0.0039151806221260355 -1.2176360043837098 -2.237992491644648 0.31415529599732106 1.574873244781107 -0.000120410779390521 -2.615689357733643 -3.160443597494963 2.842858130740613 2.7364991673626093 5.033899282567961 2.428671821518961 200.0 -112.8 400.0 2.4186 -2.4185 2.4185 0.0 200.0 0.0 0.0 0.0 0.0 0.0 0.0 0.0 0.0 0.0 0.0 
0.544 0.009669522841606604 -1.210059041746856 -2.242390616503941 0.31097973030756654 1.5612885414158557 -0.00012041522130802909 -2.6591450253855515 -3.1816245574442634 2.8284703274654337 2.7721487872770703 5.07735104676066 2.395832982808874 200.0 -111.19999999999999 400.0 2.4186 -2.4185 2.4185 0.0 200.0 0.0 0.0 0.0 0.0 0.0 0.0 0.0 0.0 0.0 0.0 
0.552 0.02343008112236422 -1.2024584345912432 -2.246741027156718 0.3077328524131573 1.54752798323488 -0.00012044238193658392 -2.703496385264464 -3.2034801076037533 2.814176388739858 2.8088348021304124 5.121698719342376 2.3625608102880333 200.0 -109.6 400.0 2.4186 -2.4185 2.4185 0.0 200.0 0.0 0.0 0.0 0.0 0.0 0.0 0.0 0.0 0.0 0.0 
0.56 0.037368211907185866 -1.1948345197725834 -2.251043306756019 0.30441446440163045 1.5335898525511935 -0.00012049316973851408 -2.7487613433188995 -3.2260285076510145 2.7999754939953707 2.846594521019637 5.166960496100601 2.3288373687435135 200.0 -107.99999999999999 400.0 2.4186 -2.4185 2.4185 0.0 200.0 0.0 0.0 0.0 0.0 0.0 0.0 0.0 0.0 0.0 0.0 
0.568 0.05148557709539903 -1.1871876764092897 -2.2552970325114683 0.30102470540113835 1.5194724874655234 -0.00012056854084462987 -2.794958079831494 -3.2492890308579216 2.7858673346717806 2.885466664654974 5.213154141637349 2.2946453607162667 200.0 -106.39999999999999 400.0 2.4186 -2.4185 2.4185 0.0 200.0 0.0 0.0 0.0 0.0 0.0 0.0 0.0 0.0 0.0 0.0 
0.576 0.06578377639019806 -1.1795183282958763 -2.2595017758536895 0.2975634280071031 1.5051742882747328 -0.00012066950211953275 -2.842104806713445 -3.273281480013053 2.7718511875902103 2.9254919715068657 5.260298212522534 2.2599648423116854 200.0 -104.79999999999998 400.0 2.4186 -2.4185 2.4185 0.0 200.0 0.0 0.0 0.0 0.0 0.0 0.0 0.0 0.0 0.0 0.0 
0.584 0.0802643404740917 -1.1718269464602578 -2.263657102608273 0.2940307413443788 1.4906937242963738 -0.00012079711445751884 -2.8902199592652136 -3.298026682609943 2.75792672265203 2.9667128474274347 5.308410991529678 2.2247759542861703 200.0 -103.2 400.0 2.4186 -2.4185 2.4185 0.0 200.0 0.0 0.0 0.0 0.0 0.0 0.0 0.0 0.0 0.0 0.0 
0.592 0.0949287237462344 -1.1641140518753268 -2.2677625731795543 0.29042671011922305 1.4760293411313559 -0.00012095249632862947 -2.939322048878024 -3.3235462725737133 2.744093553742192 3.0091737366582416 5.357511042399086 2.1890572763723215 200.0 -101.60000000000001 400.0 2.4186 -2.4185 2.4185 0.0 200.0 0.0 0.0 0.0 0.0 0.0 0.0 0.0 0.0 0.0 0.0 
0.6 0.10977829659864469 -1.156380218336099 -2.271817742744469 0.2867514451041786 1.461179768387728 -0.00012113682759620652 -2.989429673336752 -3.3498628072679026 2.7303513730878985 3.0529211652014783 5.407617016252845 2.152786205701369 200.0 -100.0 400.0 2.4186 -2.4185 2.4185 0.0 200.0 0.0 0.0 0.0 0.0 0.0 0.0 0.0 0.0 0.0 0.0 
0.608 0.12481433720726298 -1.148626075514763 -2.2758221614567193 0.283005154900668 1.4461437278896214 -0.00012135135362928635 -3.040561531551861 -3.3769998620204515 2.716700030420281 3.0980038065561755 5.4587475640083385 2.1159391443783946 200.0 -98.4 400.0 2.4186 -2.4185 2.4185 0.0 200.0 0.0 0.0 0.0 0.0 0.0 0.0 0.0 0.0 0.0 0.0 
0.616 0.14003802281269162 -1.1408523122070764 -2.279775374661499 0.27918803263335157 1.4309200423965083 -0.00012159738973533252 -3.0927363065314073 -3.404981963285732 2.703139359947026 3.1444727463015005 5.51092146918835 2.0784907796379954 200.0 -96.8 400.0 2.4186 -2.4185 2.4185 0.0 200.0 0.0 0.0 0.0 0.0 0.0 0.0 0.0 0.0 0.0 0.0 
0.624 0.1554504204642666 -1.1330596797848225 -2.283676923120977 0.27530040921146615 1.4155076448591335 -0.00012187632594117806 -3.14597275662386 -3.4338347887585683 2.689669415347918 3.192381445016548 5.564157423118012 2.0404148126952597 200.0 -95.2 400.0 2.4186 -2.4185 2.4185 0.0 200.0 0.0 0.0 0.0 0.0 0.0 0.0 0.0 0.0 0.0 0.0 
0.632 0.17105247719989247 -1.1252489958703777 -2.287526343250753 0.2713426158453558 1.3999055882396763 -0.00012218963215264496 -3.200289558044031 -3.4635850754075515 2.6762902587130766 3.241786059921485 5.618474163209118 2.001683080781597 200.0 -93.6 400.0 2.4186 -2.4185 2.4185 0.0 200.0 0.0 0.0 0.0 0.0 0.0 0.0 0.0 0.0 0.0 0.0 
0.64 0.18684500963271367 -1.1174211482509562 -2.29132316736746 0.267315092957336 1.3841130559250807 -0.0001225388637261478 -3.2557053647247343 -3.4942607834524253 2.6630021292776824 3.292745469619183 5.673890317541922 1.962266034563152 200.0 -92.0 400.0 2.4186 -2.4185 2.4185 0.0 200.0 0.0 0.0 0.0 0.0 0.0 0.0 0.0 0.0 0.0 0.0 
0.648 0.20282869291430794 -1.1095770990517266 -2.2950669239476698 0.2632183235365515 1.3681293727638641 -0.00012292566748869045 -3.3122386906558923 -3.525891075986248 2.6498053405254867 3.3453215389455755 5.730424430555721 1.9221322232182065 200.0 -90.39999999999999 400.0 2.4186 -2.4185 2.4185 0.0 200.0 0.0 0.0 0.0 0.0 0.0 0.0 0.0 0.0 0.0 0.0 
0.656 0.21900404904256865 -1.1017178891888109 -2.298757137898253 0.2590528521164499 1.3519540167582327 -0.0001233517882460516 -3.3699078657237584 -3.558506389386891 2.636700309735851 3.3995792864527594 5.788094886407774 1.8812482444887317 200.0 -88.8 400.0 2.4186 -2.4185 2.4185 0.0 200.0 0.0 0.0 0.0 0.0 0.0 0.0 0.0 0.0 0.0 0.0 
0.664 0.23537143448083597 -1.0938446431251077 -2.3023933308382896 0.2548193519180293 1.335586631444951 -0.00012381907582264572 -3.428731069356502 -3.592138568434457 2.623687665950867 3.455586973689079 5.846919828158362 1.8395789779778204 200.0 -87.19999999999999 400.0 2.4186 -2.4185 2.4185 0.0 200.0 0.0 0.0 0.0 0.0 0.0 0.0 0.0 0.0 0.0 0.0 
0.672 0.2519310270530988 -1.085958573954069 -2.3059750213926367 0.25051853524216394 1.3190270390001446 -0.00012432949268055999 -3.488726133460297 -3.6268208133004327 2.6107681090003783 3.5134164624576507 5.906917137504682 1.7970868807597538 200.0 -85.6 400.0 2.4186 -2.4185 2.4185 0.0 200.0 0.0 0.0 0.0 0.0 0.0 0.0 0.0 0.0 0.0 0.0 
0.68 0.2686828120782656 -1.0780609888388497 -2.3095017254971966 0.24615124265418542 1.3022752541050233 -0.00012488512216962802 -3.5499105952231167 -3.6625878441754214 2.597942553657344 3.5731432909680425 5.968104335206125 1.7537323265532652 200.0 -83.99999999999999 400.0 2.4186 -2.4185 2.4185 0.0 200.0 0.0 0.0 0.0 0.0 0.0 0.0 0.0 0.0 0.0 0.0 
0.688 0.28562656770448847 -1.070153294836797 -2.312972956715926 0.24171839526816274 1.2853314986115627 -0.00012548817746511995 -3.612301532669945 -3.699475896982369 2.585212055431448 3.634846995560544 6.030498514063242 1.7094731135607164 200.0 -82.39999999999999 400.0 2.4186 -2.4185 2.4185 0.0 200.0 0.0 0.0 0.0 0.0 0.0 0.0 0.0 0.0 0.0 0.0 
0.696 0.30276184940244333 -1.0622370051419958 -2.3163882265695803 0.2372209982272735 1.2681962170492196 -0.00012614101125472293 -3.6759154535742184 -3.7375227781240126 2.5725778176809992 3.698611368745015 6.094116228491773 1.6642642523979565 200.0 -80.79999999999998 400.0 2.4186 -2.4185 2.4185 0.0 200.0 0.0 0.0 0.0 0.0 0.0 0.0 0.0 0.0 0.0 0.0 
0.704 0.32008797357418617 -1.0543137457815037 -2.319747044876153 0.2326602070643351 1.2508700930160832 -0.0001268461262419625 -3.7407683098977693 -3.7767680091485527 2.560041303719068 3.764524594983686 6.158973412510736 1.6180581404146714 200.0 -79.2 400.0 2.4186 -2.4185 2.4185 0.0 200.0 0.0 0.0 0.0 0.0 0.0 0.0 0.0 0.0 0.0 0.0 
0.712 0.3376040002318472 -1.0463852628040797 -2.3230489201029427 0.22803727235796067 1.2333540665001754 -0.00012760618653907777 -3.8068752523650473 -3.81725280052878 2.5476041498354136 3.832679649993632 6.225085237813504 1.5708039500862288 200.0 -77.6 400.0 2.4186 -2.4185 2.4185 0.0 200.0 0.0 0.0 0.0 0.0 0.0 0.0 0.0 0.0 0.0 0.0 
0.72 0.3553087146978815 -1.0384534300035737 -2.3262933597301396 0.2233535722585307 1.2156493521792033 -0.00012842403002859745 -3.874250537109932 -3.859020142230204 2.5352682229205326 3.9031745409086187 6.292465979204487 1.5224475449189403 200.0 -76.0 400.0 2.4186 -2.4185 2.4185 0.0 200.0 0.0 0.0 0.0 0.0 0.0 0.0 0.0 0.0 0.0 0.0 
0.728 0.37320060827600576 -1.0305202572226762 -2.3294798706257698 0.21861062225857797 1.1977574587496234 -0.00012930268177945226 -3.942907369724506 -3.9021148593259922 2.523035642063476 3.97611260601665 6.36112885727301 1.4729312314720264 200.0 -74.39999999999999 400.0 2.4186 -2.4185 2.4185 0.0 200.0 0.0 0.0 0.0 0.0 0.0 0.0 0.0 0.0 0.0 0.0 
0.736 0.3912778578392504 -1.022587899286446 -2.332607959431821 0.2138100783959378 1.1796802093385907 -0.00013024536861035364 -4.0128577052532455 -3.946583650393806 2.5109087899857423 4.051602848432844 6.431085846871178 1.4221934402349115 200.0 -72.8 400.0 2.4186 -2.4185 2.4185 0.0 200.0 0.0 0.0 0.0 0.0 0.0 0.0 0.0 0.0 0.0 0.0 
0.744 0.40953830427887294 -1.0146586656188625 -2.3356771329613024 0.20895379286127458 1.161419763055045 -0.0001312555349003041 -4.084112177950962 -3.992475205085904 2.4988904160680114 4.129760142480454 6.502347548260745 1.3701687446195059 200.0 -71.19999999999999 400.0 2.4186 -2.4185 2.4185 0.0 200.0 0.0 0.0 0.0 0.0 0.0 0.0 0.0 0.0 0.0 0.0 
0.752 0.42797942975523506 -1.0067350305995437 -2.338686898605965 0.2040437058919795 1.1429786377388338 -0.00013233685975337815 -4.156679497514066 -4.039840035908009 2.486983458358553 4.21070590768044 6.574922737809906 1.3167867029471605 200.0 -69.6 400.0 2.4186 -2.4185 2.4185 0.0 200.0 0.0 0.0 0.0 0.0 0.0 0.0 0.0 0.0 0.0 0.0 
0.76 0.44659833368932356 -0.9988196447216371 -2.3416367647543526 0.19908199481579958 1.1243597339691977 -0.00013349327563218026 -4.23056658347632 -4.088730725965815 2.47519131041515 4.294568094251101 6.648818323008079 1.2619724629328446 200.0 -67.99999999999999 400.0 2.4186 -2.4185 2.4185 0.0 200.0 0.0 0.0 0.0 0.0 0.0 0.0 0.0 0.0 0.0 0.0 
0.768 0.4653917074314764 -0.9909153466156138 -2.3445262412198105 0.1940710105272032 1.1055663603960384 -0.00013472898858144354 -4.30577801348526 -4.139201804808413 2.46351772397961 4.381481763499605 6.724038890346751 1.2056458473164429 200.0 -66.39999999999999 400.0 2.4186 -2.4185 2.4185 0.0 200.0 0.0 0.0 0.0 0.0 0.0 0.0 0.0 0.0 0.0 0.0 
0.776 0.48435580754233953 -0.9830251760071351 -2.347354839678023 0.18901331569494983 1.0866022604589674 -0.0001360485001698117 -4.382315731842244 -4.191309774398154 2.4519668896517377 4.47158939864225 6.800586383807558 1.1477211148681528 200.0 -64.79999999999998 400.0 2.4186 -2.4185 2.4185 0.0 200.0 0.0 0.0 0.0 0.0 0.0 0.0 0.0 0.0 0.0 0.0 
0.784 0.5034864276203928 -0.9751523876800641 -2.350122074113609 0.18391166896278488 1.067471640559782 -0.00013745663128357765 -4.460178497109366 -4.245113009654055 2.4405434245119952 4.565041399449263 6.878459583953615 1.0881062772624288 200.0 -63.19999999999999 400.0 2.4186 -2.4185 2.4185 0.0 200.0 0.0 0.0 0.0 0.0 0.0 0.0 0.0 0.0 0.0 0.0 
0.792 0.5227788686109287 -0.96730046651781 -2.352827461275245 0.17876908031328487 1.048179199753485 -0.00013895854791056114 -4.539361535256173 -4.300671761894506 2.429252489962137 4.66199634720999 6.957653718817023 1.026702909822807 200.0 -61.59999999999998 400.0 2.4186 -2.4185 2.4185 0.0 200.0 0.0 0.0 0.0 0.0 0.0 0.0 0.0 0.0 0.0 0.0 
0.8 0.5422279075336363 -0.9594731436971777 -2.355470521138739 0.17358880183839132 1.0287301610207042 -0.00014055978905476446 -4.619855858033978 -4.358048001766681 2.418099797652846 4.7626214905340225 7.03815980939156 0.9634054230964395 200.0 -59.999999999999986 400.0 2.4186 -2.4185 2.4185 0.0 200.0 0.0 0.0 0.0 0.0 0.0 0.0 0.0 0.0 0.0 0.0 
0.808 0.5618277645706149 -0.9516744141082238 -2.358050777377408 0.16837435431049963 1.0091303041796822 -0.00014226629692215556 -4.701647626481444 -4.4173052844079574 2.4070916835767675 4.867093110487039 7.119964024087391 0.8981005540777278 200.0 -58.39999999999998 400.0 2.4186 -2.4185 2.4185 0.0 200.0 0.0 0.0 0.0 0.0 0.0 0.0 0.0 0.0 0.0 0.0 
0.816 0.581572068464516 -0.9439085550707675 -2.3605677578391004 0.16312954879129427 0.9893860004881304 -0.00014408444951385853 -4.784717390230283 -4.478508551885319 2.396235178394491 4.975596892687522 7.203046916674237 0.8306667672288528 200.0 -56.79999999999998 400.0 2.4186 -2.4185 2.4185 0.0 200.0 0.0 0.0 0.0 0.0 0.0 0.0 0.0 0.0 0.0 0.0 
0.824 0.6014538201886337 -0.9361801464123847 -2.363020995029083 0.15785849929104412 0.9695042489731491 -0.00014602109575389478 -4.869039153702042 -4.541723851544133 2.385538066463132 5.088328324920438 7.287382498565467 0.7609735193637726 200.0 -55.199999999999974 400.0 2.4186 -2.4185 2.4185 0.0 200.0 0.0 0.0 0.0 0.0 0.0 0.0 0.0 0.0 0.0 0.0 
0.832 0.6214653548684941 -0.9284940919629845 -2.3654100265980276 0.15256566589716236 0.9494927145096322 -0.00014808359326278812 -4.954579465164812 -4.60701804703731 2.375009008928347 5.205492935546475 7.372937314530585 0.6888807272869479 200.0 -53.59999999999998 400.0 2.4186 -2.4185 2.4185 0.0 200.0 0.0 0.0 0.0 0.0 0.0 0.0 0.0 0.0 0.0 0.0 
0.84 0.6415983019594269 -0.9208556425063135 -2.367734395834239 0.1472558262140824 0.929359767642703 -0.00015027984886381126 -5.041295932428282 -4.674458276905447 2.3646575374613072 5.327306834863743 7.459668989624758 0.6142375322183895 200.0 -52.000000000000014 400.0 2.4186 -2.4185 2.4185 0.0 200.0 0.0 0.0 0.0 0.0 0.0 0.0 0.0 0.0 0.0 0.0 
0.848 0.6618435437187757 -0.9132704202074562 -2.3699936521592138 0.141934170602811 0.909114526115505 -0.00015261836187293408 -5.129136271655629 -4.744111596814775 2.354494293453885 5.453996623517744 7.547525236169751 0.5368821049933583 200.0 -50.400000000000006 400.0 2.4186 -2.4185 2.4185 0.0 200.0 0.0 0.0 0.0 0.0 0.0 0.0 0.0 0.0 0.0 0.0 
0.856 0.6821911720572806 -0.9057444445059644 -2.3721873516255845 0.13660629037733552 0.888766898017822 -0.00015510827017362573 -5.218036546163734 -4.816044260754263 2.344531073474679 5.585799734126969 7.6364421180414634 0.45664043741889127 200.0 -48.80000000000001 400.0 2.4186 -2.4185 2.4185 0.0 200.0 0.0 0.0 0.0 0.0 0.0 0.0 0.0 0.0 0.0 0.0 
0.864 0.7026304439147173 -0.8982841594244775 -2.37431505741645 0.13127818665995905 0.8683276264104405 -0.0001577593990099548 -5.3079192544373495 -4.890320908983883 2.3347809232859262 5.7229646291845695 7.726342143010566 0.3733252187861016 200.0 -47.20000000000002 400.0 2.4186 -2.4185 2.4185 0.0 200.0 0.0 0.0 0.0 0.0 0.0 0.0 0.0 0.0 0.0 0.0 
0.872 0.7231497353835137 -0.8908964621902227 -2.376376340345031 0.12595634151750268 0.8478083352015373 -0.00016058231234163613 -5.398691606050686 -4.967003764201819 2.325258369242304 5.865750541683356 7.817132521886894 0.2867352644369081 200.0 -45.60000000000002 400.0 2.4186 -2.4185 2.4185 0.0 200.0 0.0 0.0 0.0 0.0 0.0 0.0 0.0 0.0 0.0 0.0 
0.88 0.7437364949049778 -0.8835887329987218 -2.378370779353568 0.12064772169268645 0.8272215759504544 -0.0001635883664878423 -5.490243080893797 -5.046151495250216 2.3159795328970927 6.014427455853795 7.908702738474041 0.1966542390628323 200.0 -44.0 400.0 2.4186 -2.4185 2.4185 0.0 200.0 0.0 0.0 0.0 0.0 0.0 0.0 0.0 0.0 0.0 0.0 
0.888 0.7643771959904246 -0.8763688656621214 -2.380297962010324 0.11535983101280145 0.8065808751465777 -0.0001667897656370568 -5.582443059992648 -5.127818023941547 2.3069623613421664 6.1692756434447595 8.000922176429263 0.1028498256705217 200.0 -42.400000000000006 400.0 2.4186 -2.4185 2.4185 0.0 200.0 0.0 0.0 0.0 0.0 0.0 0.0 0.0 0.0 0.0 0.0 
0.896 0.7850572900790671 -0.8692452987753292 -2.3821574850035208 0.11010069625501684 0.7859007813514427 -0.00017019961861178813 -5.675137629229239 -5.212050958178368 2.2982267422918747 6.330585457901484 8.093636928243365 0.005072147034567376 200.0 -40.80000000000001 400.0 2.4186 -2.4185 2.4185 0.0 200.0 0.0 0.0 0.0 0.0 0.0 0.0 0.0 0.0 0.0 0.0 
0.904 0.8057611603413052 -0.8622270468977264 -2.3839489546310233 0.1048789645661583 0.7651969113954565 -0.00017383199604294677 -5.768147018698212 -5.298890123746824 2.2897948734894844 6.49865614585414 8.1866672279184 -0.09694660150133139 200.0 -39.20000000000002 400.0 2.4186 -2.4185 2.4185 0.0 200.0 0.0 0.0 0.0 0.0 0.0 0.0 0.0 0.0 0.0 0.0 
0.912 0.8264720774753986 -0.8553237310829109 -2.385671987284555 0.09970388705312772 0.7444859945812233 -0.00017770198682251866 -5.861261832088646 -5.388365579542846 2.281691425516877 6.673795179911985 8.279803685938962 -0.20349374083579352 200.0 -37.599999999999994 400.0 2.4186 -2.4185 2.4185 0.0 200.0 0.0 0.0 0.0 0.0 0.0 0.0 0.0 0.0 0.0 0.0 
0.92 0.8471721588321235 -0.8485456078903524 -2.3873262099272097 0.09458536140844309 0.7237859135588927 -0.00018182575235884475 -5.954239522462064 -5.48049559054736 2.2739438576524136 6.856316904745082 8.372803763139707 -0.3148769983452766 200.0 -36.0 400.0 2.4186 -2.4185 2.4185 0.0 200.0 0.0 0.0 0.0 0.0 0.0 0.0 0.0 0.0 0.0 0.0 
0.928 0.8678423325393525 -0.8419035957785055 -2.3889112605630625 0.08953395733522429 0.7031157402015816 -0.00018622057675191228 -6.046800550152179 -5.575284370834571 2.2665827339869637 7.04654098131507 8.465387928178158 -0.43142548050078355 200.0 -34.400000000000006 400.0 2.4186 -2.4185 2.4185 0.0 200.0 0.0 0.0 0.0 0.0 0.0 0.0 0.0 0.0 0.0 0.0 
0.936 0.888462308687394 -0.8354092975080647 -2.3904267886976536 0.08456095475803638 0.6824957644200388 -0.00019090491053504698 -6.138624607789449 -5.6727197174143145 2.2596421081840843 7.24479035259152 8.55723588737052 -0.5534902993946718 200.0 -32.80000000000001 400.0 2.4186 -2.4185 2.4185 0.0 200.0 0.0 0.0 0.0 0.0 0.0 0.0 0.0 0.0 0.0 0.0 
0.944 0.9090105600733022 -0.829075016878674 -2.3918724557881985 0.07967832219456739 0.6619475134183345 -0.00019589840509750615 -6.229346270678166 -5.772770379883848 2.2531598213586164 7.451389395172162 8.647982223610136 -0.6814457386956665 200.0 -31.19999999999999 400.0 2.4186 -2.4185 2.4185 0.0 200.0 0.0 0.0 0.0 0.0 0.0 0.0 0.0 0.0 0.0 0.0 
0.952 0.9294643154790363 -0.822913767788588 -2.393247935682393 0.07489878296991925 0.6414937584157067 -0.0002012219343200613 -6.318551860660636 -5.875383685918946 2.2471780427276715 7.666660843986239 8.737213279159954 -0.8156888988556918 200.0 -29.599999999999994 400.0 2.4186 -2.4185 2.4185 0.0 200.0 0.0 0.0 0.0 0.0 0.0 0.0 0.0 0.0 0.0 0.0 
0.96 0.949799568956671 -0.8169392732564669 -2.3945529150447995 0.0702357662097044 0.6211585053613452 -0.000206897599343159 -6.40577555960807 -5.980482945331417 2.2417436079099637 7.89092345451008 8.824463253067218 -0.9566404366848769 200.0 -28.0 400.0 2.4186 -2.4185 2.4185 0.0 200.0 0.0 0.0 0.0 0.0 0.0 0.0 0.0 0.0 0.0 0.0 
0.968 0.9699911090849598 -0.8111659516973617 -2.395787093769866 0.06570341321564444 0.6009669656778307 -0.00021294871177849882 -6.490496958645895 -6.08796529357343 2.2369085347499302 8.124488788204689 8.909211756809714 -1.1047439787848257 200.0 -26.400000000000006 400.0 2.4186 -2.4185 2.4185 0.0 200.0 0.0 0.0 0.0 0.0 0.0 0.0 0.0 0.0 0.0 0.0 
0.976 0.9900125726024499 -0.8056088874303349 -2.396950185380789 0.061316549859674385 0.5809455026280202 -0.00021939975012056674 -6.572139466353347 -6.1976999118648886 2.2327305206759616 8.367658032176738 8.990882224415794 -1.2604652573752793 200.0 -24.799999999999983 400.0 2.4186 -2.4185 2.4185 0.0 200.0 0.0 0.0 0.0 0.0 0.0 0.0 0.0 0.0 0.0 0.0 
0.984 1.0098365271535155 -0.8002837821538575 -2.398041917413565 0.05709062942454901 0.5611215485690022 -0.00022627628368535009 -6.650070046002163 -6.309526881004286 2.229273428095661 8.620718958881037 9.068841644208035 -1.4242908002876153 200.0 -23.19999999999999 400.0 2.4186 -2.4185 2.4185 0.0 200.0 0.0 0.0 0.0 0.0 0.0 0.0 0.0 0.0 0.0 0.0 
0.992 1.0294345880278097 -0.7952068840102169 -2.399062031785774 0.05304167633753876 0.5415234882126437 -0.00023360485819105803 -6.7236012142417145 -6.42325703577661 2.226607825443503 8.883942748499035 9.142402567592576 -1.5967255127950555 200.0 -21.599999999999994 400.0 2.4186 -2.4185 2.4185 0.0 200.0 0.0 0.0 0.0 0.0 0.0 0.0 0.0 0.0 0.0 0.0 
1.0 1.0487775736367415 -0.790394890936291 -2.400010285149798 0.049186167805888026 0.5221805031491037 -0.00024141283721237388 -6.791995008643928 -6.538672950341674 2.224811427775549 9.157581675972708 9.210827060015607 -1.778290031681058 200.0 -20.0 400.0 2.4186 -2.4185 2.4185 0.0 200.0 0.0 0.0 0.0 0.0 0.0 0.0 0.0 0.0 0.0 0.0 
1.008 1.06783570394663 -0.7858648253383036 -2.4008864492304403 0.045540932264077405 0.5031223734136644 -0.00024972819431249926 -6.854470576589499 -6.655531583536346 2.2239696117561856 9.441866736300033 9.273334308008504 -1.969516361447813 200.0 -18.399999999999977 400.0 2.4186 -2.4185 2.4185 0.0 200.0 0.0 0.0 0.0 0.0 0.0 0.0 0.0 0.0 0.0 0.0 
1.016 1.0865788450689142 -0.7816338778073271 -2.401690311147025 0.04212298420280547 0.4843792328965098 -0.00025857925181616026 -6.910214766681278 -6.773568648269503 2.224175795900946 9.7370065231332 9.3291112046432 -2.1709430431666683 200.0 -16.799999999999983 400.0 2.4186 -2.4185 2.4185 0.0 200.0 0.0 0.0 0.0 0.0 0.0 0.0 0.0 0.0 0.0 0.0 
1.024 1.1049768015987333 -0.7777192186759749 -2.4024216737202844 0.038949315843727295 0.4659812770041244 -0.0002679943640461693 -6.958396317328149 -6.892505000425809 2.2255317070979186 10.043187378526293 9.377326516897583 -2.383109535652772 200.0 -15.199999999999989 400.0 2.4186 -2.4185 2.4185 0.0 200.0 0.0 0.0 0.0 0.0 0.0 0.0 0.0 0.0 0.0 0.0 
1.032 1.1229996560359918 -0.7741377777458274 -2.4030803557644207 0.03603671962600208 0.44795842323820545 -0.00027800154547799914 -6.998184970686393 -7.012055299807883 2.2281476874497317 10.360573556992119 9.417150042051663 -2.6065482888542872 200.0 -13.599999999999994 400.0 2.4186 -2.4185 2.4185 0.0 200.0 0.0 0.0 0.0 0.0 0.0 0.0 0.0 0.0 0.0 0.0 
1.04 1.1406181517227867 -0.7709059944872863 -2.4036661923647458 0.033401492118954934 0.43033992825821976 -0.00028862804766797653 -7.028772979821564 -7.131938561338544 2.2321426329915717 10.689310213112593 9.447774066667952 -2.8417776368735335 200.0 -11.999999999999972 400.0 2.4186 -2.4185 2.4185 0.0 200.0 0.0 0.0 0.0 0.0 0.0 0.0 0.0 0.0 0.0 0.0 
1.048 1.1578041122846248 -0.7680395433634981 -2.4041790351412335 0.0310591970330667 0.41315396844014984 -0.0002998998928691861 -7.049401223919466 -7.251890673737114 2.2376439633562786 11.029525913274076 9.468439521927698 -3.089292131917409 200.0 -10.399999999999977 400.0 2.4186 -2.4185 2.4185 0.0 200.0 0.0 0.0 0.0 0.0 0.0 0.0 0.0 0.0 0.0 0.0 
1.056 1.1745308867812263 -0.7655530415140372 -2.4046187524980986 0.0290243473063736 0.39642719472566645 -0.00031184137671690874 -7.059386621017238 -7.37167808674806 2.244787225375912 11.381337268323094 9.478463367214287 -3.349553633675226 200.0 -8.799999999999983 400.0 2.4186 -2.4185 2.4185 0.0 200.0 0.0 0.0 0.0 0.0 0.0 0.0 0.0 0.0 0.0 0.0 
1.064 1.1907738059892794 -0.7634597486243786 -2.4049852298591476 0.027310108621683593 0.3801842763393419 -0.0003244745568485103 -7.058150945986518 -7.491112062926716 2.253715540593922 11.744853465934364 9.47726741001182 -3.622981526078449 200.0 -7.199999999999989 400.0 2.4186 -2.4185 2.4185 0.0 200.0 0.0 0.0 0.0 0.0 0.0 0.0 0.0 0.0 0.0 0.0 
1.072 1.206510631894068 -0.7617712711027629 -2.4052783698881828 0.025928021872465568 0.36444745129700334 -0.0003378187482997393 -7.045249075732101 -7.610062419858605 2.2645788496719046 12.12018024387057 9.464406574815843 -3.909942651452092 200.0 -5.599999999999966 400.0 2.4186 -2.4185 2.4185 0.0 200.0 0.0 0.0 0.0 0.0 0.0 0.0 0.0 0.0 0.0 0.0 
1.08 1.221721980059809 -0.7604972843437166 -2.40549809269313 0.024887696837014417 0.34923610403535327 -0.00035189004939611425 -7.020393556334757 -7.728469619407669 2.2775327926379583 12.507424274938593 9.43959343185299 -4.210743002780047 200.0 -3.9999999999999716 400.0 2.4186 -2.4185 2.4185 0.0 200.0 0.0 0.0 0.0 0.0 0.0 0.0 0.0 0.0 0.0 0.0 
1.088 1.2363916935646648 -0.7596452875444042 -2.4056443360119473 0.024196593157166824 0.33456639147694067 -0.0003667009230573401 -6.983475158965775 -7.846354040846586 2.292737503446095 12.906694632780999 9.402718787866219 -4.52561907321159 200.0 -2.3999999999999773 400.0 2.4186 -2.4185 2.4185 0.0 200.0 0.0 0.0 0.0 0.0 0.0 0.0 0.0 0.0 0.0 0.0 
1.096 1.250507147999686 -0.7592204049989921 -2.405717055377759 0.023859797893418744 0.3204509380312046 -0.00038225985750884337 -6.934575707833606 -7.963821404646665 2.3103560757670016 13.318103552782832 9.353864479935464 -4.854732032072351 200.0 -0.799999999999983 400.0 2.4186 -2.4185 2.4185 0.0 200.0 0.0 0.0 0.0 0.0 0.0 0.0 0.0 0.0 0.0 0.0 
1.104 1.2640594698084078 -0.7592252459118245 -2.4057162242601664 0.023879908214329948 0.3068986172548513 -0.00039857112714697585 -6.87397340191679 -8.081063492046672 2.3305529975787147 13.741763312587663 9.29330873016364 -5.198162518371479 200.0 0.8000000000000398 400.0 2.4186 -2.4185 2.4185 0.0 200.0 0.0 0.0 0.0 0.0 0.0 0.0 0.0 0.0 0.0 0.0 
1.112 1.277043654876734 -0.7596598316160592 -2.405641834179395 0.024256935717075656 0.2939144332619766 -0.00041563466886065416 -6.802138236570077 -8.198353920389984 2.353492368057047 14.177781933001457 9.221521532378757 -5.555908941787939 200.0 2.400000000000034 400.0 2.4186 -2.4185 2.4185 0.0 200.0 0.0 0.0 0.0 0.0 0.0 0.0 0.0 0.0 0.0 0.0 
1.12 1.2894585803681557 -0.7605215949359061 -2.405493894789858 0.02498832260212902 0.2814995088888321 -0.0004334460819494242 -6.719719037304776 -8.316038921702894 2.379336187618941 14.62625518149249 9.139151711038092 -5.927886974367753 200.0 4.000000000000028 400.0 2.4186 -2.4185 2.4185 0.0 200.0 0.0 0.0 0.0 0.0 0.0 0.0 0.0 0.0 0.0 0.0 
1.128 1.301306909685958 -0.7618054517336343 -2.405272433929975 0.02606901349813917 0.2696511807316437 -0.0004519967516684119 -6.627521984405214 -8.434523825719669 2.4082426402804504 15.087257189542916 9.047005447125017 -6.313931850929176 200.0 5.600000000000023 400.0 2.4186 -2.4185 2.4185 0.0 200.0 0.0 0.0 0.0 0.0 0.0 0.0 0.0 0.0 0.0 0.0 
1.136 1.312594897338184 -0.7635039399807075 -2.404977497635535 0.0274915768233579 0.2583631942816423 -0.00047127408831635996 -6.526482230145388 -8.554256371860346 2.4403644293288584 15.560830769294508 8.946017865754996 -6.713803501111837 200.0 7.2000000000000455 400.0 2.4186 -2.4185 2.4185 0.0 200.0 0.0 0.0 0.0 0.0 0.0 0.0 0.0 0.0 0.0 0.0 
1.144 1.32333210658742 -0.7656074175305072 -2.4046091501146316 0.02924642233289587 0.24762598627531512 -0.000491261866606575 -6.417631654251965 -8.675707868854392 2.4758473709235034 16.046976138958545 8.837220824062545 -7.12719235419007 200.0 8.80000000000004 400.0 2.4186 -2.4185 2.4185 0.0 200.0 0.0 0.0 0.0 0.0 0.0 0.0 0.0 0.0 0.0 0.0 
1.152 1.3335310574315604 -0.7681043065961601 -2.4041674736830223 0.03132203875424677 0.23742703671365614 -0.0005119406445974311 -6.302064067731129 -8.799353928145214 2.514829120205824 16.54564151670442 8.721708104078802 -7.553727528301092 200.0 10.400000000000034 400.0 2.4186 -2.4185 2.4185 0.0 200.0 0.0 0.0 0.0 0.0 0.0 0.0 0.0 0.0 0.0 0.0 
1.16 1.3432068252757492 -0.7709813710297961 -2.4036525686596617 0.03370527194576001 0.22775127019024816 -0.0005332882381898222 -6.180900792006247 -8.9256559878287 2.5574381513404827 17.056715129398093 8.600600993556547 -7.992985832897145 200.0 12.0 400.0 2.4186 -2.4185 2.4185 0.0 200.0 0.0 0.0 0.0 0.0 0.0 0.0 0.0 0.0 0.0 0.0 
1.168 1.3523766115060738 -0.7742240119361434 -2.4030645532230204 0.036381616332682665 0.21858148531760188 -0.0005552802262550414 -6.055258474643132 -9.05504486562046 2.6037929723883626 17.580019823631496 8.475016094305463 -8.444501553762537 200.0 13.599999999999994 400.0 2.4186 -2.4185 2.4185 0.0 200.0 0.0 0.0 0.0 0.0 0.0 0.0 0.0 0.0 0.0 0.0 
1.176 1.361059306225121 -0.7778165678210729 -2.4024035632295235 0.03933552137879115 0.20989879199163736 -0.0005778904626402986 -5.926220972381957 -9.187907049332278 2.6540016157641078 18.115309897079875 8.34603721673014 -8.907775978544938 200.0 15.199999999999989 400.0 2.4186 -2.4185 2.4185 0.0 200.0 0.0 0.0 0.0 0.0 0.0 0.0 0.0 0.0 0.0 0.0 
1.184 1.3692750610293172 -0.7817426071193982 -2.4016697519960513 0.04255068499078929 0.20168303861435713 -0.0006010915741666014 -5.79481610380755 -9.324574341578593 2.708161349482998 18.662270968121792 8.21469213479131 -9.382286846705137 200.0 16.80000000000001 400.0 2.4186 -2.4185 2.4185 0.0 200.0 0.0 0.0 0.0 0.0 0.0 0.0 0.0 0.0 0.0 0.0 
1.192 1.3770448863818288 -0.785985203233623 -2.400863290048807 0.046010321948250166 0.19391321472098833 -0.0006248554277081595 -5.661997758750901 -9.465317071428943 2.766358582286353 19.220522907464435 8.081934683580263 -9.867497524094492 200.0 18.400000000000006 400.0 2.4186 -2.4185 2.4185 0.0 200.0 0.0 0.0 0.0 0.0 0.0 0.0 0.0 0.0 0.0 0.0 
1.2 1.3843902843633586 -0.7905271848031723 -2.39998436484112 0.049697420767612854 0.18656781822918983 -0.0006491535539286989 -5.5286336457354786 -9.610340496711887 2.8286689875358597 19.789624358293178 7.948632519492836 -10.362864824423454 200.0 20.0 400.0 2.4186 -2.4185 2.4185 0.0 200.0 0.0 0.0 0.0 0.0 0.0 0.0 0.0 0.0 0.0 0.0 
1.208 1.3913329238075782 -0.795351356509717 -2.399033180442799 0.053594964115506016 0.17962518030366778 -0.0006739575197251197 -5.395498017073958 -9.759784251341362 2.895157761568556 20.369079403200573 7.815559845392013 -10.867846123355067 200.0 21.599999999999994 400.0 2.4186 -2.4185 2.4185 0.0 200.0 0.0 0.0 0.0 0.0 0.0 0.0 0.0 0.0 0.0 0.0 
1.216 1.3978943613833708 -0.8004406880793811 -2.398009957203618 0.05768611267221413 0.17306374427392646 -0.0006992392454970058 -5.263268782570537 -9.913724353639292 2.965879990765962 20.958345789307653 7.6833945150428145 -11.381905635133972 200.0 23.19999999999999 400.0 2.4186 -2.4185 2.4185 0.0 200.0 0.0 0.0 0.0 0.0 0.0 0.0 0.0 0.0 0.0 0.0 
1.224 1.4040958092854814 -0.8057784711218274 -2.3969149313933826 0.06195436903660845 0.16686229794365073 -0.0007249712667719083 -5.132528426544898 -10.072176974265162 3.0408811390006942 21.55684315598968 7.552718964497723 -11.904519097923906 200.0 24.80000000000001 400.0 2.4186 -2.4185 2.4185 0.0 200.0 0.0 0.0 0.0 0.0 0.0 0.0 0.0 0.0 0.0 0.0 
1.232 1.4099579479369768 -0.8113484449829222 -2.3957483548208502 0.06638369536400157 0.16100016088824537 -0.0007511269423577172 -5.003767586780834 -10.235103807597785 3.1201975587977056 22.163962429317074 7.424023775747074 -12.435178108950348 200.0 26.400000000000006 400.0 2.4186 -2.4185 2.4185 0.0 200.0 0.0 0.0 0.0 0.0 0.0 0.0 0.0 0.0 0.0 0.0 
1.24 1.4155007804973567 -0.8171348938786513 -2.394510494433592 0.07095861905548606 0.15545732994674363 -0.0007776806130608059 -4.877390866999207 -10.402418054060172 3.203857081741032 22.779074015106666 7.297713506832162 -12.973392763667794 200.0 28.0 400.0 2.4186 -2.4185 2.4185 0.0 200.0 0.0 0.0 0.0 0.0 0.0 0.0 0.0 0.0 0.0 0.0 
1.248 1.420743524951635 -0.8231227182634759 -2.3932016319006717 0.07566429858116264 0.1502145871327267 -0.0008046077161735993 -4.753723839787347 -10.573991056472826 3.291879591922574 23.401536397305225 7.1741136847471 -13.518694081756731 200.0 29.600000000000023 400.0 2.4186 -2.4185 2.4185 0.0 200.0 0.0 0.0 0.0 0.0 0.0 0.0 0.0 0.0 0.0 0.0 
1.256 1.4257045390339673 -0.8292974837317582 -2.3918220631798577 0.08048656915182839 0.1452535747106928 -0.0008318848615119388 -4.633020833844652 -10.749658996595485 3.384277607753302 24.03070392951285 7.053478586923306 -14.070635609881558 200.0 31.200000000000017 400.0 2.4186 -2.4185 2.4185 0.0 200.0 0.0 0.0 0.0 0.0 0.0 0.0 0.0 0.0 0.0 0.0 
1.264 1.430401273106205 -0.8356454508309299 -2.390372098070922 0.0854119812018066 0.14055684231751914 -0.0008594898749015497 -4.515473100639827 -10.92922917626187 3.481056881313536 24.665932967609372 6.935999426335119 -14.628793824146259 200.0 32.80000000000001 400.0 2.4186 -2.4185 2.4185 0.0 200.0 0.0 0.0 0.0 0.0 0.0 0.0 0.0 0.0 0.0 0.0 
1.272 1.434850246260824 -0.8421535890529039 -2.3888520597564513 0.09042780501548098 0.13610787085953896 -0.0008874018148012313 -4.401216727016647 -11.112486253106823 3.5822169363711795 25.306588332431613 6.8218122461017865 -15.192768882761941 200.0 34.400000000000006 400.0 2.4186 -2.4185 2.4185 0.0 200.0 0.0 0.0 0.0 0.0 0.0 0.0 0.0 0.0 0.0 0.0 
1.28 1.439067041254697 -0.8488095780306675 -2.3872622843315003 0.09552203729923514 0.13189107757874663 -0.0009156009673207734 -4.29034033377715 -11.299197694439558 3.6877516156899213 25.95204784164954 6.71100562997948 -15.762184252419644 200.0 36.0 400.0 2.4186 -2.4185 2.4185 0.0 200.0 0.0 0.0 0.0 0.0 0.0 0.0 0.0 0.0 0.0 0.0 
1.288 1.4430663143274378 -0.8556017986533648 -2.385603120323333 0.10068338882885142 0.12789180623446875 -0.00094406882433607 -4.182892178051038 -11.489118829198391 3.797649579087205 26.601706574758584 6.603627798649397 -16.33668644159369 200.0 37.60000000000002 400.0 2.4186 -2.4185 2.4185 0.0 200.0 0.0 0.0 0.0 0.0 0.0 0.0 0.0 0.0 0.0 0.0 
1.296 1.4468618164557523 -0.8625193164663436 -2.383874928202447 0.10590126658858123 0.12409630584900429 -0.0009727880487937516 -4.078886657139161 -11.681997262681305 3.911894776039441 27.25498016604193 6.499693111917125 -16.91594438491328 200.0 39.20000000000002 400.0 2.4186 -2.4185 2.4185 0.0 200.0 0.0 0.0 0.0 0.0 0.0 0.0 0.0 0.0 0.0 0.0 
1.304 1.4504664231000246 -0.8695518593723017 -2.382078079886016 0.11116575621537717 0.12049170096104213 -0.001001742430683249 -3.978310185625383 -11.877576559739175 4.030466899199556 27.91130688161885 6.399187956789682 -17.49964833088744 200.0 40.80000000000001 400.0 2.4186 -2.4185 2.4185 0.0 200.0 0.0 0.0 0.0 0.0 0.0 0.0 0.0 0.0 0.0 0.0 
1.312 1.4538921699821736 -0.876689791315501 -2.380212958234883 0.11646758696418402 0.11706595584779822 -0.0010309168365701172 -3.881126303199802 -12.075599663798329 4.1533417785073095 28.570150059787032 6.302075838138492 -18.087509309587308 200.0 42.400000000000034 400.0 2.4186 -2.4185 2.4185 0.0 200.0 0.0 0.0 0.0 0.0 0.0 0.0 0.0 0.0 0.0 0.0 
1.32 1.4571502928767996 -0.8839240833251267 -2.3782799565451787 0.12179810984103012 0.11380783473385735 -0.0010602971550508287 -3.7872802382798856 -12.275811431662891 4.280491778079528 29.23099875785512 6.208301958253019 -18.679257691445784 200.0 44.00000000000003 400.0 2.4186 -2.4185 2.4185 0.0 200.0 0.0 0.0 0.0 0.0 0.0 0.0 0.0 0.0 0.0 0.0 
1.328 1.4602512697915064 -0.8912462830224661 -2.376279478035637 0.127149262131383 0.11070685961087036 -0.0010898702400166601 -3.6967027740974028 -12.477960966471075 4.411886139472049 29.893368837163745 6.117797073576913 -19.27464233950267 200.0 45.60000000000002 400.0 2.4186 -2.4185 2.4185 0.0 200.0 0.0 0.0 0.0 0.0 0.0 0.0 0.0 0.0 0.0 0.0 
1.336 1.463204864253854 -0.8986484834616446 -2.3742119353316737 0.1325135371327706 0.1077532669505754 -0.0011196238532061597 -3.6093135894694655 -12.681803389931815 4.5474913100660235 30.556803178828336 6.030480838453673 -19.8734294366404 200.0 47.20000000000002 400.0 2.4186 -2.4185 2.4185 0.0 200.0 0.0 0.0 0.0 0.0 0.0 0.0 0.0 0.0 0.0 0.0 
1.344 1.4660201687124848 -0.9061232919745157 -2.37207774994724 0.1378839518257302 0.10493796430367944 -0.0011495466071801276 -3.525024076651191 -12.887101290060366 4.6872712423321685 31.22087172242785 5.946264621599642 -20.475401431553234 200.0 48.80000000000001 400.0 2.4186 -2.4185 2.4185 0.0 200.0 0.0 0.0 0.0 0.0 0.0 0.0 0.0 0.0 0.0 0.0 
1.352 1.4687056473020113 -0.9136637995244823 -2.3698773517654885 0.14325401662512727 0.10225248753495456 -0.0011796279095660422 -3.443739714830451 -13.09362580514367 4.83118767279465 31.88517109893909 5.865053881575001 -21.080355920711163 200.0 50.400000000000034 400.0 2.4186 -2.4185 2.4185 0.0 200.0 0.0 0.0 0.0 0.0 0.0 0.0 0.0 0.0 0.0 0.0 
1.36 1.471269177419976 -0.9212635509381597 -2.3676111785192324 0.14861770316917822 0.09968895924629928 -0.0012098579091840526 -3.365362030770078 -13.301157504692137 4.979200374895461 32.549324284677006 5.786750123311895 -21.688104727329772 200.0 52.00000000000003 400.0 2.4186 -2.4185 2.4185 0.0 200.0 0.0 0.0 0.0 0.0 0.0 0.0 0.0 0.0 0.0 0.0 
1.368 1.4737180897249786 -0.9289165162741355 -2.3652796752721694 0.15396941846485568 0.09724004877858877 -0.0012402274444776524 -3.2897902400645416 -13.509486896235412 5.131267401002384 33.212979639997414 5.711252546478571 -22.298472724597985 200.0 53.60000000000002 400.0 2.4186 -2.4185 2.4185 0.0 200.0 0.0 0.0 0.0 0.0 0.0 0.0 0.0 0.0 0.0 0.0 
1.376 1.4760592062932951 -0.9366170635008548 -2.3628832939018194 0.1593039725561023 0.09489893405505907 -0.0012707279945221904 -3.2169225521828113 -13.718414944523047 5.287345294172978 33.875810490229426 5.6384593408489225 -22.91129715829453 200.0 55.200000000000045 400.0 2.4186 -2.4185 2.4185 0.0 200.0 0.0 0.0 0.0 0.0 0.0 0.0 0.0 0.0 0.0 0.0 
1.384 1.4782988767721077 -0.9443599325873109 -2.3604224925850854 0.16461655580652534 0.09265926542807801 -0.0013013516327671304 -3.146657260878318 -13.92775320418389 5.447389296664915 34.537513904716526 5.56826878472146 -23.526426545754006 200.0 56.80000000000004 400.0 2.4186 -2.4185 2.4185 0.0 200.0 0.0 0.0 0.0 0.0 0.0 0.0 0.0 0.0 0.0 0.0 
1.392 1.4804430124455235 -0.9521402110575004 -2.3578977352873225 0.16990271201507623 0.09051513161310511 -0.0013320909835781575 -3.0788935916304707 -14.13732397053479 5.611353534889902 35.1978099001227 5.500580088207485 -24.14371995630092 200.0 58.400000000000034 400.0 2.4186 -2.4185 2.4185 0.0 200.0 0.0 0.0 0.0 0.0 0.0 0.0 0.0 0.0 0.0 0.0 
1.4 1.4824971181889248 -0.9599533110196687 -2.355309491255751 0.17515831586016573 0.08846102773437481 -0.0013629391815770185 -3.0135323802628293 -14.34696024086095 5.779191195079234 35.8564403526318 5.435294073862614 -24.76304617730078 200.0 60.00000000000003 400.0 2.4186 -2.4185 2.4185 0.0 200.0 0.0 0.0 0.0 0.0 0.0 0.0 0.0 0.0 0.0 0.0 
1.408 1.4844663223315355 -0.9677949476517522 -2.3526582345180334 0.18037954971515058 0.08649182546230655 -0.0013938898337274306 -2.950476590382347 -14.556505646735383 5.950854683941186 36.51316807709849 5.372313691586555 -25.38428305897888 200.0 61.599999999999994 400.0 2.4186 -2.4185 2.4185 0.0 200.0 0.0 0.0 0.0 0.0 0.0 0.0 0.0 0.0 0.0 0.0 
1.416 1.486355404479286 -0.9756611191030498 -2.349944443386766 0.18556288395619802 0.08460274519059802 -0.001424936984079226 -2.8896317124119566 -14.76581425500254 6.126295780626827 37.167775711794235 5.311544419630421 -26.007316784367337 200.0 63.19999999999999 400.0 2.4186 -2.4185 2.4185 0.0 200.0 0.0 0.0 0.0 0.0 0.0 0.0 0.0 0.0 0.0 0.0 
1.424 1.4881688213727462 -0.9835480877572929 -2.34716859997062 0.19070505723022535 0.08278933017839267 -0.0014560750810585293 -2.8309060518942757 -14.974750353843199 6.3054657766269795 37.820064736887225 5.252894551801699 -26.63204127370574 200.0 64.79999999999998 400.0 2.4186 -2.4185 2.4185 0.0 200.0 0.0 0.0 0.0 0.0 0.0 0.0 0.0 0.0 0.0 0.0 
1.432 1.4899107308700912 -0.9914523627924905 -2.344331189692805 0.19580305917197727 0.08104742256720512 -0.0014872989471760522 -2.774210935639447 -15.183188160894558 6.488315607280236 38.46985440065641 5.19627540502587 -27.25835756351061 200.0 66.4 400.0 2.4186 -2.4185 2.4185 0.0 200.0 0.0 0.0 0.0 0.0 0.0 0.0 0.0 0.0 0.0 0.0 
1.44 1.491585014154445 -0.999370683967034 -2.3414327008174847 0.200854112419107 0.07937314117363582 -0.0015186037510161816 -2.7194608406034857 -15.391011558568332 6.674795972876288 39.11698085175185 5.14160144537432 -27.886173352286185 200.0 68.0 400.0 2.4186 -2.4185 2.4185 0.0 200.0 0.0 0.0 0.0 0.0 0.0 0.0 0.0 0.0 0.0 0.0 
1.448 1.4931952962699553 -1.0073000065586686 -2.338473623984741 0.20585565842205122 0.0777628609532769 -0.001549984981365816 -2.6665734745856726 -15.598113723796343 6.864857453799044 39.76129604786273 5.088790371711546 -28.515402419595212 200.0 69.6 400.0 2.4186 -2.4185 2.4185 0.0 200.0 0.0 0.0 0.0 0.0 0.0 0.0 0.0 0.0 0.0 0.0 
1.456 1.4947449650925964 -1.0152374873822145 -2.3354544517546114 0.21080534209661428 0.07621319402990791 -0.001581438423341469 -2.615469803229736 -15.804396810970323 7.058450616362141 40.40266690991915 5.037763140697379 -29.145964226694463 200.0 71.19999999999999 400.0 2.4186 -2.4185 2.4185 0.0 200.0 0.0 0.0 0.0 0.0 0.0 0.0 0.0 0.0 0.0 0.0 
1.464 1.4962371888409176 -1.0231804718129012 -2.3323756781607075 0.21570099915611873 0.07472097218476506 -0.001612960136375711 -2.566074045706066 -16.009771571339552 7.255526112677968 41.04097434866419 4.988443964148017 -29.7777834449573 200.0 72.80000000000001 400.0 2.4186 -2.4185 2.4185 0.0 200.0 0.0 0.0 0.0 0.0 0.0 0.0 0.0 0.0 0.0 0.0 
1.472 1.4976749322293978 -1.0311264817442511 -2.329237798273845 0.2205406423147247 0.07328323070315558 -0.0016445464339286048 -2.518313635266561 -16.21415703391992 7.456034773143002 41.67611253145362 4.940760266670179 -30.41078965434601 200.0 74.4 400.0 2.4186 -2.4185 2.4185 0.0 200.0 0.0 0.0 0.0 0.0 0.0 0.0 0.0 0.0 0.0 0.0 
1.48 1.4990609713632699 -1.039073204412376 -2.3260413077760913 0.22532245101786508 0.0718971934796464 -0.0016761938647952884 -2.472119165179033 -16.41748009787796 7.659927693789908 42.30798792266032 4.89464263455644 -31.04491689681278 200.0 76.0 400.0 2.4186 -2.4185 2.4185 0.0 200.0 0.0 0.0 0.0 0.0 0.0 0.0 0.0 0.0 0.0 0.0 
1.488 1.5003979074690876 -1.0470184820219397 -2.3227867025455815 0.2300447602027127 0.07056025928749984 -0.001707899195887802 -2.427424312145054 -16.619675183840588 7.867156317095705 42.93651853630784 4.850024738211588 -31.680103375367242 200.0 77.60000000000002 400.0 2.4186 -2.4185 2.4185 0.0 200.0 0.0 0.0 0.0 0.0 0.0 0.0 0.0 0.0 0.0 0.0 
1.496 1.5016881795501926 -1.0549603021127876 -2.319474478252404 0.2347060498903062 0.0692699891231937 -0.0017396593963762024 -2.38416574742445 -16.820683887133598 8.077672507692998 43.56163321929817 4.806843242454527 -32.316291175356945 200.0 79.19999999999999 400.0 2.4186 -2.4185 2.4185 0.0 200.0 0.0 0.0 0.0 0.0 0.0 0.0 0.0 0.0 0.0 0.0 
1.504 1.5029340760508676 -1.0628967886100873 -2.3161051299658193 0.23930493606421388 0.06802409454229336 -0.0017714716230813104 -2.342283040384771 -17.020454616821855 8.291428623043211 44.183270910658145 4.76503771056321 -32.953425969597504 200.0 80.80000000000001 400.0 2.4186 -2.4185 2.4185 0.0 200.0 0.0 0.0 0.0 0.0 0.0 0.0 0.0 0.0 0.0 0.0 
1.512 1.5041377456075113 -1.070826193504736 -2.312679151773036 0.2438401620530133 0.06682042690824493 -0.0018033332070188273 -2.30171855533805 -17.21894224633262 8.50837757919832 44.80137994932171 4.72455050130176 -33.59145675444699 200.0 82.40000000000003 400.0 2.4186 -2.4185 2.4185 0.0 200.0 0.0 0.0 0.0 0.0 0.0 0.0 0.0 0.0 0.0 0.0 
1.52 1.505301206959757 -1.078746889114596 -2.3091970364097065 0.24831059027167068 0.06565696748125965 -0.0018352416410016355 -2.2624173439007773 -17.416107780622667 8.728472912094448 45.415917440515585 4.685326660947403 -34.23033562247542 200.0 84.0 400.0 2.4186 -2.4185 2.4185 0.0 200.0 0.0 0.0 0.0 0.0 0.0 0.0 0.0 0.0 0.0 0.0 
1.528 1.5064263580891897 -1.08665736088086 -2.305659274902292 0.2527151949130295 0.06453181827964155 -0.0018671945682141873 -2.2243270362762027 -17.611918018492204 8.951668834325762 46.02684861290657 4.647313815143539 -34.870017525215 200.0 85.60000000000002 400.0 2.4186 -2.4185 2.4185 0.0 200.0 0.0 0.0 0.0 0.0 0.0 0.0 0.0 0.0 0.0 0.0 
1.536 1.5075149846482423 -1.0945562006573568 -2.302066356222383 0.25705305441349857 0.0634431936508078 -0.0018991897716793544 -2.1873977303805705 -17.806345250917158 9.177920288339008 46.6341462854346 4.610462056955644 -35.510460105238444 200.0 87.19999999999999 400.0 2.4186 -2.4185 2.4185 0.0 200.0 0.0 0.0 0.0 0.0 0.0 0.0 0.0 0.0 0.0 0.0 
1.544 1.5085687677370299 -1.1024421004540033 -2.2984187669530463 0.26132334519499656 0.06238941249453342 -0.0019312251645443863 -2.1515818834925455 -17.999366941137094 9.407182995251395 47.237790279171925 4.574723839268554 -36.15162348620387 200.0 88.80000000000001 400.0 2.4186 -2.4185 2.4185 0.0 200.0 0.0 0.0 0.0 0.0 0.0 0.0 0.0 0.0 0.0 0.0 
1.552 1.5095892910813253 -1.1103138465987366 -2.2947169909672027 0.26552533542117684 0.06136889108492969 -0.0019632987811186585 -2.116834204547406 -18.190965430267163 9.639413500245588 47.83776690278107 4.540053866894507 -36.79347010688169 200.0 90.40000000000003 400.0 2.4186 -2.4185 2.4185 0.0 200.0 0.0 0.0 0.0 0.0 0.0 0.0 0.0 0.0 0.0 0.0 
1.56 1.5105780476606094 -1.118170314285226 -2.290961509118053 0.2696583791888485 0.06038013644240935 -0.0019954087686012744 -2.0831115488512495 -18.381127652656396 9.874569214496521 48.434068462570636 4.5064089911842355 -37.43596456588336 200.0 92.0 400.0 2.4186 -2.4185 2.4185 0.0 200.0 0.0 0.0 0.0 0.0 0.0 0.0 0.0 0.0 0.0 0.0 
1.568 1.5115364458311347 -1.126010462476382 -2.2871527989414857 0.27372191134326096 0.05942174021063585 -0.0020275533794415906 -2.050372816134642 -18.569844852772775 10.112608453421434 49.02669277139097 4.473748108555853 -38.07907345937225 200.0 93.60000000000002 400.0 2.4186 -2.4185 2.4185 0.0 200.0 0.0 0.0 0.0 0.0 0.0 0.0 0.0 0.0 0.0 0.0 
1.576 1.5124658149852566 -1.1338333291362224 -2.283291334370414 0.2777154418579588 0.058492372997124176 -0.002059730964280972 -2.018578850379816 -18.75711234218315 10.353490472985213 49.61564276937955 4.442032059044171 -38.72276528812094 200.0 95.20000000000005 400.0 2.4186 -2.4185 2.4185 0.0 200.0 0.0 0.0 0.0 0.0 0.0 0.0 0.0 0.0 0.0 0.0 
1.584 1.513367410784829 -1.141638026764995 -2.2793775854609315 0.2816385517657394 0.057590779139972584 -0.0020919399654275345 -1.9876923455017879 -18.942929221294854 10.597175501152552 50.200926032492596 4.4112235334967975 -39.367010282051076 200.0 96.80000000000001 400.0 2.4186 -2.4185 2.4185 0.0 200.0 0.0 0.0 0.0 0.0 0.0 0.0 0.0 0.0 0.0 0.0 
1.592 1.5142424200033322 -1.149423738214571 -2.2754120181301665 0.285490888426414 0.05671577186558721 -0.0021241789108208797 -1.9576777528834666 -19.12729814758516 10.843624767920595 50.78255441011115 4.3812869804669115 -40.0117803055916 200.0 98.40000000000003 400.0 2.4186 -2.4185 2.4185 0.0 200.0 0.0 0.0 0.0 0.0 0.0 0.0 0.0 0.0 0.0 0.0 
1.6 1.515091965008454 -1.1571897127631217 -2.2713950939056877 0.2892721610870628 0.05586622880620845 -0.0021564464084463477 -1.9285011928309188 -19.31022511415049 11.09280053288663 51.360543683743956 4.3521885170713395 -40.65704877090151 200.0 100.0 400.0 2.4186 -2.4185 2.4185 0.0 200.0 0.0 0.0 0.0 0.0 0.0 0.0 0.0 0.0 0.0 0.0 
1.608 1.515917107914189 -1.164935262429867 -2.2673272696862874 0.2929821371759984 0.05504108784777007 -0.0021887411411625523 -1.9001303707048531 -19.49171922039479 11.34466610939853 51.934913192854786 4.323895845617425 -41.302790522194776 200.0 101.60000000000002 400.0 2.4186 -2.4185 2.4185 0.0 200.0 0.0 0.0 0.0 0.0 0.0 0.0 0.0 0.0 0.0 0.0 
1.616 1.5167188544290562 -1.1726597585123288 -2.26320899751395 0.2966206390196744 0.054239343281676455 -0.002221061861908696 -1.8725344971049984 -19.67179244510653 11.599185885582955 52.5056854579701 4.296378174715834 -41.948981711444375 200.0 103.20000000000005 400.0 2.4186 -2.4185 2.4185 0.0 200.0 0.0 0.0 0.0 0.0 0.0 0.0 0.0 0.0 0.0 0.0 
1.624 1.5174981574247797 -1.1803626283300264 -2.2590407243568 0.3001875395036331 0.05346004223614408 -0.002253407389261082 -1.8456842098062807 -19.85045947940872 11.856325346311362 53.072885969807146 4.2696061392516 -42.595599780981544 200.0 104.80000000000001 400.0 2.4186 -2.4185 2.4185 0.0 200.0 0.0 0.0 0.0 0.0 0.0 0.0 0.0 0.0 0.0 0.0 
1.632 1.5182559202477255 -1.1880433521599096 -2.254822891902798 0.3036827595466769 0.052702281364726496 -0.0022857766033108923 -1.8195515019925834 -20.027737506548693 12.116051089112931 53.63654281152793 4.243551730311756 -43.2426233258205 200.0 106.40000000000003 400.0 2.4186 -2.4185 2.4185 0.0 200.0 0.0 0.0 0.0 0.0 0.0 0.0 0.0 0.0 0.0 0.0 
1.64 1.5189929997934906 -1.1957014603500675 -2.250555936363946 0.30710626443553224 0.051965203771791646 -0.002318168441837571 -1.794109652014691 -20.203646043351444 12.378330841549014 54.19668645194036 4.218188223617473 -43.890032066595374 200.0 108.00000000000006 400.0 2.4186 -2.4185 2.4185 0.0 200.0 0.0 0.0 0.0 0.0 0.0 0.0 0.0 0.0 0.0 0.0 
1.648 1.5197102093633297 -1.2033365305993815 -2.246240288290744 0.3104580615315462 0.051247996156006836 -0.0023505818967545643 -1.7693331584519532 -20.378206743388752 12.643133473311268 54.753349415743635 4.193490115981731 -44.53780673214635 200.0 109.60000000000002 400.0 2.4186 -2.4185 2.4185 0.0 200.0 0.0 0.0 0.0 0.0 0.0 0.0 0.0 0.0 0.0 0.0 
1.656 1.5204083213195196 -1.2109481853918207 -2.241876372396633 0.3137381968454127 0.0505498861550387 -0.002383016010805771 -1.7451976766544266 -20.55144326093298 12.910429010545188 55.30656612178505 4.169433060293636 -45.18592905145689 200.0 111.20000000000005 400.0 2.4186 -2.4185 2.4185 0.0 200.0 0.0 0.0 0.0 0.0 0.0 0.0 0.0 0.0 0.0 0.0 
1.664 1.5210880695553328 -1.218536089575002 -2.237464607392146 0.3169467531765351 0.049870139875583294 -0.0024154698744932603 -1.7216799605444078 -20.723381066656543 13.180188643951494 55.85637256939966 4.145993808978052 -45.834381635325556 200.0 112.80000000000001 400.0 2.4186 -2.4185 2.4185 0.0 200.0 0.0 0.0 0.0 0.0 0.0 0.0 0.0 0.0 0.0 0.0 
1.672 1.5217501517939764 -1.2260999480734989 -2.2330054058284783 0.32008384714616334 0.04920805959436235 -0.002447942623218337 -1.6987578057678625 -20.894047322245328 13.452384739567774 56.40280618725172 4.123150155953529 -46.48314796423247 200.0 114.39999999999998 400.0 2.4186 -2.4185 2.4185 0.0 200.0 0.0 0.0 0.0 0.0 0.0 0.0 0.0 0.0 0.0 0.0 
1.68 1.522395231729648 -1.2336395037281478 -2.2284991739501843 0.32314962681066683 0.048562981617130845 -0.0024804334346191516 -1.6764099964884818 -21.06347074530069 13.726990846855351 56.945905643480515 4.100880883245742 -47.132212344284014 200.0 116.0 400.0 2.4186 -2.4185 2.4185 0.0 200.0 0.0 0.0 0.0 0.0 0.0 0.0 0.0 0.0 0.0 0.0 
1.688 1.5230239410227826 -1.2411545352532893 -2.223946311556701 0.3261442698748034 0.04793427428341995 -0.0025129415260902645 -1.6546162556085247 -21.23168146227417 14.003981703494857 57.48571061093187 4.079165712110686 -47.781559826693815 200.0 117.60000000000002 400.0 2.4186 -2.4185 2.4185 0.0 200.0 0.0 0.0 0.0 0.0 0.0 0.0 0.0 0.0 0.0 0.0 
1.696 1.5236368811605485 -1.2486448553045466 -2.2193472118723934 0.329067981583665 0.04732133610602469 -0.0025454661524699704 -1.6333571970909975 -21.398710886804956 14.283333240546346 58.02226159702396 4.057985255253686 -48.43117616674257 200.0 119.19999999999999 400.0 2.4186 -2.4185 2.4185 0.0 200.0 0.0 0.0 0.0 0.0 0.0 0.0 0.0 0.0 0.0 0.0 
1.704 1.524234625192752 -1.2561103086502916 -2.2147022614248026 0.33192099245488293 0.046723594035100666 -0.002578006603882808 -1.6126142805449124 -21.564591616827652 14.565022587882485 58.55559981887066 4.037320970688483 -49.081047809370986 200.0 120.80000000000001 400.0 2.4186 -2.4185 2.4185 0.0 200.0 0.0 0.0 0.0 0.0 0.0 0.0 0.0 0.0 0.0 0.0 
1.712 1.5248177193524737 -1.2635507704404974 -2.210011839930803 0.3347035565835246 0.0461405018374895 -0.0026105622037256933 -1.5923697688324592 -21.729357319111934 14.849028076650546 59.085767032293624 4.0171551196874375 -49.73116183807131 200.0 122.39999999999998 400.0 2.4186 -2.4185 2.4185 0.0 200.0 0.0 0.0 0.0 0.0 0.0 0.0 0.0 0.0 0.0 0.0 
1.72 1.5253866845699955 -1.2709661445671454 -2.205276320190329 0.33741595008122793 0.045571538582907994 -0.002643132306786739 -1.5726066879975835 -21.89304261860032 15.135329240397937 59.61280536580343 3.99747072713512 -50.3815059224817 200.0 124.0 400.0 2.4186 -2.4185 2.4185 0.0 200.0 0.0 0.0 0.0 0.0 0.0 0.0 0.0 0.0 0.0 0.0 
1.728 1.5259420178878975 -1.2783563621107896 -2.2004960679873813 0.3400584690492414 0.04501620722874892 -0.0026757162974873 -1.5533087887489194 -22.055683018093166 15.423906818291016 60.13675723426784 3.9782515421526883 -51.03206831734505 200.0 125.60000000000002 400.0 2.4186 -2.4185 2.4185 0.0 200.0 0.0 0.0 0.0 0.0 0.0 0.0 0.0 0.0 0.0 0.0 
1.736 1.526484193784552 -1.2857213798682932 -2.1956714419979786 0.3426314284789165 0.044474033296582116 -0.002708313588237939 -1.5344605109560108 -22.21731478805422 15.71474275322456 60.65766515674744 3.9594820036612344 -51.682837790216475 200.0 127.19999999999999 400.0 2.4186 -2.4185 2.4185 0.0 200.0 0.0 0.0 0.0 0.0 0.0 0.0 0.0 0.0 0.0 0.0 
1.744 1.5270136654126727 -1.2930611789570876 -2.190802793704743 0.34513516032970193 0.04394456363366482 -0.002740923617900037 -1.5160469491001998 -22.377974901113372 16.00782019406125 61.17557169634906 3.9411472048211578 -52.333803630600215 200.0 128.8 400.0 2.4186 -2.4185 2.4185 0.0 200.0 0.0 0.0 0.0 0.0 0.0 0.0 0.0 0.0 0.0 0.0 
1.752 1.5275308657590494 -1.3003757634916666 -2.1858904673178152 0.3475700124068579 0.0434273652531841 -0.0027735458503455016 -1.4980538203655014 -22.53770094113976 16.30312349342556 61.690519317741526 3.923232861767157 -52.98495559757192 200.0 130.40000000000003 400.0 2.4186 -2.4185 2.4185 0.0 200.0 0.0 0.0 0.0 0.0 0.0 0.0 0.0 0.0 0.0 0.0 
1.76 1.5280362087311052 -1.307665159328304 -2.1809347997017783 0.349936346876365 0.04292202424769418 -0.0028061797731075365 -1.4804674340067037 -22.69653103655292 16.600638207433896 62.20255030745392 3.905725282616472 -53.63628390783129 200.0 132.0 400.0 2.4186 -2.4185 2.4185 0.0 200.0 0.0 0.0 0.0 0.0 0.0 0.0 0.0 0.0 0.0 0.0 
1.768 1.5285300901754786 -1.3149294128742768 -2.175936120308277 0.35223453895071577 0.04242814477049524 -0.0028388248961159625 -1.463274662485196 -22.854503794511448 16.900351094556118 62.71170668905659 3.8886113384757346 -54.287779216799024 200.0 133.60000000000002 400.0 2.4186 -2.4185 2.4185 0.0 200.0 0.0 0.0 0.0 0.0 0.0 0.0 0.0 0.0 0.0 0.0 
1.776 1.5290128888334165 -1.3221685899581166 -2.1708947511140453 0.3544649761200427 0.04194534808035374 -0.00287148075051095 -1.446462914617657 -23.01165821858384 17.202250110826775 63.21803008286677 3.871878437563509 -54.93943255698986 200.0 135.2 400.0 2.4186 -2.4185 2.4185 0.0 200.0 0.0 0.0 0.0 0.0 0.0 0.0 0.0 0.0 0.0 0.0 
1.784 1.5294849672374076 -1.3293827747576552 -2.1658110065640135 0.35662805655306284 0.04147327164473726 -0.0029041468875300722 -1.4300201093198632 -23.168033670713193 17.506324410665492 63.72156168749131 3.8555144978723708 -55.59123535954071 200.0 136.8 400.0 2.4186 -2.4185 2.4185 0.0 200.0 0.0 0.0 0.0 0.0 0.0 0.0 0.0 0.0 0.0 0.0 
1.792 1.5299466725531272 -1.3365720687828306 -2.1606851935192193 0.3587241880676151 0.04101156829796409 -0.002936822877463157 -1.413934651254026 -23.323669815152208 17.81256434428594 64.22234220192568 3.839507922907461 -56.243179430803494 200.0 138.40000000000003 400.0 2.4186 -2.4185 2.4185 0.0 200.0 0.0 0.0 0.0 0.0 0.0 0.0 0.0 0.0 0.0 0.0 
1.8 1.530398337370465 -1.3437365899104217 -2.155517611209217 0.3607537873346285 0.040559905450092006 -0.002969508308670461 -1.3981954079317374 -23.478606558640067 18.12096145360367 64.72041173005555 3.8238475792893274 -56.89525691352169 200.0 140.0 400.0 2.4186 -2.4185 2.4185 0.0 200.0 0.0 0.0 0.0 0.0 0.0 0.0 0.0 0.0 0.0 0.0 
1.808 1.5308402804471166 -1.3508764714680632 -2.150308551188693 0.362717278971445 0.04011796434341022 -0.0030022027866598707 -1.3827916878832125 -23.632884001717546 18.431508468968104 65.21580971116569 3.8085227750456188 -57.547460263657 200.0 141.60000000000002 400.0 2.4186 -2.4185 2.4185 0.0 200.0 0.0 0.0 0.0 0.0 0.0 0.0 0.0 0.0 0.0 0.0 
1.816 1.5312728074079542 -1.357991861365044 -2.1450582972980143 0.3646150942546833 0.03968543935303566 -0.0030349059332189367 -1.3677132196210788 -23.786542413642664 18.744199309342665 65.7085749128754 3.7935232377019186 -58.199782269468685 200.0 143.20000000000005 400.0 2.4186 -2.4185 2.4185 0.0 200.0 0.0 0.0 0.0 0.0 0.0 0.0 0.0 0.0 0.0 0.0 
1.824 1.531696211403157 -1.3650829212675601 -2.1397671256274178 0.36644767048106974 0.039262037328754044 -0.003067617385598293 -1.3529501322356885 -23.93962218386328 19.05902907802305 66.19874534987284 3.7788390953875712 -58.85221601527588 200.0 144.8 400.0 2.4186 -2.4185 2.4185 0.0 200.0 0.0 0.0 0.0 0.0 0.0 0.0 0.0 0.0 0.0 0.0 
1.832 1.532110773727851 -1.372149825816225 -2.134435304484572 0.36821545034660463 0.038847476975441705 -0.00310033679574279 -1.338492936977495 -24.09216377788809 19.375994058296378 66.68635820970606 3.7644608588668866 -59.50475484777594 200.0 146.40000000000003 400.0 2.4186 -2.4185 2.4185 0.0 200.0 0.0 0.0 0.0 0.0 0.0 0.0 0.0 0.0 0.0 0.0 
1.84 1.5325167644058142 -1.3791927618837643 -2.1290630943652458 0.36991888081825675 0.0384414882692866 -0.0031330638295673147 -1.324332509359929 -24.24420772190418 19.695091713910983 67.17144985658832 3.7503794028184805 -60.15739239643813 200.0 148.0 400.0 2.4186 -2.4185 2.4185 0.0 200.0 0.0 0.0 0.0 0.0 0.0 0.0 0.0 0.0 0.0 0.0 
1.848 1.532914442739607 -1.3862119278709664 -2.1236507479268076 0.37155841260976064 0.03804381190769846 -0.0031657981662743598 -1.3104600726530962 -24.395794564660104 20.016320685045574 67.6540557637375 3.73658594980577 -60.81012254058206 200.0 149.60000000000002 400.0 2.4186 -2.4185 2.4185 0.0 200.0 0.0 0.0 0.0 0.0 0.0 0.0 0.0 0.0 0.0 0.0 
1.856 1.533304057829319 -1.393207533039035 -2.1181985099643152 0.3731344994795749 0.037654198790616926 -0.0031985394977103246 -1.296867182060053 -24.546964852239167 20.33968078622677 68.13421047803675 3.7230720544292755 -61.462939397814274 200.0 151.20000000000005 400.0 2.4186 -2.4185 2.4185 0.0 200.0 0.0 0.0 0.0 0.0 0.0 0.0 0.0 0.0 0.0 0.0 
1.864 1.5336858490619694 -1.400179796876631 -2.112706617388927 0.37464759759853505 0.037272409530942664 -0.0032312875277587427 -1.2835457097362375 -24.697759104297457 20.6651730043277 68.611947583967 3.7098295883977963 -62.11583731031439 200.0 152.8 400.0 2.4186 -2.4185 2.4185 0.0 200.0 0.0 0.0 0.0 0.0 0.0 0.0 0.0 0.0 0.0 0.0 
1.872 1.5340600465734406 -1.4071289484999605 -2.107175299208394 0.37609816461840895 0.036898213992808876 -0.00326404197176708 -1.270487830336253 -24.84821780857682 20.99279950000974 69.08729971585694 3.6968507253531273 -62.768810864596944 200.0 154.40000000000003 400.0 2.4186 -2.4185 2.4185 0.0 200.0 0.0 0.0 0.0 0.0 0.0 0.0 0.0 0.0 0.0 0.0 
1.88 1.5344268716847012 -1.4140552260843706 -2.1016047765094 0.37748665967420925 0.0365313908552347 -0.003296802556005816 -1.2576860079582892 -24.998381375763937 21.322563600943628 69.56029845028186 3.6841279291764817 -63.421854822761446 200.0 156.00000000000006 400.0 2.4186 -2.4185 2.4185 0.0 200.0 0.0 0.0 0.0 0.0 0.0 0.0 0.0 0.0 0.0 0.0 
1.888 1.534786537313944 -1.4209588763259857 -2.0959952624414946 0.37881354232398934 0.03617172719999325 -0.003329569017157365 -1.2451329829598416 -25.148290148236647 21.654469805957 70.03097435058415 3.671653939633683 -64.07496416294994 200.0 157.60000000000002 400.0 2.4186 -2.4185 2.4185 0.0 200.0 0.0 0.0 0.0 0.0 0.0 0.0 0.0 0.0 0.0 0.0 
1.896 1.5351392483661508 -1.4278401539320171 -2.090346962202403 0.38007927204171743 0.03581901812212507 -0.003362341101832802 -1.2328217598243454 -25.297984386622996 21.98852378475301 70.49935694261704 3.659421760281329 -64.72813406872174 200.0 159.20000000000005 400.0 2.4186 -2.4185 2.4185 0.0 200.0 0.0 0.0 0.0 0.0 0.0 0.0 0.0 0.0 0.0 0.0 
1.904 1.5354852021014949 -1.4346993211384196 -2.0846600730244864 0.38128430823819537 0.03547306636139319 -0.003395118566115255 -1.2207455959740057 -25.447504234611532 22.324732372672333 70.96547462317558 3.647424648477429 -65.38135986784965 200.0 160.8 400.0 2.4186 -2.4185 2.4185 0.0 200.0 0.0 0.0 0.0 0.0 0.0 0.0 0.0 0.0 0.0 0.0 
1.912 1.5358245884838837 -1.4415366472536761 -2.078934784162122 0.38242910914969563 0.035133681953913684 -0.0034279011751274955 -1.208897990355635 -25.59688974110136 22.66310357813188 71.42935473097026 3.635656102478532 -66.03463708904818 200.0 162.40000000000003 400.0 2.4186 -2.4185 2.4185 0.0 200.0 0.0 0.0 0.0 0.0 0.0 0.0 0.0 0.0 0.0 0.0 
1.92 1.5361575905108686 -1.4483524082275128 -2.073171276879801 0.3835141317427302 0.03480068190210835 -0.0034606887026230274 -1.1972726732643553 -25.746180837206268 23.003646580331758 71.89102348258423 3.624109852069668 -66.68796141901134 200.0 164.0 400.0 2.4186 -2.4185 2.4185 0.0 200.0 0.0 0.0 0.0 0.0 0.0 0.0 0.0 0.0 0.0 0.0 
1.928 1.536484384526052 -1.4551468862434538 -2.0673697244407174 0.38453983126371494 0.034473889862367685 -0.003493480930598783 -1.185863596415611 -25.895417333088453 23.346371731394953 72.35050596228452 3.6127798485638634 -67.34132869791146 200.0 165.60000000000002 400.0 2.4186 -2.4185 2.4185 0.0 200.0 0.0 0.0 0.0 0.0 0.0 0.0 0.0 0.0 0.0 0.0 
1.936 1.53680514051505 -1.4619203693341383 -2.0615302920956595 0.3855066607563826 0.03415313584905514 -0.0035262776489280163 -1.1746649234734363 -26.044638919401397 23.69129055993345 72.80782612157185 3.6016602551289556 -67.99473492143733 200.0 167.2 400.0 2.4186 -2.4185 2.4185 0.0 200.0 0.0 0.0 0.0 0.0 0.0 0.0 0.0 0.0 0.0 0.0 
1.944 1.537120022386002 -1.4686731510184128 -2.055653137071987 0.38641507079730175 0.03383825595403886 -0.003559078655012688 -1.1636710211660002 -26.193885160830355 24.038415772939565 73.2630067522645 3.5907454381575175 -68.64817622256274 200.0 168.8 400.0 2.4186 -2.4185 2.4185 0.0 200.0 0.0 0.0 0.0 0.0 0.0 0.0 0.0 0.0 0.0 0.0 
1.952 1.537429188235545 -1.475405529959232 -2.0497384085625034 0.38726550898228984 0.03352909208064399 -0.0035918837534537913 -1.1528764506677112 -26.34319550453185 24.387761261729533 73.71606949940146 3.5800299582764294 -69.30164888228667 200.0 170.39999999999998 400.0 2.4186 -2.4185 2.4185 0.0 200.0 0.0 0.0 0.0 0.0 0.0 0.0 0.0 0.0 0.0 0.0 
1.96 1.537732790601111 -1.4821178096414767 -2.0437862477140265 0.38805841982546063 0.03322549169145211 -0.0036246927557384455 -1.1422759596364087 -26.49260927067966 24.7393421036552 74.16703481888136 3.5695085629247174 -69.95514929873015 200.0 172.0 400.0 2.4186 -2.4185 2.4185 0.0 200.0 0.0 0.0 0.0 0.0 0.0 0.0 0.0 0.0 0.0 0.0 
1.968 1.5380309767003524 -1.488810298068818 -2.0377967876154695 0.3887942441387864 0.03292730756880059 -0.0036575054799432116 -1.1318644743134516 -26.6421656711234 25.093174571512844 74.61592201343768 3.559176177744206 -70.60867401417092 200.0 173.60000000000002 400.0 2.4186 -2.4185 2.4185 0.0 200.0 0.0 0.0 0.0 0.0 0.0 0.0 0.0 0.0 0.0 0.0 
1.976 1.5383238886584483 -1.495483307478818 -2.0317701532852444 0.38947341901215315 0.03263439758745003 -0.003690321750452459 -1.1216370923444086 -26.791903800625814 25.449276136303293 75.06274918585987 3.549027900045215 -71.2622196800465 200.0 175.2 400.0 2.4186 -2.4185 2.4185 0.0 200.0 0.0 0.0 0.0 0.0 0.0 0.0 0.0 0.0 0.0 0.0 
1.984 1.5386116637239826 -1.5021371540754966 -2.0257064616578004 0.39009637745220216 0.032346624498883626 -0.003723141397690463 -1.1115890757319613 -26.94186264689793 25.80766547521049 75.50753324367605 3.5390589915730253 -71.91578305984802 200.0 176.8 400.0 2.4186 -2.4185 2.4185 0.0 200.0 0.0 0.0 0.0 0.0 0.0 0.0 0.0 0.0 0.0 0.0 
1.992 1.5388944344740654 -1.5087721577786124 -2.019605821569124 0.39066354802301806 0.032063855725927376 -0.003755964257867569 -1.101715844116422 -27.092081103049246 26.168362481131457 75.95028990777296 3.529264871569816 -72.56936103507373 200.0 178.40000000000003 400.0 2.4186 -2.4185 2.4185 0.0 200.0 0.0 0.0 0.0 0.0 0.0 0.0 0.0 0.0 0.0 0.0 
2.0 1.539172329009296 -1.5153886419889728 -2.013468333741012 0.3911753546672294 0.03178596316798706 -0.003788790172738345 -1.0920129684651554 -27.242597972621276 26.531388270554825 76.39103369652322 3.5196411106303143 -73.22295059243436 200.0 180.0 400.0 2.4186 -2.4185 2.4185 0.0 200.0 0.0 0.0 0.0 0.0 -0.0 -1000.0 -0.0 0.0 0.0 0.0 
2.008 1.5394400540893232 -1.5218551437034642 -2.0074179352643284 0.3916236150302028 0.031518240025889814 -0.0038209623855662463 -1.0826653006198226 -27.390431344124146 26.889434463054954 76.82102254869672 3.510370977929945 -73.86347678574322 200.0 181.56799999999998 400.0 2.4186 -2.4185 2.4185 0.0 192.0 0.0 0.0 0.0 0.0 -0.0 -1000.0 -0.0 0.0 0.0 0.0 
2.016 1.5396926675379714 -1.5280415769240472 -2.0015813978069867 0.39200435812503454 0.031265628436162984 -0.003851823936340666 -1.073845415927593 -27.532568651883356 27.235008743893253 77.23166700179782 3.501625465997341 -74.47786441308341 200.0 183.0719999999999 400.0 2.4186 -2.4185 2.4185 0.0 184.0 0.0 0.0 0.0 0.0 -0.0 -1000.0 -0.0 0.0 0.0 0.0 
2.024 1.5399307826627808 -1.5339502165657597 -1.995962917929989 0.39232405494300626 0.031027515091307366 -0.0038813744023578063 -1.0655319052757397 -27.668997698265688 27.567862609244813 77.62319982706096 3.4933831651325704 -75.06611068318554 200.0 184.51200000000017 400.0 2.4186 -2.4185 2.4185 0.0 176.0 0.0 0.0 0.0 0.0 -0.0 -1000.0 -0.0 0.0 0.0 0.0 
2.032 1.5401549650759692 -1.5395831873924006 -1.9905664957600027 0.3925888299515812 0.030803334379062127 -0.003909613405581782 -1.0577050172477964 -27.79970038357077 27.887754823696277 77.99584130897048 3.4856243234447986 -75.62821343066351 200.0 185.88799999999992 400.0 2.4186 -2.4185 2.4185 0.0 168.0 0.0 0.0 0.0 0.0 -0.0 -1000.0 -0.0 0.0 0.0 0.0 
2.04 1.5403657363092678 -1.544942470379958 -1.9853959388692137 0.3928044713750116 0.03059256476767586 -0.003936540608176488 -1.0503465337130904 -27.924653556301138 28.194451615436606 78.34979980569031 3.4783307225302535 -76.16417102574826 200.0 187.2000000000001 400.0 2.4186 -2.4185 2.4185 0.0 160.0 0.0 0.0 0.0 0.0 -0.0 -1000.0 -0.0 0.0 0.0 0.0 
2.048 1.5405635770596244 -1.550029908964675 -1.9804548656419687 0.39297644064473625 0.030394725560199037 -0.0039621557084941195 -1.04343965787845 -28.043829830375095 28.487726916083233 78.6852722641936 3.4714855651422205 -76.67398231597686 200.0 188.4480000000002 400.0 2.4186 -2.4185 2.4185 0.0 152.0 0.0 0.0 0.0 0.0 -0.0 -1000.0 -0.0 0.0 0.0 0.0 
2.056 1.5407489301053963 -1.554847215139573 -1.975746708173752 0.39310988162087535 0.030209373978237444 -0.003986458437471675 -1.0369689137746034 -28.1571983401402 28.76736262939085 79.00244460838448 3.4650733752051375 -77.15764653153455 200.0 189.6320000000002 400.0 2.4186 -2.4185 2.4185 0.0 144.0 0.0 0.0 0.0 0.0 -0.0 -1000.0 -0.0 0.0 0.0 0.0 
2.064 1.540922202927618 -1.5593959753689333 -1.9712747147460847 0.3932096287260942 0.030036102540773796 -0.004009448555392079 -1.0309200555804592 -28.264725479080077 29.033148936556064 79.30149213610683 3.4590799065443916 -77.61516325205486 200.0 190.75200000000018 400.0 2.4186 -2.4185 2.4185 0.0 136.0 0.0 0.0 0.0 0.0 -0.0 -1000.0 -0.0 0.0 0.0 0.0 
2.072 1.5410837700665887 -1.5636776562951191 -1.9670419519188824 0.39328021498035803 0.02987453670748073 -0.004031125848973021 -1.0252799862521527 -28.366375573457667 29.28488461688085 79.58257978674999 3.453492062065201 -78.04653232409126 200.0 191.8080000000001 400.0 2.4186 -2.4185 2.4185 0.0 128.0 0.0 0.0 0.0 0.0 -0.0 -1000.0 -0.0 0.0 0.0 0.0 
2.08 1.5412339752402389 -1.5676936102161299 -1.9630513062798118 0.3933258790523251 0.029724332760401158 -0.004051490128750025 -1.0200366841198854 -28.462111538110484 29.522377392604998 79.84586241947234 3.4482978199412155 -78.45175383095686 200.0 192.79999999999993 400.0 2.4186 -2.4185 2.4185 0.0 120.0 0.0 0.0 0.0 0.0 -0.0 -1000.0 -0.0 0.0 0.0 0.0 
2.088 1.541373133247467 -1.5714450803156605 -1.9593054858881882 0.3933505719771373 0.029585175900644658 -0.004070541226725737 -1.0151791369796366 -28.551895482735794 29.745444282328073 80.09148501362954 3.4434861678090303 -78.83082804259551 200.0 193.72800000000012 400.0 2.4186 -2.4185 2.4185 0.0 112.0 0.0 0.0 0.0 0.0 -0.0 -1000.0 -0.0 0.0 0.0 0.0 
2.096 1.541501531676767 -1.574933205630235 -1.9558070214489804 0.39335796338247087 0.029456778539735624 -0.004088278994259841 -1.0106972829010472 -28.635689278479422 29.953911960684504 80.31958282333943 3.4390470437746585 -79.18375536530112 200.0 194.59199999999984 400.0 2.4186 -2.4185 2.4185 0.0 104.0 0.0 0.0 0.0 0.0 -0.0 -1000.0 -0.0 0.0 0.0 0.0 
2.104 1.5416194324379662 -1.5781590257403897 -1.9525582672504442 0.39335144691285784 0.029338878767789782 -0.00410470330017772 -1.0065819569945287 -28.713455102636395 30.147617125127088 80.53028154134965 3.434971282704442 -79.51053632953622 200.0 195.39199999999994 400.0 2.4186 -2.4185 2.4185 0.0 96.0 0.0 0.0 0.0 0.0 -0.0 -1000.0 -0.0 0.0 0.0 0.0 
2.112 1.541727073132688 -1.5811234851747704 -1.9495614018969847 0.3933341456247006 0.029231238983176176 -0.004119814029078317 -1.0028248439587168 -28.785155922241405 30.32640685172813 80.7236973623138 3.4312505693746553 -79.81117152706804 200.0 196.12799999999996 400.0 2.4186 -2.4185 2.4185 0.0 88.0 0.0 0.0 0.0 0.0 -0.0 -1000.0 -0.0 0.0 0.0 0.0 
2.12 1.5418246682772245 -1.5838274375177512 -1.946818428866739 0.3933089164441368 0.02913364466968409 -0.004133611079824415 -0.9994184355093314 -28.850755965599276 30.490138951948502 80.89993709123334 3.4278773954174184 -80.08566160614265 200.0 196.79999999999993 400.0 2.4186 -2.4185 2.4185 0.0 80.0 0.0 0.0 0.0 0.0 -0.0 -1000.0 -0.0 0.0 0.0 0.0 
2.128 1.5419124103897819 -1.5862716492125162 -1.9443311769214147 0.3932783545322873 0.029045903308994703 -0.004146094364200836 -0.9963559926651714 -28.910221138920022 30.638682311892406 81.05909817673046 3.4248450219623106 -80.33400722868828 200.0 197.40799999999984 400.0 2.4186 -2.4185 2.4185 0.0 72.0 0.0 0.0 0.0 0.0 -0.0 -1000.0 -0.0 0.0 0.0 0.0 
2.136 1.541990470952533 -1.588456803052746 -1.9421013003938126 0.3932447968563664 0.028967843418964623 -0.004157263805726696 -0.993631512204785 -28.963519424992075 30.77191722190033 81.20126877978731 3.4221474456079353 -80.5562090711517 200.0 197.9520000000001 400.0 2.4186 -2.4185 2.4185 0.0 64.0 0.0 0.0 0.0 0.0 -0.0 -1000.0 -0.0 0.0 0.0 0.0 
2.144 1.542059001257562 -1.5903835013570569 -1.9401302793764206 0.3932103258159536 0.028899313707543877 -0.004167119338611354 -0.991239697360718 -29.010621221146927 30.889735678871084 81.3265277577218 3.4197793697306613 -80.75226777384412 200.0 198.4319999999999 400.0 2.4186 -2.4185 2.4185 0.0 56.0 0.0 0.0 0.0 0.0 -0.0 -1000.0 -0.0 0.0 0.0 0.0 
2.152 1.5421181331445568 -1.5920522688212215 -1.9384194198323121 0.3931767718984105 0.028840182335011438 -0.004175660906844414 -0.9891759320121255 -29.05149967082341 30.992041676200387 81.43494472403228 3.4177361779595086 -80.92218396007019 200.0 198.84800000000007 400.0 2.4186 -2.4185 2.4185 0.0 48.0 0.0 0.0 0.0 0.0 -0.0 -1000.0 -0.0 0.0 0.0 0.0 
2.16 1.5421679796369938 -1.5934635550438987 -1.9369698536475095 0.39314571668535203 0.02879033627790079 -0.004182888463410345 -0.9874362587319547 -29.086130919541457 31.078751454284287 81.52657998705048 3.416013913223163 -81.06595817006081 200.0 199.20000000000016 400.0 2.4186 -2.4185 2.4185 0.0 40.0 0.0 0.0 0.0 0.0 -0.0 -1000.0 -0.0 0.0 0.0 0.0 
2.168 1.5422086354825681 -1.594617736722346 -1.935782538641739 0.3931184945798125 0.028749680788510652 -0.0041888019696217854 -0.9860173597563543 -29.11449438227608 31.14979373922068 81.6014846221157 3.414609257601213 -81.18359090515415 200.0 199.4880000000001 400.0 2.4186 -2.4185 2.4185 0.0 32.0 0.0 0.0 0.0 0.0 -0.0 -1000.0 -0.0 0.0 0.0 0.0 
2.176 1.5422401776026937 -1.5955151195151007 -1.934858258552365 0.39309619488579406 0.02871813894539465 -0.0041934013945650475 -0.9849165414345838 -29.13657293629322 31.205109937324522 81.65970043121192 3.413519517317639 -81.27508258964544 200.0 199.71200000000005 400.0 2.4186 -2.4185 2.4185 0.0 24.0 0.0 0.0 0.0 0.0 -0.0 -1000.0 -0.0 0.0 0.0 0.0 
2.184 1.542262665455043 -1.596155939569199 -1.9341976230040392 0.39307966344910983 0.028695651290904404 -0.004196686714652614 -0.9841317216636197 -29.152353081519067 31.244654297907882 81.70125991416407 3.412742610511679 -81.34043354482701 200.0 199.87199999999996 400.0 2.4186 -2.4185 2.4185 0.0 16.0 0.0 0.0 0.0 0.0 -0.0 -1000.0 -0.0 0.0 0.0 0.0 
2.192 1.542276141312311 -1.596540364709982 -1.9338010674743702 0.39306950349304826 0.02868217555236391 -0.004198657913279399 -0.9836614200352525 -29.16182508844469 31.26839404989077 81.72618631120069 3.4122770566385903 -81.37964402061071 200.0 199.9679999999998 400.0 2.4186 -2.4185 2.4185 0.0 8.0 0.0 0.0 0.0 0.0 -0.0 -1000.0 -0.0 0.0 0.0 0.0 
2.2 1.5422806304596242 -1.5966684952920036 -1.9336688532636466 0.3930660766923013 0.028677686444634472 -0.004199314980579184 -0.9835047510693703 -29.164983078336075 31.276309491400497 81.73449355862525 3.41212197029423 -81.39271416081517 200.0 200.0 400.0 2.4186 -2.4185 2.4185 0.0 0.0 0.0 0.0 0.0 0.0 -0.0 -1000.0 -0.0 0.0 0.0 0.0 
