Fleaurent/UniversalRobot/csv/robolib_movej_Dreieck.csv
timestamp target_q_0 target_q_1 target_q_2 target_q_3 target_q_4 target_q_5 target_qd_0 target_qd_1 target_qd_2 target_qd_3 target_qd_4 target_qd_5 target_qdd_0 target_qdd_1 target_qdd_2 target_qdd_3 target_qdd_4 target_qdd_5 actual_TCP_pose_0 actual_TCP_pose_1 actual_TCP_pose_2 actual_TCP_pose_3 actual_TCP_pose_4 actual_TCP_pose_5
0.0 0.0 -1.5707963267948966 -1.5707963267948966 0.0 1.5707963267948966 0.0 0.0 0.0 0.0 0.0 0.0 0.0 1.0 0.0 0.0 0.0 0.0 0.0 295.15 -112.34999999999998 480.9 -1.2091995761561454 1.2091995761561456 -1.2091995761561458 
0.008 3.2e-05 -1.5707963267948966 -1.5707963267948966 0.0 1.5707963267948966 0.0 0.008 0.0 0.0 0.0 0.0 0.0 1.0 0.0 0.0 0.0 0.0 0.0 295.1535950488826 -112.34055514247841 480.9 -1.2092147055764364 1.2091760113249628 -1.209176011324963 
0.016 0.000128 -1.5707963267948966 -1.5707963267948966 0.0 1.5707963267948966 0.0 0.016 0.0 0.0 0.0 0.0 0.0 1.0 0.0 0.0 0.0 0.0 0.0 295.1643783820919 -112.31221987973194 480.9 -1.2092600917893326 1.209105316402997 -1.2091053164029972 
0.024 0.000288 -1.5707963267948966 -1.5707963267948966 0.0 1.5707963267948966 0.0 0.024 0.0 0.0 0.0 0.0 0.0 1.0 0.0 0.0 0.0 0.0 0.0 295.182344559092 -112.2649921417959 480.9 -1.2093357286510245 1.2089874901051165 -1.2089874901051167 
0.032 0.000512 -1.5707963267948966 -1.5707963267948966 0.0 1.5707963267948966 0.0 0.032 0.0 0.0 0.0 0.0 0.0 1.0 0.0 0.0 0.0 0.0 0.0 295.2074845115868 -112.19886848066349 480.9 -1.2094416059222521 1.2088225302898576 -1.2088225302898579 
0.04 0.0008 -1.5707963267948966 -1.5707963267948966 0.0 1.5707963267948966 0.0 0.04 0.0 0.0 0.0 0.0 0.0 1.0 0.0 0.0 0.0 0.0 0.0 295.23978554241785 -112.11384407318803 480.9 -1.209577709268942 1.2086104339600623 -1.2086104339600627 
0.048 0.001152 -1.5707963267948966 -1.5707963267948966 0.0 1.5707963267948966 0.0 0.048 0.0 0.0 0.0 0.0 0.0 1.0 0.0 0.0 0.0 0.0 0.0 295.2792313240216 -112.00991272514642 480.9 -1.2097440202630958 1.2083511972637653 -1.2083511972637655 
0.056 0.0015680000000000002 -1.5707963267948966 -1.5707963267948966 0.0 1.5707963267948966 0.0 0.056 0.0 0.0 0.0 0.0 0.0 1.0 0.0 0.0 0.0 0.0 0.0 295.32580189645034 -111.88706687646494 480.9 -1.2099405163839287 1.208044815495334 -1.2080448154953343 
0.064 0.002048 -1.5707963267948966 -1.5707963267948966 0.0 1.5707963267948966 0.0 0.064 0.0 0.0 0.0 0.0 0.0 1.0 0.0 0.0 0.0 0.0 0.0 295.379473664957 -111.74529760760825 480.9 -1.21016717101927 1.2076912830968698 -1.20769128309687 
0.072 0.0025920000000000006 -1.5707963267948966 -1.5707963267948966 0.0 1.5707963267948966 0.0 0.07200000000000001 0.0 0.0 0.0 0.0 0.0 1.0 0.0 0.0 0.0 0.0 0.0 295.4402193971484 -111.58459464713222 480.9 -1.2104239534672074 1.2072905936598501 -1.2072905936598504 
0.08 0.0032 -1.5707963267948966 -1.5707963267948966 0.0 1.5707963267948966 0.0 0.08 0.0 0.0 0.0 0.0 0.0 1.0 0.0 0.0 0.0 0.0 0.0 295.50800821970904 -111.40494638040256 480.9 -1.2107108289379842 1.2068427399270305 -1.206842739927031 
0.088 0.0038719999999999996 -1.5707963267948966 -1.5707963267948966 0.0 1.5707963267948966 0.0 0.088 0.0 0.0 0.0 0.0 0.0 1.0 0.0 0.0 0.0 0.0 0.0 295.5828056147004 -111.20633985948024 480.9 -1.2110277585561553 1.206347713794597 -1.2063477137945973 
0.096 0.004608 -1.5707963267948966 -1.5707963267948966 0.0 1.5707963267948966 0.0 0.096 0.0 0.0 0.0 0.0 0.0 1.0 0.0 0.0 0.0 0.0 0.0 295.6645734154394 -110.98876081417534 480.9 -1.2113746993629853 1.2058055063145694 -1.2058055063145698 
0.104 0.005408000000000001 -1.5707963267948966 -1.5707963267948966 0.0 1.5707963267948966 0.0 0.10400000000000001 0.0 0.0 0.0 0.0 0.0 1.0 0.0 0.0 0.0 0.0 0.0 295.75326980196127 -110.75219366427145 480.9 -1.211751604319099 1.2052161076974512 -1.2052161076974515 
0.112 0.006272000000000001 -1.5707963267948966 -1.5707963267948966 0.0 1.5707963267948966 0.0 0.112 0.0 0.0 0.0 0.0 0.0 1.0 0.0 0.0 0.0 0.0 0.0 295.8488492960722 -110.49662153292248 480.9 -1.212158422307384 1.204579507315135 -1.2045795073151353 
0.12 0.0072 -1.5707963267948966 -1.5707963267948966 0.0 1.5707963267948966 0.0 0.12 0.0 0.0 0.0 0.0 0.0 1.0 0.0 0.0 0.0 0.0 0.0 295.95126275599847 -110.22202626122389 480.9 -1.212595098136135 1.203895693704051 -1.2038956937040513 
0.128 0.008192 -1.5707963267948966 -1.5707963267948966 0.0 1.5707963267948966 0.0 0.128 0.0 0.0 0.0 0.0 0.0 1.0 0.0 0.0 0.0 0.0 0.0 296.06045737063687 -109.92838842396122 480.9 -1.2130615725424498 1.2031646545685644 -1.2031646545685646 
0.136 0.009248000000000001 -1.5707963267948966 -1.5707963267948966 0.0 1.5707963267948966 0.0 0.136 0.0 0.0 0.0 0.0 0.0 1.0 0.0 0.0 0.0 0.0 0.0 296.17637665341584 -109.61568734653784 480.9 -1.2135577821958687 1.202386376784623 -1.2023863767846232 
0.144 0.010368000000000002 -1.5707963267948966 -1.5707963267948966 0.0 1.5707963267948966 0.0 0.14400000000000002 0.0 0.0 0.0 0.0 0.0 1.0 0.0 0.0 0.0 0.0 0.0 296.2989604357729 -109.28390112308516 480.9 -1.2140836597022584 1.201560846403644 -1.2015608464036442 
0.152 0.011552 -1.5707963267948966 -1.5707963267948966 0.0 1.5707963267948966 0.0 0.152 0.0 0.0 0.0 0.0 0.0 1.0 0.0 0.0 0.0 0.0 0.0 296.4281448602577 -108.93300663575795 480.9 -1.2146391336079376 1.2006880486566487 -1.200688048656649 
0.16 0.0128 -1.5707963267948966 -1.5707963267948966 0.0 1.5707963267948966 0.0 0.16 0.0 0.0 0.0 0.0 0.0 1.0 0.0 0.0 0.0 0.0 0.0 296.5638623732683 -108.56297957521768 480.9 -1.2152241284040484 1.1997679679586404 -1.1997679679586406 
0.168 0.014112000000000001 -1.5707963267948966 -1.5707963267948966 0.0 1.5707963267948966 0.0 0.168 0.0 0.0 0.0 0.0 0.0 1.0 0.0 0.0 0.0 0.0 0.0 296.70604171743196 -108.1737944623074 480.9 -1.2158385645311605 1.1988005879132215 -1.1988005879132217 
0.176 0.015487999999999998 -1.5707963267948966 -1.5707963267948966 0.0 1.5707963267948966 0.0 0.176 0.0 0.0 0.0 0.0 0.0 1.0 0.0 0.0 0.0 0.0 0.0 296.8546079236366 -107.7654246709212 480.9 -1.21648235838412 1.1977858913174522 -1.1977858913174524 
0.184 0.016928 -1.5707963267948966 -1.5707963267948966 0.0 1.5707963267948966 0.0 0.184 0.0 0.0 0.0 0.0 0.0 1.0 0.0 0.0 0.0 0.0 0.0 297.0094823027274 -107.33784245207201 480.9 -1.2171554223171324 1.1967238601669474 -1.1967238601669477 
0.192 0.018432 -1.5707963267948966 -1.5707963267948966 0.0 1.5707963267948966 0.0 0.192 0.0 0.0 0.0 0.0 0.0 1.0 0.0 0.0 0.0 0.0 0.0 297.1705824368763 -106.891018959161 480.9 -1.217857664649078 1.195614475661211 -1.1956144756612113 
0.2 0.020000000000000004 -1.5707963267948966 -1.5707963267948966 0.0 1.5707963267948966 0.0 0.2 0.0 0.0 0.0 0.0 0.0 1.0 0.0 0.0 0.0 0.0 0.0 297.3378221706364 -106.42492427445274 480.9 -1.2185889896690676 1.194457718209207 -1.1944577182092075 
0.208 0.021632000000000005 -1.5707963267948966 -1.5707963267948966 0.0 1.5707963267948966 0.0 0.20800000000000002 0.0 0.0 0.0 0.0 0.0 1.0 0.0 0.0 0.0 0.0 0.0 297.51111160169467 -105.93952743675972 480.9 -1.2193492976422196 1.1932535674351608 -1.193253567435161 
0.216 0.023327999999999998 -1.5707963267948966 -1.5707963267948966 0.0 1.5707963267948966 0.0 0.216 0.0 0.0 0.0 0.0 0.0 1.0 0.0 0.0 0.0 0.0 0.0 297.69035707133327 -105.4347964703403 480.9 -1.2201384848156724 1.192002002184595 -1.1920020021845952 
0.224 0.025088000000000003 -1.5707963267948966 -1.5707963267948966 0.0 1.5707963267948966 0.0 0.224 0.0 0.0 0.0 0.0 0.0 1.0 0.0 0.0 0.0 0.0 0.0 297.8754611546139 -104.91069841501428 480.9 -1.2209564434248221 1.1907030005305959 -1.190703000530596 
0.232 0.026912000000000002 -1.5707963267948966 -1.5707963267948966 0.0 1.5707963267948966 0.0 0.232 0.0 0.0 0.0 0.0 0.0 1.0 0.0 0.0 0.0 0.0 0.0 298.0663226502984 -104.36719935750016 480.9 -1.2218030616997861 1.1893565397803083 -1.1893565397803085 
0.24 0.0288 -1.5707963267948966 -1.5707963267948966 0.0 1.5707963267948966 0.0 0.24 0.0 0.0 0.0 0.0 0.0 1.0 0.0 0.0 0.0 0.0 0.0 298.2628365705195 -103.80426446397853 480.9 -1.2226782238720857 1.187962596481655 -1.1879625964816551 
0.248 0.030751999999999998 -1.5707963267948966 -1.5707963267948966 0.0 1.5707963267948966 0.0 0.248 0.0 0.0 0.0 0.0 0.0 1.0 0.0 0.0 0.0 0.0 0.0 298.46489413021624 -103.2218580138858 480.9 -1.2235818101815525 1.1865211464302812 -1.1865211464302814 
0.256 0.032768 -1.5707963267948966 -1.5707963267948966 0.0 1.5707963267948966 0.0 0.256 0.0 0.0 0.0 0.0 0.0 1.0 0.0 0.0 0.0 0.0 0.0 298.6723827363506 -102.61994343494302 480.9 -1.2245136968834491 1.1850321646767241 -1.1850321646767243 
0.264 0.034848000000000004 -1.5707963267948966 -1.5707963267948966 0.0 1.5707963267948966 0.0 0.264 0.0 0.0 0.0 0.0 0.0 1.0 0.0 0.0 0.0 0.0 0.0 298.8851859769186 -101.99848333942413 480.9 -1.2254737562558078 1.1834956255337983 -1.1834956255337985 
0.272 0.036992000000000004 -1.5707963267948966 -1.5707963267948966 0.0 1.5707963267948966 0.0 0.272 0.0 0.0 0.0 0.0 0.0 1.0 0.0 0.0 0.0 0.0 0.0 299.10318360977504 -101.35743956166809 480.9 -1.2264618566069785 1.1819115025842022 -1.1819115025842024 
0.28 0.039200000000000006 -1.5707963267948966 -1.5707963267948966 0.0 1.5707963267948966 0.0 0.28 0.0 0.0 0.0 0.0 0.0 1.0 0.0 0.0 0.0 0.0 0.0 299.32625155128665 -100.69677319684001 480.9 -1.227477862283392 1.180279768688341 -1.1802797686883413 
0.288 0.04147200000000001 -1.5707963267948966 -1.5707963267948966 0.0 1.5707963267948966 0.0 0.28800000000000003 0.0 0.0 0.0 0.0 0.0 1.0 0.0 0.0 0.0 0.0 0.0 299.5542618648326 -100.01644464094551 480.9 -1.228521633677521 1.1786003959923594 -1.1786003959923597 
0.296 0.04380799999999999 -1.5707963267948966 -1.5707963267948966 0.0 1.5707963267948966 0.0 0.296 0.0 0.0 0.0 0.0 0.0 1.0 0.0 0.0 0.0 0.0 0.0 299.78708274916875 -99.3164136321033 480.9 -1.229593027236055 1.1768733559363898 -1.17687335593639 
0.304 0.046208 -1.5707963267948966 -1.5707963267948966 0.0 1.5707963267948966 0.0 0.304 0.0 0.0 0.0 0.0 0.0 1.0 0.0 0.0 0.0 0.0 0.0 300.0245785266769 -98.59663929308057 480.9 -1.230691895468271 1.1750986192630084 -1.1750986192630086 
0.312 0.048672 -1.5707963267948966 -1.5707963267948966 0.0 1.5707963267948966 0.0 0.312 0.0 0.0 0.0 0.0 0.0 1.0 0.0 0.0 0.0 0.0 0.0 300.26660963151534 -97.85708017509612 480.9 -1.2318180869546018 1.1732761560258933 -1.1732761560258935 
0.32 0.0512 -1.5707963267948966 -1.5707963267948966 0.0 1.5707963267948966 0.0 0.32 0.0 0.0 0.0 0.0 0.0 1.0 0.0 0.0 0.0 0.0 0.0 300.51303259769185 -97.09769430289576 480.9 -1.2329714463554022 1.1714059355986934 -1.1714059355986937 
0.328 0.053792000000000006 -1.5707963267948966 -1.5707963267948966 0.0 1.5707963267948966 0.0 0.328 0.0 0.0 0.0 0.0 0.0 1.0 0.0 0.0 0.0 0.0 0.0 300.76370004708065 -96.31843922110498 480.9 -1.2341518144199064 1.1694879266840952 -1.1694879266840954 
0.336 0.056448000000000005 -1.5707963267948966 -1.5707963267948966 0.0 1.5707963267948966 0.0 0.336 0.0 0.0 0.0 0.0 0.0 1.0 0.0 0.0 0.0 0.0 0.0 301.0184606774018 -95.51927204186333 480.9 -1.2353590279953721 1.1675220973230866 -1.1675220973230869 
0.344 0.05916800000000001 -1.5707963267948966 -1.5707963267948966 0.0 1.5707963267948966 0.0 0.34400000000000003 0.0 0.0 0.0 0.0 0.0 1.0 0.0 0.0 0.0 0.0 0.0 301.2771592501865 -94.7001494937454 480.9 -1.2365929200364143 1.1655084149044206 -1.1655084149044208 
0.352 0.06195199999999999 -1.5707963267948966 -1.5707963267948966 0.0 1.5707963267948966 0.0 0.352 0.0 0.0 0.0 0.0 0.0 1.0 0.0 0.0 0.0 0.0 0.0 301.5396365787498 -93.86102797197294 480.9 -1.2378533196145127 1.163446846174269 -1.1634468461742693 
0.36 0.0648 -1.5707963267948966 -1.5707963267948966 0.0 1.5707963267948966 0.0 0.36 0.0 0.0 0.0 0.0 0.0 1.0 0.0 0.0 0.0 0.0 0.0 301.8057295161929 -93.00186358992268 480.9 -1.2391400519277098 1.1613373572460712 -1.1613373572460715 
0.368 0.067712 -1.5707963267948966 -1.5707963267948966 0.0 1.5707963267948966 0.0 0.368 0.0 0.0 0.0 0.0 0.0 1.0 0.0 0.0 0.0 0.0 0.0 302.0752709434597 -92.12261223193445 480.9 -1.240452938310473 1.159179913610567 -1.1591799136105674 
0.376 0.070688 -1.5707963267948966 -1.5707963267948966 0.0 1.5707963267948966 0.0 0.376 0.0 0.0 0.0 0.0 0.0 1.0 0.0 0.0 0.0 0.0 0.0 302.3480897574701 -91.22322960742385 480.9 -1.2417917962437328 1.1569744801460164 -1.156974480146017 
0.384 0.073728 -1.5707963267948966 -1.5707963267948966 0.0 1.5707963267948966 0.0 0.384 0.0 0.0 0.0 0.0 0.0 1.0 0.0 0.0 0.0 0.0 0.0 302.62401085935505 -90.30367130630366 480.9 -1.2431564393650893 1.1547210211286019 -1.154721021128602 
0.392 0.07683200000000001 -1.5707963267948966 -1.5707963267948966 0.0 1.5707963267948966 0.0 0.392 0.0 0.0 0.0 0.0 0.0 1.0 0.0 0.0 0.0 0.0 0.0 302.902855142819 -89.36389285571877 480.9 -1.244546677479181 1.1524195002430102 -1.1524195002430104 
0.4 0.08000000000000002 -1.5707963267948966 -1.5707963267948966 0.0 1.5707963267948966 0.0 0.4 0.0 0.0 0.0 0.0 0.0 1.0 0.0 0.0 0.0 0.0 0.0 303.1844394826546 -88.40384977809795 480.9 -1.245962316568212 1.1500698805931906 -1.1500698805931908 
0.408 0.08323200000000001 -1.5707963267948966 -1.5707963267948966 0.0 1.5707963267948966 0.0 0.40800000000000003 0.0 0.0 0.0 0.0 0.0 1.0 0.0 0.0 0.0 0.0 0.0 303.4685767234366 -87.42349765052661 480.9 -1.247403158802641 1.1476721247132875 -1.1476721247132877 
0.416 0.08652800000000002 -1.5707963267948966 -1.5707963267948966 0.0 1.5707963267948966 0.0 0.41600000000000004 0.0 0.0 0.0 0.0 0.0 1.0 0.0 0.0 0.0 0.0 0.0 303.7550756684213 -86.42279216544465 480.9 -1.2488690025520166 1.145226194578745 -1.1452261945787452 
0.424 0.089888 -1.5707963267948966 -1.5707963267948966 0.0 1.5707963267948966 0.0 0.424 0.0 0.0 0.0 0.0 0.0 1.0 0.0 0.0 0.0 0.0 0.0 304.04374106867937 -85.40168919267246 480.9 -1.2503596423959624 1.1427320516175752 -1.1427320516175754 
0.432 0.09331199999999999 -1.5707963267948966 -1.5707963267948966 0.0 1.5707963267948966 0.0 0.432 0.0 0.0 0.0 0.0 0.0 1.0 0.0 0.0 0.0 0.0 0.0 304.3343736124907 -84.36014484276872 480.9 -1.2518748691353065 1.140189656721796 -1.1401896567217962 
0.44 0.0968 -1.5707963267948966 -1.5707963267948966 0.0 1.5707963267948966 0.0 0.44 0.0 0.0 0.0 0.0 0.0 1.0 0.0 0.0 0.0 0.0 0.0 304.6267699150285 -83.29811553172306 480.9 -1.2534144698033538 1.1375989702590303 -1.1375989702590306 
0.448 0.10035200000000001 -1.5707963267948966 -1.5707963267948966 0.0 1.5707963267948966 0.0 0.448 0.0 0.0 0.0 0.0 0.0 1.0 0.0 0.0 0.0 0.0 0.0 304.9207225083637 -82.21555804698657 480.9 -1.254978227677287 1.1349599520842613 -1.1349599520842617 
0.456 0.103968 -1.5707963267948966 -1.5707963267948966 0.0 1.5707963267948966 0.0 0.456 0.0 0.0 0.0 0.0 0.0 1.0 0.0 0.0 0.0 0.0 0.0 305.21601983181864 -81.11242961484298 480.9 -1.256565922289704 1.132272561551745 -1.1322725615517453 
0.464 0.10764800000000001 -1.5707963267948966 -1.5707963267948966 0.0 1.5707963267948966 0.0 0.464 0.0 0.0 0.0 0.0 0.0 1.0 0.0 0.0 0.0 0.0 0.0 305.5124462227003 -79.9886879691225 480.9 -1.2581773294402823 1.129536757527078 -1.1295367575270783 
0.472 0.11139200000000002 -1.5707963267948966 -1.5707963267948966 0.0 1.5707963267948966 0.0 0.47200000000000003 0.0 0.0 0.0 0.0 0.0 1.0 0.0 0.0 0.0 0.0 0.0 305.8097819074453 -78.84429142126089 480.9 -1.2598122212075618 1.1267524983994113 -1.1267524983994115 
0.48 0.1152 -1.5707963267948966 -1.5707963267948966 0.0 1.5707963267948966 0.0 0.48 0.0 0.0 0.0 0.0 0.0 1.0 0.0 0.0 0.0 0.0 0.0 306.1078029932077 -77.67919893170574 480.9 -1.2614703659608488 1.1239197420938114 -1.1239197420938116 
0.488 0.119072 -1.5707963267948966 -1.5707963267948966 0.0 1.5707963267948966 0.0 0.488 0.0 0.0 0.0 0.0 0.0 1.0 0.0 0.0 0.0 0.0 0.0 306.4062814599219 -76.49337018267077 480.9 -1.2631515283722325 1.1210384460837686 -1.1210384460837688 
0.496 0.12300799999999999 -1.5707963267948966 -1.5707963267948966 0.0 1.5707963267948966 0.0 0.496 0.0 0.0 0.0 0.0 0.0 1.0 0.0 0.0 0.0 0.0 0.0 306.704985152874 -75.28676565224029 480.9 -1.26485546942871 1.1181085674038405 -1.1181085674038407 
0.504 0.127008 -1.5707963267948966 -1.5707963267948966 0.0 1.5707963267948966 0.0 0.504 0.0 0.0 0.0 0.0 0.0 1.0 0.0 0.0 0.0 0.0 0.0 307.00367777581505 -74.05934668982387 480.9 -1.2665819464444141 1.1151300626624359 -1.1151300626624363 
0.512 0.131072 -1.5707963267948966 -1.5707963267948966 0.0 1.5707963267948966 0.0 0.512 0.0 0.0 0.0 0.0 0.0 1.0 0.0 0.0 0.0 0.0 0.0 307.3021188846506 -72.81107559296223 480.9 -1.268330713072941 1.1121028880547332 -1.1121028880547335 
0.52 0.13520000000000001 -1.5707963267948966 -1.5707963267948966 0.0 1.5707963267948966 0.0 0.52 0.0 0.0 0.0 0.0 0.0 1.0 0.0 0.0 0.0 0.0 0.0 307.6000638817408 -71.54191568548418 480.9 -1.2701015193197747 1.1090269993757274 -1.1090269993757278 
0.528 0.13939200000000002 -1.5707963267948966 -1.5707963267948966 0.0 1.5707963267948966 0.0 0.528 0.0 0.0 0.0 0.0 0.0 1.0 0.0 0.0 0.0 0.0 0.0 307.8972640108474 -70.25183139701446 480.9 -1.271894111554794 1.1059023520334073 -1.1059023520334075 
0.536 0.14364800000000003 -1.5707963267948966 -1.5707963267948966 0.0 1.5707963267948966 0.0 0.536 0.0 0.0 0.0 0.0 0.0 1.0 0.0 0.0 0.0 0.0 0.0 308.193466352762 -68.94078834383129 480.9 -1.2737082325248719 1.1027289010620551 -1.1027289010620553 
0.544 0.14796800000000002 -1.5707963267948966 -1.5707963267948966 0.0 1.5707963267948966 0.0 0.544 0.0 0.0 0.0 0.0 0.0 1.0 0.0 0.0 0.0 0.0 0.0 308.48841382165506 -67.60875341107318 480.9 -1.2755436213665516 1.0995066011356742 -1.0995066011356744 
0.552 0.15235200000000002 -1.5707963267948966 -1.5707963267948966 0.0 1.5707963267948966 0.0 0.552 0.0 0.0 0.0 0.0 0.0 1.0 0.0 0.0 0.0 0.0 0.0 308.7818451621793 -66.25569483629245 480.9 -1.2774000136187915 1.0962354065815236 -1.0962354065815239 
0.56 0.15680000000000002 -1.5707963267948966 -1.5707963267948966 0.0 1.5707963267948966 0.0 0.56 0.0 0.0 0.0 0.0 0.0 1.0 0.0 0.0 0.0 0.0 0.0 309.07349494736843 -64.88158229435392 480.9 -1.2792771412357875 1.0929152713937798 -1.09291527139378 
0.568 0.16131200000000004 -1.5707963267948966 -1.5707963267948966 0.0 1.5707963267948966 0.0 0.5680000000000001 0.0 0.0 0.0 0.0 0.0 1.0 0.0 0.0 0.0 0.0 0.0 309.36309357736735 -63.48638698367569 480.9 -1.2811747325998544 1.089546149247304 -1.0895461492473042 
0.576 0.16588800000000004 -1.5707963267948966 -1.5707963267948966 0.0 1.5707963267948966 0.0 0.5760000000000001 0.0 0.0 0.0 0.0 0.0 1.0 0.0 0.0 0.0 0.0 0.0 309.65036727903464 -62.07008171380913 480.9 -1.283092512534367 1.086127993511522 -1.0861279935115224 
0.584 0.17052799999999999 -1.5707963267948966 -1.5707963267948966 0.0 1.5707963267948966 0.0 0.584 0.0 0.0 0.0 0.0 0.0 1.0 0.0 0.0 0.0 0.0 0.0 309.9350381064552 -60.63264099435358 480.9 -1.2850302023167552 1.0826607572644071 -1.0826607572644074 
0.592 0.17523199999999997 -1.5707963267948966 -1.5707963267948966 0.0 1.5707963267948966 0.0 0.592 0.0 0.0 0.0 0.0 0.0 1.0 0.0 0.0 0.0 0.0 0.0 310.21682394240463 -59.17404112520218 480.9 -1.2869875196915488 1.0791443933065696 -1.0791443933065699 
0.6 0.18 -1.5707963267948966 -1.5707963267948966 0.0 1.5707963267948966 0.0 0.6 0.0 0.0 0.0 0.0 0.0 1.0 0.0 0.0 0.0 0.0 0.0 310.49543850080534 -57.694260288113426 480.9 -1.2889641788834592 1.0755788541754445 -1.0755788541754447 
0.608 0.184832 -1.5707963267948966 -1.5707963267948966 0.0 1.5707963267948966 0.0 0.608 0.0 0.0 0.0 0.0 0.0 1.0 0.0 0.0 0.0 0.0 0.0 310.7705913302158 -56.19327863960257 480.9 -1.290959890610505 1.0719640921595757 -1.0719640921595759 
0.616 0.189728 -1.5707963267948966 -1.5707963267948966 0.0 1.5707963267948966 0.0 0.616 0.0 0.0 0.0 0.0 0.0 1.0 0.0 0.0 0.0 0.0 0.0 311.04198781839443 -54.67107840514705 480.9 -1.2929743620971663 1.0683000593129957 -1.0683000593129959 
0.624 0.194688 -1.5707963267948966 -1.5707963267948966 0.0 1.5707963267948966 0.0 0.624 0.0 0.0 0.0 0.0 0.0 1.0 0.0 0.0 0.0 0.0 0.0 311.30932919798215 -53.12764397469877 480.9 -1.2950072970875648 1.064586707469696 -1.0645867074696962 
0.632 0.199712 -1.5707963267948966 -1.5707963267948966 0.0 1.5707963267948966 0.0 0.632 0.0 0.0 0.0 0.0 0.0 1.0 0.0 0.0 0.0 0.0 0.0 311.57231255334386 -51.5629619994952 480.9 -1.2970583958586641 1.0608239882581854 -1.0608239882581856 
0.64 0.2048 -1.5707963267948966 -1.5707963267948966 0.0 1.5707963267948966 0.0 0.64 0.0 0.0 0.0 0.0 0.0 1.0 0.0 0.0 0.0 0.0 0.0 311.83063082861486 -49.97702149016153 480.9 -1.299127355233488 1.0570118531161334 -1.0570118531161337 
0.648 0.209952 -1.5707963267948966 -1.5707963267948966 0.0 1.5707963267948966 0.0 0.648 0.0 0.0 0.0 0.0 0.0 1.0 0.0 0.0 0.0 0.0 0.0 312.08397283699526 -48.3698139160942 480.9 -1.3012138685943437 1.0531502533050965 -1.053150253305097 
0.656 0.21516800000000003 -1.5707963267948966 -1.5707963267948966 0.0 1.5707963267948966 0.0 0.656 0.0 0.0 0.0 0.0 0.0 1.0 0.0 0.0 0.0 0.0 0.0 312.3320232713363 -46.741333306116 480.9 -1.3033176258960528 1.0492391399253238 -1.049239139925324 
0.664 0.22044800000000003 -1.5707963267948966 -1.5707963267948966 0.0 1.5707963267948966 0.0 0.664 0.0 0.0 0.0 0.0 0.0 1.0 0.0 0.0 0.0 0.0 0.0 312.57446271606506 -45.09157635039213 480.9 -1.3054383136791738 1.0452784639306374 -1.0452784639306376 
0.672 0.22579200000000002 -1.5707963267948966 -1.5707963267948966 0.0 1.5707963267948966 0.0 0.672 0.0 0.0 0.0 0.0 0.0 1.0 0.0 0.0 0.0 0.0 0.0 312.8109676604921 -43.42054250359524 480.9 -1.307575615083226 1.0412681761433915 -1.0412681761433917 
0.68 0.23120000000000004 -1.5707963267948966 -1.5707963267948966 0.0 1.5707963267948966 0.0 0.68 0.0 0.0 0.0 0.0 0.0 1.0 0.0 0.0 0.0 0.0 0.0 313.0412105135488 -41.72823408930752 480.9 -1.3097292098598872 1.0372082272694958 -1.0372082272694962 
0.688 0.23667200000000005 -1.5707963267948966 -1.5707963267948966 0.0 1.5707963267948966 0.0 0.6880000000000001 0.0 0.0 0.0 0.0 0.0 1.0 0.0 0.0 0.0 0.0 0.0 313.26485961999964 -40.01465640564612 480.9 -1.3118987743861812 1.0330985679135136 -1.0330985679135138 
0.696 0.24220800000000003 -1.5707963267948966 -1.5707963267948966 0.0 1.5707963267948966 0.0 0.6960000000000001 0.0 0.0 0.0 0.0 0.0 1.0 0.0 0.0 0.0 0.0 0.0 313.48157927817925 -38.27981783209776 480.9 -1.3140839816776364 1.0289391485938213 -1.0289391485938215 
0.704 0.24780799999999997 -1.5707963267948966 -1.5707963267948966 0.0 1.5707963267948966 0.0 0.704 0.0 0.0 0.0 0.0 0.0 1.0 0.0 0.0 0.0 0.0 0.0 313.6910297592985 -36.52372993754742 480.9 -1.3162845014014093 1.0247299197578326 -1.0247299197578328 
0.712 0.253472 -1.5707963267948966 -1.5707963267948966 0.0 1.5707963267948966 0.0 0.712 0.0 0.0 0.0 0.0 0.0 1.0 0.0 0.0 0.0 0.0 0.0 313.8928673283695 -34.746407589484825 480.9 -1.3184999998893734 1.0204708317972837 -1.020470831797284 
0.72 0.2592 -1.5707963267948966 -1.5707963267948966 0.0 1.5707963267948966 0.0 0.72 0.0 0.0 0.0 0.0 0.0 1.0 0.0 0.0 0.0 0.0 0.0 314.08674426679806 -32.947869064371886 480.9 -1.3207301401511626 1.0161618350635744 -1.0161618350635746 
0.728 0.264992 -1.5707963267948966 -1.5707963267948966 0.0 1.5707963267948966 0.0 0.728 0.0 0.0 0.0 0.0 0.0 1.0 0.0 0.0 0.0 0.0 0.0 314.27230889669113 -31.128136159152554 480.9 -1.3229745818871645 1.011802879883167 -1.0118028798831673 
0.73160124 0.2675561978356156 -1.5707963267948966 -1.5707963267948966 0.0 1.5707963267948966 0.0 0.7156012545582676 0.0 0.0 0.0 0.0 0.0 -1.0 0.0 0.0 0.0 0.0 0.0 314.3510943215685 -30.322178332572587 480.9 -1.3239648204476766 1.0098725311026635 -1.0098725311026637 
0.73960125 0.2732490078720817 -1.5707963267948966 -1.5707963267948966 0.0 1.5707963267948966 0.0 0.7076012545582676 0.0 0.0 0.0 0.0 0.0 -1.0 0.0 0.0 0.0 0.0 0.0 314.51861804542676 -28.53215559320619 480.9 -1.3261557948610296 1.0055856724688044 -1.0055856724688046 
0.7476013 0.2788778179085478 -1.5707963267948966 -1.5707963267948966 0.0 1.5707963267948966 0.0 0.6996012545582676 0.0 0.0 0.0 0.0 0.0 -1.0 0.0 0.0 0.0 0.0 0.0 314.6742367685767 -26.761347389728297 480.9 -1.3283120214197683 1.0013453002222585 -1.0013453002222588 
0.7556012 0.28444262794501396 -1.5707963267948966 -1.5707963267948966 0.0 1.5707963267948966 0.0 0.6916012545582676 0.0 0.0 0.0 0.0 0.0 -1.0 0.0 0.0 0.0 0.0 0.0 314.81828555111304 -25.00983971675579 480.9 -1.3304338522564905 0.9971514817459838 -0.997151481745984 
0.76360124 0.2899434379814801 -1.5707963267948966 -1.5707963267948966 0.0 1.5707963267948966 0.0 0.6836012545582676 0.0 0.0 0.0 0.0 0.0 -1.0 0.0 0.0 0.0 0.0 0.0 314.9510962173895 -23.27771448112269 480.9 -1.3325216349442044 0.9930042830876877 -0.993004283087688 
0.77160126 0.2953802480179463 -1.5707963267948966 -1.5707963267948966 0.0 1.5707963267948966 0.0 0.6756012545582676 0.0 0.0 0.0 0.0 0.0 -1.0 0.0 0.0 0.0 0.0 0.0 315.07299731258456 -21.565049604952975 480.9 -1.334575712518953 0.9889037689820179 -0.9889037689820181 
0.7796013 0.30075305805441244 -1.5707963267948966 -1.5707963267948966 0.0 1.5707963267948966 0.0 0.6676012545582676 0.0 0.0 0.0 0.0 0.0 -1.0 0.0 0.0 0.0 0.0 0.0 315.18431406111154 -19.871919127919824 480.9 -1.3365964235019567 0.984850002872318 -0.9848500028723183 
0.78760123 0.3060618680908786 -1.5707963267948966 -1.5707963267948966 0.0 1.5707963267948966 0.0 0.6596012545582676 0.0 0.0 0.0 0.0 0.0 -1.0 0.0 0.0 0.0 0.0 0.0 315.2853683268273 -18.198393308664052 480.9 -1.3385841019212965 0.9808430469319671 -0.9808430469319673 
0.79560125 0.31130667812734475 -1.5707963267948966 -1.5707963267948966 0.0 1.5707963267948966 0.0 0.6516012545582676 0.0 0.0 0.0 0.0 0.0 -1.0 0.0 0.0 0.0 0.0 0.0 315.37647857499684 -16.54453872534838 480.9 -1.3405390773331438 0.9768829620853022 -0.9768829620853023 
0.80360126 0.3164874881638109 -1.5707963267948966 -1.5707963267948966 0.0 1.5707963267948966 0.0 0.6436012545582676 0.0 0.0 0.0 0.0 0.0 -1.0 0.0 0.0 0.0 0.0 0.0 315.4579598359706 -14.910418375322287 480.9 -1.342461674842536 0.9729698080281352 -0.9729698080281354 
0.8116013 0.32160429820027703 -1.5707963267948966 -1.5707963267948966 0.0 1.5707963267948966 0.0 0.6356012545582675 0.0 0.0 0.0 0.0 0.0 -1.0 0.0 0.0 0.0 0.0 0.0 315.53012367053117 -13.29609177387518 480.9 -1.3443522151237166 0.9691036432478733 -0.9691036432478736 
0.81960124 0.32665710823674315 -1.5707963267948966 -1.5707963267948966 0.0 1.5707963267948966 0.0 0.6276012545582675 0.0 0.0 0.0 0.0 0.0 -1.0 0.0 0.0 0.0 0.0 0.0 315.5932781368664 -11.701615052055814 480.9 -1.34621101444004 0.9652845250432411 -0.9652845250432416 
0.82760125 0.3316459182732093 -1.5707963267948966 -1.5707963267948966 0.0 1.5707963267948966 0.0 0.6196012545582675 0.0 0.0 0.0 0.0 0.0 -1.0 0.0 0.0 0.0 0.0 0.0 315.647727759127 -10.12704105353692 480.9 -1.3480383846634514 0.9615125095436264 -0.9615125095436267 
0.8356013 0.33657072830967544 -1.5707963267948966 -1.5707963267948966 0.0 1.5707963267948966 0.0 0.6116012545582675 0.0 0.0 0.0 0.0 0.0 -1.0 0.0 0.0 0.0 0.0 0.0 315.69377349752637 -8.572419430504958 480.9 -1.349834633293545 0.9577876517280378 -0.957787651728038 
0.8436012 0.34143153834614154 -1.5707963267948966 -1.5707963267948966 0.0 1.5707963267948966 0.0 0.6036012545582675 0.0 0.0 0.0 0.0 0.0 -1.0 0.0 0.0 0.0 0.0 0.0 315.73171271994005 -7.037796738555755 480.9 -1.3516000634762164 0.954110005443699 -0.9541100054436993 
0.85160124 0.3462283483826077 -1.5707963267948966 -1.5707963267948966 0.0 1.5707963267948966 0.0 0.5956012545582675 0.0 0.0 0.0 0.0 0.0 -1.0 0.0 0.0 0.0 0.0 0.0 315.7618391749648 -5.523216530577944 480.9 -1.3533349740219058 0.9504796234242708 -0.9504796234242711 
0.85960126 0.3509611584190738 -1.5707963267948966 -1.5707963267948966 0.0 1.5707963267948966 0.0 0.5876012545582675 0.0 0.0 0.0 0.0 0.0 -1.0 0.0 0.0 0.0 0.0 0.0 315.7844429663949 -4.028719449606683 480.9 -1.355039659423443 0.9468965573077179 -0.9468965573077182 
0.8676013 0.35562996845554 -1.5707963267948966 -1.5707963267948966 0.0 1.5707963267948966 0.0 0.5796012545582675 0.0 0.0 0.0 0.0 0.0 -1.0 0.0 0.0 0.0 0.0 0.0 315.79981052907607 -2.5543433206307924 480.9 -1.3567144098735062 0.9433608576538189 -0.9433608576538192 
0.87560123 0.3602347784920062 -1.5707963267948966 -1.5707963267948966 0.0 1.5707963267948966 0.0 0.5716012545582675 0.0 0.0 0.0 0.0 0.0 -1.0 0.0 0.0 0.0 0.0 0.0 315.80822460609517 -1.1001232413380677 480.9 -1.3583595112816893 0.9398725739613308 -0.9398725739613311 
0.88360125 0.3647755885284723 -1.5707963267948966 -1.5707963267948966 0.0 1.5707963267948966 0.0 0.5636012545582675 0.0 0.0 0.0 0.0 0.0 -1.0 0.0 0.0 0.0 0.0 0.0 315.8099642272681 0.3339083282167792 480.9 -1.3599752452911984 0.9364317546848094 -0.9364317546848097 
0.89160126 0.36925239856493847 -1.5707963267948966 -1.5707963267948966 0.0 1.5707963267948966 0.0 0.5556012545582675 0.0 0.0 0.0 0.0 0.0 -1.0 0.0 0.0 0.0 0.0 0.0 315.8053046888838 1.747721477035462 480.9 -1.3615618892951726 0.9330384472510963 -0.9330384472510965 
0.8996013 0.3736652086014046 -1.5707963267948966 -1.5707963267948966 0.0 1.5707963267948966 0.0 0.5476012545582675 0.0 0.0 0.0 0.0 0.0 -1.0 0.0 0.0 0.0 0.0 0.0 315.79451753466725 3.141288755704185 480.9 -1.3631197164526374 0.9296926980754686 -0.9296926980754688 
0.90760124 0.3780140186378707 -1.5707963267948966 -1.5707963267948966 0.0 1.5707963267948966 0.0 0.5396012545582675 0.0 0.0 0.0 0.0 0.0 -1.0 0.0 0.0 0.0 0.0 0.0 315.77787053792224 4.514585090039372 480.9 -1.3646489957041046 0.92639455257747 -0.9263945525774703 
0.91560125 0.38229882867433684 -1.5707963267948966 -1.5707963267948966 0.0 1.5707963267948966 0.0 0.5316012545582675 0.0 0.0 0.0 0.0 0.0 -1.0 0.0 0.0 0.0 0.0 0.0 315.7556276848147 5.867587695863232 480.9 -1.3661499917868154 0.9231440551964152 -0.9231440551964154 
0.92360127 0.3865196387108031 -1.5707963267948966 -1.5707963267948966 0.0 1.5707963267948966 0.0 0.5236012545582674 0.0 0.0 0.0 0.0 0.0 -1.0 0.0 0.0 0.0 0.0 0.0 315.72804915876094 7.2002759949200055 480.9 -1.3676229652496352 0.9199412494065793 -0.9199412494065795 
0.9316012 0.3906764487472692 -1.5707963267948966 -1.5707963267948966 0.0 1.5707963267948966 0.0 0.5156012545582674 0.0 0.0 0.0 0.0 0.0 -1.0 0.0 0.0 0.0 0.0 0.0 315.6953913258813 8.512631531944024 480.9 -1.3690681724676108 0.9167861777320787 -0.9167861777320789 
0.93960124 0.39476925878373537 -1.5707963267948966 -1.5707963267948966 0.0 1.5707963267948966 0.0 0.5076012545582674 0.0 0.0 0.0 0.0 0.0 -1.0 0.0 0.0 0.0 0.0 0.0 315.6579067214843 9.804637892890007 480.9 -1.3704858656561876 0.913678881761441 -0.9136788817614412 
0.94760126 0.39879806882020147 -1.5707963267948966 -1.5707963267948966 0.0 1.5707963267948966 0.0 0.4996012545582674 0.0 0.0 0.0 0.0 0.0 -1.0 0.0 0.0 0.0 0.0 0.0 315.6158440375435 11.076280624333904 480.9 -1.371876292885099 0.9106194021618765 -0.9106194021618768 
0.9556013 0.4027628788566676 -1.5707963267948966 -1.5707963267948966 0.0 1.5707963267948966 0.0 0.4916012545582674 0.0 0.0 0.0 0.0 0.0 -1.0 0.0 0.0 0.0 0.0 0.0 315.56944811113215 12.327547154054603 480.9 -1.3732396980919324 0.9076077786932492 -0.9076077786932494 
0.96360123 0.40666368889313376 -1.5707963267948966 -1.5707963267948966 0.0 1.5707963267948966 0.0 0.4836012545582674 0.0 0.0 0.0 0.0 0.0 -1.0 0.0 0.0 0.0 0.0 0.0 315.51895991378 13.558426712803492 480.9 -1.374576321095371 0.9046440502217559 -0.9046440502217561 
0.97160125 0.4105004989295999 -1.5707963267948966 -1.5707963267948966 0.0 1.5707963267948966 0.0 0.4756012545582674 0.0 0.0 0.0 0.0 0.0 -1.0 0.0 0.0 0.0 0.0 0.0 315.4646165417172 14.768910257270644 480.9 -1.3758863976081277 0.9017282547333151 -0.9017282547333153 
0.97960126 0.414273308966066 -1.5707963267948966 -1.5707963267948966 0.0 1.5707963267948966 0.0 0.4676012545582674 0.0 0.0 0.0 0.0 0.0 -1.0 0.0 0.0 0.0 0.0 0.0 315.40665120697133 15.95899039425402 480.9 -1.377170159249567 0.8988604293466713 -0.8988604293466715 
0.9876013 0.4179821190025322 -1.5707963267948966 -1.5707963267948966 0.0 1.5707963267948966 0.0 0.4596012545582674 0.0 0.0 0.0 0.0 0.0 -1.0 0.0 0.0 0.0 0.0 0.0 315.3452932292838 17.128661306039003 480.9 -1.3784278335580227 0.8960406103262172 -0.8960406103262174 
0.99560124 0.4216269290389983 -1.5707963267948966 -1.5707963267948966 0.0 1.5707963267948966 0.0 0.4516012545582674 0.0 0.0 0.0 0.0 0.0 -1.0 0.0 0.0 0.0 0.0 0.0 315.2807680288114 18.277918676993803 480.9 -1.379659644002816 0.8932688330945381 -0.8932688330945382 
1.0036013 0.4252077390754645 -1.5707963267948966 -1.5707963267948966 0.0 1.5707963267948966 0.0 0.44360125455826727 0.0 0.0 0.0 0.0 0.0 -1.0 0.0 0.0 0.0 0.0 0.0 315.2132971195817 19.406759621387327 480.9 -1.3808658099959867 0.8905451322446843 -0.8905451322446845 
1.0116012 0.42872454911193064 -1.5707963267948966 -1.5707963267948966 0.0 1.5707963267948966 0.0 0.43560125455826726 0.0 0.0 0.0 0.0 0.0 -1.0 0.0 0.0 0.0 0.0 0.0 315.14309810366854 20.51518261243371 480.9 -1.3820465469037237 0.8878695415521691 -0.8878695415521694 
1.0196012 0.4321773591483968 -1.5707963267948966 -1.5707963267948966 0.0 1.5707963267948966 0.0 0.42760125455826725 0.0 0.0 0.0 0.0 0.0 -1.0 0.0 0.0 0.0 0.0 0.0 315.0703846660574 21.603187412569167 480.9 -1.383202066057522 0.8852420939867061 -0.8852420939867063 
1.0276012 0.4355661691848629 -1.5707963267948966 -1.5707963267948966 0.0 1.5707963267948966 0.0 0.41960125455826724 0.0 0.0 0.0 0.0 0.0 -1.0 0.0 0.0 0.0 0.0 0.0 314.99536657016756 22.67077500496512 480.9 -1.3843325747650541 0.8826628217236767 -0.882662821723677 
1.0356013 0.4388909792213291 -1.5707963267948966 -1.5707963267948966 0.0 1.5707963267948966 0.0 0.41160125455826724 0.0 0.0 0.0 0.0 0.0 -1.0 0.0 0.0 0.0 0.0 0.0 314.91824965400235 23.71794752628169 480.9 -1.3854382763207669 0.8801317561553422 -0.8801317561553423 
1.0436013 0.4421517892577952 -1.5707963267948966 -1.5707963267948966 0.0 1.5707963267948966 0.0 0.40360125455826723 0.0 0.0 0.0 0.0 0.0 -1.0 0.0 0.0 0.0 0.0 0.0 314.83923582689613 24.744708200665137 480.9 -1.3865193700162086 0.8776489279017958 -0.8776489279017959 
1.0516013 0.44534859929426135 -1.5707963267948966 -1.5707963267948966 0.0 1.5707963267948966 0.0 0.3956012545582672 0.0 0.0 0.0 0.0 0.0 -1.0 0.0 0.0 0.0 0.0 0.0 314.758523066829 25.751061274992693 480.9 -1.3875760511500892 0.875214366821663 -0.8752143668216631 
1.0596013 0.44848140933072744 -1.5707963267948966 -1.5707963267948966 0.0 1.5707963267948966 0.0 0.3876012545582672 0.0 0.0 0.0 0.0 0.0 -1.0 0.0 0.0 0.0 0.0 0.0 314.67630541827987 26.737011955366867 480.9 -1.3886085110380768 0.8728281020225502 -0.8728281020225503 
1.0676012 0.4515502193671936 -1.5707963267948966 -1.5707963267948966 0.0 1.5707963267948966 0.0 0.3796012545582672 0.0 0.0 0.0 0.0 0.0 -1.0 0.0 0.0 0.0 0.0 0.0 314.59277299058925 27.702566344863143 480.9 -1.389616937022338 0.8704901618712448 -0.8704901618712448 
1.0756012 0.4545550294036599 -1.5707963267948966 -1.5707963267948966 0.0 1.5707963267948966 0.0 0.3716012545582672 0.0 0.0 0.0 0.0 0.0 -1.0 0.0 0.0 0.0 0.0 0.0 314.5081119568052 28.647731382531862 480.9 -1.3906015124808226 0.8682005740036715 -0.8682005740036716 
1.0836012 0.4574958394401259 -1.5707963267948966 -1.5707963267948966 0.0 1.5707963267948966 0.0 0.3636012545582672 0.0 0.0 0.0 0.0 0.0 -1.0 0.0 0.0 0.0 0.0 0.0 314.4225045529826 29.57251478365693 480.9 -1.3915624168362999 0.8659593653346059 -0.865959365334606 
1.0916013 0.4603726494765921 -1.5707963267948966 -1.5707963267948966 0.0 1.5707963267948966 0.0 0.3556012545582672 0.0 0.0 0.0 0.0 0.0 -1.0 0.0 0.0 0.0 0.0 0.0 314.3361290779121 30.476924981273367 480.9 -1.392499825565144 0.863766562067147 -0.8637665620671471 
1.0996013 0.4631854595130581 -1.5707963267948966 -1.5707963267948966 0.0 1.5707963267948966 0.0 0.3476012545582672 0.0 0.0 0.0 0.0 0.0 -1.0 0.0 0.0 0.0 0.0 0.0 314.24915989324916 31.36097106894363 480.9 -1.393413910205881 0.8616221897019544 -0.8616221897019545 
1.1076013 0.4659342695495244 -1.5707963267948966 -1.5707963267948966 0.0 1.5707963267948966 0.0 0.3396012545582672 0.0 0.0 0.0 0.0 0.0 -1.0 0.0 0.0 0.0 0.0 0.0 314.1617674240201 32.22466274479583 480.9 -1.394304838367497 0.85952627304625 -0.85952627304625 
1.1156013 0.4686190795859904 -1.5707963267948966 -1.5707963267948966 0.0 1.5707963267948966 0.0 0.33160125455826717 0.0 0.0 0.0 0.0 0.0 -1.0 0.0 0.0 0.0 0.0 0.0 314.07411815947944 33.06801025682239 480.9 -1.395172773737507 0.8574788362225882 -0.8574788362225884 
1.1236012 0.47123988962245666 -1.5707963267948966 -1.5707963267948966 0.0 1.5707963267948966 0.0 0.32360125455826716 0.0 0.0 0.0 0.0 0.0 -1.0 0.0 0.0 0.0 0.0 0.0 313.98637465429215 33.89102434944222 480.9 -1.3960178760897954 0.855479902677395 -0.8554799026773952 
1.1316012 0.4737966996589227 -1.5707963267948966 -1.5707963267948966 0.0 1.5707963267948966 0.0 0.31560125455826715 0.0 0.0 0.0 0.0 0.0 -1.0 0.0 0.0 0.0 0.0 0.0 313.8986955300198 34.693716211324436 480.9 -1.3968403012922275 0.8535294951892812 -0.8535294951892813 
1.1396012 0.4762895096953889 -1.5707963267948966 -1.5707963267948966 0.0 1.5707963267948966 0.0 0.30760125455826715 0.0 0.0 0.0 0.0 0.0 -1.0 0.0 0.0 0.0 0.0 0.0 313.8112354768852 35.47609742447597 480.9 -1.397640201314032 0.851627635877128 -0.8516276358771281 
1.1476012 0.47871831973185497 -1.5707963267948966 -1.5707963267948966 0.0 1.5707963267948966 0.0 0.29960125455826714 0.0 0.0 0.0 0.0 0.0 -1.0 0.0 0.0 0.0 0.0 0.0 313.72414525579273 36.23817991459109 480.9 -1.3984177242329678 0.8497743462079519 -0.849774346207952 
1.1556013 0.4810831297683212 -1.5707963267948966 -1.5707963267948966 0.0 1.5707963267948966 0.0 0.29160125455826713 0.0 0.0 0.0 0.0 0.0 -1.0 0.0 0.0 0.0 0.0 0.0 313.63757170058295 36.97997590266478 480.9 -1.3991730142422658 0.8479696470045456 -0.8479696470045457 
1.1636013 0.48338393980478733 -1.5707963267948966 -1.5707963267948966 0.0 1.5707963267948966 0.0 0.2836012545582671 0.0 0.0 0.0 0.0 0.0 -1.0 0.0 0.0 0.0 0.0 0.0 313.55165772049935 37.70149785786757 480.9 -1.39990621165736 0.8462135584529037 -0.8462135584529038 
1.1716013 0.4856207498412535 -1.5707963267948966 -1.5707963267948966 0.0 1.5707963267948966 0.0 0.2756012545582671 0.0 0.0 0.0 0.0 0.0 -1.0 0.0 0.0 0.0 0.0 0.0 313.4665423028456 38.40275845168306 480.9 -1.4006174529224005 0.8445061001094248 -0.844506100109425 
1.1796013 0.4877935598777196 -1.5707963267948966 -1.5707963267948966 0.0 1.5707963267948966 0.0 0.2676012545582671 0.0 0.0 0.0 0.0 0.0 -1.0 0.0 0.0 0.0 0.0 0.0 313.3823605158133 39.08377051330654 480.9 -1.4013068706165623 0.8428472909079051 -0.8428472909079052 
1.1876012 0.48990236991418573 -1.5707963267948966 -1.5707963267948966 0.0 1.5707963267948966 0.0 0.2596012545582671 0.0 0.0 0.0 0.0 0.0 -1.0 0.0 0.0 0.0 0.0 0.0 313.29924351146053 39.74454698630439 480.9 -1.4019745934601409 0.8412371491663133 -0.8412371491663135 
1.1956012 0.49194717995065185 -1.5707963267948966 -1.5707963267948966 0.0 1.5707963267948966 0.0 0.2516012545582671 0.0 0.0 0.0 0.0 0.0 -1.0 0.0 0.0 0.0 0.0 0.0 313.21731852882033 40.38510088653341 480.9 -1.4026207463204508 0.8396756925933566 -0.8396756925933567 
1.2036012 0.493927989987118 -1.5707963267948966 -1.5707963267948966 0.0 1.5707963267948966 0.0 0.2436012545582671 0.0 0.0 0.0 0.0 0.0 -1.0 0.0 0.0 0.0 0.0 0.0 313.13670889712205 41.00544526131895 480.9 -1.4032454502175136 0.8381629382948329 -0.838162938294833 
1.2116013 0.4958448000235841 -1.5707963267948966 -1.5707963267948966 0.0 1.5707963267948966 0.0 0.23560125455826708 0.0 0.0 0.0 0.0 0.0 -1.0 0.0 0.0 0.0 0.0 0.0 313.0575340391055 41.60559314989099 480.9 -1.4038488223295542 0.8366989027797785 -0.8366989027797787 
1.2196013 0.49769761006005026 -1.5707963267948966 -1.5707963267948966 0.0 1.5707963267948966 0.0 0.22760125455826707 0.0 0.0 0.0 0.0 0.0 -1.0 0.0 0.0 0.0 0.0 0.0 312.9799094744117 42.18555754507728 480.9 -1.4044309759982956 0.8352836019664055 -0.8352836019664056 
1.2276013 0.4994864200965164 -1.5707963267948966 -1.5707963267948966 0.0 1.5707963267948966 0.0 0.21960125455826707 0.0 0.0 0.0 0.0 0.0 -1.0 0.0 0.0 0.0 0.0 0.0 312.90394682303156 42.745351356251746 480.9 -1.404992020734062 0.8339170511878347 -0.8339170511878348 
1.2356013 0.5012112301329825 -1.5707963267948966 -1.5707963267948966 0.0 1.5707963267948966 0.0 0.21160125455826706 0.0 0.0 0.0 0.0 0.0 -1.0 0.0 0.0 0.0 0.0 0.0 312.82975380879725 43.2849873735376 480.9 -1.4055320622206884 0.8325992651976243 -0.8325992651976244 
1.2436012 0.5028720401694486 -1.5707963267948966 -1.5707963267948966 0.0 1.5707963267948966 0.0 0.20360125455826705 0.0 0.0 0.0 0.0 0.0 -1.0 0.0 0.0 0.0 0.0 0.0 312.7574342628989 43.8044782332635 480.9 -1.4060512023202403 0.8313302581750951 -0.8313302581750952 
1.2516012 0.5044688502059148 -1.5707963267948966 -1.5707963267948966 0.0 1.5707963267948966 0.0 0.19560125455826705 0.0 0.0 0.0 0.0 0.0 -1.0 0.0 0.0 0.0 0.0 0.0 312.6870881274125 44.30383638467171 480.9 -1.4065495390775482 0.8301100437304539 -0.830110043730454 
1.2596012 0.506001660242381 -1.5707963267948966 -1.5707963267948966 0.0 1.5707963267948966 0.0 0.18760125455826704 0.0 0.0 0.0 0.0 0.0 -1.0 0.0 0.0 0.0 0.0 0.0 312.6188114588224 44.78307405787639 480.9 -1.4070271667245509 0.8289386349097183 -0.8289386349097184 
1.2676013 0.5074704702788471 -1.5707963267948966 -1.5707963267948966 0.0 1.5707963267948966 0.0 0.17960125455826703 0.0 0.0 0.0 0.0 0.0 -1.0 0.0 0.0 0.0 0.0 0.0 312.5526964315257 45.242203233071265 480.9 -1.4074841756844634 0.82781604419944 -0.8278160441994401 
1.2756013 0.5088752803153134 -1.5707963267948966 -1.5707963267948966 0.0 1.5707963267948966 0.0 0.17160125455826702 0.0 0.0 0.0 0.0 0.0 -1.0 0.0 0.0 0.0 0.0 0.0 312.48883134130347 45.68123561098521 480.9 -1.4079206525757542 0.8267422835312309 -0.826742283531231 
1.2836013 0.5102160903517794 -1.5707963267948966 -1.5707963267948966 0.0 1.5707963267948966 0.0 0.16360125455826702 0.0 0.0 0.0 0.0 0.0 -1.0 0.0 0.0 0.0 0.0 0.0 312.42730060874646 46.100182584583536 480.9 -1.4083366802159494 0.8257173642860939 -0.825717364286094 
1.2916013 0.5114929003882456 -1.5707963267948966 -1.5707963267948966 0.0 1.5707963267948966 0.0 0.155601254558267 0.0 0.0 0.0 0.0 0.0 -1.0 0.0 0.0 0.0 0.0 0.0 312.3681847826215 46.499055212015065 480.9 -1.4087323376252552 0.8247412972985542 -0.8247412972985543 
1.2996012 0.5127057104247116 -1.5707963267948966 -1.5707963267948966 0.0 1.5707963267948966 0.0 0.147601254558267 0.0 0.0 0.0 0.0 0.0 -1.0 0.0 0.0 0.0 0.0 0.0 312.31156054316773 46.877864190801915 480.9 -1.4091077000300063 0.8238140928605999 -0.8238140928606 
1.3076012 0.5138545204611779 -1.5707963267948966 -1.5707963267948966 0.0 1.5707963267948966 0.0 0.139601254558267 0.0 0.0 0.0 0.0 0.0 -1.0 0.0 0.0 0.0 0.0 0.0 312.25750070531035 47.23661983327228 480.9 -1.4094628388659363 0.8229357607254253 -0.8229357607254254 
1.3156012 0.5149393304976438 -1.5707963267948966 -1.5707963267948966 0.0 1.5707963267948966 0.0 0.131601254558267 0.0 0.0 0.0 0.0 0.0 -1.0 0.0 0.0 0.0 0.0 0.0 312.2060742217808 47.575332043233196 480.9 -1.409797821781278 0.8221063101109835 -0.8221063101109836 
1.3236012 0.5159601405341101 -1.5707963267948966 -1.5707963267948966 0.0 1.5707963267948966 0.0 0.12360125455826698 0.0 0.0 0.0 0.0 0.0 -1.0 0.0 0.0 0.0 0.0 0.0 312.1573461861331 47.894010293883895 480.9 -1.4101127126396906 0.8213257497033442 -0.8213257497033443 
1.3316013 0.5169169505705762 -1.5707963267948966 -1.5707963267948966 0.0 1.5707963267948966 0.0 0.11560125455826697 0.0 0.0 0.0 0.0 0.0 -1.0 0.0 0.0 0.0 0.0 0.0 312.11137783564664 48.19266360696626 480.9 -1.4104075715230147 0.8205940876598632 -0.8205940876598633 
1.3396013 0.5178097606070424 -1.5707963267948966 -1.5707963267948966 0.0 1.5707963267948966 0.0 0.10760125455826697 0.0 0.0 0.0 0.0 0.0 -1.0 0.0 0.0 0.0 0.0 0.0 312.0682265541058 48.47130053315329 480.9 -1.4106824547338606 0.8199113316121583 -0.8199113316121585 
1.3476013 0.5186385706435085 -1.5707963267948966 -1.5707963267948966 0.0 1.5707963267948966 0.0 0.09960125455826696 0.0 0.0 0.0 0.0 0.0 -1.0 0.0 0.0 0.0 0.0 0.0 312.0279458744476 48.72992913367259 480.9 -1.4109374147980276 0.8192774886688973 -0.8192774886688974 
1.3556013 0.5194033806799746 -1.5707963267948966 -1.5707963267948966 0.0 1.5707963267948966 0.0 0.09160125455826695 0.0 0.0 0.0 0.0 0.0 -1.0 0.0 0.0 0.0 0.0 0.0 311.99058548126936 48.96855696316525 480.9 -1.4111725004667557 0.8186925654183954 -0.8186925654183955 
1.3636012 0.5201041907164408 -1.5707963267948966 -1.5707963267948966 0.0 1.5707963267948966 0.0 0.08360125455826695 0.0 0.0 0.0 0.0 0.0 -1.0 0.0 0.0 0.0 0.0 0.0 311.95619121318805 49.18719105377758 480.9 -1.4113877567188131 0.8181565679310242 -0.8181565679310243 
1.3716012 0.5207410007529069 -1.5707963267948966 -1.5707963267948966 0.0 1.5707963267948966 0.0 0.07560125455826694 0.0 0.0 0.0 0.0 0.0 -1.0 0.0 0.0 0.0 0.0 0.0 311.924805065046 49.385837900485846 480.9 -1.4115832247624172 0.8176695017614338 -0.8176695017614339 
1.3796012 0.521313810789373 -1.5707963267948966 -1.5707963267948966 0.0 1.5707963267948966 0.0 0.06760125455826693 0.0 0.0 0.0 0.0 0.0 -1.0 0.0 0.0 0.0 0.0 0.0 311.8964651899531 49.564503447652605 480.9 -1.4117589420369903 0.8172313719505837 -0.8172313719505838 
1.3876013 0.5218226208258392 -1.5707963267948966 -1.5707963267948966 0.0 1.5707963267948966 0.0 0.059601254558266925 0.0 0.0 0.0 0.0 0.0 -1.0 0.0 0.0 0.0 0.0 0.0 311.87120590116353 49.72319307681331 480.9 -1.4119149422147592 0.8168421830275918 -0.8168421830275919 
1.3956013 0.5222674308623053 -1.5707963267948966 -1.5707963267948966 0.0 1.5707963267948966 0.0 0.05160125455826692 0.0 0.0 0.0 0.0 0.0 -1.0 0.0 0.0 0.0 0.0 0.0 311.8490576737779 49.86191159569322 480.9 -1.4120512552021818 0.8165019390113921 -0.8165019390113922 
1.4036013 0.5226482408987714 -1.5707963267948966 -1.5707963267948966 0.0 1.5707963267948966 0.0 0.04360125455826691 0.0 0.0 0.0 0.0 0.0 -1.0 0.0 0.0 0.0 0.0 0.0 311.8300471462684 49.98066322845313 480.9 -1.4121679071412199 0.8162106434122076 -0.8162106434122077 
1.4116013 0.5229650509352375 -1.5707963267948966 -1.5707963267948966 0.0 1.5707963267948966 0.0 0.035601254558266904 0.0 0.0 0.0 0.0 0.0 -1.0 0.0 0.0 0.0 0.0 0.0 311.8141971218208 50.07945160716362 480.9 -1.4122649204104507 0.8159682992328384 -0.8159682992328385 
1.4196012 0.5232178609717036 -1.5707963267948966 -1.5707963267948966 0.0 1.5707963267948966 0.0 0.027601254558266897 0.0 0.0 0.0 0.0 0.0 -1.0 0.0 0.0 0.0 0.0 0.0 311.80152656949167 50.158279764507085 480.9 -1.412342313626011 0.8157749089697615 -0.8157749089697616 
1.4276012 0.52340667100817 -1.5707963267948966 -1.5707963267948966 0.0 1.5707963267948966 0.0 0.01960125455826689 0.0 0.0 0.0 0.0 0.0 -1.0 0.0 0.0 0.0 0.0 0.0 311.7920506251744 50.21715012770713 480.9 -1.4124001016423895 0.8156304746140479 -0.815630474614048 
1.4356012 0.5235314810446359 -1.5707963267948966 -1.5707963267948966 0.0 1.5707963267948966 0.0 0.011601254558266882 0.0 0.0 0.0 0.0 0.0 -1.0 0.0 0.0 0.0 0.0 0.0 311.78578059237464 50.256064513684436 480.9 -1.4124382955530541 0.8155349976520937 -0.8155349976520938 
1.4436013 0.5235922910811022 -1.5707963267948966 -1.5707963267948966 0.0 1.5707963267948966 0.0 0.0036012545582668753 0.0 0.0 0.0 0.0 0.0 -1.0 0.0 0.0 0.0 0.0 0.0 311.78272394279065 50.2750241254403 480.9 -1.4124569026909224 0.8154884790661626 -0.8154884790661626 
1.4516013 0.5235891011175682 -1.5707963267948966 -1.5707963267948966 0.0 1.5707963267948966 0.0 -0.004398745441733132 0.0 0.0 0.0 0.0 0.0 -1.0 0.0 0.0 0.0 0.0 0.0 311.7828843166979 50.274029549664604 480.9 -1.4124559266286691 0.8154909193347499 -0.81549091933475 
