Fleaurent/UniversalRobot/csv/robolib_movej_Trapez.csv
timestamp target_q_0 target_q_1 target_q_2 target_q_3 target_q_4 target_q_5 target_qd_0 target_qd_1 target_qd_2 target_qd_3 target_qd_4 target_qd_5 target_qdd_0 target_qdd_1 target_qdd_2 target_qdd_3 target_qdd_4 target_qdd_5 target_TCP_pose_0 target_TCP_pose_1 target_TCP_pose_2 target_TCP_pose_3 target_TCP_pose_4 target_TCP_pose_5 target_TCP_speed_0 target_TCP_speed_1 target_TCP_speed_2 target_TCP_speed_3 target_TCP_speed_4 target_TCP_speed_5
0.0 0.0 -1.5707963267948966 -1.5707963267948966 0.0 1.5707963267948966 0.0 0.0 0.0 0.0 0.0 0.0 0.0 1.0 0.0 0.0 0.0 0.0 0.0 0.29514999999999997 -0.11234999999999999 0.4809 -1.2091995761561454 1.2091995761561456 -1.2091995761561458 0.0 0.0 0.0 0.0 0.0 0.0 
0.008 3.2e-05 -1.5707963267948966 -1.5707963267948966 0.0 1.5707963267948966 0.0 0.008 0.0 0.0 0.0 0.0 0.0 1.0 0.0 0.0 0.0 0.0 0.0 0.29515359504888256 -0.11234055514247841 0.4809 -1.2092147055764364 1.2091760113249628 -1.209176011324963 0.0008987244411398273 0.0023612287603910604 0.0 0.0 0.0 0.008 
0.016 0.000128 -1.5707963267948966 -1.5707963267948966 0.0 1.5707963267948966 0.0 0.016 0.0 0.0 0.0 0.0 0.0 1.0 0.0 0.0 0.0 0.0 0.0 0.29516437838209186 -0.11231221987973197 0.4809 -1.2092600917893326 1.209105316402997 -1.2091053164029972 0.0017969955180757117 0.00472263005411347 0.0 0.0 0.0 0.016 
0.024 0.000288 -1.5707963267948966 -1.5707963267948966 0.0 1.5707963267948966 0.0 0.024 0.0 0.0 0.0 0.0 0.0 1.0 0.0 0.0 0.0 0.0 0.0 0.295182344559092 -0.11226499214179592 0.4809 -1.2093357286510245 1.2089874901051165 -1.2089874901051167 0.002694359811403102 0.007084376269418208 0.0 0.0 0.0 0.024 
0.032 0.000512 -1.5707963267948966 -1.5707963267948966 0.0 1.5707963267948966 0.0 0.032 0.0 0.0 0.0 0.0 0.0 1.0 0.0 0.0 0.0 0.0 0.0 0.2952074845115868 -0.1121988684806635 0.4809 -1.2094416059222521 1.2088225302898576 -1.2088225302898579 0.0035903637913812323 0.009446639504370778 0.0 0.0 0.0 0.032 
0.04 0.0008 -1.5707963267948966 -1.5707963267948966 0.0 1.5707963267948966 0.0 0.04 0.0 0.0 0.0 0.0 0.0 1.0 0.0 0.0 0.0 0.0 0.0 0.2952397855424178 -0.11211384407318803 0.4809 -1.209577709268942 1.2086104339600623 -1.2086104339600627 0.004484553762927521 0.011809591421696713 0.0 0.0 0.0 0.04 
0.048 0.001152 -1.5707963267948966 -1.5707963267948966 0.0 1.5707963267948966 0.0 0.048 0.0 0.0 0.0 0.0 0.0 1.0 0.0 0.0 0.0 0.0 0.0 0.2952792313240216 -0.11200991272514643 0.4809 -1.2097440202630958 1.2083511972637653 -1.2083511972637655 0.005376475810807029 0.014173403103553039 0.0 0.0 0.0 0.048 
0.056 0.0015680000000000002 -1.5707963267948966 -1.5707963267948966 0.0 1.5707963267948966 0.0 0.056 0.0 0.0 0.0 0.0 0.0 1.0 0.0 0.0 0.0 0.0 0.0 0.29532580189645036 -0.11188706687646495 0.4809 -1.2099405163839287 1.208044815495334 -1.2080448154953343 0.006265675745082037 0.01653824490620122 0.0 0.0 0.0 0.056 
0.064 0.002048 -1.5707963267948966 -1.5707963267948966 0.0 1.5707963267948966 0.0 0.064 0.0 0.0 0.0 0.0 0.0 1.0 0.0 0.0 0.0 0.0 0.0 0.295379473664957 -0.11174529760760826 0.4809 -1.21016717101927 1.2076912830968698 -1.20769128309687 0.007151699046886929 0.018904286314557248 0.0 0.0 0.0 0.064 
0.072 0.0025920000000000006 -1.5707963267948966 -1.5707963267948966 0.0 1.5707963267948966 0.0 0.07200000000000001 0.0 0.0 0.0 0.0 0.0 1.0 0.0 0.0 0.0 0.0 0.0 0.2954402193971484 -0.11158459464713222 0.4809 -1.2104239534672074 1.2072905936598501 -1.2072905936598504 0.00803409081459352 0.021271695796594686 0.0 0.0 0.0 0.07200000000000001 
0.08 0.0032 -1.5707963267948966 -1.5707963267948966 0.0 1.5707963267948966 0.0 0.08 0.0 0.0 0.0 0.0 0.0 1.0 0.0 0.0 0.0 0.0 0.0 0.295508008219709 -0.11140494638040258 0.4809 -1.2107108289379842 1.2068427399270305 -1.206842739927031 0.008912395710432206 0.023640640657576723 0.0 0.0 0.0 0.08 
0.088 0.0038719999999999996 -1.5707963267948966 -1.5707963267948966 0.0 1.5707963267948966 0.0 0.088 0.0 0.0 0.0 0.0 0.0 1.0 0.0 0.0 0.0 0.0 0.0 0.2955828056147004 -0.11120633985948025 0.4809 -1.2110277585561553 1.206347713794597 -1.2063477137945973 0.009786157907634261 0.026011286894093634 0.0 0.0 0.0 0.088 
0.096 0.004608 -1.5707963267948966 -1.5707963267948966 0.0 1.5707963267948966 0.0 0.096 0.0 0.0 0.0 0.0 0.0 1.0 0.0 0.0 0.0 0.0 0.0 0.2956645734154394 -0.11098876081417536 0.4809 -1.2113746993629853 1.2058055063145694 -1.2058055063145698 0.010654921038160835 0.028383799047882182 0.0 0.0 0.0 0.096 
0.104 0.005408000000000001 -1.5707963267948966 -1.5707963267948966 0.0 1.5707963267948966 0.0 0.10400000000000001 0.0 0.0 0.0 0.0 0.0 1.0 0.0 0.0 0.0 0.0 0.0 0.29575326980196126 -0.11075219366427147 0.4809 -1.211751604319099 1.2052161076974512 -1.2052161076974515 0.011518228141084235 0.030758340059403973 0.0 0.0 0.0 0.10400000000000001 
0.112 0.006272000000000001 -1.5707963267948966 -1.5707963267948966 0.0 1.5707963267948966 0.0 0.112 0.0 0.0 0.0 0.0 0.0 1.0 0.0 0.0 0.0 0.0 0.0 0.29584884929607225 -0.11049662153292249 0.4809 -1.212158422307384 1.204579507315135 -1.2045795073151353 0.012375621611687319 0.03313507112116009 0.0 0.0 0.0 0.112 
0.12 0.0072 -1.5707963267948966 -1.5707963267948966 0.0 1.5707963267948966 0.0 0.12 0.0 0.0 0.0 0.0 0.0 1.0 0.0 0.0 0.0 0.0 0.0 0.2959512627559985 -0.1102220262612239 0.4809 -1.212595098136135 1.203895693704051 -1.2038956937040513 0.013226643151346869 0.035514151530719816 0.0 0.0 0.0 0.12 
0.128 0.008192 -1.5707963267948966 -1.5707963267948966 0.0 1.5707963267948966 0.0 0.128 0.0 0.0 0.0 0.0 0.0 1.0 0.0 0.0 0.0 0.0 0.0 0.29606045737063685 -0.10992838842396122 0.4809 -1.2130615725424498 1.2031646545685644 -1.2031646545685646 0.014070833718267036 0.03789573854344152 0.0 0.0 0.0 0.128 
0.136 0.009248000000000001 -1.5707963267948966 -1.5707963267948966 0.0 1.5707963267948966 0.0 0.136 0.0 0.0 0.0 0.0 0.0 1.0 0.0 0.0 0.0 0.0 0.0 0.29617637665341584 -0.10961568734653783 0.4809 -1.2135577821958687 1.202386376784623 -1.2023863767846232 0.014907733479129145 0.040279987224864554 0.0 0.0 0.0 0.136 
0.144 0.010368000000000002 -1.5707963267948966 -1.5707963267948966 0.0 1.5707963267948966 0.0 0.14400000000000002 0.0 0.0 0.0 0.0 0.0 1.0 0.0 0.0 0.0 0.0 0.0 0.2962989604357729 -0.10928390112308517 0.4809 -1.2140836597022584 1.201560846403644 -1.2015608464036442 0.015736881761724265 0.04266705030275131 0.0 0.0 0.0 0.14400000000000002 
0.152 0.011552 -1.5707963267948966 -1.5707963267948966 0.0 1.5707963267948966 0.0 0.152 0.0 0.0 0.0 0.0 0.0 1.0 0.0 0.0 0.0 0.0 0.0 0.2964281448602577 -0.10893300663575797 0.4809 -1.2146391336079376 1.2006880486566487 -1.200688048656649 0.016557817008635213 0.04505707801875917 0.0 0.0 0.0 0.152 
0.16 0.0128 -1.5707963267948966 -1.5707963267948966 0.0 1.5707963267948966 0.0 0.16 0.0 0.0 0.0 0.0 0.0 1.0 0.0 0.0 0.0 0.0 0.0 0.2965638623732683 -0.1085629795752177 0.4809 -1.2152241284040484 1.1997679679586404 -1.1997679679586406 0.01737007673203483 0.04745021797972293 0.0 0.0 0.0 0.16 
0.168 0.014112000000000001 -1.5707963267948966 -1.5707963267948966 0.0 1.5707963267948966 0.0 0.168 0.0 0.0 0.0 0.0 0.0 1.0 0.0 0.0 0.0 0.0 0.0 0.2967060417174319 -0.1081737944623074 0.4809 -1.2158385645311605 1.1988005879132215 -1.1988005879132217 0.018173197469667644 0.049846615008528564 0.0 0.0 0.0 0.168 
0.176 0.015487999999999998 -1.5707963267948966 -1.5707963267948966 0.0 1.5707963267948966 0.0 0.176 0.0 0.0 0.0 0.0 0.0 1.0 0.0 0.0 0.0 0.0 0.0 0.2968546079236366 -0.10776542467092122 0.4809 -1.21648235838412 1.1977858913174522 -1.1977858913174524 0.018966714742082134 0.05224641099456004 0.0 0.0 0.0 0.176 
0.184 0.016928 -1.5707963267948966 -1.5707963267948966 0.0 1.5707963267948966 0.0 0.184 0.0 0.0 0.0 0.0 0.0 1.0 0.0 0.0 0.0 0.0 0.0 0.2970094823027274 -0.10733784245207202 0.4809 -1.2171554223171324 1.1967238601669474 -1.1967238601669477 0.01975016301118125 0.054649744743701836 0.0 0.0 0.0 0.184 
0.192 0.018432 -1.5707963267948966 -1.5707963267948966 0.0 1.5707963267948966 0.0 0.192 0.0 0.0 0.0 0.0 0.0 1.0 0.0 0.0 0.0 0.0 0.0 0.2971705824368762 -0.10689101895916102 0.4809 -1.217857664649078 1.195614475661211 -1.1956144756612113 0.020523075640158917 0.05705675182788023 0.0 0.0 0.0 0.192 
0.2 0.020000000000000004 -1.5707963267948966 -1.5707963267948966 0.0 1.5707963267948966 0.0 0.2 0.0 0.0 0.0 0.0 0.0 1.0 0.0 0.0 0.0 0.0 0.0 0.29733782217063637 -0.10642492427445274 0.4809 -1.2185889896690676 1.194457718209207 -1.1944577182092075 0.02128498485489055 0.059467564434127276 0.0 0.0 0.0 0.2 
0.208 0.021632000000000005 -1.5707963267948966 -1.5707963267948966 0.0 1.5707963267948966 0.0 0.20800000000000002 0.0 0.0 0.0 0.0 0.0 1.0 0.0 0.0 0.0 0.0 0.0 0.29751111160169463 -0.10593952743675973 0.4809 -1.2193492976422196 1.1932535674351608 -1.193253567435161 0.022035421706846026 0.06188231121315249 0.0 0.0 0.0 0.20800000000000002 
0.216 0.023327999999999998 -1.5707963267948966 -1.5707963267948966 0.0 1.5707963267948966 0.0 0.216 0.0 0.0 0.0 0.0 0.0 1.0 0.0 0.0 0.0 0.0 0.0 0.2976903570713333 -0.1054347964703403 0.4809 -1.2201384848156724 1.192002002184595 -1.1920020021845952 0.022773916037593506 0.06430111712740799 0.0 0.0 0.0 0.216 
0.224 0.025088000000000003 -1.5707963267948966 -1.5707963267948966 0.0 1.5707963267948966 0.0 0.224 0.0 0.0 0.0 0.0 0.0 1.0 0.0 0.0 0.0 0.0 0.0 0.2978754611546139 -0.1049106984150143 0.4809 -1.2209564434248221 1.1907030005305959 -1.190703000530596 0.023499996444963204 0.06672410329863351 0.0 0.0 0.0 0.224 
0.232 0.026912000000000002 -1.5707963267948966 -1.5707963267948966 0.0 1.5707963267948966 0.0 0.232 0.0 0.0 0.0 0.0 0.0 1.0 0.0 0.0 0.0 0.0 0.0 0.2980663226502984 -0.10436719935750016 0.4809 -1.2218030616997861 1.1893565397803083 -1.1893565397803085 0.02421319025094004 0.06915138685486924 0.0 0.0 0.0 0.232 
0.24 0.0288 -1.5707963267948966 -1.5707963267948966 0.0 1.5707963267948966 0.0 0.24 0.0 0.0 0.0 0.0 0.0 1.0 0.0 0.0 0.0 0.0 0.0 0.29826283657051944 -0.10380426446397853 0.4809 -1.2226782238720857 1.187962596481655 -1.1879625964816551 0.024913023471354847 0.07158308077692466 0.0 0.0 0.0 0.24 
0.248 0.030751999999999998 -1.5707963267948966 -1.5707963267948966 0.0 1.5707963267948966 0.0 0.248 0.0 0.0 0.0 0.0 0.0 1.0 0.0 0.0 0.0 0.0 0.0 0.29846489413021626 -0.10322185801388581 0.4809 -1.2235818101815525 1.1865211464302812 -1.1865211464302814 0.02559902078744368 0.07401929374429363 0.0 0.0 0.0 0.248 
0.256 0.032768 -1.5707963267948966 -1.5707963267948966 0.0 1.5707963267948966 0.0 0.256 0.0 0.0 0.0 0.0 0.0 1.0 0.0 0.0 0.0 0.0 0.0 0.29867238273635055 -0.10261994343494303 0.4809 -1.2245136968834491 1.1850321646767241 -1.1850321646767243 0.026270705519345416 0.07646012998050575 0.0 0.0 0.0 0.256 
0.264 0.034848000000000004 -1.5707963267948966 -1.5707963267948966 0.0 1.5707963267948966 0.0 0.264 0.0 0.0 0.0 0.0 0.0 1.0 0.0 0.0 0.0 0.0 0.0 0.29888518597691854 -0.10199848333942413 0.4809 -1.2254737562558078 1.1834956255337983 -1.1834956255337985 0.026927599601607972 0.0789056890979065 0.0 0.0 0.0 0.264 
0.272 0.036992000000000004 -1.5707963267948966 -1.5707963267948966 0.0 1.5707963267948966 0.0 0.272 0.0 0.0 0.0 0.0 0.0 1.0 0.0 0.0 0.0 0.0 0.0 0.299103183609775 -0.1013574395616681 0.4809 -1.2264618566069785 1.1819115025842022 -1.1819115025842024 0.027569223560773723 0.0813560659418588 0.0 0.0 0.0 0.272 
0.28 0.039200000000000006 -1.5707963267948966 -1.5707963267948966 0.0 1.5707963267948966 0.0 0.28 0.0 0.0 0.0 0.0 0.0 1.0 0.0 0.0 0.0 0.0 0.0 0.29932625155128667 -0.10069677319684 0.4809 -1.227477862283392 1.180279768688341 -1.1802797686883413 0.028195096495115205 0.08381135043436028 0.0 0.0 0.0 0.28 
0.288 0.04147200000000001 -1.5707963267948966 -1.5707963267948966 0.0 1.5707963267948966 0.0 0.28800000000000003 0.0 0.0 0.0 0.0 0.0 1.0 0.0 0.0 0.0 0.0 0.0 0.2995542618648325 -0.10001644464094554 0.4809 -1.228521633677521 1.1786003959923594 -1.1786003959923597 0.02880473605659232 0.08627162741707178 0.0 0.0 0.0 0.28800000000000003 
0.296 0.04380799999999999 -1.5707963267948966 -1.5707963267948966 0.0 1.5707963267948966 0.0 0.296 0.0 0.0 0.0 0.0 0.0 1.0 0.0 0.0 0.0 0.0 0.0 0.29978708274916877 -0.09931641363210332 0.4809 -1.229593027236055 1.1768733559363898 -1.17687335593639 0.029397658435102583 0.08873697649375395 0.0 0.0 0.0 0.296 
0.304 0.046208 -1.5707963267948966 -1.5707963267948966 0.0 1.5707963267948966 0.0 0.304 0.0 0.0 0.0 0.0 0.0 1.0 0.0 0.0 0.0 0.0 0.0 0.30002457852667697 -0.09859663929308059 0.4809 -1.230691895468271 1.1750986192630084 -1.1750986192630086 0.0299733783450965 0.0912074718721098 0.0 0.0 0.0 0.304 
0.312 0.048672 -1.5707963267948966 -1.5707963267948966 0.0 1.5707963267948966 0.0 0.312 0.0 0.0 0.0 0.0 0.0 1.0 0.0 0.0 0.0 0.0 0.0 0.3002666096315153 -0.09785708017509613 0.4809 -1.2318180869546018 1.1732761560258933 -1.1732761560258935 0.030531409014629994 0.09368318220503277 0.0 0.0 0.0 0.312 
0.32 0.0512 -1.5707963267948966 -1.5707963267948966 0.0 1.5707963267948966 0.0 0.32 0.0 0.0 0.0 0.0 0.0 1.0 0.0 0.0 0.0 0.0 0.0 0.3005130325976918 -0.09709769430289576 0.4809 -1.2329714463554022 1.1714059355986934 -1.1714059355986937 0.031071262176926646 0.09616417043126138 0.0 0.0 0.0 0.32 
0.328 0.053792000000000006 -1.5707963267948966 -1.5707963267948966 0.0 1.5707963267948966 0.0 0.328 0.0 0.0 0.0 0.0 0.0 1.0 0.0 0.0 0.0 0.0 0.0 0.3007637000470806 -0.09631843922110499 0.4809 -1.2341518144199064 1.1694879266840952 -1.1694879266840954 0.03159244806452244 0.09865049361544244 0.0 0.0 0.0 0.328 
0.336 0.056448000000000005 -1.5707963267948966 -1.5707963267948966 0.0 1.5707963267948966 0.0 0.336 0.0 0.0 0.0 0.0 0.0 1.0 0.0 0.0 0.0 0.0 0.0 0.3010184606774018 -0.09551927204186333 0.4809 -1.2353590279953721 1.1675220973230866 -1.1675220973230869 0.03209447540606608 0.10114220278760701 0.0 0.0 0.0 0.336 
0.344 0.05916800000000001 -1.5707963267948966 -1.5707963267948966 0.0 1.5707963267948966 0.0 0.34400000000000003 0.0 0.0 0.0 0.0 0.0 1.0 0.0 0.0 0.0 0.0 0.0 0.30127715925018655 -0.0947001494937454 0.4809 -1.2365929200364143 1.1655084149044206 -1.1655084149044208 0.03257685142584842 0.10363934278206419 0.0 0.0 0.0 0.34400000000000003 
0.352 0.06195199999999999 -1.5707963267948966 -1.5707963267948966 0.0 1.5707963267948966 0.0 0.352 0.0 0.0 0.0 0.0 0.0 1.0 0.0 0.0 0.0 0.0 0.0 0.30153963657874977 -0.09386102797197293 0.4809 -1.2378533196145127 1.163446846174269 -1.1634468461742693 0.03303908184613447 0.10614195207571991 0.0 0.0 0.0 0.352 
0.36 0.0648 -1.5707963267948966 -1.5707963267948966 0.0 1.5707963267948966 0.0 0.36 0.0 0.0 0.0 0.0 0.0 1.0 0.0 0.0 0.0 0.0 0.0 0.3018057295161929 -0.09300186358992268 0.4809 -1.2391400519277098 1.1613373572460712 -1.1613373572460715 0.033480670892372166 0.10865006262582944 0.0 0.0 0.0 0.36 
0.368 0.067712 -1.5707963267948966 -1.5707963267948966 0.0 1.5707963267948966 0.0 0.368 0.0 0.0 0.0 0.0 0.0 1.0 0.0 0.0 0.0 0.0 0.0 0.30207527094345976 -0.09212261223193446 0.4809 -1.240452938310473 1.159179913610567 -1.1591799136105674 0.03390112130135188 0.11116369970719318 0.0 0.0 0.0 0.368 
0.376 0.070688 -1.5707963267948966 -1.5707963267948966 0.0 1.5707963267948966 0.0 0.376 0.0 0.0 0.0 0.0 0.0 1.0 0.0 0.0 0.0 0.0 0.0 0.30234808975747013 -0.09122322960742385 0.4809 -1.2417917962437328 1.1569744801460164 -1.156974480146017 0.03429993433239137 0.11368288174880876 0.0 0.0 0.0 0.376 
0.384 0.073728 -1.5707963267948966 -1.5707963267948966 0.0 1.5707963267948966 0.0 0.384 0.0 0.0 0.0 0.0 0.0 1.0 0.0 0.0 0.0 0.0 0.0 0.30262401085935503 -0.09030367130630367 0.4809 -1.2431564393650893 1.1547210211286019 -1.154721021128602 0.034676609781620606 0.11620762016999234 0.0 0.0 0.0 0.384 
0.392 0.07683200000000001 -1.5707963267948966 -1.5707963267948966 0.0 1.5707963267948966 0.0 0.392 0.0 0.0 0.0 0.0 0.0 1.0 0.0 0.0 0.0 0.0 0.0 0.302902855142819 -0.08936389285571879 0.4809 -1.244546677479181 1.1524195002430102 -1.1524195002430104 0.035030645999441765 0.11873791921598506 0.0 0.0 0.0 0.392 
0.4 0.08000000000000002 -1.5707963267948966 -1.5707963267948966 0.0 1.5707963267948966 0.0 0.4 0.0 0.0 0.0 0.0 0.0 1.0 0.0 0.0 0.0 0.0 0.0 0.3031844394826546 -0.08840384977809795 0.4809 -1.245962316568212 1.1500698805931906 -1.1500698805931908 0.035361539911239186 0.12127377579306185 0.0 0.0 0.0 0.4 
0.408 0.08323200000000001 -1.5707963267948966 -1.5707963267948966 0.0 1.5707963267948966 0.0 0.40800000000000003 0.0 0.0 0.0 0.0 0.0 1.0 0.0 0.0 0.0 0.0 0.0 0.30346857672343663 -0.08742349765052664 0.4809 -1.247403158802641 1.1476721247132875 -1.1476721247132877 0.03566878704141487 0.12381517930316216 0.0 0.0 0.0 0.40800000000000003 
0.416 0.08652800000000002 -1.5707963267948966 -1.5707963267948966 0.0 1.5707963267948966 0.0 0.41600000000000004 0.0 0.0 0.0 0.0 0.0 1.0 0.0 0.0 0.0 0.0 0.0 0.3037550756684213 -0.08642279216544467 0.4809 -1.2488690025520166 1.145226194578745 -1.1452261945787452 0.03595188154082499 0.12636211147806328 0.0 0.0 0.0 0.41600000000000004 
0.424 0.089888 -1.5707963267948966 -1.5707963267948966 0.0 1.5707963267948966 0.0 0.424 0.0 0.0 0.0 0.0 0.0 1.0 0.0 0.0 0.0 0.0 0.0 0.3040437410686794 -0.08540168919267249 0.4809 -1.2503596423959624 1.1427320516175752 -1.1427320516175754 0.036210316217693134 0.12891454621312004 0.0 0.0 0.0 0.424 
0.432 0.09331199999999999 -1.5707963267948966 -1.5707963267948966 0.0 1.5707963267948966 0.0 0.432 0.0 0.0 0.0 0.0 0.0 1.0 0.0 0.0 0.0 0.0 0.0 0.3043343736124907 -0.08436014484276874 0.4809 -1.2518748691353065 1.140189656721796 -1.1401896567217962 0.0364435825720761 0.131472449400596 0.0 0.0 0.0 0.432 
0.44 0.0968 -1.5707963267948966 -1.5707963267948966 0.0 1.5707963267948966 0.0 0.44 0.0 0.0 0.0 0.0 0.0 1.0 0.0 0.0 0.0 0.0 0.0 0.30462676991502846 -0.08329811553172307 0.4809 -1.2534144698033538 1.1375989702590303 -1.1375989702590306 0.036651170833958156 0.13403577876261252 0.0 0.0 0.0 0.44 
0.448 0.10035200000000001 -1.5707963267948966 -1.5707963267948966 0.0 1.5707963267948966 0.0 0.448 0.0 0.0 0.0 0.0 0.0 1.0 0.0 0.0 0.0 0.0 0.0 0.3049207225083637 -0.08221555804698659 0.4809 -1.254978227677287 1.1349599520842613 -1.1349599520842617 0.03683257000504999 0.13660448368374695 0.0 0.0 0.0 0.448 
0.456 0.103968 -1.5707963267948966 -1.5707963267948966 0.0 1.5707963267948966 0.0 0.456 0.0 0.0 0.0 0.0 0.0 1.0 0.0 0.0 0.0 0.0 0.0 0.3052160198318187 -0.08111242961484301 0.4809 -1.256565922289704 1.132272561551745 -1.1322725615517453 0.03698726790436841 0.1391785050433093 0.0 0.0 0.0 0.456 
0.464 0.10764800000000001 -1.5707963267948966 -1.5707963267948966 0.0 1.5707963267948966 0.0 0.464 0.0 0.0 0.0 0.0 0.0 1.0 0.0 0.0 0.0 0.0 0.0 0.3055124462227003 -0.07998868796912251 0.4809 -1.2581773294402823 1.129536757527078 -1.1295367575270783 0.037114751217672846 0.14175777504733295 0.0 0.0 0.0 0.464 
0.472 0.11139200000000002 -1.5707963267948966 -1.5707963267948966 0.0 1.5707963267948966 0.0 0.47200000000000003 0.0 0.0 0.0 0.0 0.0 1.0 0.0 0.0 0.0 0.0 0.0 0.30580978190744534 -0.07884429142126091 0.4809 -1.2598122212075618 1.1267524983994113 -1.1267524983994115 0.03721450555083515 0.14434221706031422 0.0 0.0 0.0 0.47200000000000003 
0.48 0.1152 -1.5707963267948966 -1.5707963267948966 0.0 1.5707963267948966 0.0 0.48 0.0 0.0 0.0 0.0 0.0 1.0 0.0 0.0 0.0 0.0 0.0 0.3061078029932077 -0.07767919893170575 0.4809 -1.2614703659608488 1.1239197420938114 -1.1239197420938116 0.03728601548721876 0.1469317454367397 0.0 0.0 0.0 0.48 
0.488 0.119072 -1.5707963267948966 -1.5707963267948966 0.0 1.5707963267948966 0.0 0.488 0.0 0.0 0.0 0.0 0.0 1.0 0.0 0.0 0.0 0.0 0.0 0.3064062814599219 -0.0764933701826708 0.4809 -1.2631515283722325 1.1210384460837686 -1.1210384460837688 0.03732876464914335 0.14952626535244187 0.0 0.0 0.0 0.488 
0.496 0.12300799999999999 -1.5707963267948966 -1.5707963267948966 0.0 1.5707963267948966 0.0 0.496 0.0 0.0 0.0 0.0 0.0 1.0 0.0 0.0 0.0 0.0 0.0 0.3067049851528739 -0.07528676565224031 0.4809 -1.26485546942871 1.1181085674038405 -1.1181085674038407 0.03734223576351119 0.15212567263582547 0.0 0.0 0.0 0.496 
0.504 0.127008 -1.5707963267948966 -1.5707963267948966 0.0 1.5707963267948966 0.0 0.504 0.0 0.0 0.0 0.0 0.0 1.0 0.0 0.0 0.0 0.0 0.0 0.307003677775815 -0.07405934668982386 0.4809 -1.2665819464444141 1.1151300626624359 -1.1151300626624363 0.03732591073167123 0.15472985359901076 0.0 0.0 0.0 0.504 
0.512 0.131072 -1.5707963267948966 -1.5707963267948966 0.0 1.5707963267948966 0.0 0.512 0.0 0.0 0.0 0.0 0.0 1.0 0.0 0.0 0.0 0.0 0.0 0.30730211888465053 -0.07281107559296222 0.4809 -1.268330713072941 1.1121028880547332 -1.1121028880547335 0.037279270703596656 0.15733868486894106 0.0 0.0 0.0 0.512 
0.52 0.13520000000000001 -1.5707963267948966 -1.5707963267948966 0.0 1.5707963267948966 0.0 0.52 0.0 0.0 0.0 0.0 0.0 1.0 0.0 0.0 0.0 0.0 0.0 0.3076000638817408 -0.07154191568548418 0.4809 -1.2701015193197747 1.1090269993757274 -1.1090269993757278 0.03720179615645178 0.15995203321850524 0.0 0.0 0.0 0.52 
0.528 0.13939200000000002 -1.5707963267948966 -1.5707963267948966 0.0 1.5707963267948966 0.0 0.528 0.0 0.0 0.0 0.0 0.0 1.0 0.0 0.0 0.0 0.0 0.0 0.3078972640108474 -0.07025183139701446 0.4809 -1.271894111554794 1.1059023520334073 -1.1059023520334075 0.03709296697762364 0.16256975539772742 0.0 0.0 0.0 0.528 
0.536 0.14364800000000003 -1.5707963267948966 -1.5707963267948966 0.0 1.5707963267948966 0.0 0.536 0.0 0.0 0.0 0.0 0.0 1.0 0.0 0.0 0.0 0.0 0.0 0.30819346635276196 -0.0689407883438313 0.4809 -1.2737082325248719 1.1027289010620551 -1.1027289010620553 0.03695226255229358 0.16519169796508043 0.0 0.0 0.0 0.536 
0.544 0.14796800000000002 -1.5707963267948966 -1.5707963267948966 0.0 1.5707963267948966 0.0 0.544 0.0 0.0 0.0 0.0 0.0 1.0 0.0 0.0 0.0 0.0 0.0 0.30848841382165504 -0.06760875341107321 0.4809 -1.2755436213665516 1.0995066011356742 -1.0995066011356744 0.036779161855623826 0.16781769711898034 0.0 0.0 0.0 0.544 
0.552 0.15235200000000002 -1.5707963267948966 -1.5707963267948966 0.0 1.5707963267948966 0.0 0.552 0.0 0.0 0.0 0.0 0.0 1.0 0.0 0.0 0.0 0.0 0.0 0.3087818451621793 -0.06625569483629246 0.4809 -1.2774000136187915 1.0962354065815236 -1.0962354065815239 0.03657314354963344 0.170447578529523 0.0 0.0 0.0 0.552 
0.56 0.15680000000000002 -1.5707963267948966 -1.5707963267948966 0.0 1.5707963267948966 0.0 0.56 0.0 0.0 0.0 0.0 0.0 1.0 0.0 0.0 0.0 0.0 0.0 0.30907349494736847 -0.06488158229435392 0.4809 -1.2792771412357875 1.0929152713937798 -1.09291527139378 0.0363336860848382 0.17308115717052636 0.0 0.0 0.0 0.56 
0.568 0.16131200000000004 -1.5707963267948966 -1.5707963267948966 0.0 1.5707963267948966 0.0 0.5680000000000001 0.0 0.0 0.0 0.0 0.0 1.0 0.0 0.0 0.0 0.0 0.0 0.30936309357736735 -0.0634863869836757 0.4809 -1.2811747325998544 1.089546149247304 -1.0895461492473042 0.0360602678067278 0.17571823715194468 0.0 0.0 0.0 0.5680000000000001 
0.576 0.16588800000000004 -1.5707963267948966 -1.5707963267948966 0.0 1.5707963267948966 0.0 0.5760000000000001 0.0 0.0 0.0 0.0 0.0 1.0 0.0 0.0 0.0 0.0 0.0 0.3096503672790346 -0.06207008171380915 0.4809 -1.283092512534367 1.086127993511522 -1.0861279935115224 0.035752367067154074 0.17835861155272395 0.0 0.0 0.0 0.5760000000000001 
0.584 0.17052799999999999 -1.5707963267948966 -1.5707963267948966 0.0 1.5707963267948966 0.0 0.584 0.0 0.0 0.0 0.0 0.0 1.0 0.0 0.0 0.0 0.0 0.0 0.3099350381064552 -0.060632640994353594 0.4809 -1.2850302023167552 1.0826607572644071 -1.0826607572644074 0.0354094623407025 0.18100206225416982 0.0 0.0 0.0 0.584 
0.592 0.17523199999999997 -1.5707963267948966 -1.5707963267948966 0.0 1.5707963267948966 0.0 0.592 0.0 0.0 0.0 0.0 0.0 1.0 0.0 0.0 0.0 0.0 0.0 0.31021682394240463 -0.059174041125202206 0.4809 -1.2869875196915488 1.0791443933065696 -1.0791443933065699 0.035031032346119706 0.18364835977390354 0.0 0.0 0.0 0.592 
0.6 0.18 -1.5707963267948966 -1.5707963267948966 0.0 1.5707963267948966 0.0 0.6 0.0 0.0 0.0 0.0 0.0 1.0 0.0 0.0 0.0 0.0 0.0 0.31049543850080535 -0.05769426028811344 0.4809 -1.2889641788834592 1.0755788541754445 -1.0755788541754447 0.03461655617286806 0.1862972631004832 0.0 0.0 0.0 0.6 
0.608 0.184832 -1.5707963267948966 -1.5707963267948966 0.0 1.5707963267948966 0.0 0.608 0.0 0.0 0.0 0.0 0.0 1.0 0.0 0.0 0.0 0.0 0.0 0.3107705913302158 -0.05619327863960258 0.4809 -1.290959890610505 1.0719640921595757 -1.0719640921595759 0.034165513412878365 0.1889485195287712 0.0 0.0 0.0 0.608 
0.616 0.189728 -1.5707963267948966 -1.5707963267948966 0.0 1.5707963267948966 0.0 0.616 0.0 0.0 0.0 0.0 0.0 1.0 0.0 0.0 0.0 0.0 0.0 0.3110419878183944 -0.05467107840514708 0.4809 -1.2929743620971663 1.0683000593129957 -1.0683000593129959 0.0336773842975706 0.19160186449613095 0.0 0.0 0.0 0.616 
0.624 0.194688 -1.5707963267948966 -1.5707963267948966 0.0 1.5707963267948966 0.0 0.624 0.0 0.0 0.0 0.0 0.0 1.0 0.0 0.0 0.0 0.0 0.0 0.31130932919798215 -0.05312764397469878 0.4809 -1.2950072970875648 1.064586707469696 -1.0645867074696962 0.03315164984021204 0.19425702141954088 0.0 0.0 0.0 0.624 
0.632 0.199712 -1.5707963267948966 -1.5707963267948966 0.0 1.5707963267948966 0.0 0.632 0.0 0.0 0.0 0.0 0.0 1.0 0.0 0.0 0.0 0.0 0.0 0.31157231255334383 -0.05156296199949521 0.4809 -1.2970583958586641 1.0608239882581854 -1.0608239882581856 0.032587791983680975 0.1969137015337133 0.0 0.0 0.0 0.632 
0.64 0.2048 -1.5707963267948966 -1.5707963267948966 0.0 1.5707963267948966 0.0 0.64 0.0 0.0 0.0 0.0 0.0 1.0 0.0 0.0 0.0 0.0 0.0 0.3118306308286149 -0.04997702149016154 0.4809 -1.299127355233488 1.0570118531161334 -1.0570118531161337 0.03198529375370339 0.19957160373031355 0.0 0.0 0.0 0.64 
0.648 0.209952 -1.5707963267948966 -1.5707963267948966 0.0 1.5707963267948966 0.0 0.648 0.0 0.0 0.0 0.0 0.0 1.0 0.0 0.0 0.0 0.0 0.0 0.3120839728369953 -0.04836981391609422 0.4809 -1.3012138685943437 1.0531502533050965 -1.053150253305097 0.031343639417629056 0.20223041439837294 0.0 0.0 0.0 0.648 
0.656 0.21516800000000003 -1.5707963267948966 -1.5707963267948966 0.0 1.5707963267948966 0.0 0.656 0.0 0.0 0.0 0.0 0.0 1.0 0.0 0.0 0.0 0.0 0.0 0.31233202327133625 -0.046741333306116004 0.4809 -1.3033176258960528 1.0492391399253238 -1.049239139925324 0.0306623146488121 0.2048898072659966 0.0 0.0 0.0 0.656 
0.664 0.22044800000000003 -1.5707963267948966 -1.5707963267948966 0.0 1.5707963267948966 0.0 0.664 0.0 0.0 0.0 0.0 0.0 1.0 0.0 0.0 0.0 0.0 0.0 0.31257446271606504 -0.045091576350392154 0.4809 -1.3054383136791738 1.0452784639306374 -1.0452784639306376 0.029940806696660393 0.2075494432434672 0.0 0.0 0.0 0.664 
0.672 0.22579200000000002 -1.5707963267948966 -1.5707963267948966 0.0 1.5707963267948966 0.0 0.672 0.0 0.0 0.0 0.0 0.0 1.0 0.0 0.0 0.0 0.0 0.0 0.31281096766049216 -0.043420542503595255 0.4809 -1.307575615083226 1.0412681761433915 -1.0412681761433917 0.029178604562416013 0.21020897026785074 0.0 0.0 0.0 0.672 
0.68 0.23120000000000004 -1.5707963267948966 -1.5707963267948966 0.0 1.5707963267948966 0.0 0.68 0.0 0.0 0.0 0.0 0.0 1.0 0.0 0.0 0.0 0.0 0.0 0.3130412105135487 -0.04172823408930752 0.4809 -1.3097292098598872 1.0372082272694958 -1.0372082272694962 0.028375199180729116 0.21286802314921313 0.0 0.0 0.0 0.68 
0.688 0.23667200000000005 -1.5707963267948966 -1.5707963267948966 0.0 1.5707963267948966 0.0 0.6880000000000001 0.0 0.0 0.0 0.0 0.0 1.0 0.0 0.0 0.0 0.0 0.0 0.3132648596199996 -0.040014656405646144 0.4809 -1.3118987743861812 1.0330985679135136 -1.0330985679135138 0.02753008360708455 0.21552622341855976 0.0 0.0 0.0 0.6880000000000001 
0.696 0.24220800000000003 -1.5707963267948966 -1.5707963267948966 0.0 1.5707963267948966 0.0 0.6960000000000001 0.0 0.0 0.0 0.0 0.0 1.0 0.0 0.0 0.0 0.0 0.0 0.31348157927817927 -0.03827981783209778 0.4809 -1.3140839816776364 1.0289391485938213 -1.0289391485938215 0.02664275321114006 0.2181831791776128 0.0 0.0 0.0 0.6960000000000001 
0.704 0.24780799999999997 -1.5707963267948966 -1.5707963267948966 0.0 1.5707963267948966 0.0 0.704 0.0 0.0 0.0 0.0 0.0 1.0 0.0 0.0 0.0 0.0 0.0 0.3136910297592985 -0.03652372993754743 0.4809 -1.3162845014014093 1.0247299197578326 -1.0247299197578328 0.02571270587603339 0.22083848495054614 0.0 0.0 0.0 0.704 
0.712 0.253472 -1.5707963267948966 -1.5707963267948966 0.0 1.5707963267948966 0.0 0.712 0.0 0.0 0.0 0.0 0.0 1.0 0.0 0.0 0.0 0.0 0.0 0.3138928673283695 -0.03474640758948484 0.4809 -1.3184999998893734 1.0204708317972837 -1.020470831797284 0.024739442203713206 0.2234917215377991 0.0 0.0 0.0 0.712 
0.72 0.2592 -1.5707963267948966 -1.5707963267948966 0.0 1.5707963267948966 0.0 0.72 0.0 0.0 0.0 0.0 0.0 1.0 0.0 0.0 0.0 0.0 0.0 0.31408674426679806 -0.03294786906437189 0.4809 -1.3207301401511626 1.0161618350635744 -1.0161618350635746 0.023722465726347758 0.22614245587209458 0.0 0.0 0.0 0.72 
0.728 0.264992 -1.5707963267948966 -1.5707963267948966 0.0 1.5707963267948966 0.0 0.728 0.0 0.0 0.0 0.0 0.0 1.0 0.0 0.0 0.0 0.0 0.0 0.3142723088966911 -0.031128136159152567 0.4809 -1.3229745818871645 1.011802879883167 -1.0118028798831673 0.022661283123863066 0.22879024087679112 0.0 0.0 0.0 0.728 
0.736 0.270848 -1.5707963267948966 -1.5707963267948966 0.0 1.5707963267948966 0.0 0.736 0.0 0.0 0.0 0.0 0.0 1.0 0.0 0.0 0.0 0.0 0.0 0.31444920560692985 -0.029287234303886193 0.4809 -1.325232981501457 1.0073939165730368 -1.007393916573037 0.02155540444766024 0.23143461532670037 0.0 0.0 0.0 0.736 
0.744 0.276768 -1.5707963267948966 -1.5707963267948966 0.0 1.5707963267948966 0.0 0.744 0.0 0.0 0.0 0.0 0.0 1.0 0.0 0.0 0.0 0.0 0.0 0.3146170748810569 -0.02742519267548392 0.4809 -1.3275049921146813 1.0029348954561714 -1.0029348954561716 0.020404343350560038 0.23407510371150633 0.0 0.0 0.0 0.744 
0.752 0.282752 -1.5707963267948966 -1.5707963267948966 0.0 1.5707963267948966 0.0 0.752 0.0 0.0 0.0 0.0 0.0 1.0 0.0 0.0 0.0 0.0 0.0 0.3147755533270284 -0.025542044312527094 0.4809 -1.3297902635768493 0.9984257668771235 -0.9984257668771237 0.019207617323020374 0.23671121610192536 0.0 0.0 0.0 0.752 
0.76 0.2888 -1.5707963267948966 -1.5707963267948966 0.0 1.5707963267948966 0.0 0.76 0.0 0.0 0.0 0.0 0.0 1.0 0.0 0.0 0.0 0.0 0.0 0.314924273708881 -0.023637826231144632 0.4809 -1.3320884424800694 0.9938664812176029 -0.9938664812176031 0.01796474793566992 0.23934244801874954 0.0 0.0 0.0 0.76 
0.768 0.294912 -1.5707963267948966 -1.5707963267948966 0.0 1.5707963267948966 0.0 0.768 0.0 0.0 0.0 0.0 0.0 1.0 0.0 0.0 0.0 0.0 0.0 0.3150628649803647 -0.021712579541926357 0.4809 -1.3343991721711972 0.9892569889121167 -0.9892569889121169 0.01667526108819944 0.24196828030492007 0.0 0.0 0.0 0.768 
0.776 0.301088 -1.5707963267948966 -1.5707963267948966 0.0 1.5707963267948966 0.0 0.776 0.0 0.0 0.0 0.0 0.0 1.0 0.0 0.0 0.0 0.0 0.0 0.31519095232059197 -0.019766349567846793 0.4809 -1.3367220927643941 0.9845972404636498 -0.98459724046365 0.015338687264649112 0.24458817900077937 0.0 0.0 0.0 0.776 
0.784 0.30732800000000005 -1.5707963267948966 -1.5707963267948966 0.0 1.5707963267948966 0.0 0.784 0.0 0.0 0.0 0.0 0.0 1.0 0.0 0.0 0.0 0.0 0.0 0.3153081571717553 -0.017799185963174046 0.4809 -1.3390568411535937 0.9798871864593842 -0.9798871864593844 0.013954561795128453 0.24720159522265617 0.0 0.0 0.0 0.784 
0.792 0.313632 -1.5707963267948966 -1.5707963267948966 0.0 1.5707963267948966 0.0 0.792 0.0 0.0 0.0 0.0 0.0 1.0 0.0 0.0 0.0 0.0 0.0 0.3154140972789641 -0.015811142833335953 0.4809 -1.3414030510248645 0.975126777586456 -0.9751267775864563 0.012522425124002074 0.24980796504493957 0.0 0.0 0.0 0.792 
0.8 0.32000000000000006 -1.5707963267948966 -1.5707963267948966 0.0 1.5707963267948966 0.0 0.8 0.0 0.0 0.0 0.0 0.0 0.0 0.0 0.0 0.0 0.0 0.0 0.31550838673225323 -0.013802278855715059 0.4809 -1.3437603528686695 0.9703159646477474 -0.9703159646477476 0.011041823084572048 0.2524067093858026 0.0 0.0 0.0 0.8 
0.808 0.3264000000000001 -1.5707963267948966 -1.5707963267948966 0.0 1.5707963267948966 0.0 0.8 0.0 0.0 0.0 0.0 0.0 0.0 0.0 0.0 0.0 0.0 0.0 0.3155902591241956 -0.011782756295666046 0.4809 -1.3461166250400376 0.965478889190115 -0.9654788891901153 0.009426205036532838 0.2524722072993565 0.0 0.0 0.0 0.8 
0.816 0.3328000000000001 -1.5707963267948966 -1.5707963267948966 0.0 1.5707963267948966 0.0 0.8 0.0 0.0 0.0 0.0 0.0 0.0 0.0 0.0 0.0 0.0 0.0 0.3156592049832469 -0.009762751115566494 0.4809 -1.3484600024213886 0.9606397346610869 -0.9606397346610871 0.007810200892453195 0.25252736398659753 0.0 0.0 0.0 0.8 
0.824 0.33920000000000006 -1.5707963267948966 -1.5707963267948966 0.0 1.5707963267948966 0.0 0.8 0.0 0.0 0.0 0.0 0.0 0.0 0.0 0.0 0.0 0.0 0.0 0.3157152214853944 -0.0077423460545462015 0.4809 -1.3507904978479464 0.9557985147721534 -0.9557985147721536 0.006193876843636962 0.25257217718831554 0.0 0.0 0.0 0.8 
0.832 0.3456000000000001 -1.5707963267948966 -1.5707963267948966 0.0 1.5707963267948966 0.0 0.8 0.0 0.0 0.0 0.0 0.0 0.0 0.0 0.0 0.0 0.0 0.0 0.31575830633621 -0.005721623868113958 0.4809 -1.3531081240791623 0.9509552431835191 -0.9509552431835194 0.004577299094491167 0.252606645068968 0.0 0.0 0.0 0.8 
0.84 0.352 -1.5707963267948966 -1.5707963267948966 0.0 1.5707963267948966 0.0 0.8 0.0 0.0 0.0 0.0 0.0 0.0 0.0 0.0 0.0 0.0 0.0 0.31578845777094416 -0.0037006673247680436 0.4809 -1.3554128937988612 0.946109933504494 -0.9461099335044942 0.002960533859814435 0.25263076621675534 0.0 0.0 0.0 0.8 
0.848 0.3584 -1.5707963267948966 -1.5707963267948966 0.0 1.5707963267948966 0.0 0.8 0.0 0.0 0.0 0.0 0.0 0.0 0.0 0.0 0.0 0.0 0.0 0.3158056745545984 -0.0016795592026058806 0.4809 -1.3577048196153765 0.9412625992938795 -0.9412625992938798 0.0013436473620847046 0.2526445396436787 0.0 0.0 0.0 0.8 
0.856 0.3648 -1.5707963267948966 -1.5707963267948966 0.0 1.5707963267948966 0.0 0.8 0.0 0.0 0.0 0.0 0.0 0.0 0.0 0.0 0.0 0.0 0.0 0.3158099559819757 0.00034161771406642644 0.4809 -1.359983914061698 0.9364132540603576 -0.9364132540603578 -0.00027329417125314116 0.25264796478558055 0.0 0.0 0.0 0.8 
0.864 0.37120000000000003 -1.5707963267948966 -1.5707963267948966 0.0 1.5707963267948966 0.0 0.8 0.0 0.0 0.0 0.0 0.0 0.0 0.0 0.0 0.0 0.0 0.0 0.31580130187770933 0.002362780638124902 0.4809 -1.362250189595611 0.9315619112628728 -0.931561911262873 -0.0018902245104999217 0.2526410415021675 0.0 0.0 0.0 0.8 
0.872 0.37760000000000005 -1.5707963267948966 -1.5707963267948966 0.0 1.5707963267948966 0.0 0.8 0.0 0.0 0.0 0.0 0.0 0.0 0.0 0.0 0.0 0.0 0.0 0.3157797125962702 0.004383846783018799 0.4809 -1.3645036585998342 0.9267085843110139 -0.926708584311014 -0.0035070774264150395 0.25262377007701614 0.0 0.0 0.0 0.8 
0.88 0.384 -1.5707963267948966 -1.5707963267948966 0.0 1.5707963267948966 0.0 0.8 0.0 0.0 0.0 0.0 0.0 0.0 0.0 0.0 0.0 0.0 0.0 0.31574518902195226 0.006404733366161354 0.4809 -1.3667443333821645 0.921853286565396 -0.9218532865653962 -0.005123786692929084 0.2525961512175618 0.0 0.0 0.0 0.8 
0.888 0.3904 -1.5707963267948966 -1.5707963267948966 0.0 1.5707963267948966 0.0 0.8 0.0 0.0 0.0 0.0 0.0 0.0 0.0 0.0 0.0 0.0 0.0 0.3156977325688363 0.008425357612320668 0.4809 -1.3689722261756112 0.9169960313380349 -0.9169960313380351 -0.006740286089856534 0.2525581860550691 0.0 0.0 0.0 0.8 
0.896 0.39680000000000004 -1.5707963267948966 -1.5707963267948966 0.0 1.5707963267948966 0.0 0.8 0.0 0.0 0.0 0.0 0.0 0.0 0.0 0.0 0.0 0.0 0.0 0.315637345180732 0.01044563675701016 0.4809 -1.3711873491385396 0.9121368318927252 -0.9121368318927254 -0.008356509405608128 0.2525098761445856 0.0 0.0 0.0 0.8 
0.904 0.40320000000000006 -1.5707963267948966 -1.5707963267948966 0.0 1.5707963267948966 0.0 0.8 0.0 0.0 0.0 0.0 0.0 0.0 0.0 0.0 0.0 0.0 0.0 0.31556402933109834 0.012465488049878463 0.4809 -1.373389714354805 0.9072757014454121 -0.9072757014454123 -0.009972390439902772 0.2524512234648787 0.0 0.0 0.0 0.8 
0.912 0.4096000000000001 -1.5707963267948966 -1.5707963267948966 0.0 1.5707963267948966 0.0 0.8 0.0 0.0 0.0 0.0 0.0 0.0 0.0 0.0 0.0 0.0 0.0 0.31547778802294235 0.014484828758099037 0.4809 -1.3755793338338944 0.902412653164564 -0.9024126531645642 -0.01158786300647923 0.2523822304183539 0.0 0.0 0.0 0.8 
0.92 0.41600000000000004 -1.5707963267948966 -1.5707963267948966 0.0 1.5707963267948966 0.0 0.8 0.0 0.0 0.0 0.0 0.0 0.0 0.0 0.0 0.0 0.0 0.0 0.31537862478869577 0.016503576169758814 0.4809 -1.377756219511061 0.8975477001715411 -0.8975477001715413 -0.013202860935807052 0.2523028998309566 0.0 0.0 0.0 0.8 
0.928 0.42240000000000005 -1.5707963267948966 -1.5707963267948966 0.0 1.5707963267948966 0.0 0.8 0.0 0.0 0.0 0.0 0.0 0.0 0.0 0.0 0.0 0.0 0.0 0.31526654369007096 0.018521647597246064 0.4809 -1.3799203832474607 0.8926808555409622 -0.8926808555409623 -0.014817318077796852 0.2522132349520568 0.0 0.0 0.0 0.8 
0.936 0.42880000000000007 -1.5707963267948966 -1.5707963267948966 0.0 1.5707963267948966 0.0 0.8 0.0 0.0 0.0 0.0 0.0 0.0 0.0 0.0 0.0 0.0 0.0 0.31514154931789395 0.020538960380637225 0.4809 -1.3820718368302891 0.8878121323010714 -0.8878121323010716 -0.01643116830450978 0.2521132394543152 0.0 0.0 0.0 0.8 
0.944 0.4352000000000001 -1.5707963267948966 -1.5707963267948966 0.0 1.5707963267948966 0.0 0.8 0.0 0.0 0.0 0.0 0.0 0.0 0.0 0.0 0.0 0.0 0.0 0.31500364679191684 0.02255543189108273 0.4809 -1.384210591972919 0.8829415434341005 -0.8829415434341007 -0.018044345512866183 0.2520029174335335 0.0 0.0 0.0 0.8 
0.952 0.4416000000000001 -1.5707963267948966 -1.5707963267948966 0.0 1.5707963267948966 0.0 0.8 0.0 0.0 0.0 0.0 0.0 0.0 0.0 0.0 0.0 0.0 0.0 0.3148528417606078 0.02457097953419149 0.4809 -1.3863366603150298 0.8780691018766302 -0.8780691018766302 -0.019656783627353194 0.25188227340848623 0.0 0.0 0.0 0.8 
0.96 0.448 -1.5707963267948966 -1.5707963267948966 0.0 1.5707963267948966 0.0 0.8 0.0 0.0 0.0 0.0 0.0 0.0 0.0 0.0 0.0 0.0 0.0 0.3146891404009198 0.02658552075341373 0.4809 -1.3884500534227466 0.87319482051995 -0.87319482051995 -0.021268416602730985 0.25175131232073583 0.0 0.0 0.0 0.8 
0.968 0.4544 -1.5707963267948966 -1.5707963267948966 0.0 1.5707963267948966 0.0 0.8 0.0 0.0 0.0 0.0 0.0 0.0 0.0 0.0 0.0 0.0 0.0 0.3145125494180376 0.028598973033422865 0.4809 -1.3905507827887726 0.8683187122104151 -0.8683187122104151 -0.022879178426738294 0.25161003953443006 0.0 0.0 0.0 0.8 
0.976 0.4608 -1.5707963267948966 -1.5707963267948966 0.0 1.5707963267948966 0.0 0.8 0.0 0.0 0.0 0.0 0.0 0.0 0.0 0.0 0.0 0.0 0.0 0.31432307604510323 0.030611253903494954 0.4809 -1.3926388598325208 0.8634407897498024 -0.8634407897498025 -0.024489003122795963 0.2514584608360826 0.0 0.0 0.0 0.8 
0.984 0.46720000000000006 -1.5707963267948966 -1.5707963267948966 0.0 1.5707963267948966 0.0 0.8 0.0 0.0 0.0 0.0 0.0 0.0 0.0 0.0 0.0 0.0 0.0 0.3141207280429196 0.03262228094088695 0.4809 -1.3947142959002472 0.8585610658956637 -0.8585610658956638 -0.02609782475270956 0.25129658243433567 0.0 0.0 0.0 0.8 
0.992 0.4736 -1.5707963267948966 -1.5707963267948966 0.0 1.5707963267948966 0.0 0.8 0.0 0.0 0.0 0.0 0.0 0.0 0.0 0.0 0.0 0.0 0.0 0.31390551369963243 0.03463197177421251 0.4809 -1.3967771022651843 0.8536795533616781 -0.8536795533616782 -0.02770557741937001 0.25112441095970595 0.0 0.0 0.0 0.8 
1.0 0.48000000000000004 -1.5707963267948966 -1.5707963267948966 0.0 1.5707963267948966 0.0 0.8 0.0 0.0 0.0 0.0 0.0 0.0 0.0 0.0 0.0 0.0 0.0 0.31367744183039126 0.036640244086816084 0.4809 -1.3988272901276688 0.8487962648180005 -0.8487962648180006 -0.02931219526945287 0.25094195346431303 0.0 0.0 0.0 0.8 
1.008 0.48640000000000005 -1.5707963267948966 -1.5707963267948966 0.0 1.5707963267948966 0.0 0.8 0.0 0.0 0.0 0.0 0.0 0.0 0.0 0.0 0.0 0.0 0.0 0.313436521776988 0.03864701562014456 0.4809 -1.4008648706152758 0.843911212891611 -0.843911212891611 -0.03091761249611565 0.2507492174215904 0.0 0.0 0.0 0.8 
1.016 0.4928 -1.5707963267948966 -1.5707963267948966 0.0 1.5707963267948966 0.0 0.8 0.0 0.0 0.0 0.0 0.0 0.0 0.0 0.0 0.0 0.0 0.0 0.3131827634074743 0.04065220417711643 0.4809 -1.402889854782946 0.83902441016666 -0.8390244101666601 -0.03252176334169315 0.25054621072597943 0.0 0.0 0.0 0.8 
1.024 0.4992000000000001 -1.5707963267948966 -1.5707963267948966 0.0 1.5707963267948966 0.0 0.8 0.0 0.0 0.0 0.0 0.0 0.0 0.0 0.0 0.0 0.0 0.0 0.3129161771157574 0.042655727625488846 0.4809 -1.404902253613117 0.8341358691848129 -0.834135869184813 -0.03412458210039108 0.25033294169260595 0.0 0.0 0.0 0.8 
1.032 0.5056 -1.5707963267948966 -1.5707963267948966 0.0 1.5707963267948966 0.0 0.8 0.0 0.0 0.0 0.0 0.0 0.0 0.0 0.0 0.0 0.0 0.0 0.3126367738211748 0.04465750390122135 0.4809 -1.4069020780158519 0.8292456024455936 -0.8292456024455938 -0.03572600312097708 0.25010941905693984 0.0 0.0 0.0 0.8 
1.04 0.512 -1.5707963267948966 -1.5707963267948966 0.0 1.5707963267948966 0.0 0.8 0.0 0.0 0.0 0.0 0.0 0.0 0.0 0.0 0.0 0.0 0.0 0.312344564968046 0.046657451011837645 0.4809 -1.4088893388289647 0.8243536224067229 -0.824353622406723 -0.037325960809470114 0.24987565197443684 0.0 0.0 0.0 0.8 
1.048 0.5184000000000001 -1.5707963267948966 -1.5707963267948966 0.0 1.5707963267948966 0.0 0.8 0.0 0.0 0.0 0.0 0.0 0.0 0.0 0.0 0.0 0.0 0.0 0.31203956252520515 0.048655487039783715 0.4809 -1.410864046818151 0.8194599414844593 -0.8194599414844594 -0.038924389631826976 0.24963165002016413 0.0 0.0 0.0 0.8 
1.056 0.5248 -1.5707963267948966 -1.5707963267948966 0.0 1.5707963267948966 0.0 0.8 0.0 0.0 0.0 0.0 0.0 0.0 0.0 0.0 0.0 0.0 0.0 0.31172177898550946 0.05065153014578311 0.4809 -1.4128262126771145 0.814564572053936 -0.8145645720539361 -0.04052122411662649 0.24937742318840758 0.0 0.0 0.0 0.8 
1.064 0.5312000000000001 -1.5707963267948966 -1.5707963267948966 0.0 1.5707963267948966 0.0 0.8 0.0 0.0 0.0 0.0 0.0 0.0 0.0 0.0 0.0 0.0 0.0 0.3113912273653283 0.05264549857218936 0.4809 -1.41477584702769 0.8096675264494951 -0.8096675264494952 -0.04211639885775149 0.24911298189226266 0.0 0.0 0.0 0.8 
1.072 0.5376000000000001 -1.5707963267948966 -1.5707963267948966 0.0 1.5707963267948966 0.0 0.8 0.0 0.0 0.0 0.0 0.0 0.0 0.0 0.0 0.0 0.0 0.0 0.3110479212040098 0.05463731064633442 0.4809 -1.4167129604199737 0.804768816965023 -0.8047688169650231 -0.04370984851706754 0.24883833696320787 0.0 0.0 0.0 0.8 
1.08 0.544 -1.5707963267948966 -1.5707963267948966 0.0 1.5707963267948966 0.0 0.8 0.0 0.0 0.0 0.0 0.0 0.0 0.0 0.0 0.0 0.0 0.0 0.31069187456332653 0.05662688478387424 0.4809 -1.4186375633324433 0.7998684558542805 -0.7998684558542806 -0.045301507827099394 0.24855349965066123 0.0 0.0 0.0 0.8 
1.088 0.5504000000000001 -1.5707963267948966 -1.5707963267948966 0.0 1.5707963267948966 0.0 0.8 0.0 0.0 0.0 0.0 0.0 0.0 0.0 0.0 0.0 0.0 0.0 0.31032310202689883 0.05861413949213035 0.4809 -1.4205496661720858 0.7949664553312351 -0.7949664553312352 -0.046891311593704285 0.2482584816215191 0.0 0.0 0.0 0.8 
1.096 0.5568000000000001 -1.5707963267948966 -1.5707963267948966 0.0 1.5707963267948966 0.0 0.8 0.0 0.0 0.0 0.0 0.0 0.0 0.0 0.0 0.0 0.0 0.0 0.3099416186995984 0.060598993373427654 0.4809 -1.422449279274519 0.7900628275703877 -0.7900628275703878 -0.04847919469874212 0.24795329495967874 0.0 0.0 0.0 0.8 
1.104 0.5632000000000001 -1.5707963267948966 -1.5707963267948966 0.0 1.5707963267948966 0.0 0.8 0.0 0.0 0.0 0.0 0.0 0.0 0.0 0.0 0.0 0.0 0.0 0.3095474402069289 0.06258136512842877 0.4809 -1.4243364129041152 0.7851575847071004 -0.7851575847071006 -0.050065092102743014 0.24763795216554316 0.0 0.0 0.0 0.8 
1.112 0.5696000000000001 -1.5707963267948966 -1.5707963267948966 0.0 1.5707963267948966 0.0 0.8 0.0 0.0 0.0 0.0 0.0 0.0 0.0 0.0 0.0 0.0 0.0 0.30914058269438643 0.06456117355946372 0.4809 -1.4262110772541237 0.7802507388379222 -0.7802507388379223 -0.051648938847570984 0.24731246615550917 0.0 0.0 0.0 0.8 
1.12 0.5760000000000001 -1.5707963267948966 -1.5707963267948966 0.0 1.5707963267948966 0.0 0.8 0.0 0.0 0.0 0.0 0.0 0.0 0.0 0.0 0.0 0.0 0.0 0.3087210628267977 0.06653833757385591 0.4809 -1.4280732824467912 0.7753423020209119 -0.7753423020209119 -0.05323067005908473 0.24697685026143815 0.0 0.0 0.0 0.8 
1.128 0.5824000000000001 -1.5707963267948966 -1.5707963267948966 0.0 1.5707963267948966 0.0 0.8 0.0 0.0 0.0 0.0 0.0 0.0 0.0 0.0 0.0 0.0 0.0 0.30828889778763785 0.06851277618724386 0.4809 -1.4299230385334836 0.7704322862759593 -0.7704322862759594 -0.05481022094979509 0.2466311182301103 0.0 0.0 0.0 0.8 
1.136 0.5888000000000002 -1.5707963267948966 -1.5707963267948966 0.0 1.5707963267948966 0.0 0.8 0.0 0.0 0.0 0.0 0.0 0.0 0.0 0.0 0.0 0.0 0.0 0.30784410527832645 0.07048440852689797 0.4809 -1.4317603554948062 0.765520703585108 -0.7655207035851082 -0.056387526821518374 0.24627528422266118 0.0 0.0 0.0 0.8 
1.144 0.5952000000000002 -1.5707963267948966 -1.5707963267948966 0.0 1.5707963267948966 0.0 0.8 0.0 0.0 0.0 0.0 0.0 0.0 0.0 0.0 0.0 0.0 0.0 0.3073867035175025 0.07245315383503315 0.4809 -1.433585243240723 0.7606075658928723 -0.7606075658928724 -0.05796252306802652 0.24590936281400202 0.0 0.0 0.0 0.8 
1.152 0.6016000000000001 -1.5707963267948966 -1.5707963267948966 0.0 1.5707963267948966 0.0 0.8 0.0 0.0 0.0 0.0 0.0 0.0 0.0 0.0 0.0 0.0 0.0 0.3069167112402782 0.07441893147211698 0.4809 -1.435397711610675 0.755692885106554 -0.7556928851065541 -0.05953514517769359 0.24553336899222256 0.0 0.0 0.0 0.8 
1.16 0.608 -1.5707963267948966 -1.5707963267948966 0.0 1.5707963267948966 0.0 0.8 0.0 0.0 0.0 0.0 0.0 0.0 0.0 0.0 0.0 0.0 0.0 0.30643414769747157 0.07638166092017218 0.4809 -1.4371977703736998 0.7507766730965598 -0.7507766730965599 -0.06110532873613775 0.24514731815797727 0.0 0.0 0.0 0.8 
1.168 0.6144000000000001 -1.5707963267948966 -1.5707963267948966 0.0 1.5707963267948966 0.0 0.8 0.0 0.0 0.0 0.0 0.0 0.0 0.0 0.0 0.0 0.0 0.0 0.30593903265481776 0.078341261786075 0.4809 -1.438985429228547 0.7458589416967137 -0.7458589416967139 -0.06267300942886 0.24475122612385422 0.0 0.0 0.0 0.8 
1.176 0.6208 -1.5707963267948966 -1.5707963267948966 0.0 1.5707963267948966 0.0 0.8 0.0 0.0 0.0 0.0 0.0 0.0 0.0 0.0 0.0 0.0 0.0 0.3054313863921597 0.08029765380484799 0.4809 -1.4407606978037981 0.7409397027045712 -0.7409397027045712 -0.0642381230438784 0.24434510911372778 0.0 0.0 0.0 0.8 
1.184 0.6272 -1.5707963267948966 -1.5707963267948966 0.0 1.5707963267948966 0.0 0.8 0.0 0.0 0.0 0.0 0.0 0.0 0.0 0.0 0.0 0.0 0.0 0.3049112297026174 0.08225075684294753 0.4809 -1.4425235856579781 0.7360189678817279 -0.736018967881728 -0.06580060547435802 0.24392898376209393 0.0 0.0 0.0 0.8 
1.192 0.6335999999999999 -1.5707963267948966 -1.5707963267948966 0.0 1.5707963267948966 0.0 0.8 0.0 0.0 0.0 0.0 0.0 0.0 0.0 0.0 0.0 0.0 0.0 0.3043785838917361 0.08420049090154622 0.4809 -1.444274102279676 0.7310967489541321 -0.7310967489541322 -0.06736039272123698 0.2435028671133889 0.0 0.0 0.0 0.8 
1.2 0.64 -1.5707963267948966 -1.5707963267948966 0.0 1.5707963267948966 0.0 0.8 0.0 0.0 0.0 0.0 0.0 0.0 0.0 0.0 0.0 0.0 0.0 0.3038334707766137 0.08614677611980974 0.4809 -1.4460122570876546 0.7261730576123899 -0.72617305761239 -0.06891742089584779 0.24306677662129098 0.0 0.0 0.0 0.8 
1.208 0.6464000000000001 -1.5707963267948966 -1.5707963267948966 0.0 1.5707963267948966 0.0 0.8 0.0 0.0 0.0 0.0 0.0 0.0 0.0 0.0 0.0 0.0 0.0 0.30327591268500725 0.08808953277816753 0.4809 -1.447738059430969 0.7212479055120737 -0.7212479055120737 -0.07047162622253403 0.2426207301480058 0.0 0.0 0.0 0.8 
1.216 0.6528 -1.5707963267948966 -1.5707963267948966 0.0 1.5707963267948966 0.0 0.8 0.0 0.0 0.0 0.0 0.0 0.0 0.0 0.0 0.0 0.0 0.0 0.3027059324544182 0.0900286813015785 0.4809 -1.4494515185890762 0.7163213042740261 -0.7163213042740262 -0.0720229450412628 0.24216474596353454 0.0 0.0 0.0 0.8 
1.224 0.6592 -1.5707963267948966 -1.5707963267948966 0.0 1.5707963267948966 0.0 0.8 0.0 0.0 0.0 0.0 0.0 0.0 0.0 0.0 0.0 0.0 0.0 0.30212355343115715 0.09196414226279029 0.4809 -1.45115264377195 0.7113932654846639 -0.711393265484664 -0.07357131381023223 0.24169884274492573 0.0 0.0 0.0 0.8 
1.232 0.6656 -1.5707963267948966 -1.5707963267948966 0.0 1.5707963267948966 0.0 0.8 0.0 0.0 0.0 0.0 0.0 0.0 0.0 0.0 0.0 0.0 0.0 0.3015287994693874 0.09389583638559243 0.4809 -1.4528414441201916 0.7064638006962805 -0.7064638006962806 -0.07511666910847395 0.24122303957550992 0.0 0.0 0.0 0.8 
1.24 0.672 -1.5707963267948966 -1.5707963267948966 0.0 1.5707963267948966 0.0 0.8 0.0 0.0 0.0 0.0 0.0 0.0 0.0 0.0 0.0 0.0 0.0 0.3009216949301481 0.09582368454806384 0.4809 -1.4545179287051426 0.7015329214273467 -0.7015329214273468 -0.07665894763845107 0.2407373559441185 0.0 0.0 0.0 0.8 
1.248 0.6784000000000001 -1.5707963267948966 -1.5707963267948966 0.0 1.5707963267948966 0.0 0.8 0.0 0.0 0.0 0.0 0.0 0.0 0.0 0.0 0.0 0.0 0.0 0.30030226468035637 0.0977476077858133 0.4809 -1.4561821065289928 0.6966006391628089 -0.696600639162809 -0.07819808622865065 0.2402418117442851 0.0 0.0 0.0 0.8 
1.256 0.6848000000000001 -1.5707963267948966 -1.5707963267948966 0.0 1.5707963267948966 0.0 0.8 0.0 0.0 0.0 0.0 0.0 0.0 0.0 0.0 0.0 0.0 0.0 0.2996705340917885 0.09966752729521385 0.4809 -1.4578339865248915 0.6916669653543883 -0.6916669653543884 -0.07973402183617108 0.2397364272734308 0.0 0.0 0.0 0.8 
1.264 0.6912 -1.5707963267948966 -1.5707963267948966 0.0 1.5707963267948966 0.0 0.8 0.0 0.0 0.0 0.0 0.0 0.0 0.0 0.0 0.0 0.0 0.0 0.2990265290400412 0.10158336443663094 0.4809 -1.4594735775570575 0.6867319114208769 -0.686731911420877 -0.08126669154930476 0.23922122323203296 0.0 0.0 0.0 0.8 
1.272 0.6976 -1.5707963267948966 -1.5707963267948966 0.0 1.5707963267948966 0.0 0.8 0.0 0.0 0.0 0.0 0.0 0.0 0.0 0.0 0.0 0.0 0.0 0.2983702759034713 0.10349504073764307 0.4809 -1.4611008884208854 0.6817954887484325 -0.6817954887484327 -0.08279603259011446 0.23869622072277707 0.0 0.0 0.0 0.8 
1.28 0.7040000000000001 -1.5707963267948966 -1.5707963267948966 0.0 1.5707963267948966 0.0 0.8 0.0 0.0 0.0 0.0 0.0 0.0 0.0 0.0 0.0 0.0 0.0 0.29770180156211545 0.10540247789625623 0.4809 -1.4627159278430544 0.6768577086908729 -0.6768577086908729 -0.084321982317005 0.23816144124969238 0.0 0.0 0.0 0.8 
1.288 0.7104000000000001 -1.5707963267948966 -1.5707963267948966 0.0 1.5707963267948966 0.0 0.8 0.0 0.0 0.0 0.0 0.0 0.0 0.0 0.0 0.0 0.0 0.0 0.29702113339658937 0.10730559778411114 0.4809 -1.4643187044816346 0.6719185825699676 -0.6719185825699676 -0.08584447822728891 0.2376169067172715 0.0 0.0 0.0 0.8 
1.296 0.7168000000000001 -1.5707963267948966 -1.5707963267948966 0.0 1.5707963267948966 0.0 0.8 0.0 0.0 0.0 0.0 0.0 0.0 0.0 0.0 0.0 0.0 0.0 0.29632829928696586 0.10920432244968308 0.4809 -1.465909226926194 0.6669781216757302 -0.6669781216757302 -0.08736345795974647 0.2370626394295727 0.0 0.0 0.0 0.8 
1.304 0.7232000000000001 -1.5707963267948966 -1.5707963267948966 0.0 1.5707963267948966 0.0 0.8 0.0 0.0 0.0 0.0 0.0 0.0 0.0 0.0 0.0 0.0 0.0 0.2956233276116332 0.11109857412147536 0.4809 -1.4674875036979027 0.6620363372667063 -0.6620363372667064 -0.0888788592971803 0.23649866208930656 0.0 0.0 0.0 0.8 
1.312 0.7296 -1.5707963267948966 -1.5707963267948966 0.0 1.5707963267948966 0.0 0.8 0.0 0.0 0.0 0.0 0.0 0.0 0.0 0.0 0.0 0.0 0.0 0.2949062472461327 0.11298827521120434 0.4809 -1.4690535432496394 0.6570932405702639 -0.6570932405702641 -0.09039062016896349 0.23592499779690615 0.0 0.0 0.0 0.8 
1.32 0.7360000000000001 -1.5707963267948966 -1.5707963267948966 0.0 1.5707963267948966 0.0 0.8 0.0 0.0 0.0 0.0 0.0 0.0 0.0 0.0 0.0 0.0 0.0 0.29417708756197575 0.11487334831697757 0.4809 -1.4706073539660938 0.6521488427828793 -0.6521488427828794 -0.09189867865358206 0.23534167004958062 0.0 0.0 0.0 0.8 
1.328 0.7424000000000002 -1.5707963267948966 -1.5707963267948966 0.0 1.5707963267948966 0.0 0.8 0.0 0.0 0.0 0.0 0.0 0.0 0.0 0.0 0.0 0.0 0.0 0.2934358784254411 0.11675371622646416 0.4809 -1.4721489441638693 0.6472031550704235 -0.6472031550704236 -0.09340297298117134 0.2347487027403529 0.0 0.0 0.0 0.8 
1.336 0.7488000000000001 -1.5707963267948966 -1.5707963267948966 0.0 1.5707963267948966 0.0 0.8 0.0 0.0 0.0 0.0 0.0 0.0 0.0 0.0 0.0 0.0 0.0 0.2926826501963515 0.11862930192005744 0.4809 -1.4736783220915879 0.6422561885684465 -0.6422561885684466 -0.09490344153604596 0.2341461201570812 0.0 0.0 0.0 0.8 
1.344 0.7552000000000001 -1.5707963267948966 -1.5707963267948966 0.0 1.5707963267948966 0.0 0.8 0.0 0.0 0.0 0.0 0.0 0.0 0.0 0.0 0.0 0.0 0.0 0.29191743372682977 0.12050002857402957 0.4809 -1.4751954959299907 0.6373079543824612 -0.6373079543824614 -0.09640002285922367 0.23353394698146382 0.0 0.0 0.0 0.8 
1.352 0.7616 -1.5707963267948966 -1.5707963267948966 0.0 1.5707963267948966 0.0 0.8 0.0 0.0 0.0 0.0 0.0 0.0 0.0 0.0 0.0 0.0 0.0 0.2911402603600355 0.12236581956367848 0.4809 -1.4767004737920373 0.6323584635882247 -0.6323584635882247 -0.0978926556509428 0.2329122082880284 0.0 0.0 0.0 0.8 
1.36 0.7680000000000001 -1.5707963267948966 -1.5707963267948966 0.0 1.5707963267948966 0.0 0.8 0.0 0.0 0.0 0.0 0.0 0.0 0.0 0.0 0.0 0.0 0.0 0.2903511619288812 0.12422659846646605 0.4809 -1.4781932637230095 0.6274077272320199 -0.62740772723202 -0.09938127877317285 0.23228092954310497 0.0 0.0 0.0 0.8 
1.368 0.7744000000000002 -1.5707963267948966 -1.5707963267948966 0.0 1.5707963267948966 0.0 0.8 0.0 0.0 0.0 0.0 0.0 0.0 0.0 0.0 0.0 0.0 0.0 0.2895501707547283 0.1260822890651485 0.4809 -1.479673873700608 0.622455756330935 -0.6224557563309351 -0.10086583125211881 0.23164013660378263 0.0 0.0 0.0 0.8 
1.376 0.7808000000000002 -1.5707963267948966 -1.5707963267948966 0.0 1.5707963267948966 0.0 0.8 0.0 0.0 0.0 0.0 0.0 0.0 0.0 0.0 0.0 0.0 0.0 0.28873731964606325 0.1279328153508984 0.4809 -1.4811423116350526 0.6175025618731416 -0.6175025618731417 -0.10234625228071872 0.2309898557168506 0.0 0.0 0.0 0.8 
1.384 0.7872000000000001 -1.5707963267948966 -1.5707963267948966 0.0 1.5707963267948966 0.0 0.8 0.0 0.0 0.0 0.0 0.0 0.0 0.0 0.0 0.0 0.0 0.0 0.2879126418971539 0.12977810152641778 0.4809 -1.4825985853691797 0.6125481548181724 -0.6125481548181724 -0.10382248122113423 0.23033011351772312 0.0 0.0 0.0 0.8 
1.392 0.7936000000000001 -1.5707963267948966 -1.5707963267948966 0.0 1.5707963267948966 0.0 0.8 0.0 0.0 0.0 0.0 0.0 0.0 0.0 0.0 0.0 0.0 0.0 0.2870761712866855 0.13161807200904294 0.4809 -1.4840427026785392 0.6075925460971966 -0.6075925460971967 -0.10529445760723435 0.22966093702934842 0.0 0.0 0.0 0.8 
1.4 0.8000000000000002 -1.5707963267948966 -1.5707963267948966 0.0 1.5707963267948966 0.0 0.8 0.0 0.0 0.0 0.0 0.0 0.0 0.0 0.0 0.0 0.0 0.0 0.2862279420763772 0.13345265143384014 0.4809 -1.4854746712714944 0.6026357466132957 -0.6026357466132958 -0.10676212114707212 0.22898235366110176 0.0 0.0 0.0 0.8 
1.408 0.8064 -1.5707963267948966 -1.5707963267948966 0.0 1.5707963267948966 0.0 0.8 0.0 0.0 0.0 0.0 0.0 0.0 0.0 0.0 0.0 0.0 0.0 0.28536798900957905 0.13528176465669256 0.4809 -1.4868944987893118 0.5976777672417368 -0.5976777672417369 -0.10822541172535405 0.22829439120766326 0.0 0.0 0.0 0.8 
1.416 0.8128 -1.5707963267948966 -1.5707963267948966 0.0 1.5707963267948966 0.0 0.8 0.0 0.0 0.0 0.0 0.0 0.0 0.0 0.0 0.0 0.0 0.0 0.2844963473098483 0.1371053367573784 0.4809 -1.4883021928062623 0.5927186188302448 -0.5927186188302449 -0.10968426940590273 0.22759707784787864 0.0 0.0 0.0 0.8 
1.424 0.8191999999999999 -1.5707963267948966 -1.5707963267948966 0.0 1.5707963267948966 0.0 0.8 0.0 0.0 0.0 0.0 0.0 0.0 0.0 0.0 0.0 0.0 0.0 0.2836130526795072 0.13892329304263934 0.4809 -1.489697760829711 0.5877583121992743 -0.5877583121992744 -0.11113863443411148 0.22689044214360576 0.0 0.0 0.0 0.8 
1.432 0.8256 -1.5707963267948966 -1.5707963267948966 0.0 1.5707963267948966 0.0 0.8 0.0 0.0 0.0 0.0 0.0 0.0 0.0 0.0 0.0 0.0 0.0 0.28271814129818024 0.14073555904924015 0.4809 -1.4910812103002136 0.5827968581422799 -0.58279685814228 -0.11258844723939213 0.2261745130385442 0.0 0.0 0.0 0.8 
1.44 0.832 -1.5707963267948966 -1.5707963267948966 0.0 1.5707963267948966 0.0 0.8 0.0 0.0 0.0 0.0 0.0 0.0 0.0 0.0 0.0 0.0 0.0 0.28181164982131257 0.1425420605470185 0.4809 -1.492452548591607 0.5778342674259852 -0.5778342674259853 -0.11403364843761482 0.22544931985705008 0.0 0.0 0.0 0.8 
1.448 0.8384 -1.5707963267948966 -1.5707963267948966 0.0 1.5707963267948966 0.0 0.8 0.0 0.0 0.0 0.0 0.0 0.0 0.0 0.0 0.0 0.0 0.0 0.28089361537866825 0.14434272354192565 0.4809 -1.4938117830111055 0.5728705507906512 -0.5728705507906513 -0.11547417883354053 0.22471489230293462 0.0 0.0 0.0 0.8 
1.456 0.8448 -1.5707963267948966 -1.5707963267948966 0.0 1.5707963267948966 0.0 0.8 0.0 0.0 0.0 0.0 0.0 0.0 0.0 0.0 0.0 0.0 0.0 0.27996407557280967 0.1461374742790571 0.4809 -1.4951589207993863 0.567905718950343 -0.5679057189503431 -0.11690997942324569 0.22397126045824775 0.0 0.0 0.0 0.8 
1.464 0.8512000000000001 -1.5707963267948966 -1.5707963267948966 0.0 1.5707963267948966 0.0 0.8 0.0 0.0 0.0 0.0 0.0 0.0 0.0 0.0 0.0 0.0 0.0 0.2790230684775575 0.14792623924567355 0.4809 -1.4964939691306844 0.562939782593196 -0.5629397825931961 -0.11834099139653885 0.223218454782046 0.0 0.0 0.0 0.8 
1.472 0.8576 -1.5707963267948966 -1.5707963267948966 0.0 1.5707963267948966 0.0 0.8 0.0 0.0 0.0 0.0 0.0 0.0 0.0 0.0 0.0 0.0 0.0 0.2780706326364306 0.14970894517421204 0.4809 -1.4978169351128805 0.5579727523816804 -0.5579727523816805 -0.11976715613936964 0.2224565061091445 0.0 0.0 0.0 0.8 
1.48 0.864 -1.5707963267948966 -1.5707963267948966 0.0 1.5707963267948966 0.0 0.8 0.0 0.0 0.0 0.0 0.0 0.0 0.0 0.0 0.0 0.0 0.0 0.277106807061068 0.15148551904528695 0.4809 -1.4991278257875922 0.5530046389528658 -0.5530046389528659 -0.12118841523622957 0.2216854456488544 0.0 0.0 0.0 0.8 
1.488 0.8704000000000001 -1.5707963267948966 -1.5707963267948966 0.0 1.5707963267948966 0.0 0.8 0.0 0.0 0.0 0.0 0.0 0.0 0.0 0.0 0.0 0.0 0.0 0.27613163122963047 0.153255888090681 0.4809 -1.500426648130258 0.5480354529186826 -0.5480354529186827 -0.1226047104725448 0.2209053049837044 0.0 0.0 0.0 0.8 
1.496 0.8768 -1.5707963267948966 -1.5707963267948966 0.0 1.5707963267948966 0.0 0.8 0.0 0.0 0.0 0.0 0.0 0.0 0.0 0.0 0.0 0.0 0.0 0.27514514508518373 0.15501997979632554 0.4809 -1.50171340905023 0.5430652048661855 -0.5430652048661856 -0.12401598383706043 0.220116116068147 0.0 0.0 0.0 0.8 
1.504 0.8832000000000001 -1.5707963267948966 -1.5707963267948966 0.0 1.5707963267948966 0.0 0.8 0.0 0.0 0.0 0.0 0.0 0.0 0.0 0.0 0.0 0.0 0.0 0.2741473890340623 0.15677772190527095 0.4809 -1.5029881153908577 0.5380939053578127 -0.5380939053578128 -0.12542217752421678 0.21931791122724986 0.0 0.0 0.0 0.8 
1.512 0.8896000000000001 -1.5707963267948966 -1.5707963267948966 0.0 1.5707963267948966 0.0 0.8 0.0 0.0 0.0 0.0 0.0 0.0 0.0 0.0 0.0 0.0 0.0 0.27313840394421457 0.15852904242064625 0.4809 -1.5042507739295727 0.5331215649316461 -0.5331215649316462 -0.126823233936517 0.21851072315537168 0.0 0.0 0.0 0.8 
1.52 0.896 -1.5707963267948966 -1.5707963267948966 0.0 1.5707963267948966 0.0 0.8 0.0 0.0 0.0 0.0 0.0 0.0 0.0 0.0 0.0 0.0 0.0 0.27211823114352873 0.16027386960860784 0.4809 -1.5055013913779787 0.5281481941016709 -0.5281481941016709 -0.12821909568688628 0.217694584914823 0.0 0.0 0.0 0.8 
1.528 0.9024000000000001 -1.5707963267948966 -1.5707963267948966 0.0 1.5707963267948966 0.0 0.8 0.0 0.0 0.0 0.0 0.0 0.0 0.0 0.0 0.0 0.0 0.0 0.27108691241814015 0.16201213200127823 0.4809 -1.506739974381931 0.5231738033580318 -0.5231738033580319 -0.12960970560102258 0.21686952993451214 0.0 0.0 0.0 0.8 
1.536 0.9088 -1.5707963267948966 -1.5707963267948966 0.0 1.5707963267948966 0.0 0.8 0.0 0.0 0.0 0.0 0.0 0.0 0.0 0.0 0.0 0.0 0.0 0.2700444900107195 0.16374375839967273 0.4809 -1.507966529521623 0.5181984031672907 -0.5181984031672908 -0.13099500671973818 0.2160355920085756 0.0 0.0 0.0 0.8 
1.544 0.9152000000000001 -1.5707963267948966 -1.5707963267948966 0.0 1.5707963267948966 0.0 0.8 0.0 0.0 0.0 0.0 0.0 0.0 0.0 0.0 0.0 0.0 0.0 0.2689910066187429 0.16546867787661618 0.4809 -1.5091810633116682 0.5132220039726827 -0.5132220039726828 -0.13237494230129296 0.21519280529499435 0.0 0.0 0.0 0.8 
1.552 0.9216000000000001 -1.5707963267948966 -1.5707963267948966 0.0 1.5707963267948966 0.0 0.8 0.0 0.0 0.0 0.0 0.0 0.0 0.0 0.0 0.0 0.0 0.0 0.26792650539274293 0.167186819779648 0.4809 -1.5103835822011826 0.5082446161943698 -0.5082446161943699 -0.13374945582371842 0.21434120431419434 0.0 0.0 0.0 0.8 
1.56 0.9280000000000002 -1.5707963267948966 -1.5707963267948966 0.0 1.5707963267948966 0.0 0.8 0.0 0.0 0.0 0.0 0.0 0.0 0.0 0.0 0.0 0.0 0.0 0.26685102993454074 0.168898113733916 0.4809 -1.5115740925738663 0.5032662502296957 -0.5032662502296958 -0.1351184909871328 0.2134808239476326 0.0 0.0 0.0 0.8 
1.568 0.9344000000000001 -1.5707963267948966 -1.5707963267948966 0.0 1.5707963267948966 0.0 0.8 0.0 0.0 0.0 0.0 0.0 0.0 0.0 0.0 0.0 0.0 0.0 0.26576462429546094 0.17060248964505909 0.4809 -1.5127526007480845 0.4982869164534391 -0.4982869164534392 -0.13648199171604727 0.21261169943636876 0.0 0.0 0.0 0.8 
1.576 0.9408000000000001 -1.5707963267948966 -1.5707963267948966 0.0 1.5707963267948966 0.0 0.8 0.0 0.0 0.0 0.0 0.0 0.0 0.0 0.0 0.0 0.0 0.0 0.2646673329745265 0.17229987770207822 0.4809 -1.5139191129769454 0.49330662521806456 -0.4933066252180647 -0.1378399021616626 0.21173386637962122 0.0 0.0 0.0 0.8 
1.584 0.9472000000000002 -1.5707963267948966 -1.5707963267948966 0.0 1.5707963267948966 0.0 0.8 0.0 0.0 0.0 0.0 0.0 0.0 0.0 0.0 0.0 0.0 0.0 0.26355920091663654 0.1739902083801959 0.4809 -1.5150736354483816 0.48832538685397436 -0.4883253868539745 -0.13919216670415674 0.21084736073330923 0.0 0.0 0.0 0.8 
1.592 0.9536000000000001 -1.5707963267948966 -1.5707963267948966 0.0 1.5707963267948966 0.0 0.8 0.0 0.0 0.0 0.0 0.0 0.0 0.0 0.0 0.0 0.0 0.0 0.26244027351072524 0.17567341244370394 0.4809 -1.516216174285228 0.4833432116697589 -0.483343211669759 -0.14053872995496317 0.2099522188085802 0.0 0.0 0.0 0.8 
1.6 0.9600000000000002 -1.5707963267948966 -1.5707963267948966 0.0 1.5707963267948966 0.0 0.8 0.0 0.0 0.0 0.0 0.0 0.0 0.0 0.0 0.0 0.0 0.0 0.2613105965879027 0.17734942094879919 0.4809 -1.5173467355452979 0.478360109952445 -0.4783601099524451 -0.14187953675903936 0.20904847727032216 0.0 0.0 0.0 0.8 
1.608 0.9664000000000001 -1.5707963267948966 -1.5707963267948966 0.0 1.5707963267948966 0.0 0.8 0.0 0.0 0.0 0.0 0.0 0.0 0.0 0.0 0.0 0.0 0.0 0.2601702164195777 0.1790181652464075 0.4809 -1.5184653252214613 0.47337609196774627 -0.4733760919677464 -0.14321453219712602 0.20813617313566218 0.0 0.0 0.0 0.8 
1.616 0.9728000000000001 -1.5707963267948966 -1.5707963267948966 0.0 1.5707963267948966 0.0 0.8 0.0 0.0 0.0 0.0 0.0 0.0 0.0 0.0 0.0 0.0 0.0 0.25901917971556265 0.18067957698499587 0.4809 -1.5195719492417197 0.4683911679603082 -0.46839116796030833 -0.1445436615879967 0.20721534377245013 0.0 0.0 0.0 0.8 
1.624 0.9792000000000002 -1.5707963267948966 -1.5707963267948966 0.0 1.5707963267948966 0.0 0.8 0.0 0.0 0.0 0.0 0.0 0.0 0.0 0.0 0.0 0.0 0.0 0.2578575336221598 0.1823335881133718 0.4809 -1.5206666134692832 0.4634053481539569 -0.463405348153957 -0.14586687049069744 0.20628602689772785 0.0 0.0 0.0 0.8 
1.632 0.9856000000000001 -1.5707963267948966 -1.5707963267948966 0.0 1.5707963267948966 0.0 0.8 0.0 0.0 0.0 0.0 0.0 0.0 0.0 0.0 0.0 0.0 0.0 0.2566853257202309 0.1839801308834706 0.4809 -1.5217493237026425 0.4584186427519442 -0.4584186427519443 -0.14718410470677648 0.20534826057618472 0.0 0.0 0.0 0.8 
1.64 0.9920000000000002 -1.5707963267948966 -1.5707963267948966 0.0 1.5707963267948966 0.0 0.8 0.0 0.0 0.0 0.0 0.0 0.0 0.0 0.0 0.0 0.0 0.0 0.2555026040232476 0.1856191378531307 0.4809 -1.5228200856756453 0.4534310619371927 -0.4534310619371928 -0.14849531028250457 0.2044020832185981 0.0 0.0 0.0 0.8 
1.648 0.9984000000000002 -1.5707963267948966 -1.5707963267948966 0.0 1.5707963267948966 0.0 0.8 0.0 0.0 0.0 0.0 0.0 0.0 0.0 0.0 0.0 0.0 0.0 0.25430941697532533 0.18725054188885568 0.4809 -1.5238789050575654 0.4484426158725398 -0.4484426158725399 -0.14980043351108455 0.20344753358026027 0.0 0.0 0.0 0.8 
1.656 1.0048000000000001 -1.5707963267948966 -1.5707963267948966 0.0 1.5707963267948966 0.0 0.8 0.0 0.0 0.0 0.0 0.0 0.0 0.0 0.0 0.0 0.0 0.0 0.2531058134492387 0.18887427616856442 0.4809 -1.5249257874531799 0.4434533147009817 -0.4434533147009818 -0.15109942093485154 0.20248465075939098 0.0 0.0 0.0 0.8 
1.664 1.0112 -1.5707963267948966 -1.5707963267948966 0.0 1.5707963267948966 0.0 0.8 0.0 0.0 0.0 0.0 0.0 0.0 0.0 0.0 0.0 0.0 0.0 0.25189184274442 0.1904902741843278 0.4809 -1.5259607384028353 0.43846316854591544 -0.4384631685459155 -0.15239221934746225 0.201513474195536 0.0 0.0 0.0 0.8 
1.672 1.0176 -1.5707963267948966 -1.5707963267948966 0.0 1.5707963267948966 0.0 0.8 0.0 0.0 0.0 0.0 0.0 0.0 0.0 0.0 0.0 0.0 0.0 0.25066755458493944 0.19209846974509298 0.4809 -1.5269837633825216 0.43347218751138056 -0.43347218751138067 -0.1536787757960744 0.20053404366795158 0.0 0.0 0.0 0.8 
1.68 1.024 -1.5707963267948966 -1.5707963267948966 0.0 1.5707963267948966 0.0 0.8 0.0 0.0 0.0 0.0 0.0 0.0 0.0 0.0 0.0 0.0 0.0 0.24943299911746886 0.19369879697939474 0.4809 -1.5279948678039408 0.4284803816823007 -0.4284803816823008 -0.1549590375835158 0.1995463992939751 0.0 0.0 0.0 0.8 
1.688 1.0304 -1.5707963267948966 -1.5707963267948966 0.0 1.5707963267948966 0.0 0.8 0.0 0.0 0.0 0.0 0.0 0.0 0.0 0.0 0.0 0.0 0.0 0.24818822690922768 0.19529119033805314 0.4809 -1.5289940570145768 0.4234877611247238 -0.4234877611247239 -0.15623295227044254 0.19855058152738214 0.0 0.0 0.0 0.8 
1.696 1.0368 -1.5707963267948966 -1.5707963267948966 0.0 1.5707963267948966 0.0 0.8 0.0 0.0 0.0 0.0 0.0 0.0 0.0 0.0 0.0 0.0 0.0 0.24693328894591146 0.196875584596859 0.4809 -1.5299813362977612 0.4184943358860607 -0.41849433588606083 -0.1575004676774872 0.19754663115672919 0.0 0.0 0.0 0.8 
1.704 1.0432000000000001 -1.5707963267948966 -1.5707963267948966 0.0 1.5707963267948966 0.0 0.8 0.0 0.0 0.0 0.0 0.0 0.0 0.0 0.0 0.0 0.0 0.0 0.2456682366296037 0.19845191485924507 0.4809 -1.5309567108727444 0.413500115995325 -0.41350011599532505 -0.15876153188739606 0.19653458930368295 0.0 0.0 0.0 0.8 
1.712 1.0496 -1.5707963267948966 -1.5707963267948966 0.0 1.5707963267948966 0.0 0.8 0.0 0.0 0.0 0.0 0.0 0.0 0.0 0.0 0.0 0.0 0.0 0.2443931217766705 0.20002011655894386 0.4809 -1.5319201858947586 0.40850511146337015 -0.40850511146337026 -0.1600160932471551 0.19551449742133642 0.0 0.0 0.0 0.8 
1.72 1.056 -1.5707963267948966 -1.5707963267948966 0.0 1.5707963267948966 0.0 0.8 0.0 0.0 0.0 0.0 0.0 0.0 0.0 0.0 0.0 0.0 0.0 0.24310799661563795 0.20158012546263326 0.4809 -1.532871766455086 0.4035093322831271 -0.4035093322831272 -0.16126410037010663 0.19448639729251038 0.0 0.0 0.0 0.8 
1.728 1.0624 -1.5707963267948966 -1.5707963267948966 0.0 1.5707963267948966 0.0 0.8 0.0 0.0 0.0 0.0 0.0 0.0 0.0 0.0 0.0 0.0 0.0 0.2418129137850529 0.20313187767256663 0.4809 -1.5338114575811241 0.3985127884298409 -0.398512788429841 -0.16250550213805331 0.19345033102804232 0.0 0.0 0.0 0.8 
1.736 1.0688 -1.5707963267948966 -1.5707963267948966 0.0 1.5707963267948966 0.0 0.8 0.0 0.0 0.0 0.0 0.0 0.0 0.0 0.0 0.0 0.0 0.0 0.24050792633132703 0.2046753096291904 0.4809 -1.5347392642364477 0.3935154898613059 -0.393515489861306 -0.16374024770335233 0.19240634106506163 0.0 0.0 0.0 0.8 
1.744 1.0752000000000002 -1.5707963267948966 -1.5707963267948966 0.0 1.5707963267948966 0.0 0.8 0.0 0.0 0.0 0.0 0.0 0.0 0.0 0.0 0.0 0.0 0.0 0.23919308770656406 0.20621035811374744 0.4809 -1.5356551913208738 0.38851744651810133 -0.38851744651810144 -0.16496828649099796 0.19135447016525126 0.0 0.0 0.0 0.8 
1.752 1.0816000000000001 -1.5707963267948966 -1.5707963267948966 0.0 1.5707963267948966 0.0 0.8 0.0 0.0 0.0 0.0 0.0 0.0 0.0 0.0 0.0 0.0 0.0 0.2378684517663702 0.2077369602508663 0.4809 -1.5365592436705253 0.38351866832382614 -0.38351866832382625 -0.16618956820069306 0.19029476141309618 0.0 0.0 0.0 0.8 
1.76 1.088 -1.5707963267948966 -1.5707963267948966 0.0 1.5707963267948966 0.0 0.8 0.0 0.0 0.0 0.0 0.0 0.0 0.0 0.0 0.0 0.0 0.0 0.23653407276764835 0.20925505351113705 0.4809 -1.5374514260578913 0.37851916518533124 -0.37851916518533135 -0.16740404280890964 0.18922725821411868 0.0 0.0 0.0 0.8 
1.768 1.0944 -1.5707963267948966 -1.5707963267948966 0.0 1.5707963267948966 0.0 0.8 0.0 0.0 0.0 0.0 0.0 0.0 0.0 0.0 0.0 0.0 0.0 0.2351900053663758 0.21076457571367185 0.4809 -1.5383317431918895 0.3735189469929543 -0.37351894699295435 -0.1686116605709375 0.18815200429310064 0.0 0.0 0.0 0.8 
1.776 1.1008 -1.5707963267948966 -1.5707963267948966 0.0 1.5707963267948966 0.0 0.8 0.0 0.0 0.0 0.0 0.0 0.0 0.0 0.0 0.0 0.0 0.0 0.2338363046153653 0.21226546502865246 0.4809 -1.5392001997179254 0.3685180236207505 -0.36851802362075053 -0.169812372022922 0.18706904369229227 0.0 0.0 0.0 0.8 
1.784 1.1072000000000002 -1.5707963267948966 -1.5707963267948966 0.0 1.5707963267948966 0.0 0.8 0.0 0.0 0.0 0.0 0.0 0.0 0.0 0.0 0.0 0.0 0.0 0.2324730259620104 0.21375765997986237 0.4809 -1.5400568002179529 0.3635164049267251 -0.36351640492672516 -0.17100612798388992 0.18597842076960833 0.0 0.0 0.0 0.8 
1.792 1.1136000000000001 -1.5707963267948966 -1.5707963267948966 0.0 1.5707963267948966 0.0 0.8 0.0 0.0 0.0 0.0 0.0 0.0 0.0 0.0 0.0 0.0 0.0 0.23110022524601412 0.21524109944720488 0.4809 -1.540901549210532 0.35851410075306495 -0.358514100753065 -0.1721928795577639 0.1848801801968113 0.0 0.0 0.0 0.8 
1.8 1.12 -1.5707963267948966 -1.5707963267948966 0.0 1.5707963267948966 0.0 0.8 0.0 0.0 0.0 0.0 0.0 0.0 0.0 0.0 0.0 0.0 0.0 0.22971795869710193 0.21671572266920686 0.4809 -1.5417344511508888 0.3535111209263678 -0.35351112092636783 -0.1733725781353655 0.18377436695768157 0.0 0.0 0.0 0.8 
1.808 1.1264 -1.5707963267948966 -1.5707963267948966 0.0 1.5707963267948966 0.0 0.8 0.0 0.0 0.0 0.0 0.0 0.0 0.0 0.0 0.0 0.0 0.0 0.22832628293271834 0.2181814692455073 0.4809 -1.54255551043097 0.3485074752578724 -0.3485074752578724 -0.17454517539640585 0.18266102634617468 0.0 0.0 0.0 0.8 
1.816 1.1328 -1.5707963267948966 -1.5707963267948966 0.0 1.5707963267948966 0.0 0.8 0.0 0.0 0.0 0.0 0.0 0.0 0.0 0.0 0.0 0.0 0.0 0.2269252549557081 0.21963827913933143 0.4809 -1.5433647313795016 0.3435031735436881 -0.34350317354368815 -0.17571062331146514 0.1815402039645665 0.0 0.0 0.0 0.8 
1.824 1.1392000000000002 -1.5707963267948966 -1.5707963267948966 0.0 1.5707963267948966 0.0 0.8 0.0 0.0 0.0 0.0 0.0 0.0 0.0 0.0 0.0 0.0 0.0 0.2255149321519812 0.22108609267994972 0.4809 -1.5441621182620429 0.33849822556502296 -0.338498225565023 -0.1768688741439598 0.18041194572158498 0.0 0.0 0.0 0.8 
1.832 1.1456000000000002 -1.5707963267948966 -1.5707963267948966 0.0 1.5707963267948966 0.0 0.8 0.0 0.0 0.0 0.0 0.0 0.0 0.0 0.0 0.0 0.0 0.0 0.22409537228816268 0.22252485056512172 0.4809 -1.5449476752810434 0.3334926410884124 -0.3334926410884124 -0.17801988045209738 0.17927629783053015 0.0 0.0 0.0 0.8 
1.84 1.1520000000000001 -1.5707963267948966 -1.5707963267948966 0.0 1.5707963267948966 0.0 0.8 0.0 0.0 0.0 0.0 0.0 0.0 0.0 0.0 0.0 0.0 0.0 0.22266663350922597 0.22395449386352584 0.4809 -1.5457214065758935 0.32848642986594545 -0.3284864298659455 -0.1791635950908207 0.1781333068073808 0.0 0.0 0.0 0.8 
1.848 1.1584 -1.5707963267948966 -1.5707963267948966 0.0 1.5707963267948966 0.0 0.8 0.0 0.0 0.0 0.0 0.0 0.0 0.0 0.0 0.0 0.0 0.0 0.22122877433611177 0.22537496401717239 0.4809 -1.546483316222982 0.32347960163549233 -0.3234796016354924 -0.18029997121373792 0.17698301946888942 0.0 0.0 0.0 0.8 
1.856 1.1648 -1.5707963267948966 -1.5707963267948966 0.0 1.5707963267948966 0.0 0.8 0.0 0.0 0.0 0.0 0.0 0.0 0.0 0.0 0.0 0.0 0.0 0.2197818536633307 0.22678620284380238 0.4809 -1.5472334082357457 0.31847216612093054 -0.31847216612093054 -0.1814289622750419 0.17582548293066458 0.0 0.0 0.0 0.8 
1.864 1.1712000000000002 -1.5707963267948966 -1.5707963267948966 0.0 1.5707963267948966 0.0 0.8 0.0 0.0 0.0 0.0 0.0 0.0 0.0 0.0 0.0 0.0 0.0 0.21832593075655127 0.22818815253927088 0.4809 -1.547971686564721 0.31346413303237003 -0.3134641330323701 -0.18255052203141672 0.17466074460524103 0.0 0.0 0.0 0.8 
1.872 1.1776000000000002 -1.5707963267948966 -1.5707963267948966 0.0 1.5707963267948966 0.0 0.8 0.0 0.0 0.0 0.0 0.0 0.0 0.0 0.0 0.0 0.0 0.0 0.21686106525017218 0.22958075567991437 0.4809 -1.548698155097596 0.3084555120663794 -0.30845551206637944 -0.18366460454393152 0.17348885220013777 0.0 0.0 0.0 0.8 
1.88 1.1840000000000002 -1.5707963267948966 -1.5707963267948966 0.0 1.5707963267948966 0.0 0.8 0.0 0.0 0.0 0.0 0.0 0.0 0.0 0.0 0.0 0.0 0.0 0.21538731714487985 0.23096395522490293 0.4809 -1.5494128176592614 0.3034463129062092 -0.30344631290620927 -0.18477116417992234 0.1723098537159039 0.0 0.0 0.0 0.8 
1.888 1.1904000000000001 -1.5707963267948966 -1.5707963267948966 0.0 1.5707963267948966 0.0 0.8 0.0 0.0 0.0 0.0 0.0 0.0 0.0 0.0 0.0 0.0 0.0 0.2139047468051905 0.23233769451857642 0.4809 -1.5501156780118572 0.2984365452220165 -0.29843654522201657 -0.18587015561486114 0.1711237974441524 0.0 0.0 0.0 0.8 
1.896 1.1968 -1.5707963267948966 -1.5707963267948966 0.0 1.5707963267948966 0.0 0.8 0.0 0.0 0.0 0.0 0.0 0.0 0.0 0.0 0.0 0.0 0.0 0.21241341495697805 0.23370191729276563 0.4809 -1.5508067398548229 0.2934262186710885 -0.29342621867108853 -0.18696153383421252 0.16993073196558245 0.0 0.0 0.0 0.8 
1.904 1.2032000000000003 -1.5707963267948966 -1.5707963267948966 0.0 1.5707963267948966 0.0 0.8 0.0 0.0 0.0 0.0 0.0 0.0 0.0 0.0 0.0 0.0 0.0 0.21091338268498638 0.23505656766909638 0.4809 -1.5514860068249452 0.28841534289806486 -0.2884153428980649 -0.18804525413527712 0.16873070614798913 0.0 0.0 0.0 0.8 
1.912 1.2096000000000002 -1.5707963267948966 -1.5707963267948966 0.0 1.5707963267948966 0.0 0.8 0.0 0.0 0.0 0.0 0.0 0.0 0.0 0.0 0.0 0.0 0.0 0.2094047114303278 0.2364015901612786 0.4809 -1.552153482496405 0.28340392753516164 -0.2834039275351617 -0.18912127212902288 0.16752376914426226 0.0 0.0 0.0 0.8 
1.92 1.216 -1.5707963267948966 -1.5707963267948966 0.0 1.5707963267948966 0.0 0.8 0.0 0.0 0.0 0.0 0.0 0.0 0.0 0.0 0.0 0.0 0.0 0.20788746298796593 0.23773692967737908 0.4809 -1.5528091703808233 0.2783919822023916 -0.2783919822023916 -0.19018954374190328 0.16630997039037276 0.0 0.0 0.0 0.8 
1.928 1.2224 -1.5707963267948966 -1.5707963267948966 0.0 1.5707963267948966 0.0 0.8 0.0 0.0 0.0 0.0 0.0 0.0 0.0 0.0 0.0 0.0 0.0 0.20636169950418476 0.23906253152207801 0.4809 -1.5534530739273056 0.27337951650778586 -0.2733795165077859 -0.19125002521766243 0.1650893596033478 0.0 0.0 0.0 0.8 
1.936 1.2288000000000001 -1.5707963267948966 -1.5707963267948966 0.0 1.5707963267948966 0.0 0.8 0.0 0.0 0.0 0.0 0.0 0.0 0.0 0.0 0.0 0.0 0.0 0.20482748347404328 0.24037834139890918 0.4809 -1.5540851965224884 0.268366540047616 -0.26836654004761606 -0.19230267311912735 0.16386198677923464 0.0 0.0 0.0 0.8 
1.944 1.2352 -1.5707963267948966 -1.5707963267948966 0.0 1.5707963267948966 0.0 0.8 0.0 0.0 0.0 0.0 0.0 0.0 0.0 0.0 0.0 0.0 0.0 0.20328487773881565 0.24168430541248384 0.4809 -1.554705541490582 0.26335306240661427 -0.2633530624066143 -0.19334744432998707 0.16262790219105253 0.0 0.0 0.0 0.8 
1.952 1.2416 -1.5707963267948966 -1.5707963267948966 0.0 1.5707963267948966 0.0 0.8 0.0 0.0 0.0 0.0 0.0 0.0 0.0 0.0 0.0 0.0 0.0 0.2017339454834171 0.24298037007069867 0.4809 -1.5553141120934122 0.2583390931581925 -0.25833909315819253 -0.19438429605655894 0.1613871563867337 0.0 0.0 0.0 0.8 
1.96 1.248 -1.5707963267948966 -1.5707963267948966 0.0 1.5707963267948966 0.0 0.8 0.0 0.0 0.0 0.0 0.0 0.0 0.0 0.0 0.0 0.0 0.0 0.20017475023381595 0.24426648228692655 0.4809 -1.5559109115304646 0.253324641864663 -0.2533246418646631 -0.19541318582954126 0.16013980018705276 0.0 0.0 0.0 0.8 
1.968 1.2543898543276801 -1.5707963267948966 -1.5707963267948966 0.0 1.5707963267948966 0.0 0.7954954084936208 0.0 0.0 0.0 0.0 0.0 -1.0 0.0 0.0 0.0 0.0 0.0 0.19860984703886225 0.24554057436440058 0.4809 -1.5564950248225593 0.24831766841094768 -0.24831766841094774 -0.1953263995057671 0.15799322140103528 0.0 0.0 0.0 0.7954954084936208 
1.976 1.260721817595629 -1.5707963267948966 -1.5707963267948966 0.0 1.5707963267948966 0.0 0.7874954084936208 0.0 0.0 0.0 0.0 0.0 -1.0 0.0 0.0 0.0 0.0 0.0 0.19705112203614517 0.24679323391109453 0.4809 -1.5570622773407075 0.24335560206025025 -0.24335560206025028 -0.1943485385522791 0.15517685384198046 0.0 0.0 0.0 0.7874954084936208 
1.984 1.2669897808635782 -1.5707963267948966 -1.5707963267948966 0.0 1.5707963267948966 0.0 0.7794954084936208 0.0 0.0 0.0 0.0 0.0 -1.0 0.0 0.0 0.0 0.0 0.0 0.1955003704432101 0.2480234871067005 0.4809 -1.5576124571095324 0.23844325227562937 -0.23844325227562943 -0.1933331693982498 0.15239164111928422 0.0 0.0 0.0 0.7794954084936208 
1.992 1.273193744131527 -1.5707963267948966 -1.5707963267948966 0.0 1.5707963267948966 0.0 0.7714954084936207 0.0 0.0 0.0 0.0 0.0 -1.0 0.0 0.0 0.0 0.0 0.0 0.19395788939984698 0.24923158335081996 0.4809 -1.5581459124398245 0.23358064119018548 -0.23358064119018554 -0.19228102220675272 0.14963762111309548 0.0 0.0 0.0 0.7714954084936207 
2.0 1.279333707399476 -1.5707963267948966 -1.5707963267948966 0.0 1.5707963267948966 0.0 0.7634954084936207 0.0 0.0 0.0 0.0 0.0 -1.0 0.0 0.0 0.0 0.0 0.0 0.1924239702356452 0.2504177722901303 0.4809 -1.5586629878921667 0.22876779025265936 -0.2287677902526594 -0.19119281934871551 0.14691481775902826 0.0 0.0 0.0 0.7634954084936207 
2.008 1.285409670667425 -1.5707963267948966 -1.5707963267948966 0.0 1.5707963267948966 0.0 0.7554954084936207 0.0 0.0 0.0 0.0 0.0 -1.0 0.0 0.0 0.0 0.0 0.0 0.1908988985327084 0.251582303707949 0.4809 -1.5591640242868292 0.22400472024235155 -0.2240047202423516 -0.19006927530960308 0.14422324132795078 0.0 0.0 0.0 0.7554954084936207 
2.016 1.291421633935374 -1.5707963267948966 -1.5707963267948966 0.0 1.5707963267948966 0.0 0.7474954084936207 0.0 0.0 0.0 0.0 0.0 -1.0 0.0 0.0 0.0 0.0 0.0 0.18938295418908888 0.2527254274160268 0.4809 -1.5596493587133584 0.2192914512838279 -0.21929145128382793 -0.18891109660306787 0.14156288870330164 0.0 0.0 0.0 0.7474954084936207 
2.024 1.297369597203323 -1.5707963267948966 -1.5707963267948966 0.0 1.5707963267948966 0.0 0.7394954084936207 0.0 0.0 0.0 0.0 0.0 -1.0 0.0 0.0 0.0 0.0 0.0 0.18787641148288403 0.2538473931485491 0.4809 -1.5601193245398635 0.21462800286141628 -0.21462800286141634 -0.18771898169142706 0.1389337436558509 0.0 0.0 0.0 0.7394954084936207 
2.032 1.3032535604712718 -1.5707963267948966 -1.5707963267948966 0.0 1.5707963267948966 0.0 0.7314954084936207 0.0 0.0 0.0 0.0 0.0 -1.0 0.0 0.0 0.0 0.0 0.0 0.1863795391369432 0.2549484504583243 0.4809 -1.5605742514220082 0.2100143938334978 -0.21001439383349785 -0.18649362091282756 0.13633577711583103 0.0 0.0 0.0 0.7314954084936207 
2.04 1.309073523739221 -1.5707963267948966 -1.5707963267948966 0.0 1.5707963267948966 0.0 0.7234954084936207 0.0 0.0 0.0 0.0 0.0 -1.0 0.0 0.0 0.0 0.0 0.0 0.18489260038413005 0.2560288486151402 0.4809 -1.5610144653117135 0.20545064244659322 -0.20545064244659325 -0.18523569641496224 0.13376894744236395 0.0 0.0 0.0 0.7234954084936207 
2.048 1.31482948700717 -1.5707963267948966 -1.5707963267948966 0.0 1.5707963267948966 0.0 0.7154954084936207 0.0 0.0 0.0 0.0 0.0 -1.0 0.0 0.0 0.0 0.0 0.0 0.1834158530330906 0.25708883650626235 0.4809 -1.5614402884655794 0.2009367663492518 -0.20093676634925187 -0.18394588209519785 0.13123320069011707 0.0 0.0 0.0 0.7154954084936207 
2.056 1.320521450275119 -1.5707963267948966 -1.5707963267948966 0.0 1.5707963267948966 0.0 0.7074954084936207 0.0 0.0 0.0 0.0 0.0 -1.0 0.0 0.0 0.0 0.0 0.0 0.18194954953447368 0.25812866253905653 0.4809 -1.5618520394530306 0.19647278260573878 -0.19647278260573883 -0.18262484354698177 0.12872847087312272 0.0 0.0 0.0 0.7074954084936207 
2.064 1.326149413543068 -1.5707963267948966 -1.5707963267948966 0.0 1.5707963267948966 0.0 0.6994954084936207 0.0 0.0 0.0 0.0 0.0 -1.0 0.0 0.0 0.0 0.0 0.0 0.18049393704755642 0.25914857454570867 0.4809 -1.562250033164193 0.19205870770953068 -0.19205870770953073 -0.18127323801238998 0.12625468022570233 0.0 0.0 0.0 0.6994954084936207 
2.072 1.331713376811017 -1.5707963267948966 -1.5707963267948966 0.0 1.5707963267948966 0.0 0.6914954084936207 0.0 0.0 0.0 0.0 0.0 -1.0 0.0 0.0 0.0 0.0 0.0 0.1790492575072251 0.26014881969002157 0.4809 -1.5626345808175075 0.18769455759661624 -0.1876945575966163 -0.17989171434068474 0.12381173946043811 0.0 0.0 0.0 0.6914954084936207 
2.08 1.3372133400789656 -1.5707963267948966 -1.5707963267948966 0.0 1.5707963267948966 0.0 0.6834954084936207 0.0 0.0 0.0 0.0 0.0 -1.0 0.0 0.0 0.0 0.0 0.0 0.1776157476912636 0.26112964437626257 0.4809 -1.5630059899670847 0.18338034765860736 -0.18338034765860742 -0.17848091295274748 0.12139954802314007 0.0 0.0 0.0 0.6834954084936207 
2.088 1.342649303346915 -1.5707963267948966 -1.5707963267948966 0.0 1.5707963267948966 0.0 0.6754954084936207 0.0 0.0 0.0 0.0 0.0 -1.0 0.0 0.0 0.0 0.0 0.0 0.17619363928790327 0.26209129416003923 0.4809 -1.5633645645098126 0.1791160927556616 -0.17911609275566162 -0.1770414658112574 0.11901799434475988 0.0 0.0 0.0 0.6754954084936207 
2.096 1.3480212666148634 -1.5707963267948966 -1.5707963267948966 0.0 1.5707963267948966 0.0 0.6674954084936207 0.0 0.0 0.0 0.0 0.0 -1.0 0.0 0.0 0.0 0.0 0.0 0.17478315896358992 0.2630340136611774 0.4809 -1.5637106046922142 0.17490180722922147 -0.1749018072292215 -0.17557399639648422 0.11666695609020689 0.0 0.0 0.0 0.6674954084936207 
2.104 1.3533292298828126 -1.5707963267948966 -1.5707963267948966 0.0 1.5707963267948966 0.0 0.6594954084936206 0.0 0.0 0.0 0.0 0.0 -1.0 0.0 0.0 0.0 0.0 0.0 0.1733845284309204 0.2639580464785784 0.4809 -1.5640444071170723 0.17073750491456485 -0.17073750491456488 -0.17407911968756817 0.11434630040402363 0.0 0.0 0.0 0.6594954084936206 
2.112 1.3585731931507616 -1.5707963267948966 -1.5707963267948966 0.0 1.5707963267948966 0.0 0.6514954084936206 0.0 0.0 0.0 0.0 0.0 -1.0 0.0 0.0 0.0 0.0 0.0 0.1719979645167098 0.26486363510702754 0.4809 -1.5643662647498129 0.16662319915318033 -0.16662319915318036 -0.1725574421491582 0.11205588415288512 0.0 0.0 0.0 0.6514954084936206 
2.12 1.3637531564187106 -1.5707963267948966 -1.5707963267948966 0.0 1.5707963267948966 0.0 0.6434954084936206 0.0 0.0 0.0 0.0 0.0 -1.0 0.0 0.0 0.0 0.0 0.0 0.17062367923014252 0.26575102085593094 0.4809 -1.5646764669246682 0.16255890280495777 -0.1625589028049578 -0.17100956172328396 0.10979555416488505 0.0 0.0 0.0 0.6434954084936206 
2.128 1.3688691196866594 -1.5707963267948966 -1.5707963267948966 0.0 1.5707963267948966 0.0 0.6354954084936206 0.0 0.0 0.0 0.0 0.0 -1.0 0.0 0.0 0.0 0.0 0.0 0.1692618798309691 0.2666204437699528 0.4809 -1.564975299350613 0.15854462826020407 -0.1585446282602041 -0.16943606782633658 0.10756514746557984 0.0 0.0 0.0 0.6354954084936206 
2.136 1.3739210829546087 -1.5707963267948966 -1.5707963267948966 0.0 1.5707963267948966 0.0 0.6274954084936206 0.0 0.0 0.0 0.0 0.0 -1.0 0.0 0.0 0.0 0.0 0.0 0.1679127688977063 0.26747214255152907 0.4809 -1.5652630441170863 0.15458038745148137 -0.1545803874514814 -0.16783754135103565 0.10536449151076112 0.0 0.0 0.0 0.6274954084936206 
2.144 1.3789090462225573 -1.5707963267948966 -1.5707963267948966 0.0 1.5707963267948966 0.0 0.6194954084936206 0.0 0.0 0.0 0.0 0.0 -1.0 0.0 0.0 0.0 0.0 0.0 0.16657654439580305 0.26830635448522844 0.4809 -1.5655399796995009 0.15066619186527472 -0.15066619186527475 -0.16621455467326077 0.10319340441593373 0.0 0.0 0.0 0.6194954084936206 
2.152 1.3838330094905065 -1.5707963267948966 -1.5707963267948966 0.0 1.5707963267948966 0.0 0.6114954084936206 0.0 0.0 0.0 0.0 0.0 -1.0 0.0 0.0 0.0 0.0 0.0 0.1652533997457311 0.2691233153639379 0.4809 -1.5658063809645486 0.1468020525534816 -0.14680205255348164 -0.1645676716636287 0.10105169518247542 0.0 0.0 0.0 0.6114954084936206 
2.16 1.3886929727584556 -1.5707963267948966 -1.5707963267948966 0.0 1.5707963267948966 0.0 0.6034954084936206 0.0 0.0 0.0 0.0 0.0 -1.0 0.0 0.0 0.0 0.0 0.0 0.16394352389096625 0.2699232594168427 0.4809 -1.5660625191753028 0.14298798014473788 -0.14298798014473788 -0.16289744770369702 0.09893916392046233 0.0 0.0 0.0 0.6034954084936206 
2.168 1.3934889360264047 -1.5707963267948966 -1.5707963267948966 0.0 1.5707963267948966 0.0 0.5954954084936206 0.0 0.0 0.0 0.0 0.0 -1.0 0.0 0.0 0.0 0.0 0.0 0.16264710136582025 0.27070641923917615 0.4809 -1.5663086619961262 0.1392239848555689 -0.13922398485556892 -0.1612044297066785 0.09685560206814245 0.0 0.0 0.0 0.5954954084936206 
2.176 1.3982208992943534 -1.5707963267948966 -1.5707963267948966 0.0 1.5707963267948966 0.0 0.5874954084936206 0.0 0.0 0.0 0.0 0.0 -1.0 0.0 0.0 0.0 0.0 0.0 0.16136431236309046 0.27147302572371157 0.4809 -1.566545073497391 0.1355100765013766 -0.13551007650137661 -0.1594891561425511 0.09480079260804603 0.0 0.0 0.0 0.5874954084936206 
2.184 1.4028888625623024 -1.5707963267948966 -1.5707963267948966 0.0 1.5707963267948966 0.0 0.5794954084936206 0.0 0.0 0.0 0.0 0.0 -1.0 0.0 0.0 0.0 0.0 0.0 0.16009533280149046 0.2722233079939703 0.4809 -1.566772014160011 0.13184626450725856 -0.1318462645072586 -0.15775215706745052 0.09277451027972185 0.0 0.0 0.0 0.5794954084936206 
2.192 1.407492825830251 -1.5707963267948966 -1.5707963267948966 0.0 1.5707963267948966 0.0 0.5714954084936206 0.0 0.0 0.0 0.0 0.0 -1.0 0.0 0.0 0.0 0.0 0.0 0.15884033439283002 0.2729574933391167 0.4809 -1.5669897408797935 0.1282325579186647 -0.12823255791866472 -0.1559939541572332 0.09077652178909368 0.0 0.0 0.0 0.5714954084936206 
2.2 1.4120327890982003 -1.5707963267948966 -1.5707963267948966 0.0 1.5707963267948966 0.0 0.5634954084936206 0.0 0.0 0.0 0.0 0.0 -1.0 0.0 0.0 0.0 0.0 0.0 0.1575994847089086 0.2736758071505161 0.4809 -1.567198506971618 0.12466896541188745 -0.12466896541188746 -0.15421506074510138 0.08880658601443056 0.0 0.0 0.0 0.5634954084936206 
2.208 1.4165087523661495 -1.5707963267948966 -1.5707963267948966 0.0 1.5707963267948966 0.0 0.5554954084936206 0.0 0.0 0.0 0.0 0.0 -1.0 0.0 0.0 0.0 0.0 0.0 0.15637294724809384 0.2743784728599255 0.4809 -1.567398562173444 0.1211554953043945 -0.12115549530439453 -0.1524159818631801 0.08686445420893127 0.0 0.0 0.0 0.5554954084936206 
2.216 1.4209207156340982 -1.5707963267948966 -1.5707963267948966 0.0 1.5707963267948966 0.0 0.5474954084936206 0.0 0.0 0.0 0.0 0.0 -1.0 0.0 0.0 0.0 0.0 0.0 0.1551608815015504 0.2750657118792923 0.4809 -1.5675901526501517 0.11769215556499665 -0.11769215556499668 -0.15059721428794168 0.08494987019992159 0.0 0.0 0.0 0.5474954084936206 
2.224 1.425268678902047 -1.5707963267948966 -1.5707963267948966 0.0 1.5707963267948966 0.0 0.5394954084936205 0.0 0.0 0.0 0.0 0.0 -1.0 0.0 0.0 0.0 0.0 0.0 0.15396344301909093 0.27573774354213304 0.4809 -1.5677735209972226 0.11427895382385732 -0.11427895382385735 -0.14875924658937226 0.08306257058466873 0.0 0.0 0.0 0.5394954084936205 
2.232 1.429552642169996 -1.5707963267948966 -1.5707963267948966 0.0 1.5707963267948966 0.0 0.5314954084936205 0.0 0.0 0.0 0.0 0.0 -1.0 0.0 0.0 0.0 0.0 0.0 0.15278078347461937 0.27639478504646475 0.4809 -1.567948906244265 0.11091589738234524 -0.11091589738234527 -0.14690255918377723 0.08120228492281821 0.0 0.0 0.0 0.5314954084936205 
2.24 1.4337726054379452 -1.5707963267948966 -1.5707963267948966 0.0 1.5707963267948966 0.0 0.5234954084936205 0.0 0.0 0.0 0.0 0.0 -1.0 0.0 0.0 0.0 0.0 0.0 0.15161305073113746 0.2770370513992624 0.4809 -1.5681165438583848 0.10760299322272829 -0.1076029932227283 -0.145027624390125 0.07936873592546081 0.0 0.0 0.0 0.5234954084936205 
2.248 1.437928568705894 -1.5707963267948966 -1.5707963267948966 0.0 1.5707963267948966 0.0 0.5154954084936205 0.0 0.0 0.0 0.0 0.0 -1.0 0.0 0.0 0.0 0.0 0.0 0.15046038890528624 0.27766475536241547 0.4809 -1.5682766657474134 0.10434024801771213 -0.10434024801771215 -0.14313490648982957 0.07756163964083954 0.0 0.0 0.0 0.5154954084936205 
2.256 1.4420205319738433 -1.5707963267948966 -1.5707963267948966 0.0 1.5707963267948966 0.0 0.5074954084936205 0.0 0.0 0.0 0.0 0.0 -1.0 0.0 0.0 0.0 0.0 0.0 0.14932293843139627 0.27827810740015724 0.4809 -1.568429500262986 0.10112766813982144 -0.10112766813982146 -0.1412248617898744 0.07578070563670919 0.0 0.0 0.0 0.5074954084936205 
2.264 1.446048495241792 -1.5707963267948966 -1.5707963267948966 0.0 1.5707963267948966 0.0 0.4994954084936205 0.0 0.0 0.0 0.0 0.0 -1.0 0.0 0.0 0.0 0.0 0.0 0.14820083612502008 0.27887731562793866 0.4809 -1.5685752722034905 0.0979652596706307 -0.09796525967063073 -0.13929793868918156 0.07402563717936302 0.0 0.0 0.0 0.4994954084936205 
2.272 1.4500124585097411 -1.5707963267948966 -1.5707963267948966 0.0 1.5707963267948966 0.0 0.4914954084936205 0.0 0.0 0.0 0.0 0.0 -1.0 0.0 0.0 0.0 0.0 0.0 0.14709421524591995 0.27946258576272237 0.4809 -1.5687142028168717 0.09485302840983657 -0.0948530284098366 -0.13735457774813267 0.07229613140934196 0.0 0.0 0.0 0.4914954084936205 
2.28 1.4539124217776902 -1.5707963267948966 -1.5707963267948966 0.0 1.5707963267948966 0.0 0.4834954084936205 0.0 0.0 0.0 0.0 0.0 -1.0 0.0 0.0 0.0 0.0 0.0 0.14600320556048874 0.28003412107466774 0.4809 -1.5688465098033144 0.09179097988418296 -0.09179097988418297 -0.13539521176114847 0.07059187951384654 0.0 0.0 0.0 0.4834954084936205 
2.288 1.4577483850456388 -1.5707963267948966 -1.5707963267948966 0.0 1.5707963267948966 0.0 0.4754954084936205 0.0 0.0 0.0 0.0 0.0 -1.0 0.0 0.0 0.0 0.0 0.0 0.14492793340357685 0.28059212234018327 0.4809 -1.5689724073177946 0.08877911935623078 -0.0887791193562308 -0.13342026583223737 0.06891256689587 0.0 0.0 0.0 0.4754954084936205 
2.296 1.4615203483135877 -1.5707963267948966 -1.5707963267948966 0.0 1.5707963267948966 0.0 0.4674954084936205 0.0 0.0 0.0 0.0 0.0 -1.0 0.0 0.0 0.0 0.0 0.0 0.14386852173970338 0.281136787796319 0.4809 -1.5690921059725114 0.0858174518329769 -0.08581745183297691 -0.13143015745342446 0.06725787334007595 0.0 0.0 0.0 0.4674954084936205 
2.304 1.465228311581537 -1.5707963267948966 -1.5707963267948966 0.0 1.5707963267948966 0.0 0.45949540849362047 0.0 0.0 0.0 0.0 0.0 -1.0 0.0 0.0 0.0 0.0 0.0 0.14282509022362969 0.2816683130964718 0.4809 -1.5692058128391986 0.08290598207432552 -0.08290598207432553 -0.1294252965859723 0.06562747317544493 0.0 0.0 0.0 0.45949540849362047 
2.312 1.4688722748494858 -1.5707963267948966 -1.5707963267948966 0.0 1.5707963267948966 0.0 0.4514954084936209 0.0 0.0 0.0 0.0 0.0 -1.0 0.0 0.0 0.0 0.0 0.0 0.14179775526027139 0.28218689126738006 0.4809 -1.5693137314513268 0.08004471460140869 -0.0800447146014087 -0.12740608574431075 0.06402103543471471 0.0 0.0 0.0 0.4514954084936209 
2.32 1.4724522381174345 -1.5707963267948966 -1.5707963267948966 0.0 1.5707963267948966 0.0 0.4434954084936209 0.0 0.0 0.0 0.0 0.0 -1.0 0.0 0.0 0.0 0.0 0.0 0.14078663006392794 0.28269271266738144 0.4809 -1.5694160618061888 0.07723365370475595 -0.07723365370475596 -0.12537292008259013 0.062438224010642016 0.0 0.0 0.0 0.4434954084936209 
2.328 1.4759682013853836 -1.5707963267948966 -1.5707963267948966 0.0 1.5707963267948966 0.0 0.4354954084936209 0.0 0.0 0.0 0.0 0.0 -1.0 0.0 0.0 0.0 0.0 0.0 0.13979182471681065 0.283185964945907 0.4809 -1.5695130003668847 0.07447280345231881 -0.07447280345231881 -0.12332618748377797 0.0608786978091161 0.0 0.0 0.0 0.4354954084936209 
2.336 1.4794201646533327 -1.5707963267948966 -1.5707963267948966 0.0 1.5707963267948966 0.0 0.4274954084936209 0.0 0.0 0.0 0.0 0.0 -1.0 0.0 0.0 0.0 0.0 0.0 0.13881344622684758 0.2836668330041884 0.4809 -1.5696047400641995 0.07176216769734733 -0.07176216769734735 -0.12126626865121726 0.059342110899153484 0.0 0.0 0.0 0.4274954084936209 
2.344 1.4828081279212817 -1.5707963267948966 -1.5707963267948966 0.0 1.5707963267948966 0.0 0.4194954084936209 0.0 0.0 0.0 0.0 0.0 -1.0 0.0 0.0 0.0 0.0 0.0 0.13785159858474608 0.2841354989571525 0.4809 -1.5696914702983826 0.0691017500861179 -0.06910175008611791 -0.11919353720256948 0.0578281126598067 0.0 0.0 0.0 0.4194954084936209 
2.352 1.4861320911892306 -1.5707963267948966 -1.5707963267948966 0.0 1.5707963267948966 0.0 0.4114954084936209 0.0 0.0 0.0 0.0 0.0 -1.0 0.0 0.0 0.0 0.0 0.0 0.13690638282029488 0.28459214209647965 0.4809 -1.5697733769408357 0.06649155406551618 -0.0664915540655162 -0.11710835976606548 0.05633634792402128 0.0 0.0 0.0 0.4114954084936209 
2.36 1.4893920544571795 -1.5707963267948966 -1.5707963267948966 0.0 1.5707963267948966 0.0 0.40349540849362087 0.0 0.0 0.0 0.0 0.0 -1.0 0.0 0.0 0.0 0.0 0.0 0.135977897057887 0.2850369388547994 0.4809 -1.5698506423357024 0.06393158289047367 -0.06393158289047368 -0.11501109607898852 0.05486645711947564 0.0 0.0 0.0 0.40349540849362087 
2.368 1.4925880177251287 -1.5707963267948966 -1.5707963267948966 0.0 1.5707963267948966 0.0 0.39549540849362086 0.0 0.0 0.0 0.0 0.0 -1.0 0.0 0.0 0.0 0.0 0.0 0.1350662365712461 0.2854700627710026 0.4809 -1.5699234453013735 0.06142183963125855 -0.061421839631258565 -0.11290209908831728 0.053418076406441015 0.0 0.0 0.0 0.39549540849362086 
2.376 1.495719980993077 -1.5707963267948966 -1.5707963267948966 0.0 1.5707963267948966 0.0 0.38749540849362085 0.0 0.0 0.0 0.0 0.0 -1.0 0.0 0.0 0.0 0.0 0.0 0.13417149383734006 0.2858916844566428 0.4809 -1.5699919611319046 0.05896232718062373 -0.05896232718062375 -0.11078171505345616 0.05199083781269942 0.0 0.0 0.0 0.38749540849362085 
2.384 1.4987879442610261 -1.5707963267948966 -1.5707963267948966 0.0 1.5707963267948966 0.0 0.37949540849362084 0.0 0.0 0.0 0.0 0.0 -1.0 0.0 0.0 0.0 0.0 0.0 0.13329375858946224 0.2863019715634074 0.4809 -1.5700563615983543 0.056553048260804706 -0.05655304826080472 -0.10865028365098432 0.05058436936555805 0.0 0.0 0.0 0.37949540849362084 
2.392 1.5017919075289752 -1.5707963267948966 -1.5707963267948966 0.0 1.5707963267948966 0.0 0.37149540849362084 0.0 0.0 0.0 0.0 0.0 -1.0 0.0 0.0 0.0 0.0 0.0 0.13243311786947065 0.28670108875163147 0.4809 -1.570116814950041 0.054194005430381866 -0.05419400543038187 -0.10650813808135318 0.04919829522100284 0.0 0.0 0.0 0.37149540849362084 
2.4 1.5047318707969242 -1.5707963267948966 -1.5707963267948966 0.0 1.5707963267948966 0.0 0.36349540849362083 0.0 0.0 0.0 0.0 0.0 -1.0 0.0 0.0 0.0 0.0 0.0 0.1315896560791624 0.2870891976598349 0.4809 -1.5701734859157248 0.05188520109099151 -0.051885201090991526 -0.10435560517746754 0.04783223579003021 0.0 0.0 0.0 0.36349540849362083 
2.408 1.5076078340648735 -1.5707963267948966 -1.5707963267948966 0.0 1.5707963267948966 0.0 0.3554954084936208 0.0 0.0 0.0 0.0 0.0 -1.0 0.0 0.0 0.0 0.0 0.0 0.13076345503077413 0.28746645687525824 0.4809 -1.570226535704717 0.049626637493896925 -0.04962663749389694 -0.10219300551508376 0.046485807862202265 0.0 0.0 0.0 0.3554954084936208 
2.416 1.5104197973328224 -1.5707963267948966 -1.5707963267948966 0.0 1.5707963267948966 0.0 0.3474954084936208 0.0 0.0 0.0 0.0 0.0 -1.0 0.0 0.0 0.0 0.0 0.0 0.12995459399659215 0.28783302190537635 0.4809 -1.5702761220079227 0.04741831674641734 -0.04741831674641735 -0.10002065352496206 0.045158624726468435 0.0 0.0 0.0 0.3474954084936208 
2.424 1.5131677606007712 -1.5707963267948966 -1.5707963267948966 0.0 1.5707963267948966 0.0 0.3394954084936208 0.0 0.0 0.0 0.0 0.0 -1.0 0.0 0.0 0.0 0.0 0.0 0.1291631497576573 0.2881890451503682 0.4809 -1.5703223989988113 0.04526024081821067 -0.04526024081821069 -0.09783885760671078 0.04385029628929859 0.0 0.0 0.0 0.3394954084936208 
2.432 1.5158517238687204 -1.5707963267948966 -1.5707963267948966 0.0 1.5707963267948966 0.0 0.3314954084936208 0.0 0.0 0.0 0.0 0.0 -1.0 0.0 0.0 0.0 0.0 0.0 0.12838919665155382 0.28853467587652026 0.4809 -1.5703655173343303 0.04315241154741721 -0.04315241154741722 -0.09564792024426157 0.042560429190174644 0.0 0.0 0.0 0.3314954084936208 
2.44 1.5184716871366695 -1.5707963267948966 -1.5707963267948966 0.0 1.5707963267948966 0.0 0.3234954084936208 0.0 0.0 0.0 0.0 0.0 -1.0 0.0 0.0 0.0 0.0 0.0 0.12763280661926782 0.28887006019054406 0.4809 -1.5704056241557507 0.04109483064666064 -0.04109483064666065 -0.09344813812291689 0.04128862691448735 0.0 0.0 0.0 0.3234954084936208 
2.448 1.5210276504046185 -1.5707963267948966 -1.5707963267948966 0.0 1.5707963267948966 0.0 0.3154954084936208 0.0 0.0 0.0 0.0 0.0 -1.0 0.0 0.0 0.0 0.0 0.0 0.12689404925110262 0.2891953410147866 0.4809 -1.570442863089461 0.0390874997089055 -0.03908749970890551 -0.09123980224791207 0.04003448990388626 0.0 0.0 0.0 0.3154954084936208 
2.456 1.523519613672567 -1.5707963267948966 -1.5707963267948966 0.0 1.5707963267948966 0.0 0.3074954084936208 0.0 0.0 0.0 0.0 0.0 -1.0 0.0 0.0 0.0 0.0 0.0 0.12617299183164046 0.28951065806331333 0.4809 -1.5704773742477032 0.03713042021317495 -0.037130420213174954 -0.0890231980644355 0.03879761566413256 0.0 0.0 0.0 0.3074954084936208 
2.464 1.525947576940516 -1.5707963267948966 -1.5707963267948966 0.0 1.5707963267948966 0.0 0.2994954084936208 0.0 0.0 0.0 0.0 0.0 -1.0 0.0 0.0 0.0 0.0 0.0 0.12546969938373767 0.28981614781884474 0.4809 -1.5705092942292558 0.035223593530124796 -0.0352235935301248 -0.08679860557905249 0.03757759887050431 0.0 0.0 0.0 0.2994954084936208 
2.472 1.5283115402084653 -1.5707963267948966 -1.5707963267948966 0.0 1.5707963267948966 0.0 0.29149540849362077 0.0 0.0 0.0 0.0 0.0 -1.0 0.0 0.0 0.0 0.0 0.0 0.12478423471154389 0.29011194351052544 0.4809 -1.5705387561200674 0.0333670209274797 -0.03336702092747971 -0.08456629948247885 0.03637403147080534 0.0 0.0 0.0 0.29149540849362077 
2.48 1.5306115034764136 -1.5707963267948966 -1.5707963267948966 0.0 1.5707963267948966 0.0 0.28349540849362076 0.0 0.0 0.0 0.0 0.0 -1.0 0.0 0.0 0.0 0.0 0.0 0.12411665844253374 0.2903981750925088 0.4809 -1.5705658894938423 0.03156070357532685 -0.03156070357532686 -0.0823265492736528 0.035186502786029306 0.0 0.0 0.0 0.28349540849362076 
2.488 1.5328474667443628 -1.5707963267948966 -1.5707963267948966 0.0 1.5707963267948966 0.0 0.27549540849362075 0.0 0.0 0.0 0.0 0.0 -1.0 0.0 0.0 0.0 0.0 0.0 0.12346702906853918 0.290674969223338 0.4809 -1.5705908204125811 0.029804642551265147 -0.02980464255126515 -0.08007961938505415 0.03401459960873095 0.0 0.0 0.0 0.27549540849362075 
2.496 1.535019430012312 -1.5707963267948966 -1.5707963267948966 0.0 1.5707963267948966 0.0 0.26749540849362075 0.0 0.0 0.0 0.0 0.0 -1.0 0.0 0.0 0.0 0.0 0.0 0.12283540298577762 0.2909424492461037 0.4809 -1.57061367142708 0.028098838845421588 -0.02809883884542159 -0.07782576930922103 0.032857906299159106 0.0 0.0 0.0 0.26749540849362075 
2.504 1.537127393280261 -1.5707963267948966 -1.5707963267948966 0.0 1.5707963267948966 0.0 0.25949540849362074 0.0 0.0 0.0 0.0 0.0 -1.0 0.0 0.0 0.0 0.0 0.0 0.12222183453386051 0.2912007351693632 0.4809 -1.5706345615773867 0.02644329336532003 -0.026443293365320038 -0.07556525372641656 0.031716004879203855 0.0 0.0 0.0 0.25949540849362074 
2.512 1.53917135654821 -1.5707963267948966 -1.5707963267948966 0.0 1.5707963267948966 0.0 0.25149540849362073 0.0 0.0 0.0 0.0 0.0 -1.0 0.0 0.0 0.0 0.0 0.0 0.12162637603377739 0.2914499436488025 0.4809 -1.5706536063932213 0.024838006940612972 -0.02483800694061298 -0.07329832263339833 0.030588475124213567 0.0 0.0 0.0 0.25149540849362073 
2.52 1.5411513198161588 -1.5707963267948966 -1.5707963267948966 0.0 1.5707963267948966 0.0 0.24349540849362072 0.0 0.0 0.0 0.0 0.0 -1.0 0.0 0.0 0.0 0.0 0.0 0.12104907782484536 0.29169018796962387 0.4809 -1.5706709178943585 0.023282980327672446 -0.02328298032767245 -0.07102522147324458 0.029474894652736807 0.0 0.0 0.0 0.24349540849362072 
2.528 1.5430672830841081 -1.5707963267948966 -1.5707963267948966 0.0 1.5707963267948966 0.0 0.23549540849362072 0.0 0.0 0.0 0.0 0.0 -1.0 0.0 0.0 0.0 0.0 0.0 0.12048998830061569 0.2919215780296439 0.4809 -1.5706866045909786 0.021778214214040498 -0.0217782142140405 -0.06874619126619337 0.028374839014245073 0.0 0.0 0.0 0.23549540849362072 
2.536 1.544919246352057 -1.5707963267948966 -1.5707963267948966 0.0 1.5707963267948966 0.0 0.2274954084936207 0.0 0.0 0.0 0.0 0.0 -1.0 0.0 0.0 0.0 0.0 0.0 0.11994915394373042 0.292144220323085 0.4809 -1.5707007714839838 0.02032370922274136 -0.020323709222741362 -0.06646146874145055 0.027287881774893146 0.0 0.0 0.0 0.2274954084936207 
2.544 1.546707209620006 -1.5707963267948966 -1.5707963267948966 0.0 1.5707963267948966 0.0 0.2194954084936207 0.0 0.0 0.0 0.0 0.0 -1.0 0.0 0.0 0.0 0.0 0.0 0.11942661935971946 0.2923582179250459 0.4809 -1.5707135200652873 0.01891946591644995 -0.018919465916449954 -0.06417128646992493 0.026213594601373773 0.0 0.0 0.0 0.2194954084936207 
2.552 1.5484311728879547 -1.5707963267948966 -1.5707963267948966 0.0 1.5707963267948966 0.0 0.2114954084936207 0.0 0.0 0.0 0.0 0.0 -1.0 0.0 0.0 0.0 0.0 0.0 0.11892242730973399 0.2925636704766349 0.4809 -1.5707249483180739 0.017565484801525776 -0.017565484801525776 -0.061875872997848934 0.0251515473429251 0.0 0.0 0.0 0.2114954084936207 
2.56 1.5500911361559038 -1.5707963267948966 -1.5707963267948966 0.0 1.5707963267948966 0.0 0.2034954084936207 0.0 0.0 0.0 0.0 0.0 -1.0 0.0 0.0 0.0 0.0 0.0 0.1184366187422056 0.29276067417075236 0.4809 -1.5707351507170317 0.01626176633190145 -0.016261766331901455 -0.05957545298124504 0.02410130811154834 0.0 0.0 0.0 0.2034954084936207 
2.568 1.5516870994238527 -1.5707963267948966 -1.5707963267948966 0.0 1.5707963267948966 0.0 0.19549540849362068 0.0 0.0 0.0 0.0 0.0 -1.0 0.0 0.0 0.0 0.0 0.0 0.11796923282342821 0.2929493217385078 0.4809 -1.5707442182285645 0.01500831091283696 -0.015008310912836963 -0.057270247321198696 0.023062443360495143 0.0 0.0 0.0 0.19549540849362068 
