Fleaurent/UniversalRobot/csv/robot_movej_30.csv
timestamp target_q_0 target_q_1 target_q_2 target_q_3 target_q_4 target_q_5 target_qd_0 target_qd_1 target_qd_2 target_qd_3 target_qd_4 target_qd_5 target_qdd_0 target_qdd_1 target_qdd_2 target_qdd_3 target_qdd_4 target_qdd_5 target_current_0 target_current_1 target_current_2 target_current_3 target_current_4 target_current_5 target_moment_0 target_moment_1 target_moment_2 target_moment_3 target_moment_4 target_moment_5 actual_q_0 actual_q_1 actual_q_2 actual_q_3 actual_q_4 actual_q_5 actual_qd_0 actual_qd_1 actual_qd_2 actual_qd_3 actual_qd_4 actual_qd_5 actual_current_0 actual_current_1 actual_current_2 actual_current_3 actual_current_4 actual_current_5 joint_control_output_0 joint_control_output_1 joint_control_output_2 joint_control_output_3 joint_control_output_4 joint_control_output_5 actual_TCP_pose_0 actual_TCP_pose_1 actual_TCP_pose_2 actual_TCP_pose_3 actual_TCP_pose_4 actual_TCP_pose_5 actual_TCP_speed_0 actual_TCP_speed_1 actual_TCP_speed_2 actual_TCP_speed_3 actual_TCP_speed_4 actual_TCP_speed_5 actual_TCP_force_0 actual_TCP_force_1 actual_TCP_force_2 actual_TCP_force_3 actual_TCP_force_4 actual_TCP_force_5 target_TCP_pose_0 target_TCP_pose_1 target_TCP_pose_2 target_TCP_pose_3 target_TCP_pose_4 target_TCP_pose_5 target_TCP_speed_0 target_TCP_speed_1 target_TCP_speed_2 target_TCP_speed_3 target_TCP_speed_4 target_TCP_speed_5
468.688 1.1058862159352145e-17 -1.5707963267948966 -1.5707963267948966 0.0 1.5707963267948966 0.0 0.0 0.0 0.0 0.0 0.0 0.0 0.0 0.0 0.0 0.0 0.0 0.0 -1.6018983243994446e-26 0.4870342307692309 0.6867077006507593 0.06409467546754684 -8.567713817370151e-28 0.0 -2.1032924999364705e-25 6.394759450000002 6.3947594500000005 0.2913103000000004 -3.894025929994733e-27 0.0 1.1058862159352145e-17 -1.570796314870016 -1.570796314870016 0.0 1.5707963705062866 0.0 0.0 0.0 0.0 0.0 0.0 0.0 -1.6018983942199055e-26 0.48703423142433167 0.6867076754570007 0.064094677567482 -8.567714098795418e-28 0.0 -1.6018983942199055e-26 0.48703423142433167 0.6867076754570007 0.064094677567482 -8.567714098795418e-28 0.0 0.2951499950589256 -0.11234999647001062 0.4809000069994156 -1.2091995794109558 1.2091995265551612 -1.2091995551462715 0.0 0.0 0.0 0.0 0.0 0.0 9.981973636990765e-07 -5.258967243140429e-07 1.144916897842466e-06 -1.8103060651539406e-15 1.8116749963477897e-08 4.307094529482934e-08 0.2951500000000001 -0.11235000004997345 0.4808999999601586 -1.2091995763071837 1.2091995763071837 -1.209199576059172 0.0 0.0 0.0 0.0 0.0 0.0
468.69599999999997 1.1058862159352145e-17 -1.5707963267948966 -1.5707963267948966 0.0 1.5707963267948966 0.0 0.0 0.0 0.0 0.0 0.0 0.0 0.0 0.0 0.0 0.0 0.0 0.0 -1.6018983243994446e-26 0.4870342307692309 0.6867077006507593 0.06409467546754684 -8.567713817370151e-28 0.0 -2.1032924999364705e-25 6.394759450000002 6.3947594500000005 0.2913103000000004 -3.894025929994733e-27 0.0 1.1058862159352145e-17 -1.570796314870016 -1.570796314870016 0.0 1.5707963705062866 0.0 0.0 0.0 0.0 0.0 0.0 0.0 -1.6018983942199055e-26 0.48703423142433167 0.6867076754570007 0.064094677567482 -8.567714098795418e-28 0.0 -1.6018983942199055e-26 0.48703423142433167 0.6867076754570007 0.064094677567482 -8.567714098795418e-28 0.0 0.2951499950589256 -0.11234999647001062 0.4809000069994156 -1.2091995794109558 1.2091995265551612 -1.2091995551462715 0.0 0.0 0.0 0.0 0.0 0.0 9.981973636990765e-07 -5.258967243140429e-07 1.144916897842466e-06 -1.8103060651539406e-15 1.8116749963477897e-08 4.307094529482934e-08 0.2951500000000001 -0.11235000004997345 0.4808999999601586 -1.2091995763071837 1.2091995763071837 -1.209199576059172 0.0 0.0 0.0 0.0 0.0 0.0
468.70399999999995 1.1058862159352145e-17 -1.5707963267948966 -1.5707963267948966 0.0 1.5707963267948966 0.0 0.0 0.0 0.0 0.0 0.0 0.0 0.0 0.0 0.0 0.0 0.0 0.0 -1.6018983243994446e-26 0.4870342307692309 0.6867077006507593 0.06409467546754684 -8.567713817370151e-28 0.0 -2.1032924999364705e-25 6.394759450000002 6.3947594500000005 0.2913103000000004 -3.894025929994733e-27 0.0 1.1058862159352145e-17 -1.570796314870016 -1.570796314870016 0.0 1.5707963705062866 0.0 0.0 0.0 0.0 0.0 0.0 0.0 -1.6018983942199055e-26 0.48703423142433167 0.6867076754570007 0.064094677567482 -8.567714098795418e-28 0.0 -1.6018983942199055e-26 0.48703423142433167 0.6867076754570007 0.064094677567482 -8.567714098795418e-28 0.0 0.2951499950589256 -0.11234999647001062 0.4809000069994156 -1.2091995794109558 1.2091995265551612 -1.2091995551462715 0.0 0.0 0.0 0.0 0.0 0.0 9.981973636990765e-07 -5.258967243140429e-07 1.144916897842466e-06 -1.8103060651539406e-15 1.8116749963477897e-08 4.307094529482934e-08 0.2951500000000001 -0.11235000004997345 0.4808999999601586 -1.2091995763071837 1.2091995763071837 -1.209199576059172 0.0 0.0 0.0 0.0 0.0 0.0
468.712 1.1058862159352145e-17 -1.5707963267948966 -1.5707963267948966 0.0 1.5707963267948966 0.0 0.0 0.0 0.0 0.0 0.0 0.0 0.0 0.0 0.0 0.0 0.0 0.0 -1.6018983243994446e-26 0.4870342307692309 0.6867077006507593 0.06409467546754684 -8.567713817370151e-28 0.0 -2.1032924999364705e-25 6.394759450000002 6.3947594500000005 0.2913103000000004 -3.894025929994733e-27 0.0 1.1058862159352145e-17 -1.570796314870016 -1.570796314870016 0.0 1.5707963705062866 0.0 0.0 0.0 0.0 0.0 0.0 0.0 -1.6018983942199055e-26 0.48703423142433167 0.6867076754570007 0.064094677567482 -8.567714098795418e-28 0.0 -1.6018983942199055e-26 0.48703423142433167 0.6867076754570007 0.064094677567482 -8.567714098795418e-28 0.0 0.2951499950589256 -0.11234999647001062 0.4809000069994156 -1.2091995794109558 1.2091995265551612 -1.2091995551462715 0.0 0.0 0.0 0.0 0.0 0.0 9.981973636990765e-07 -5.258967243140429e-07 1.144916897842466e-06 -1.8103060651539406e-15 1.8116749963477897e-08 4.307094529482934e-08 0.2951500000000001 -0.11235000004997345 0.4808999999601586 -1.2091995763071837 1.2091995763071837 -1.209199576059172 0.0 0.0 0.0 0.0 0.0 0.0
468.71999999999997 1.1058862159352145e-17 -1.5707963267948966 -1.5707963267948966 0.0 1.5707963267948966 0.0 0.0 0.0 0.0 0.0 0.0 0.0 0.0 0.0 0.0 0.0 0.0 0.0 -1.6018983243994446e-26 0.4870342307692309 0.6867077006507593 0.06409467546754684 -8.567713817370151e-28 0.0 -2.1032924999364705e-25 6.394759450000002 6.3947594500000005 0.2913103000000004 -3.894025929994733e-27 0.0 1.1058862159352145e-17 -1.570796314870016 -1.570796314870016 0.0 1.5707963705062866 0.0 0.0 0.0 0.0 0.0 0.0 0.0 -1.6018983942199055e-26 0.48703423142433167 0.6867076754570007 0.064094677567482 -8.567714098795418e-28 0.0 -1.6018983942199055e-26 0.48703423142433167 0.6867076754570007 0.064094677567482 -8.567714098795418e-28 0.0 0.2951499950589256 -0.11234999647001062 0.4809000069994156 -1.2091995794109558 1.2091995265551612 -1.2091995551462715 0.0 0.0 0.0 0.0 0.0 0.0 9.981973636990765e-07 -5.258967243140429e-07 1.144916897842466e-06 -1.8103060651539406e-15 1.8116749963477897e-08 4.307094529482934e-08 0.2951500000000001 -0.11235000004997345 0.4808999999601586 -1.2091995763071837 1.2091995763071837 -1.209199576059172 0.0 0.0 0.0 0.0 0.0 0.0
468.72799999999995 1.1058862159352145e-17 -1.5707963267948966 -1.5707963267948966 0.0 1.5707963267948966 0.0 0.0 0.0 0.0 0.0 0.0 0.0 0.0 0.0 0.0 0.0 0.0 0.0 -1.6018983243994446e-26 0.4870342307692309 0.6867077006507593 0.06409467546754684 -8.567713817370151e-28 0.0 -2.1032924999364705e-25 6.394759450000002 6.3947594500000005 0.2913103000000004 -3.894025929994733e-27 0.0 1.1058862159352145e-17 -1.570796314870016 -1.570796314870016 0.0 1.5707963705062866 0.0 0.0 0.0 0.0 0.0 0.0 0.0 -1.6018983942199055e-26 0.48703423142433167 0.6867076754570007 0.064094677567482 -8.567714098795418e-28 0.0 -1.6018983942199055e-26 0.48703423142433167 0.6867076754570007 0.064094677567482 -8.567714098795418e-28 0.0 0.2951499950589256 -0.11234999647001062 0.4809000069994156 -1.2091995794109558 1.2091995265551612 -1.2091995551462715 0.0 0.0 0.0 0.0 0.0 0.0 9.981973636990765e-07 -5.258967243140429e-07 1.144916897842466e-06 -1.8103060651539406e-15 1.8116749963477897e-08 4.307094529482934e-08 0.2951500000000001 -0.11235000004997345 0.4808999999601586 -1.2091995763071837 1.2091995763071837 -1.209199576059172 0.0 0.0 0.0 0.0 0.0 0.0
468.736 1.1058862159352145e-17 -1.5707963267948966 -1.5707963267948966 0.0 1.5707963267948966 0.0 0.0 0.0 0.0 0.0 0.0 0.0 0.0 0.0 0.0 0.0 0.0 0.0 -1.6018983243994446e-26 0.4870342307692309 0.6867077006507593 0.06409467546754684 -8.567713817370151e-28 0.0 -2.1032924999364705e-25 6.394759450000002 6.3947594500000005 0.2913103000000004 -3.894025929994733e-27 0.0 1.1058862159352145e-17 -1.570796314870016 -1.570796314870016 0.0 1.5707963705062866 0.0 0.0 0.0 0.0 0.0 0.0 0.0 -1.6018983942199055e-26 0.48703423142433167 0.6867076754570007 0.064094677567482 -8.567714098795418e-28 0.0 -1.6018983942199055e-26 0.48703423142433167 0.6867076754570007 0.064094677567482 -8.567714098795418e-28 0.0 0.2951499950589256 -0.11234999647001062 0.4809000069994156 -1.2091995794109558 1.2091995265551612 -1.2091995551462715 0.0 0.0 0.0 0.0 0.0 0.0 9.981973636990765e-07 -5.258967243140429e-07 1.144916897842466e-06 -1.8103060651539406e-15 1.8116749963477897e-08 4.307094529482934e-08 0.2951500000000001 -0.11235000004997345 0.4808999999601586 -1.2091995763071837 1.2091995763071837 -1.209199576059172 0.0 0.0 0.0 0.0 0.0 0.0
468.74399999999997 1.1058862159352145e-17 -1.5707963267948966 -1.5707963267948966 0.0 1.5707963267948966 0.0 0.0 0.0 0.0 0.0 0.0 0.0 0.0 0.0 0.0 0.0 0.0 0.0 -1.6018983243994446e-26 0.4870342307692309 0.6867077006507593 0.06409467546754684 -8.567713817370151e-28 0.0 -2.1032924999364705e-25 6.394759450000002 6.3947594500000005 0.2913103000000004 -3.894025929994733e-27 0.0 1.1058862159352145e-17 -1.570796314870016 -1.570796314870016 0.0 1.5707963705062866 0.0 0.0 0.0 0.0 0.0 0.0 0.0 -1.6018983942199055e-26 0.48703423142433167 0.6867076754570007 0.064094677567482 -8.567714098795418e-28 0.0 -1.6018983942199055e-26 0.48703423142433167 0.6867076754570007 0.064094677567482 -8.567714098795418e-28 0.0 0.2951499950589256 -0.11234999647001062 0.4809000069994156 -1.2091995794109558 1.2091995265551612 -1.2091995551462715 0.0 0.0 0.0 0.0 0.0 0.0 9.981973636990765e-07 -5.258967243140429e-07 1.144916897842466e-06 -1.8103060651539406e-15 1.8116749963477897e-08 4.307094529482934e-08 0.2951500000000001 -0.11235000004997345 0.4808999999601586 -1.2091995763071837 1.2091995763071837 -1.209199576059172 0.0 0.0 0.0 0.0 0.0 0.0
468.75199999999995 1.1058862159352145e-17 -1.5707963267948966 -1.5707963267948966 0.0 1.5707963267948966 0.0 0.0 0.0 0.0 0.0 0.0 0.0 0.0 0.0 0.0 0.0 0.0 0.0 -1.6018983243994446e-26 0.4870342307692309 0.6867077006507593 0.06409467546754684 -8.567713817370151e-28 0.0 -2.1032924999364705e-25 6.394759450000002 6.3947594500000005 0.2913103000000004 -3.894025929994733e-27 0.0 1.1058862159352145e-17 -1.570796314870016 -1.570796314870016 0.0 1.5707963705062866 0.0 0.0 0.0 0.0 0.0 0.0 0.0 -1.6018983942199055e-26 0.48703423142433167 0.6867076754570007 0.064094677567482 -8.567714098795418e-28 0.0 -1.6018983942199055e-26 0.48703423142433167 0.6867076754570007 0.064094677567482 -8.567714098795418e-28 0.0 0.2951499950589256 -0.11234999647001062 0.4809000069994156 -1.2091995794109558 1.2091995265551612 -1.2091995551462715 0.0 0.0 0.0 0.0 0.0 0.0 9.981973636990765e-07 -5.258967243140429e-07 1.144916897842466e-06 -1.8103060651539406e-15 1.8116749963477897e-08 4.307094529482934e-08 0.2951500000000001 -0.11235000004997345 0.4808999999601586 -1.2091995763071837 1.2091995763071837 -1.209199576059172 0.0 0.0 0.0 0.0 0.0 0.0
468.76 1.1058862159352145e-17 -1.5707963267948966 -1.5707963267948966 0.0 1.5707963267948966 0.0 0.0 0.0 0.0 0.0 0.0 0.0 0.0 0.0 0.0 0.0 0.0 0.0 -1.6018983243994446e-26 0.4870342307692309 0.6867077006507593 0.06409467546754684 -8.567713817370151e-28 0.0 -2.1032924999364705e-25 6.394759450000002 6.3947594500000005 0.2913103000000004 -3.894025929994733e-27 0.0 1.1058862159352145e-17 -1.570796314870016 -1.570796314870016 0.0 1.5707963705062866 0.0 0.0 0.0 0.0 0.0 0.0 0.0 -1.6018983942199055e-26 0.48703423142433167 0.6867076754570007 0.064094677567482 -8.567714098795418e-28 0.0 -1.6018983942199055e-26 0.48703423142433167 0.6867076754570007 0.064094677567482 -8.567714098795418e-28 0.0 0.2951499950589256 -0.11234999647001062 0.4809000069994156 -1.2091995794109558 1.2091995265551612 -1.2091995551462715 0.0 0.0 0.0 0.0 0.0 0.0 9.981973636990765e-07 -5.258967243140429e-07 1.144916897842466e-06 -1.8103060651539406e-15 1.8116749963477897e-08 4.307094529482934e-08 0.2951500000000001 -0.11235000004997345 0.4808999999601586 -1.2091995763071837 1.2091995763071837 -1.209199576059172 0.0 0.0 0.0 0.0 0.0 0.0
468.768 1.1058862159352145e-17 -1.5707963267948966 -1.5707963267948966 0.0 1.5707963267948966 0.0 0.0 0.0 0.0 0.0 0.0 0.0 0.0 0.0 0.0 0.0 0.0 0.0 -1.6018983243994446e-26 0.4870342307692309 0.6867077006507593 0.06409467546754684 -8.567713817370151e-28 0.0 -2.1032924999364705e-25 6.394759450000002 6.3947594500000005 0.2913103000000004 -3.894025929994733e-27 0.0 1.1058862159352145e-17 -1.570796314870016 -1.570796314870016 0.0 1.5707963705062866 0.0 0.0 0.0 0.0 0.0 0.0 0.0 -1.6018983942199055e-26 0.48703423142433167 0.6867076754570007 0.064094677567482 -8.567714098795418e-28 0.0 -1.6018983942199055e-26 0.48703423142433167 0.6867076754570007 0.064094677567482 -8.567714098795418e-28 0.0 0.2951499950589256 -0.11234999647001062 0.4809000069994156 -1.2091995794109558 1.2091995265551612 -1.2091995551462715 0.0 0.0 0.0 0.0 0.0 0.0 9.981973636990765e-07 -5.258967243140429e-07 1.144916897842466e-06 -1.8103060651539406e-15 1.8116749963477897e-08 4.307094529482934e-08 0.2951500000000001 -0.11235000004997345 0.4808999999601586 -1.2091995763071837 1.2091995763071837 -1.209199576059172 0.0 0.0 0.0 0.0 0.0 0.0
468.77599999999995 1.1058862159352145e-17 -1.5707963267948966 -1.5707963267948966 0.0 1.5707963267948966 0.0 0.0 0.0 0.0 0.0 0.0 0.0 0.0 0.0 0.0 0.0 0.0 0.0 -1.6018983243994446e-26 0.4870342307692309 0.6867077006507593 0.06409467546754684 -8.567713817370151e-28 0.0 -2.1032924999364705e-25 6.394759450000002 6.3947594500000005 0.2913103000000004 -3.894025929994733e-27 0.0 1.1058862159352145e-17 -1.570796314870016 -1.570796314870016 0.0 1.5707963705062866 0.0 0.0 0.0 0.0 0.0 0.0 0.0 -1.6018983942199055e-26 0.48703423142433167 0.6867076754570007 0.064094677567482 -8.567714098795418e-28 0.0 -1.6018983942199055e-26 0.48703423142433167 0.6867076754570007 0.064094677567482 -8.567714098795418e-28 0.0 0.2951499950589256 -0.11234999647001062 0.4809000069994156 -1.2091995794109558 1.2091995265551612 -1.2091995551462715 0.0 0.0 0.0 0.0 0.0 0.0 9.981973636990765e-07 -5.258967243140429e-07 1.144916897842466e-06 -1.8103060651539406e-15 1.8116749963477897e-08 4.307094529482934e-08 0.2951500000000001 -0.11235000004997345 0.4808999999601586 -1.2091995763071837 1.2091995763071837 -1.209199576059172 0.0 0.0 0.0 0.0 0.0 0.0
468.784 1.1058862159352145e-17 -1.5707963267948966 -1.5707963267948966 0.0 1.5707963267948966 0.0 0.0 0.0 0.0 0.0 0.0 0.0 0.0 0.0 0.0 0.0 0.0 0.0 -1.6018983243994446e-26 0.4870342307692309 0.6867077006507593 0.06409467546754684 -8.567713817370151e-28 0.0 -2.1032924999364705e-25 6.394759450000002 6.3947594500000005 0.2913103000000004 -3.894025929994733e-27 0.0 1.1058862159352145e-17 -1.570796314870016 -1.570796314870016 0.0 1.5707963705062866 0.0 0.0 0.0 0.0 0.0 0.0 0.0 -1.6018983942199055e-26 0.48703423142433167 0.6867076754570007 0.064094677567482 -8.567714098795418e-28 0.0 -1.6018983942199055e-26 0.48703423142433167 0.6867076754570007 0.064094677567482 -8.567714098795418e-28 0.0 0.2951499950589256 -0.11234999647001062 0.4809000069994156 -1.2091995794109558 1.2091995265551612 -1.2091995551462715 0.0 0.0 0.0 0.0 0.0 0.0 9.981973636990765e-07 -5.258967243140429e-07 1.144916897842466e-06 -1.8103060651539406e-15 1.8116749963477897e-08 4.307094529482934e-08 0.2951500000000001 -0.11235000004997345 0.4808999999601586 -1.2091995763071837 1.2091995763071837 -1.209199576059172 0.0 0.0 0.0 0.0 0.0 0.0
468.792 1.1058862159352145e-17 -1.5707963267948966 -1.5707963267948966 0.0 1.5707963267948966 0.0 0.0 0.0 0.0 0.0 0.0 0.0 0.0 0.0 0.0 0.0 0.0 0.0 -1.6018983243994446e-26 0.4870342307692309 0.6867077006507593 0.06409467546754684 -8.567713817370151e-28 0.0 -2.1032924999364705e-25 6.394759450000002 6.3947594500000005 0.2913103000000004 -3.894025929994733e-27 0.0 1.1058862159352145e-17 -1.570796314870016 -1.570796314870016 0.0 1.5707963705062866 0.0 0.0 0.0 0.0 0.0 0.0 0.0 -1.6018983942199055e-26 0.48703423142433167 0.6867076754570007 0.064094677567482 -8.567714098795418e-28 0.0 -1.6018983942199055e-26 0.48703423142433167 0.6867076754570007 0.064094677567482 -8.567714098795418e-28 0.0 0.2951499950589256 -0.11234999647001062 0.4809000069994156 -1.2091995794109558 1.2091995265551612 -1.2091995551462715 0.0 0.0 0.0 0.0 0.0 0.0 9.981973636990765e-07 -5.258967243140429e-07 1.144916897842466e-06 -1.8103060651539406e-15 1.8116749963477897e-08 4.307094529482934e-08 0.2951500000000001 -0.11235000004997345 0.4808999999601586 -1.2091995763071837 1.2091995763071837 -1.209199576059172 0.0 0.0 0.0 0.0 0.0 0.0
468.79999999999995 1.1058862159352145e-17 -1.5707963267948966 -1.5707963267948966 0.0 1.5707963267948966 0.0 0.0 0.0 0.0 0.0 0.0 0.0 0.0 0.0 0.0 0.0 0.0 0.0 -1.6018983243994446e-26 0.4870342307692309 0.6867077006507593 0.06409467546754684 -8.567713817370151e-28 0.0 -2.1032924999364705e-25 6.394759450000002 6.3947594500000005 0.2913103000000004 -3.894025929994733e-27 0.0 1.1058862159352145e-17 -1.570796314870016 -1.570796314870016 0.0 1.5707963705062866 0.0 0.0 0.0 0.0 0.0 0.0 0.0 -1.6018983942199055e-26 0.48703423142433167 0.6867076754570007 0.064094677567482 -8.567714098795418e-28 0.0 -1.6018983942199055e-26 0.48703423142433167 0.6867076754570007 0.064094677567482 -8.567714098795418e-28 0.0 0.2951499950589256 -0.11234999647001062 0.4809000069994156 -1.2091995794109558 1.2091995265551612 -1.2091995551462715 0.0 0.0 0.0 0.0 0.0 0.0 9.981973636990765e-07 -5.258967243140429e-07 1.144916897842466e-06 -1.8103060651539406e-15 1.8116749963477897e-08 4.307094529482934e-08 0.2951500000000001 -0.11235000004997345 0.4808999999601586 -1.2091995763071837 1.2091995763071837 -1.209199576059172 0.0 0.0 0.0 0.0 0.0 0.0
468.808 1.1058862159352145e-17 -1.5707963267948966 -1.5707963267948966 0.0 1.5707963267948966 0.0 0.0 0.0 0.0 0.0 0.0 0.0 0.0 0.0 0.0 0.0 0.0 0.0 -1.6018983243994446e-26 0.4870342307692309 0.6867077006507593 0.06409467546754684 -8.567713817370151e-28 0.0 -2.1032924999364705e-25 6.394759450000002 6.3947594500000005 0.2913103000000004 -3.894025929994733e-27 0.0 1.1058862159352145e-17 -1.570796314870016 -1.570796314870016 0.0 1.5707963705062866 0.0 0.0 0.0 0.0 0.0 0.0 0.0 -1.6018983942199055e-26 0.48703423142433167 0.6867076754570007 0.064094677567482 -8.567714098795418e-28 0.0 -1.6018983942199055e-26 0.48703423142433167 0.6867076754570007 0.064094677567482 -8.567714098795418e-28 0.0 0.2951499950589256 -0.11234999647001062 0.4809000069994156 -1.2091995794109558 1.2091995265551612 -1.2091995551462715 0.0 0.0 0.0 0.0 0.0 0.0 9.981973636990765e-07 -5.258967243140429e-07 1.144916897842466e-06 -1.8103060651539406e-15 1.8116749963477897e-08 4.307094529482934e-08 0.2951500000000001 -0.11235000004997345 0.4808999999601586 -1.2091995763071837 1.2091995763071837 -1.209199576059172 0.0 0.0 0.0 0.0 0.0 0.0
468.816 1.1058862159352145e-17 -1.5707963267948966 -1.5707963267948966 0.0 1.5707963267948966 0.0 0.0 0.0 0.0 0.0 0.0 0.0 0.0 0.0 0.0 0.0 0.0 0.0 -1.6018983243994446e-26 0.4870342307692309 0.6867077006507593 0.06409467546754684 -8.567713817370151e-28 0.0 -2.1032924999364705e-25 6.394759450000002 6.3947594500000005 0.2913103000000004 -3.894025929994733e-27 0.0 1.1058862159352145e-17 -1.570796314870016 -1.570796314870016 0.0 1.5707963705062866 0.0 0.0 0.0 0.0 0.0 0.0 0.0 -1.6018983942199055e-26 0.48703423142433167 0.6867076754570007 0.064094677567482 -8.567714098795418e-28 0.0 -1.6018983942199055e-26 0.48703423142433167 0.6867076754570007 0.064094677567482 -8.567714098795418e-28 0.0 0.2951499950589256 -0.11234999647001062 0.4809000069994156 -1.2091995794109558 1.2091995265551612 -1.2091995551462715 0.0 0.0 0.0 0.0 0.0 0.0 9.981973636990765e-07 -5.258967243140429e-07 1.144916897842466e-06 -1.8103060651539406e-15 1.8116749963477897e-08 4.307094529482934e-08 0.2951500000000001 -0.11235000004997345 0.4808999999601586 -1.2091995763071837 1.2091995763071837 -1.209199576059172 0.0 0.0 0.0 0.0 0.0 0.0
468.82399999999996 1.1058862159352145e-17 -1.5707963267948966 -1.5707963267948966 0.0 1.5707963267948966 0.0 0.0 0.0 0.0 0.0 0.0 0.0 0.0 0.0 0.0 0.0 0.0 0.0 -1.6018983243994446e-26 0.4870342307692309 0.6867077006507593 0.06409467546754684 -8.567713817370151e-28 0.0 -2.1032924999364705e-25 6.394759450000002 6.3947594500000005 0.2913103000000004 -3.894025929994733e-27 0.0 1.1058862159352145e-17 -1.570796314870016 -1.570796314870016 0.0 1.5707963705062866 0.0 0.0 0.0 0.0 0.0 0.0 0.0 -1.6018983942199055e-26 0.48703423142433167 0.6867076754570007 0.064094677567482 -8.567714098795418e-28 0.0 -1.6018983942199055e-26 0.48703423142433167 0.6867076754570007 0.064094677567482 -8.567714098795418e-28 0.0 0.2951499950589256 -0.11234999647001062 0.4809000069994156 -1.2091995794109558 1.2091995265551612 -1.2091995551462715 0.0 0.0 0.0 0.0 0.0 0.0 9.981973636990765e-07 -5.258967243140429e-07 1.144916897842466e-06 -1.8103060651539406e-15 1.8116749963477897e-08 4.307094529482934e-08 0.2951500000000001 -0.11235000004997345 0.4808999999601586 -1.2091995763071837 1.2091995763071837 -1.209199576059172 0.0 0.0 0.0 0.0 0.0 0.0
468.832 1.1058862159352145e-17 -1.5707963267948966 -1.5707963267948966 0.0 1.5707963267948966 0.0 0.0 0.0 0.0 0.0 0.0 0.0 0.0 0.0 0.0 0.0 0.0 0.0 -1.6018983243994446e-26 0.4870342307692309 0.6867077006507593 0.06409467546754684 -8.567713817370151e-28 0.0 -2.1032924999364705e-25 6.394759450000002 6.3947594500000005 0.2913103000000004 -3.894025929994733e-27 0.0 1.1058862159352145e-17 -1.570796314870016 -1.570796314870016 0.0 1.5707963705062866 0.0 0.0 0.0 0.0 0.0 0.0 0.0 -1.6018983942199055e-26 0.48703423142433167 0.6867076754570007 0.064094677567482 -8.567714098795418e-28 0.0 -1.6018983942199055e-26 0.48703423142433167 0.6867076754570007 0.064094677567482 -8.567714098795418e-28 0.0 0.2951499950589256 -0.11234999647001062 0.4809000069994156 -1.2091995794109558 1.2091995265551612 -1.2091995551462715 0.0 0.0 0.0 0.0 0.0 0.0 9.981973636990765e-07 -5.258967243140429e-07 1.144916897842466e-06 -1.8103060651539406e-15 1.8116749963477897e-08 4.307094529482934e-08 0.2951500000000001 -0.11235000004997345 0.4808999999601586 -1.2091995763071837 1.2091995763071837 -1.209199576059172 0.0 0.0 0.0 0.0 0.0 0.0
468.84 1.1058862159352145e-17 -1.5707963267948966 -1.5707963267948966 0.0 1.5707963267948966 0.0 0.0 0.0 0.0 0.0 0.0 0.0 0.0 0.0 0.0 0.0 0.0 0.0 -1.6018983243994446e-26 0.4870342307692309 0.6867077006507593 0.06409467546754684 -8.567713817370151e-28 0.0 -2.1032924999364705e-25 6.394759450000002 6.3947594500000005 0.2913103000000004 -3.894025929994733e-27 0.0 1.1058862159352145e-17 -1.570796314870016 -1.570796314870016 0.0 1.5707963705062866 0.0 0.0 0.0 0.0 0.0 0.0 0.0 -1.6018983942199055e-26 0.48703423142433167 0.6867076754570007 0.064094677567482 -8.567714098795418e-28 0.0 -1.6018983942199055e-26 0.48703423142433167 0.6867076754570007 0.064094677567482 -8.567714098795418e-28 0.0 0.2951499950589256 -0.11234999647001062 0.4809000069994156 -1.2091995794109558 1.2091995265551612 -1.2091995551462715 0.0 0.0 0.0 0.0 0.0 0.0 9.981973636990765e-07 -5.258967243140429e-07 1.144916897842466e-06 -1.8103060651539406e-15 1.8116749963477897e-08 4.307094529482934e-08 0.2951500000000001 -0.11235000004997345 0.4808999999601586 -1.2091995763071837 1.2091995763071837 -1.209199576059172 0.0 0.0 0.0 0.0 0.0 0.0
468.84799999999996 1.1058862159352145e-17 -1.5707963267948966 -1.5707963267948966 0.0 1.5707963267948966 0.0 0.0 0.0 0.0 0.0 0.0 0.0 0.0 0.0 0.0 0.0 0.0 0.0 -1.6018983243994446e-26 0.4870342307692309 0.6867077006507593 0.06409467546754684 -8.567713817370151e-28 0.0 -2.1032924999364705e-25 6.394759450000002 6.3947594500000005 0.2913103000000004 -3.894025929994733e-27 0.0 1.1058862159352145e-17 -1.570796314870016 -1.570796314870016 0.0 1.5707963705062866 0.0 0.0 0.0 0.0 0.0 0.0 0.0 -1.6018983942199055e-26 0.48703423142433167 0.6867076754570007 0.064094677567482 -8.567714098795418e-28 0.0 -1.6018983942199055e-26 0.48703423142433167 0.6867076754570007 0.064094677567482 -8.567714098795418e-28 0.0 0.2951499950589256 -0.11234999647001062 0.4809000069994156 -1.2091995794109558 1.2091995265551612 -1.2091995551462715 0.0 0.0 0.0 0.0 0.0 0.0 9.981973636990765e-07 -5.258967243140429e-07 1.144916897842466e-06 -1.8103060651539406e-15 1.8116749963477897e-08 4.307094529482934e-08 0.2951500000000001 -0.11235000004997345 0.4808999999601586 -1.2091995763071837 1.2091995763071837 -1.209199576059172 0.0 0.0 0.0 0.0 0.0 0.0
468.856 1.1058862159352145e-17 -1.5707963267948966 -1.5707963267948966 0.0 1.5707963267948966 0.0 0.0 0.0 0.0 0.0 0.0 0.0 0.0 0.0 0.0 0.0 0.0 0.0 -1.6018983243994446e-26 0.4870342307692309 0.6867077006507593 0.06409467546754684 -8.567713817370151e-28 0.0 -2.1032924999364705e-25 6.394759450000002 6.3947594500000005 0.2913103000000004 -3.894025929994733e-27 0.0 1.1058862159352145e-17 -1.570796314870016 -1.570796314870016 0.0 1.5707963705062866 0.0 0.0 0.0 0.0 0.0 0.0 0.0 -1.6018983942199055e-26 0.48703423142433167 0.6867076754570007 0.064094677567482 -8.567714098795418e-28 0.0 -1.6018983942199055e-26 0.48703423142433167 0.6867076754570007 0.064094677567482 -8.567714098795418e-28 0.0 0.2951499950589256 -0.11234999647001062 0.4809000069994156 -1.2091995794109558 1.2091995265551612 -1.2091995551462715 0.0 0.0 0.0 0.0 0.0 0.0 9.981973636990765e-07 -5.258967243140429e-07 1.144916897842466e-06 -1.8103060651539406e-15 1.8116749963477897e-08 4.307094529482934e-08 0.2951500000000001 -0.11235000004997345 0.4808999999601586 -1.2091995763071837 1.2091995763071837 -1.209199576059172 0.0 0.0 0.0 0.0 0.0 0.0
468.864 1.1058862159352145e-17 -1.5707963267948966 -1.5707963267948966 0.0 1.5707963267948966 0.0 0.0 0.0 0.0 0.0 0.0 0.0 0.0 0.0 0.0 0.0 0.0 0.0 -1.6018983243994446e-26 0.4870342307692309 0.6867077006507593 0.06409467546754684 -8.567713817370151e-28 0.0 -2.1032924999364705e-25 6.394759450000002 6.3947594500000005 0.2913103000000004 -3.894025929994733e-27 0.0 1.1058862159352145e-17 -1.570796314870016 -1.570796314870016 0.0 1.5707963705062866 0.0 0.0 0.0 0.0 0.0 0.0 0.0 -1.6018983942199055e-26 0.48703423142433167 0.6867076754570007 0.064094677567482 -8.567714098795418e-28 0.0 -1.6018983942199055e-26 0.48703423142433167 0.6867076754570007 0.064094677567482 -8.567714098795418e-28 0.0 0.2951499950589256 -0.11234999647001062 0.4809000069994156 -1.2091995794109558 1.2091995265551612 -1.2091995551462715 0.0 0.0 0.0 0.0 0.0 0.0 9.981973636990765e-07 -5.258967243140429e-07 1.144916897842466e-06 -1.8103060651539406e-15 1.8116749963477897e-08 4.307094529482934e-08 0.2951500000000001 -0.11235000004997345 0.4808999999601586 -1.2091995763071837 1.2091995763071837 -1.209199576059172 0.0 0.0 0.0 0.0 0.0 0.0
468.87199999999996 1.1058862159352145e-17 -1.5707963267948966 -1.5707963267948966 0.0 1.5707963267948966 0.0 0.0 0.0 0.0 0.0 0.0 0.0 0.0 0.0 0.0 0.0 0.0 0.0 -1.6018983243994446e-26 0.4870342307692309 0.6867077006507593 0.06409467546754684 -8.567713817370151e-28 0.0 -2.1032924999364705e-25 6.394759450000002 6.3947594500000005 0.2913103000000004 -3.894025929994733e-27 0.0 1.1058862159352145e-17 -1.570796314870016 -1.570796314870016 0.0 1.5707963705062866 0.0 0.0 0.0 0.0 0.0 0.0 0.0 -1.6018983942199055e-26 0.48703423142433167 0.6867076754570007 0.064094677567482 -8.567714098795418e-28 0.0 -1.6018983942199055e-26 0.48703423142433167 0.6867076754570007 0.064094677567482 -8.567714098795418e-28 0.0 0.2951499950589256 -0.11234999647001062 0.4809000069994156 -1.2091995794109558 1.2091995265551612 -1.2091995551462715 0.0 0.0 0.0 0.0 0.0 0.0 9.981973636990765e-07 -5.258967243140429e-07 1.144916897842466e-06 -1.8103060651539406e-15 1.8116749963477897e-08 4.307094529482934e-08 0.2951500000000001 -0.11235000004997345 0.4808999999601586 -1.2091995763071837 1.2091995763071837 -1.209199576059172 0.0 0.0 0.0 0.0 0.0 0.0
468.88 1.1058862159352145e-17 -1.5707963267948966 -1.5707963267948966 0.0 1.5707963267948966 0.0 0.0 0.0 0.0 0.0 0.0 0.0 0.0 0.0 0.0 0.0 0.0 0.0 -1.6018983243994446e-26 0.4870342307692309 0.6867077006507593 0.06409467546754684 -8.567713817370151e-28 0.0 -2.1032924999364705e-25 6.394759450000002 6.3947594500000005 0.2913103000000004 -3.894025929994733e-27 0.0 1.1058862159352145e-17 -1.570796314870016 -1.570796314870016 0.0 1.5707963705062866 0.0 0.0 0.0 0.0 0.0 0.0 0.0 -1.6018983942199055e-26 0.48703423142433167 0.6867076754570007 0.064094677567482 -8.567714098795418e-28 0.0 -1.6018983942199055e-26 0.48703423142433167 0.6867076754570007 0.064094677567482 -8.567714098795418e-28 0.0 0.2951499950589256 -0.11234999647001062 0.4809000069994156 -1.2091995794109558 1.2091995265551612 -1.2091995551462715 0.0 0.0 0.0 0.0 0.0 0.0 9.981973636990765e-07 -5.258967243140429e-07 1.144916897842466e-06 -1.8103060651539406e-15 1.8116749963477897e-08 4.307094529482934e-08 0.2951500000000001 -0.11235000004997345 0.4808999999601586 -1.2091995763071837 1.2091995763071837 -1.209199576059172 0.0 0.0 0.0 0.0 0.0 0.0
468.888 1.1058862159352145e-17 -1.5707963267948966 -1.5707963267948966 0.0 1.5707963267948966 0.0 0.0 0.0 0.0 0.0 0.0 0.0 0.0 0.0 0.0 0.0 0.0 0.0 -1.6018983243994446e-26 0.4870342307692309 0.6867077006507593 0.06409467546754684 -8.567713817370151e-28 0.0 -2.1032924999364705e-25 6.394759450000002 6.3947594500000005 0.2913103000000004 -3.894025929994733e-27 0.0 1.1058862159352145e-17 -1.570796314870016 -1.570796314870016 0.0 1.5707963705062866 0.0 0.0 0.0 0.0 0.0 0.0 0.0 -1.6018983942199055e-26 0.48703423142433167 0.6867076754570007 0.064094677567482 -8.567714098795418e-28 0.0 -1.6018983942199055e-26 0.48703423142433167 0.6867076754570007 0.064094677567482 -8.567714098795418e-28 0.0 0.2951499950589256 -0.11234999647001062 0.4809000069994156 -1.2091995794109558 1.2091995265551612 -1.2091995551462715 0.0 0.0 0.0 0.0 0.0 0.0 9.981973636990765e-07 -5.258967243140429e-07 1.144916897842466e-06 -1.8103060651539406e-15 1.8116749963477897e-08 4.307094529482934e-08 0.2951500000000001 -0.11235000004997345 0.4808999999601586 -1.2091995763071837 1.2091995763071837 -1.209199576059172 0.0 0.0 0.0 0.0 0.0 0.0
468.89599999999996 1.1058862159352145e-17 -1.5707963267948966 -1.5707963267948966 0.0 1.5707963267948966 0.0 0.0 0.0 0.0 0.0 0.0 0.0 0.0 0.0 0.0 0.0 0.0 0.0 -1.6018983243994446e-26 0.4870342307692309 0.6867077006507593 0.06409467546754684 -8.567713817370151e-28 0.0 -2.1032924999364705e-25 6.394759450000002 6.3947594500000005 0.2913103000000004 -3.894025929994733e-27 0.0 1.1058862159352145e-17 -1.570796314870016 -1.570796314870016 0.0 1.5707963705062866 0.0 0.0 0.0 0.0 0.0 0.0 0.0 -1.6018983942199055e-26 0.48703423142433167 0.6867076754570007 0.064094677567482 -8.567714098795418e-28 0.0 -1.6018983942199055e-26 0.48703423142433167 0.6867076754570007 0.064094677567482 -8.567714098795418e-28 0.0 0.2951499950589256 -0.11234999647001062 0.4809000069994156 -1.2091995794109558 1.2091995265551612 -1.2091995551462715 0.0 0.0 0.0 0.0 0.0 0.0 9.981973636990765e-07 -5.258967243140429e-07 1.144916897842466e-06 -1.8103060651539406e-15 1.8116749963477897e-08 4.307094529482934e-08 0.2951500000000001 -0.11235000004997345 0.4808999999601586 -1.2091995763071837 1.2091995763071837 -1.209199576059172 0.0 0.0 0.0 0.0 0.0 0.0
468.904 1.1058862159352145e-17 -1.5707963267948966 -1.5707963267948966 0.0 1.5707963267948966 0.0 0.0 0.0 0.0 0.0 0.0 0.0 0.0 0.0 0.0 0.0 0.0 0.0 -1.6018983243994446e-26 0.4870342307692309 0.6867077006507593 0.06409467546754684 -8.567713817370151e-28 0.0 -2.1032924999364705e-25 6.394759450000002 6.3947594500000005 0.2913103000000004 -3.894025929994733e-27 0.0 1.1058862159352145e-17 -1.570796314870016 -1.570796314870016 0.0 1.5707963705062866 0.0 0.0 0.0 0.0 0.0 0.0 0.0 -1.6018983942199055e-26 0.48703423142433167 0.6867076754570007 0.064094677567482 -8.567714098795418e-28 0.0 -1.6018983942199055e-26 0.48703423142433167 0.6867076754570007 0.064094677567482 -8.567714098795418e-28 0.0 0.2951499950589256 -0.11234999647001062 0.4809000069994156 -1.2091995794109558 1.2091995265551612 -1.2091995551462715 0.0 0.0 0.0 0.0 0.0 0.0 9.981973636990765e-07 -5.258967243140429e-07 1.144916897842466e-06 -1.8103060651539406e-15 1.8116749963477897e-08 4.307094529482934e-08 0.2951500000000001 -0.11235000004997345 0.4808999999601586 -1.2091995763071837 1.2091995763071837 -1.209199576059172 0.0 0.0 0.0 0.0 0.0 0.0
468.912 1.1058862159352145e-17 -1.5707963267948966 -1.5707963267948966 0.0 1.5707963267948966 0.0 0.0 0.0 0.0 0.0 0.0 0.0 0.0 0.0 0.0 0.0 0.0 0.0 -1.6018983243994446e-26 0.4870342307692309 0.6867077006507593 0.06409467546754684 -8.567713817370151e-28 0.0 -2.1032924999364705e-25 6.394759450000002 6.3947594500000005 0.2913103000000004 -3.894025929994733e-27 0.0 1.1058862159352145e-17 -1.570796314870016 -1.570796314870016 0.0 1.5707963705062866 0.0 0.0 0.0 0.0 0.0 0.0 0.0 -1.6018983942199055e-26 0.48703423142433167 0.6867076754570007 0.064094677567482 -8.567714098795418e-28 0.0 -1.6018983942199055e-26 0.48703423142433167 0.6867076754570007 0.064094677567482 -8.567714098795418e-28 0.0 0.2951499950589256 -0.11234999647001062 0.4809000069994156 -1.2091995794109558 1.2091995265551612 -1.2091995551462715 0.0 0.0 0.0 0.0 0.0 0.0 9.981973636990765e-07 -5.258967243140429e-07 1.144916897842466e-06 -1.8103060651539406e-15 1.8116749963477897e-08 4.307094529482934e-08 0.2951500000000001 -0.11235000004997345 0.4808999999601586 -1.2091995763071837 1.2091995763071837 -1.209199576059172 0.0 0.0 0.0 0.0 0.0 0.0
468.91999999999996 1.1058862159352145e-17 -1.5707963267948966 -1.5707963267948966 0.0 1.5707963267948966 0.0 0.0 0.0 0.0 0.0 0.0 0.0 0.0 0.0 0.0 0.0 0.0 0.0 -1.6018983243994446e-26 0.4870342307692309 0.6867077006507593 0.06409467546754684 -8.567713817370151e-28 0.0 -2.1032924999364705e-25 6.394759450000002 6.3947594500000005 0.2913103000000004 -3.894025929994733e-27 0.0 1.1058862159352145e-17 -1.570796314870016 -1.570796314870016 0.0 1.5707963705062866 0.0 0.0 0.0 0.0 0.0 0.0 0.0 -1.6018983942199055e-26 0.48703423142433167 0.6867076754570007 0.064094677567482 -8.567714098795418e-28 0.0 -1.6018983942199055e-26 0.48703423142433167 0.6867076754570007 0.064094677567482 -8.567714098795418e-28 0.0 0.2951499950589256 -0.11234999647001062 0.4809000069994156 -1.2091995794109558 1.2091995265551612 -1.2091995551462715 0.0 0.0 0.0 0.0 0.0 0.0 9.981973636990765e-07 -5.258967243140429e-07 1.144916897842466e-06 -1.8103060651539406e-15 1.8116749963477897e-08 4.307094529482934e-08 0.2951500000000001 -0.11235000004997345 0.4808999999601586 -1.2091995763071837 1.2091995763071837 -1.209199576059172 0.0 0.0 0.0 0.0 0.0 0.0
468.928 1.1058862159352145e-17 -1.5707963267948966 -1.5707963267948966 0.0 1.5707963267948966 0.0 0.0 0.0 0.0 0.0 0.0 0.0 0.0 0.0 0.0 0.0 0.0 0.0 -1.6018983243994446e-26 0.4870342307692309 0.6867077006507593 0.06409467546754684 -8.567713817370151e-28 0.0 -2.1032924999364705e-25 6.394759450000002 6.3947594500000005 0.2913103000000004 -3.894025929994733e-27 0.0 1.1058862159352145e-17 -1.570796314870016 -1.570796314870016 0.0 1.5707963705062866 0.0 0.0 0.0 0.0 0.0 0.0 0.0 -1.6018983942199055e-26 0.48703423142433167 0.6867076754570007 0.064094677567482 -8.567714098795418e-28 0.0 -1.6018983942199055e-26 0.48703423142433167 0.6867076754570007 0.064094677567482 -8.567714098795418e-28 0.0 0.2951499950589256 -0.11234999647001062 0.4809000069994156 -1.2091995794109558 1.2091995265551612 -1.2091995551462715 0.0 0.0 0.0 0.0 0.0 0.0 9.981973636990765e-07 -5.258967243140429e-07 1.144916897842466e-06 -1.8103060651539406e-15 1.8116749963477897e-08 4.307094529482934e-08 0.2951500000000001 -0.11235000004997345 0.4808999999601586 -1.2091995763071837 1.2091995763071837 -1.209199576059172 0.0 0.0 0.0 0.0 0.0 0.0
468.936 1.1058862159352145e-17 -1.5707963267948966 -1.5707963267948966 0.0 1.5707963267948966 0.0 0.0 0.0 0.0 0.0 0.0 0.0 0.0 0.0 0.0 0.0 0.0 0.0 -1.6018983243994446e-26 0.4870342307692309 0.6867077006507593 0.06409467546754684 -8.567713817370151e-28 0.0 -2.1032924999364705e-25 6.394759450000002 6.3947594500000005 0.2913103000000004 -3.894025929994733e-27 0.0 1.1058862159352145e-17 -1.570796314870016 -1.570796314870016 0.0 1.5707963705062866 0.0 0.0 0.0 0.0 0.0 0.0 0.0 -1.6018983942199055e-26 0.48703423142433167 0.6867076754570007 0.064094677567482 -8.567714098795418e-28 0.0 -1.6018983942199055e-26 0.48703423142433167 0.6867076754570007 0.064094677567482 -8.567714098795418e-28 0.0 0.2951499950589256 -0.11234999647001062 0.4809000069994156 -1.2091995794109558 1.2091995265551612 -1.2091995551462715 0.0 0.0 0.0 0.0 0.0 0.0 9.981973636990765e-07 -5.258967243140429e-07 1.144916897842466e-06 -1.8103060651539406e-15 1.8116749963477897e-08 4.307094529482934e-08 0.2951500000000001 -0.11235000004997345 0.4808999999601586 -1.2091995763071837 1.2091995763071837 -1.209199576059172 0.0 0.0 0.0 0.0 0.0 0.0
468.94399999999996 1.1058862159352145e-17 -1.5707963267948966 -1.5707963267948966 0.0 1.5707963267948966 0.0 0.0 0.0 0.0 0.0 0.0 0.0 0.0 0.0 0.0 0.0 0.0 0.0 -1.6018983243994446e-26 0.4870342307692309 0.6867077006507593 0.06409467546754684 -8.567713817370151e-28 0.0 -2.1032924999364705e-25 6.394759450000002 6.3947594500000005 0.2913103000000004 -3.894025929994733e-27 0.0 1.1058862159352145e-17 -1.570796314870016 -1.570796314870016 0.0 1.5707963705062866 0.0 0.0 0.0 0.0 0.0 0.0 0.0 -1.6018983942199055e-26 0.48703423142433167 0.6867076754570007 0.064094677567482 -8.567714098795418e-28 0.0 -1.6018983942199055e-26 0.48703423142433167 0.6867076754570007 0.064094677567482 -8.567714098795418e-28 0.0 0.2951499950589256 -0.11234999647001062 0.4809000069994156 -1.2091995794109558 1.2091995265551612 -1.2091995551462715 0.0 0.0 0.0 0.0 0.0 0.0 9.981973636990765e-07 -5.258967243140429e-07 1.144916897842466e-06 -1.8103060651539406e-15 1.8116749963477897e-08 4.307094529482934e-08 0.2951500000000001 -0.11235000004997345 0.4808999999601586 -1.2091995763071837 1.2091995763071837 -1.209199576059172 0.0 0.0 0.0 0.0 0.0 0.0
468.952 1.1058862159352145e-17 -1.5707963267948966 -1.5707963267948966 0.0 1.5707963267948966 0.0 0.0 0.0 0.0 0.0 0.0 0.0 0.0 0.0 0.0 0.0 0.0 0.0 -1.6018983243994446e-26 0.4870342307692309 0.6867077006507593 0.06409467546754684 -8.567713817370151e-28 0.0 -2.1032924999364705e-25 6.394759450000002 6.3947594500000005 0.2913103000000004 -3.894025929994733e-27 0.0 1.1058862159352145e-17 -1.570796314870016 -1.570796314870016 0.0 1.5707963705062866 0.0 0.0 0.0 0.0 0.0 0.0 0.0 -1.6018983942199055e-26 0.48703423142433167 0.6867076754570007 0.064094677567482 -8.567714098795418e-28 0.0 -1.6018983942199055e-26 0.48703423142433167 0.6867076754570007 0.064094677567482 -8.567714098795418e-28 0.0 0.2951499950589256 -0.11234999647001062 0.4809000069994156 -1.2091995794109558 1.2091995265551612 -1.2091995551462715 0.0 0.0 0.0 0.0 0.0 0.0 9.981973636990765e-07 -5.258967243140429e-07 1.144916897842466e-06 -1.8103060651539406e-15 1.8116749963477897e-08 4.307094529482934e-08 0.2951500000000001 -0.11235000004997345 0.4808999999601586 -1.2091995763071837 1.2091995763071837 -1.209199576059172 0.0 0.0 0.0 0.0 0.0 0.0
468.96 1.1058862159352145e-17 -1.5707963267948966 -1.5707963267948966 0.0 1.5707963267948966 0.0 0.0 0.0 0.0 0.0 0.0 0.0 0.0 0.0 0.0 0.0 0.0 0.0 -1.6018983243994446e-26 0.4870342307692309 0.6867077006507593 0.06409467546754684 -8.567713817370151e-28 0.0 -2.1032924999364705e-25 6.394759450000002 6.3947594500000005 0.2913103000000004 -3.894025929994733e-27 0.0 1.1058862159352145e-17 -1.570796314870016 -1.570796314870016 0.0 1.5707963705062866 0.0 0.0 0.0 0.0 0.0 0.0 0.0 -1.6018983942199055e-26 0.48703423142433167 0.6867076754570007 0.064094677567482 -8.567714098795418e-28 0.0 -1.6018983942199055e-26 0.48703423142433167 0.6867076754570007 0.064094677567482 -8.567714098795418e-28 0.0 0.2951499950589256 -0.11234999647001062 0.4809000069994156 -1.2091995794109558 1.2091995265551612 -1.2091995551462715 0.0 0.0 0.0 0.0 0.0 0.0 9.981973636990765e-07 -5.258967243140429e-07 1.144916897842466e-06 -1.8103060651539406e-15 1.8116749963477897e-08 4.307094529482934e-08 0.2951500000000001 -0.11235000004997345 0.4808999999601586 -1.2091995763071837 1.2091995763071837 -1.209199576059172 0.0 0.0 0.0 0.0 0.0 0.0
468.96799999999996 1.1058862159352145e-17 -1.5707963267948966 -1.5707963267948966 0.0 1.5707963267948966 0.0 0.0 0.0 0.0 0.0 0.0 0.0 0.0 0.0 0.0 0.0 0.0 0.0 -1.6018983243994446e-26 0.4870342307692309 0.6867077006507593 0.06409467546754684 -8.567713817370151e-28 0.0 -2.1032924999364705e-25 6.394759450000002 6.3947594500000005 0.2913103000000004 -3.894025929994733e-27 0.0 1.1058862159352145e-17 -1.570796314870016 -1.570796314870016 0.0 1.5707963705062866 0.0 0.0 0.0 0.0 0.0 0.0 0.0 -1.6018983942199055e-26 0.48703423142433167 0.6867076754570007 0.064094677567482 -8.567714098795418e-28 0.0 -1.6018983942199055e-26 0.48703423142433167 0.6867076754570007 0.064094677567482 -8.567714098795418e-28 0.0 0.2951499950589256 -0.11234999647001062 0.4809000069994156 -1.2091995794109558 1.2091995265551612 -1.2091995551462715 0.0 0.0 0.0 0.0 0.0 0.0 9.981973636990765e-07 -5.258967243140429e-07 1.144916897842466e-06 -1.8103060651539406e-15 1.8116749963477897e-08 4.307094529482934e-08 0.2951500000000001 -0.11235000004997345 0.4808999999601586 -1.2091995763071837 1.2091995763071837 -1.209199576059172 0.0 0.0 0.0 0.0 0.0 0.0
468.976 1.1058862159352145e-17 -1.5707963267948966 -1.5707963267948966 0.0 1.5707963267948966 0.0 0.0 0.0 0.0 0.0 0.0 0.0 0.0 0.0 0.0 0.0 0.0 0.0 -1.6018983243994446e-26 0.4870342307692309 0.6867077006507593 0.06409467546754684 -8.567713817370151e-28 0.0 -2.1032924999364705e-25 6.394759450000002 6.3947594500000005 0.2913103000000004 -3.894025929994733e-27 0.0 1.1058862159352145e-17 -1.570796314870016 -1.570796314870016 0.0 1.5707963705062866 0.0 0.0 0.0 0.0 0.0 0.0 0.0 -1.6018983942199055e-26 0.48703423142433167 0.6867076754570007 0.064094677567482 -8.567714098795418e-28 0.0 -1.6018983942199055e-26 0.48703423142433167 0.6867076754570007 0.064094677567482 -8.567714098795418e-28 0.0 0.2951499950589256 -0.11234999647001062 0.4809000069994156 -1.2091995794109558 1.2091995265551612 -1.2091995551462715 0.0 0.0 0.0 0.0 0.0 0.0 9.981973636990765e-07 -5.258967243140429e-07 1.144916897842466e-06 -1.8103060651539406e-15 1.8116749963477897e-08 4.307094529482934e-08 0.2951500000000001 -0.11235000004997345 0.4808999999601586 -1.2091995763071837 1.2091995763071837 -1.209199576059172 0.0 0.0 0.0 0.0 0.0 0.0
468.984 1.1058862159352145e-17 -1.5707963267948966 -1.5707963267948966 0.0 1.5707963267948966 0.0 0.0 0.0 0.0 0.0 0.0 0.0 0.0 0.0 0.0 0.0 0.0 0.0 -1.6018983243994446e-26 0.4870342307692309 0.6867077006507593 0.06409467546754684 -8.567713817370151e-28 0.0 -2.1032924999364705e-25 6.394759450000002 6.3947594500000005 0.2913103000000004 -3.894025929994733e-27 0.0 1.1058862159352145e-17 -1.570796314870016 -1.570796314870016 0.0 1.5707963705062866 0.0 0.0 0.0 0.0 0.0 0.0 0.0 -1.6018983942199055e-26 0.48703423142433167 0.6867076754570007 0.064094677567482 -8.567714098795418e-28 0.0 -1.6018983942199055e-26 0.48703423142433167 0.6867076754570007 0.064094677567482 -8.567714098795418e-28 0.0 0.2951499950589256 -0.11234999647001062 0.4809000069994156 -1.2091995794109558 1.2091995265551612 -1.2091995551462715 0.0 0.0 0.0 0.0 0.0 0.0 9.981973636990765e-07 -5.258967243140429e-07 1.144916897842466e-06 -1.8103060651539406e-15 1.8116749963477897e-08 4.307094529482934e-08 0.2951500000000001 -0.11235000004997345 0.4808999999601586 -1.2091995763071837 1.2091995763071837 -1.209199576059172 0.0 0.0 0.0 0.0 0.0 0.0
468.99199999999996 1.1058862159352145e-17 -1.5707963267948966 -1.5707963267948966 0.0 1.5707963267948966 0.0 0.0 0.0 0.0 0.0 0.0 0.0 0.0 0.0 0.0 0.0 0.0 0.0 -1.6018983243994446e-26 0.4870342307692309 0.6867077006507593 0.06409467546754684 -8.567713817370151e-28 0.0 -2.1032924999364705e-25 6.394759450000002 6.3947594500000005 0.2913103000000004 -3.894025929994733e-27 0.0 1.1058862159352145e-17 -1.570796314870016 -1.570796314870016 0.0 1.5707963705062866 0.0 0.0 0.0 0.0 0.0 0.0 0.0 -1.6018983942199055e-26 0.48703423142433167 0.6867076754570007 0.064094677567482 -8.567714098795418e-28 0.0 -1.6018983942199055e-26 0.48703423142433167 0.6867076754570007 0.064094677567482 -8.567714098795418e-28 0.0 0.2951499950589256 -0.11234999647001062 0.4809000069994156 -1.2091995794109558 1.2091995265551612 -1.2091995551462715 0.0 0.0 0.0 0.0 0.0 0.0 9.981973636990765e-07 -5.258967243140429e-07 1.144916897842466e-06 -1.8103060651539406e-15 1.8116749963477897e-08 4.307094529482934e-08 0.2951500000000001 -0.11235000004997345 0.4808999999601586 -1.2091995763071837 1.2091995763071837 -1.209199576059172 0.0 0.0 0.0 0.0 0.0 0.0
469.0 1.1058862159352145e-17 -1.5707963267948966 -1.5707963267948966 0.0 1.5707963267948966 0.0 0.0 0.0 0.0 0.0 0.0 0.0 0.0 0.0 0.0 0.0 0.0 0.0 -1.6018983243994446e-26 0.4870342307692309 0.6867077006507593 0.06409467546754684 -8.567713817370151e-28 0.0 -2.1032924999364705e-25 6.394759450000002 6.3947594500000005 0.2913103000000004 -3.894025929994733e-27 0.0 1.1058862159352145e-17 -1.570796314870016 -1.570796314870016 0.0 1.5707963705062866 0.0 0.0 0.0 0.0 0.0 0.0 0.0 -1.6018983942199055e-26 0.48703423142433167 0.6867076754570007 0.064094677567482 -8.567714098795418e-28 0.0 -1.6018983942199055e-26 0.48703423142433167 0.6867076754570007 0.064094677567482 -8.567714098795418e-28 0.0 0.2951499950589256 -0.11234999647001062 0.4809000069994156 -1.2091995794109558 1.2091995265551612 -1.2091995551462715 0.0 0.0 0.0 0.0 0.0 0.0 9.981973636990765e-07 -5.258967243140429e-07 1.144916897842466e-06 -1.8103060651539406e-15 1.8116749963477897e-08 4.307094529482934e-08 0.2951500000000001 -0.11235000004997345 0.4808999999601586 -1.2091995763071837 1.2091995763071837 -1.209199576059172 0.0 0.0 0.0 0.0 0.0 0.0
469.008 1.1058862159352145e-17 -1.5707963267948966 -1.5707963267948966 0.0 1.5707963267948966 0.0 0.0 0.0 0.0 0.0 0.0 0.0 0.0 0.0 0.0 0.0 0.0 0.0 -1.6018983243994446e-26 0.4870342307692309 0.6867077006507593 0.06409467546754684 -8.567713817370151e-28 0.0 -2.1032924999364705e-25 6.394759450000002 6.3947594500000005 0.2913103000000004 -3.894025929994733e-27 0.0 1.1058862159352145e-17 -1.570796314870016 -1.570796314870016 0.0 1.5707963705062866 0.0 0.0 0.0 0.0 0.0 0.0 0.0 -1.6018983942199055e-26 0.48703423142433167 0.6867076754570007 0.064094677567482 -8.567714098795418e-28 0.0 -1.6018983942199055e-26 0.48703423142433167 0.6867076754570007 0.064094677567482 -8.567714098795418e-28 0.0 0.2951499950589256 -0.11234999647001062 0.4809000069994156 -1.2091995794109558 1.2091995265551612 -1.2091995551462715 0.0 0.0 0.0 0.0 0.0 0.0 9.981973636990765e-07 -5.258967243140429e-07 1.144916897842466e-06 -1.8103060651539406e-15 1.8116749963477897e-08 4.307094529482934e-08 0.2951500000000001 -0.11235000004997345 0.4808999999601586 -1.2091995763071837 1.2091995763071837 -1.209199576059172 0.0 0.0 0.0 0.0 0.0 0.0
469.01599999999996 1.1058862159352145e-17 -1.5707963267948966 -1.5707963267948966 0.0 1.5707963267948966 0.0 0.0 0.0 0.0 0.0 0.0 0.0 0.0 0.0 0.0 0.0 0.0 0.0 -1.6018983243994446e-26 0.4870342307692309 0.6867077006507593 0.06409467546754684 -8.567713817370151e-28 0.0 -2.1032924999364705e-25 6.394759450000002 6.3947594500000005 0.2913103000000004 -3.894025929994733e-27 0.0 1.1058862159352145e-17 -1.570796314870016 -1.570796314870016 0.0 1.5707963705062866 0.0 0.0 0.0 0.0 0.0 0.0 0.0 -1.6018983942199055e-26 0.48703423142433167 0.6867076754570007 0.064094677567482 -8.567714098795418e-28 0.0 -1.6018983942199055e-26 0.48703423142433167 0.6867076754570007 0.064094677567482 -8.567714098795418e-28 0.0 0.2951499950589256 -0.11234999647001062 0.4809000069994156 -1.2091995794109558 1.2091995265551612 -1.2091995551462715 0.0 0.0 0.0 0.0 0.0 0.0 9.981973636990765e-07 -5.258967243140429e-07 1.144916897842466e-06 -1.8103060651539406e-15 1.8116749963477897e-08 4.307094529482934e-08 0.2951500000000001 -0.11235000004997345 0.4808999999601586 -1.2091995763071837 1.2091995763071837 -1.209199576059172 0.0 0.0 0.0 0.0 0.0 0.0
469.024 1.1058862159352145e-17 -1.5707963267948966 -1.5707963267948966 0.0 1.5707963267948966 0.0 0.0 0.0 0.0 0.0 0.0 0.0 0.0 0.0 0.0 0.0 0.0 0.0 -1.6018983243994446e-26 0.4870342307692309 0.6867077006507593 0.06409467546754684 -8.567713817370151e-28 0.0 -2.1032924999364705e-25 6.394759450000002 6.3947594500000005 0.2913103000000004 -3.894025929994733e-27 0.0 1.1058862159352145e-17 -1.570796314870016 -1.570796314870016 0.0 1.5707963705062866 0.0 0.0 0.0 0.0 0.0 0.0 0.0 -1.6018983942199055e-26 0.48703423142433167 0.6867076754570007 0.064094677567482 -8.567714098795418e-28 0.0 -1.6018983942199055e-26 0.48703423142433167 0.6867076754570007 0.064094677567482 -8.567714098795418e-28 0.0 0.2951499950589256 -0.11234999647001062 0.4809000069994156 -1.2091995794109558 1.2091995265551612 -1.2091995551462715 0.0 0.0 0.0 0.0 0.0 0.0 9.981973636990765e-07 -5.258967243140429e-07 1.144916897842466e-06 -1.8103060651539406e-15 1.8116749963477897e-08 4.307094529482934e-08 0.2951500000000001 -0.11235000004997345 0.4808999999601586 -1.2091995763071837 1.2091995763071837 -1.209199576059172 0.0 0.0 0.0 0.0 0.0 0.0
469.032 1.1058862159352145e-17 -1.5707963267948966 -1.5707963267948966 0.0 1.5707963267948966 0.0 0.0 0.0 0.0 0.0 0.0 0.0 0.0 0.0 0.0 0.0 0.0 0.0 -1.6018983243994446e-26 0.4870342307692309 0.6867077006507593 0.06409467546754684 -8.567713817370151e-28 0.0 -2.1032924999364705e-25 6.394759450000002 6.3947594500000005 0.2913103000000004 -3.894025929994733e-27 0.0 1.1058862159352145e-17 -1.570796314870016 -1.570796314870016 0.0 1.5707963705062866 0.0 0.0 0.0 0.0 0.0 0.0 0.0 -1.6018983942199055e-26 0.48703423142433167 0.6867076754570007 0.064094677567482 -8.567714098795418e-28 0.0 -1.6018983942199055e-26 0.48703423142433167 0.6867076754570007 0.064094677567482 -8.567714098795418e-28 0.0 0.2951499950589256 -0.11234999647001062 0.4809000069994156 -1.2091995794109558 1.2091995265551612 -1.2091995551462715 0.0 0.0 0.0 0.0 0.0 0.0 9.981973636990765e-07 -5.258967243140429e-07 1.144916897842466e-06 -1.8103060651539406e-15 1.8116749963477897e-08 4.307094529482934e-08 0.2951500000000001 -0.11235000004997345 0.4808999999601586 -1.2091995763071837 1.2091995763071837 -1.209199576059172 0.0 0.0 0.0 0.0 0.0 0.0
469.03999999999996 1.1058862159352145e-17 -1.5707963267948966 -1.5707963267948966 0.0 1.5707963267948966 0.0 0.0 0.0 0.0 0.0 0.0 0.0 0.0 0.0 0.0 0.0 0.0 0.0 -1.6018983243994446e-26 0.4870342307692309 0.6867077006507593 0.06409467546754684 -8.567713817370151e-28 0.0 -2.1032924999364705e-25 6.394759450000002 6.3947594500000005 0.2913103000000004 -3.894025929994733e-27 0.0 1.1058862159352145e-17 -1.570796314870016 -1.570796314870016 0.0 1.5707963705062866 0.0 0.0 0.0 0.0 0.0 0.0 0.0 -1.6018983942199055e-26 0.48703423142433167 0.6867076754570007 0.064094677567482 -8.567714098795418e-28 0.0 -1.6018983942199055e-26 0.48703423142433167 0.6867076754570007 0.064094677567482 -8.567714098795418e-28 0.0 0.2951499950589256 -0.11234999647001062 0.4809000069994156 -1.2091995794109558 1.2091995265551612 -1.2091995551462715 0.0 0.0 0.0 0.0 0.0 0.0 9.981973636990765e-07 -5.258967243140429e-07 1.144916897842466e-06 -1.8103060651539406e-15 1.8116749963477897e-08 4.307094529482934e-08 0.2951500000000001 -0.11235000004997345 0.4808999999601586 -1.2091995763071837 1.2091995763071837 -1.209199576059172 0.0 0.0 0.0 0.0 0.0 0.0
469.048 1.1058862159352145e-17 -1.5707963267948966 -1.5707963267948966 0.0 1.5707963267948966 0.0 0.0 0.0 0.0 0.0 0.0 0.0 0.0 0.0 0.0 0.0 0.0 0.0 -1.6018983243994446e-26 0.4870342307692309 0.6867077006507593 0.06409467546754684 -8.567713817370151e-28 0.0 -2.1032924999364705e-25 6.394759450000002 6.3947594500000005 0.2913103000000004 -3.894025929994733e-27 0.0 1.1058862159352145e-17 -1.570796314870016 -1.570796314870016 0.0 1.5707963705062866 0.0 0.0 0.0 0.0 0.0 0.0 0.0 -1.6018983942199055e-26 0.48703423142433167 0.6867076754570007 0.064094677567482 -8.567714098795418e-28 0.0 -1.6018983942199055e-26 0.48703423142433167 0.6867076754570007 0.064094677567482 -8.567714098795418e-28 0.0 0.2951499950589256 -0.11234999647001062 0.4809000069994156 -1.2091995794109558 1.2091995265551612 -1.2091995551462715 0.0 0.0 0.0 0.0 0.0 0.0 9.981973636990765e-07 -5.258967243140429e-07 1.144916897842466e-06 -1.8103060651539406e-15 1.8116749963477897e-08 4.307094529482934e-08 0.2951500000000001 -0.11235000004997345 0.4808999999601586 -1.2091995763071837 1.2091995763071837 -1.209199576059172 0.0 0.0 0.0 0.0 0.0 0.0
469.056 1.1058862159352145e-17 -1.5707963267948966 -1.5707963267948966 0.0 1.5707963267948966 0.0 0.0 0.0 0.0 0.0 0.0 0.0 0.0 0.0 0.0 0.0 0.0 0.0 -1.6018983243994446e-26 0.4870342307692309 0.6867077006507593 0.06409467546754684 -8.567713817370151e-28 0.0 -2.1032924999364705e-25 6.394759450000002 6.3947594500000005 0.2913103000000004 -3.894025929994733e-27 0.0 1.1058862159352145e-17 -1.570796314870016 -1.570796314870016 0.0 1.5707963705062866 0.0 0.0 0.0 0.0 0.0 0.0 0.0 -1.6018983942199055e-26 0.48703423142433167 0.6867076754570007 0.064094677567482 -8.567714098795418e-28 0.0 -1.6018983942199055e-26 0.48703423142433167 0.6867076754570007 0.064094677567482 -8.567714098795418e-28 0.0 0.2951499950589256 -0.11234999647001062 0.4809000069994156 -1.2091995794109558 1.2091995265551612 -1.2091995551462715 0.0 0.0 0.0 0.0 0.0 0.0 9.981973636990765e-07 -5.258967243140429e-07 1.144916897842466e-06 -1.8103060651539406e-15 1.8116749963477897e-08 4.307094529482934e-08 0.2951500000000001 -0.11235000004997345 0.4808999999601586 -1.2091995763071837 1.2091995763071837 -1.209199576059172 0.0 0.0 0.0 0.0 0.0 0.0
469.06399999999996 1.1058862159352145e-17 -1.5707963267948966 -1.5707963267948966 0.0 1.5707963267948966 0.0 0.0 0.0 0.0 0.0 0.0 0.0 0.0 0.0 0.0 0.0 0.0 0.0 -1.6018983243994446e-26 0.4870342307692309 0.6867077006507593 0.06409467546754684 -8.567713817370151e-28 0.0 -2.1032924999364705e-25 6.394759450000002 6.3947594500000005 0.2913103000000004 -3.894025929994733e-27 0.0 1.1058862159352145e-17 -1.570796314870016 -1.570796314870016 0.0 1.5707963705062866 0.0 0.0 0.0 0.0 0.0 0.0 0.0 -1.6018983942199055e-26 0.48703423142433167 0.6867076754570007 0.064094677567482 -8.567714098795418e-28 0.0 -1.6018983942199055e-26 0.48703423142433167 0.6867076754570007 0.064094677567482 -8.567714098795418e-28 0.0 0.2951499950589256 -0.11234999647001062 0.4809000069994156 -1.2091995794109558 1.2091995265551612 -1.2091995551462715 0.0 0.0 0.0 0.0 0.0 0.0 9.981973636990765e-07 -5.258967243140429e-07 1.144916897842466e-06 -1.8103060651539406e-15 1.8116749963477897e-08 4.307094529482934e-08 0.2951500000000001 -0.11235000004997345 0.4808999999601586 -1.2091995763071837 1.2091995763071837 -1.209199576059172 0.0 0.0 0.0 0.0 0.0 0.0
469.072 1.1058862159352145e-17 -1.5707963267948966 -1.5707963267948966 0.0 1.5707963267948966 0.0 0.0 0.0 0.0 0.0 0.0 0.0 0.0 0.0 0.0 0.0 0.0 0.0 -1.6018983243994446e-26 0.4870342307692309 0.6867077006507593 0.06409467546754684 -8.567713817370151e-28 0.0 -2.1032924999364705e-25 6.394759450000002 6.3947594500000005 0.2913103000000004 -3.894025929994733e-27 0.0 1.1058862159352145e-17 -1.570796314870016 -1.570796314870016 0.0 1.5707963705062866 0.0 0.0 0.0 0.0 0.0 0.0 0.0 -1.6018983942199055e-26 0.48703423142433167 0.6867076754570007 0.064094677567482 -8.567714098795418e-28 0.0 -1.6018983942199055e-26 0.48703423142433167 0.6867076754570007 0.064094677567482 -8.567714098795418e-28 0.0 0.2951499950589256 -0.11234999647001062 0.4809000069994156 -1.2091995794109558 1.2091995265551612 -1.2091995551462715 0.0 0.0 0.0 0.0 0.0 0.0 9.981973636990765e-07 -5.258967243140429e-07 1.144916897842466e-06 -1.8103060651539406e-15 1.8116749963477897e-08 4.307094529482934e-08 0.2951500000000001 -0.11235000004997345 0.4808999999601586 -1.2091995763071837 1.2091995763071837 -1.209199576059172 0.0 0.0 0.0 0.0 0.0 0.0
469.08 1.1058862159352145e-17 -1.5707963267948966 -1.5707963267948966 0.0 1.5707963267948966 0.0 0.0 0.0 0.0 0.0 0.0 0.0 0.0 0.0 0.0 0.0 0.0 0.0 -1.6018983243994446e-26 0.4870342307692309 0.6867077006507593 0.06409467546754684 -8.567713817370151e-28 0.0 -2.1032924999364705e-25 6.394759450000002 6.3947594500000005 0.2913103000000004 -3.894025929994733e-27 0.0 1.1058862159352145e-17 -1.570796314870016 -1.570796314870016 0.0 1.5707963705062866 0.0 0.0 0.0 0.0 0.0 0.0 0.0 -1.6018983942199055e-26 0.48703423142433167 0.6867076754570007 0.064094677567482 -8.567714098795418e-28 0.0 -1.6018983942199055e-26 0.48703423142433167 0.6867076754570007 0.064094677567482 -8.567714098795418e-28 0.0 0.2951499950589256 -0.11234999647001062 0.4809000069994156 -1.2091995794109558 1.2091995265551612 -1.2091995551462715 0.0 0.0 0.0 0.0 0.0 0.0 9.981973636990765e-07 -5.258967243140429e-07 1.144916897842466e-06 -1.8103060651539406e-15 1.8116749963477897e-08 4.307094529482934e-08 0.2951500000000001 -0.11235000004997345 0.4808999999601586 -1.2091995763071837 1.2091995763071837 -1.209199576059172 0.0 0.0 0.0 0.0 0.0 0.0
469.08799999999997 1.1058862159352145e-17 -1.5707963267948966 -1.5707963267948966 0.0 1.5707963267948966 0.0 0.0 0.0 0.0 0.0 0.0 0.0 0.0 0.0 0.0 0.0 0.0 0.0 -1.6018983243994446e-26 0.4870342307692309 0.6867077006507593 0.06409467546754684 -8.567713817370151e-28 0.0 -2.1032924999364705e-25 6.394759450000002 6.3947594500000005 0.2913103000000004 -3.894025929994733e-27 0.0 1.1058862159352145e-17 -1.570796314870016 -1.570796314870016 0.0 1.5707963705062866 0.0 0.0 0.0 0.0 0.0 0.0 0.0 -1.6018983942199055e-26 0.48703423142433167 0.6867076754570007 0.064094677567482 -8.567714098795418e-28 0.0 -1.6018983942199055e-26 0.48703423142433167 0.6867076754570007 0.064094677567482 -8.567714098795418e-28 0.0 0.2951499950589256 -0.11234999647001062 0.4809000069994156 -1.2091995794109558 1.2091995265551612 -1.2091995551462715 0.0 0.0 0.0 0.0 0.0 0.0 9.981973636990765e-07 -5.258967243140429e-07 1.144916897842466e-06 -1.8103060651539406e-15 1.8116749963477897e-08 4.307094529482934e-08 0.2951500000000001 -0.11235000004997345 0.4808999999601586 -1.2091995763071837 1.2091995763071837 -1.209199576059172 0.0 0.0 0.0 0.0 0.0 0.0
469.096 1.1058862159352145e-17 -1.5707963267948966 -1.5707963267948966 0.0 1.5707963267948966 0.0 0.0 0.0 0.0 0.0 0.0 0.0 0.0 0.0 0.0 0.0 0.0 0.0 -1.6018983243994446e-26 0.4870342307692309 0.6867077006507593 0.06409467546754684 -8.567713817370151e-28 0.0 -2.1032924999364705e-25 6.394759450000002 6.3947594500000005 0.2913103000000004 -3.894025929994733e-27 0.0 1.1058862159352145e-17 -1.570796314870016 -1.570796314870016 0.0 1.5707963705062866 0.0 0.0 0.0 0.0 0.0 0.0 0.0 -1.6018983942199055e-26 0.48703423142433167 0.6867076754570007 0.064094677567482 -8.567714098795418e-28 0.0 -1.6018983942199055e-26 0.48703423142433167 0.6867076754570007 0.064094677567482 -8.567714098795418e-28 0.0 0.2951499950589256 -0.11234999647001062 0.4809000069994156 -1.2091995794109558 1.2091995265551612 -1.2091995551462715 0.0 0.0 0.0 0.0 0.0 0.0 9.981973636990765e-07 -5.258967243140429e-07 1.144916897842466e-06 -1.8103060651539406e-15 1.8116749963477897e-08 4.307094529482934e-08 0.2951500000000001 -0.11235000004997345 0.4808999999601586 -1.2091995763071837 1.2091995763071837 -1.209199576059172 0.0 0.0 0.0 0.0 0.0 0.0
469.104 1.1058862159352145e-17 -1.5707963267948966 -1.5707963267948966 0.0 1.5707963267948966 0.0 0.0 0.0 0.0 0.0 0.0 0.0 0.0 0.0 0.0 0.0 0.0 0.0 -1.6018983243994446e-26 0.4870342307692309 0.6867077006507593 0.06409467546754684 -8.567713817370151e-28 0.0 -2.1032924999364705e-25 6.394759450000002 6.3947594500000005 0.2913103000000004 -3.894025929994733e-27 0.0 1.1058862159352145e-17 -1.570796314870016 -1.570796314870016 0.0 1.5707963705062866 0.0 0.0 0.0 0.0 0.0 0.0 0.0 -1.6018983942199055e-26 0.48703423142433167 0.6867076754570007 0.064094677567482 -8.567714098795418e-28 0.0 -1.6018983942199055e-26 0.48703423142433167 0.6867076754570007 0.064094677567482 -8.567714098795418e-28 0.0 0.2951499950589256 -0.11234999647001062 0.4809000069994156 -1.2091995794109558 1.2091995265551612 -1.2091995551462715 0.0 0.0 0.0 0.0 0.0 0.0 9.981973636990765e-07 -5.258967243140429e-07 1.144916897842466e-06 -1.8103060651539406e-15 1.8116749963477897e-08 4.307094529482934e-08 0.2951500000000001 -0.11235000004997345 0.4808999999601586 -1.2091995763071837 1.2091995763071837 -1.209199576059172 0.0 0.0 0.0 0.0 0.0 0.0
469.11199999999997 1.1058862159352145e-17 -1.5707963267948966 -1.5707963267948966 0.0 1.5707963267948966 0.0 0.0 0.0 0.0 0.0 0.0 0.0 0.0 0.0 0.0 0.0 0.0 0.0 -1.6018983243994446e-26 0.4870342307692309 0.6867077006507593 0.06409467546754684 -8.567713817370151e-28 0.0 -2.1032924999364705e-25 6.394759450000002 6.3947594500000005 0.2913103000000004 -3.894025929994733e-27 0.0 1.1058862159352145e-17 -1.570796314870016 -1.570796314870016 0.0 1.5707963705062866 0.0 0.0 0.0 0.0 0.0 0.0 0.0 -1.6018983942199055e-26 0.48703423142433167 0.6867076754570007 0.064094677567482 -8.567714098795418e-28 0.0 -1.6018983942199055e-26 0.48703423142433167 0.6867076754570007 0.064094677567482 -8.567714098795418e-28 0.0 0.2951499950589256 -0.11234999647001062 0.4809000069994156 -1.2091995794109558 1.2091995265551612 -1.2091995551462715 0.0 0.0 0.0 0.0 0.0 0.0 9.981973636990765e-07 -5.258967243140429e-07 1.144916897842466e-06 -1.8103060651539406e-15 1.8116749963477897e-08 4.307094529482934e-08 0.2951500000000001 -0.11235000004997345 0.4808999999601586 -1.2091995763071837 1.2091995763071837 -1.209199576059172 0.0 0.0 0.0 0.0 0.0 0.0
469.12 1.1058862159352145e-17 -1.5707963267948966 -1.5707963267948966 0.0 1.5707963267948966 0.0 0.0 0.0 0.0 0.0 0.0 0.0 0.0 0.0 0.0 0.0 0.0 0.0 -1.6018983243994446e-26 0.4870342307692309 0.6867077006507593 0.06409467546754684 -8.567713817370151e-28 0.0 -2.1032924999364705e-25 6.394759450000002 6.3947594500000005 0.2913103000000004 -3.894025929994733e-27 0.0 1.1058862159352145e-17 -1.570796314870016 -1.570796314870016 0.0 1.5707963705062866 0.0 0.0 0.0 0.0 0.0 0.0 0.0 -1.6018983942199055e-26 0.48703423142433167 0.6867076754570007 0.064094677567482 -8.567714098795418e-28 0.0 -1.6018983942199055e-26 0.48703423142433167 0.6867076754570007 0.064094677567482 -8.567714098795418e-28 0.0 0.2951499950589256 -0.11234999647001062 0.4809000069994156 -1.2091995794109558 1.2091995265551612 -1.2091995551462715 0.0 0.0 0.0 0.0 0.0 0.0 9.981973636990765e-07 -5.258967243140429e-07 1.144916897842466e-06 -1.8103060651539406e-15 1.8116749963477897e-08 4.307094529482934e-08 0.2951500000000001 -0.11235000004997345 0.4808999999601586 -1.2091995763071837 1.2091995763071837 -1.209199576059172 0.0 0.0 0.0 0.0 0.0 0.0
469.128 1.1058862159352145e-17 -1.5707963267948966 -1.5707963267948966 0.0 1.5707963267948966 0.0 0.0 0.0 0.0 0.0 0.0 0.0 0.0 0.0 0.0 0.0 0.0 0.0 -1.6018983243994446e-26 0.4870342307692309 0.6867077006507593 0.06409467546754684 -8.567713817370151e-28 0.0 -2.1032924999364705e-25 6.394759450000002 6.3947594500000005 0.2913103000000004 -3.894025929994733e-27 0.0 1.1058862159352145e-17 -1.570796314870016 -1.570796314870016 0.0 1.5707963705062866 0.0 0.0 0.0 0.0 0.0 0.0 0.0 -1.6018983942199055e-26 0.48703423142433167 0.6867076754570007 0.064094677567482 -8.567714098795418e-28 0.0 -1.6018983942199055e-26 0.48703423142433167 0.6867076754570007 0.064094677567482 -8.567714098795418e-28 0.0 0.2951499950589256 -0.11234999647001062 0.4809000069994156 -1.2091995794109558 1.2091995265551612 -1.2091995551462715 0.0 0.0 0.0 0.0 0.0 0.0 9.981973636990765e-07 -5.258967243140429e-07 1.144916897842466e-06 -1.8103060651539406e-15 1.8116749963477897e-08 4.307094529482934e-08 0.2951500000000001 -0.11235000004997345 0.4808999999601586 -1.2091995763071837 1.2091995763071837 -1.209199576059172 0.0 0.0 0.0 0.0 0.0 0.0
469.13599999999997 1.1058862159352145e-17 -1.5707963267948966 -1.5707963267948966 0.0 1.5707963267948966 0.0 0.0 0.0 0.0 0.0 0.0 0.0 0.0 0.0 0.0 0.0 0.0 0.0 -1.6018983243994446e-26 0.4870342307692309 0.6867077006507593 0.06409467546754684 -8.567713817370151e-28 0.0 -2.1032924999364705e-25 6.394759450000002 6.3947594500000005 0.2913103000000004 -3.894025929994733e-27 0.0 1.1058862159352145e-17 -1.570796314870016 -1.570796314870016 0.0 1.5707963705062866 0.0 0.0 0.0 0.0 0.0 0.0 0.0 -1.6018983942199055e-26 0.48703423142433167 0.6867076754570007 0.064094677567482 -8.567714098795418e-28 0.0 -1.6018983942199055e-26 0.48703423142433167 0.6867076754570007 0.064094677567482 -8.567714098795418e-28 0.0 0.2951499950589256 -0.11234999647001062 0.4809000069994156 -1.2091995794109558 1.2091995265551612 -1.2091995551462715 0.0 0.0 0.0 0.0 0.0 0.0 9.981973636990765e-07 -5.258967243140429e-07 1.144916897842466e-06 -1.8103060651539406e-15 1.8116749963477897e-08 4.307094529482934e-08 0.2951500000000001 -0.11235000004997345 0.4808999999601586 -1.2091995763071837 1.2091995763071837 -1.209199576059172 0.0 0.0 0.0 0.0 0.0 0.0
469.144 1.1058862159352145e-17 -1.5707963267948966 -1.5707963267948966 0.0 1.5707963267948966 0.0 0.0 0.0 0.0 0.0 0.0 0.0 0.0 0.0 0.0 0.0 0.0 0.0 -1.6018983243994446e-26 0.4870342307692309 0.6867077006507593 0.06409467546754684 -8.567713817370151e-28 0.0 -2.1032924999364705e-25 6.394759450000002 6.3947594500000005 0.2913103000000004 -3.894025929994733e-27 0.0 1.1058862159352145e-17 -1.570796314870016 -1.570796314870016 0.0 1.5707963705062866 0.0 0.0 0.0 0.0 0.0 0.0 0.0 -1.6018983942199055e-26 0.48703423142433167 0.6867076754570007 0.064094677567482 -8.567714098795418e-28 0.0 -1.6018983942199055e-26 0.48703423142433167 0.6867076754570007 0.064094677567482 -8.567714098795418e-28 0.0 0.2951499950589256 -0.11234999647001062 0.4809000069994156 -1.2091995794109558 1.2091995265551612 -1.2091995551462715 0.0 0.0 0.0 0.0 0.0 0.0 9.981973636990765e-07 -5.258967243140429e-07 1.144916897842466e-06 -1.8103060651539406e-15 1.8116749963477897e-08 4.307094529482934e-08 0.2951500000000001 -0.11235000004997345 0.4808999999601586 -1.2091995763071837 1.2091995763071837 -1.209199576059172 0.0 0.0 0.0 0.0 0.0 0.0
469.152 1.1058862159352145e-17 -1.5707963267948966 -1.5707963267948966 0.0 1.5707963267948966 0.0 0.0 0.0 0.0 0.0 0.0 0.0 0.0 0.0 0.0 0.0 0.0 0.0 -1.6018983243994446e-26 0.4870342307692309 0.6867077006507593 0.06409467546754684 -8.567713817370151e-28 0.0 -2.1032924999364705e-25 6.394759450000002 6.3947594500000005 0.2913103000000004 -3.894025929994733e-27 0.0 1.1058862159352145e-17 -1.570796314870016 -1.570796314870016 0.0 1.5707963705062866 0.0 0.0 0.0 0.0 0.0 0.0 0.0 -1.6018983942199055e-26 0.48703423142433167 0.6867076754570007 0.064094677567482 -8.567714098795418e-28 0.0 -1.6018983942199055e-26 0.48703423142433167 0.6867076754570007 0.064094677567482 -8.567714098795418e-28 0.0 0.2951499950589256 -0.11234999647001062 0.4809000069994156 -1.2091995794109558 1.2091995265551612 -1.2091995551462715 0.0 0.0 0.0 0.0 0.0 0.0 9.981973636990765e-07 -5.258967243140429e-07 1.144916897842466e-06 -1.8103060651539406e-15 1.8116749963477897e-08 4.307094529482934e-08 0.2951500000000001 -0.11235000004997345 0.4808999999601586 -1.2091995763071837 1.2091995763071837 -1.209199576059172 0.0 0.0 0.0 0.0 0.0 0.0
469.15999999999997 1.1058862159352145e-17 -1.5707963267948966 -1.5707963267948966 0.0 1.5707963267948966 0.0 0.0 0.0 0.0 0.0 0.0 0.0 0.0 0.0 0.0 0.0 0.0 0.0 -1.6018983243994446e-26 0.4870342307692309 0.6867077006507593 0.06409467546754684 -8.567713817370151e-28 0.0 -2.1032924999364705e-25 6.394759450000002 6.3947594500000005 0.2913103000000004 -3.894025929994733e-27 0.0 1.1058862159352145e-17 -1.570796314870016 -1.570796314870016 0.0 1.5707963705062866 0.0 0.0 0.0 0.0 0.0 0.0 0.0 -1.6018983942199055e-26 0.48703423142433167 0.6867076754570007 0.064094677567482 -8.567714098795418e-28 0.0 -1.6018983942199055e-26 0.48703423142433167 0.6867076754570007 0.064094677567482 -8.567714098795418e-28 0.0 0.2951499950589256 -0.11234999647001062 0.4809000069994156 -1.2091995794109558 1.2091995265551612 -1.2091995551462715 0.0 0.0 0.0 0.0 0.0 0.0 9.981973636990765e-07 -5.258967243140429e-07 1.144916897842466e-06 -1.8103060651539406e-15 1.8116749963477897e-08 4.307094529482934e-08 0.2951500000000001 -0.11235000004997345 0.4808999999601586 -1.2091995763071837 1.2091995763071837 -1.209199576059172 0.0 0.0 0.0 0.0 0.0 0.0
469.168 1.1058862159352145e-17 -1.5707963267948966 -1.5707963267948966 0.0 1.5707963267948966 0.0 0.0 0.0 0.0 0.0 0.0 0.0 0.0 0.0 0.0 0.0 0.0 0.0 -1.6018983243994446e-26 0.4870342307692309 0.6867077006507593 0.06409467546754684 -8.567713817370151e-28 0.0 -2.1032924999364705e-25 6.394759450000002 6.3947594500000005 0.2913103000000004 -3.894025929994733e-27 0.0 1.1058862159352145e-17 -1.570796314870016 -1.570796314870016 0.0 1.5707963705062866 0.0 0.0 0.0 0.0 0.0 0.0 0.0 -1.6018983942199055e-26 0.48703423142433167 0.6867076754570007 0.064094677567482 -8.567714098795418e-28 0.0 -1.6018983942199055e-26 0.48703423142433167 0.6867076754570007 0.064094677567482 -8.567714098795418e-28 0.0 0.2951499950589256 -0.11234999647001062 0.4809000069994156 -1.2091995794109558 1.2091995265551612 -1.2091995551462715 0.0 0.0 0.0 0.0 0.0 0.0 9.981973636990765e-07 -5.258967243140429e-07 1.144916897842466e-06 -1.8103060651539406e-15 1.8116749963477897e-08 4.307094529482934e-08 0.2951500000000001 -0.11235000004997345 0.4808999999601586 -1.2091995763071837 1.2091995763071837 -1.209199576059172 0.0 0.0 0.0 0.0 0.0 0.0
469.176 1.1058862159352145e-17 -1.5707963267948966 -1.5707963267948966 0.0 1.5707963267948966 0.0 0.0 0.0 0.0 0.0 0.0 0.0 0.0 0.0 0.0 0.0 0.0 0.0 -1.6018983243994446e-26 0.4870342307692309 0.6867077006507593 0.06409467546754684 -8.567713817370151e-28 0.0 -2.1032924999364705e-25 6.394759450000002 6.3947594500000005 0.2913103000000004 -3.894025929994733e-27 0.0 1.1058862159352145e-17 -1.570796314870016 -1.570796314870016 0.0 1.5707963705062866 0.0 0.0 0.0 0.0 0.0 0.0 0.0 -1.6018983942199055e-26 0.48703423142433167 0.6867076754570007 0.064094677567482 -8.567714098795418e-28 0.0 -1.6018983942199055e-26 0.48703423142433167 0.6867076754570007 0.064094677567482 -8.567714098795418e-28 0.0 0.2951499950589256 -0.11234999647001062 0.4809000069994156 -1.2091995794109558 1.2091995265551612 -1.2091995551462715 0.0 0.0 0.0 0.0 0.0 0.0 9.981973636990765e-07 -5.258967243140429e-07 1.144916897842466e-06 -1.8103060651539406e-15 1.8116749963477897e-08 4.307094529482934e-08 0.2951500000000001 -0.11235000004997345 0.4808999999601586 -1.2091995763071837 1.2091995763071837 -1.209199576059172 0.0 0.0 0.0 0.0 0.0 0.0
469.18399999999997 1.1058862159352145e-17 -1.5707963267948966 -1.5707963267948966 0.0 1.5707963267948966 0.0 0.0 0.0 0.0 0.0 0.0 0.0 0.0 0.0 0.0 0.0 0.0 0.0 -1.6018983243994446e-26 0.4870342307692309 0.6867077006507593 0.06409467546754684 -8.567713817370151e-28 0.0 -2.1032924999364705e-25 6.394759450000002 6.3947594500000005 0.2913103000000004 -3.894025929994733e-27 0.0 1.1058862159352145e-17 -1.570796314870016 -1.570796314870016 0.0 1.5707963705062866 0.0 0.0 0.0 0.0 0.0 0.0 0.0 -1.6018983942199055e-26 0.48703423142433167 0.6867076754570007 0.064094677567482 -8.567714098795418e-28 0.0 -1.6018983942199055e-26 0.48703423142433167 0.6867076754570007 0.064094677567482 -8.567714098795418e-28 0.0 0.2951499950589256 -0.11234999647001062 0.4809000069994156 -1.2091995794109558 1.2091995265551612 -1.2091995551462715 0.0 0.0 0.0 0.0 0.0 0.0 9.981973636990765e-07 -5.258967243140429e-07 1.144916897842466e-06 -1.8103060651539406e-15 1.8116749963477897e-08 4.307094529482934e-08 0.2951500000000001 -0.11235000004997345 0.4808999999601586 -1.2091995763071837 1.2091995763071837 -1.209199576059172 0.0 0.0 0.0 0.0 0.0 0.0
469.19199999999995 1.1058862159352145e-17 -1.5707963267948966 -1.5707963267948966 0.0 1.5707963267948966 0.0 0.0 0.0 0.0 0.0 0.0 0.0 0.0 0.0 0.0 0.0 0.0 0.0 -1.6018983243994446e-26 0.4870342307692309 0.6867077006507593 0.06409467546754684 -8.567713817370151e-28 0.0 -2.1032924999364705e-25 6.394759450000002 6.3947594500000005 0.2913103000000004 -3.894025929994733e-27 0.0 1.1058862159352145e-17 -1.570796314870016 -1.570796314870016 0.0 1.5707963705062866 0.0 0.0 0.0 0.0 0.0 0.0 0.0 -1.6018983942199055e-26 0.48703423142433167 0.6867076754570007 0.064094677567482 -8.567714098795418e-28 0.0 -1.6018983942199055e-26 0.48703423142433167 0.6867076754570007 0.064094677567482 -8.567714098795418e-28 0.0 0.2951499950589256 -0.11234999647001062 0.4809000069994156 -1.2091995794109558 1.2091995265551612 -1.2091995551462715 0.0 0.0 0.0 0.0 0.0 0.0 9.981973636990765e-07 -5.258967243140429e-07 1.144916897842466e-06 -1.8103060651539406e-15 1.8116749963477897e-08 4.307094529482934e-08 0.2951500000000001 -0.11235000004997345 0.4808999999601586 -1.2091995763071837 1.2091995763071837 -1.209199576059172 0.0 0.0 0.0 0.0 0.0 0.0
469.2 1.1058862159352145e-17 -1.5707963267948966 -1.5707963267948966 0.0 1.5707963267948966 0.0 0.0 0.0 0.0 0.0 0.0 0.0 0.0 0.0 0.0 0.0 0.0 0.0 -1.6018983243994446e-26 0.4870342307692309 0.6867077006507593 0.06409467546754684 -8.567713817370151e-28 0.0 -2.1032924999364705e-25 6.394759450000002 6.3947594500000005 0.2913103000000004 -3.894025929994733e-27 0.0 1.1058862159352145e-17 -1.570796314870016 -1.570796314870016 0.0 1.5707963705062866 0.0 0.0 0.0 0.0 0.0 0.0 0.0 -1.6018983942199055e-26 0.48703423142433167 0.6867076754570007 0.064094677567482 -8.567714098795418e-28 0.0 -1.6018983942199055e-26 0.48703423142433167 0.6867076754570007 0.064094677567482 -8.567714098795418e-28 0.0 0.2951499950589256 -0.11234999647001062 0.4809000069994156 -1.2091995794109558 1.2091995265551612 -1.2091995551462715 0.0 0.0 0.0 0.0 0.0 0.0 9.981973636990765e-07 -5.258967243140429e-07 1.144916897842466e-06 -1.8103060651539406e-15 1.8116749963477897e-08 4.307094529482934e-08 0.2951500000000001 -0.11235000004997345 0.4808999999601586 -1.2091995763071837 1.2091995763071837 -1.209199576059172 0.0 0.0 0.0 0.0 0.0 0.0
469.20799999999997 1.1058862159352145e-17 -1.5707963267948966 -1.5707963267948966 0.0 1.5707963267948966 0.0 0.0 0.0 0.0 0.0 0.0 0.0 0.0 0.0 0.0 0.0 0.0 0.0 -1.6018983243994446e-26 0.4870342307692309 0.6867077006507593 0.06409467546754684 -8.567713817370151e-28 0.0 -2.1032924999364705e-25 6.394759450000002 6.3947594500000005 0.2913103000000004 -3.894025929994733e-27 0.0 1.1058862159352145e-17 -1.570796314870016 -1.570796314870016 0.0 1.5707963705062866 0.0 0.0 0.0 0.0 0.0 0.0 0.0 -1.6018983942199055e-26 0.48703423142433167 0.6867076754570007 0.064094677567482 -8.567714098795418e-28 0.0 -1.6018983942199055e-26 0.48703423142433167 0.6867076754570007 0.064094677567482 -8.567714098795418e-28 0.0 0.2951499950589256 -0.11234999647001062 0.4809000069994156 -1.2091995794109558 1.2091995265551612 -1.2091995551462715 0.0 0.0 0.0 0.0 0.0 0.0 9.981973636990765e-07 -5.258967243140429e-07 1.144916897842466e-06 -1.8103060651539406e-15 1.8116749963477897e-08 4.307094529482934e-08 0.2951500000000001 -0.11235000004997345 0.4808999999601586 -1.2091995763071837 1.2091995763071837 -1.209199576059172 0.0 0.0 0.0 0.0 0.0 0.0
469.21599999999995 1.1058862159352145e-17 -1.5707963267948966 -1.5707963267948966 0.0 1.5707963267948966 0.0 0.0 0.0 0.0 0.0 0.0 0.0 0.0 0.0 0.0 0.0 0.0 0.0 -1.6018983243994446e-26 0.4870342307692309 0.6867077006507593 0.06409467546754684 -8.567713817370151e-28 0.0 -2.1032924999364705e-25 6.394759450000002 6.3947594500000005 0.2913103000000004 -3.894025929994733e-27 0.0 1.1058862159352145e-17 -1.570796314870016 -1.570796314870016 0.0 1.5707963705062866 0.0 0.0 0.0 0.0 0.0 0.0 0.0 -1.6018983942199055e-26 0.48703423142433167 0.6867076754570007 0.064094677567482 -8.567714098795418e-28 0.0 -1.6018983942199055e-26 0.48703423142433167 0.6867076754570007 0.064094677567482 -8.567714098795418e-28 0.0 0.2951499950589256 -0.11234999647001062 0.4809000069994156 -1.2091995794109558 1.2091995265551612 -1.2091995551462715 0.0 0.0 0.0 0.0 0.0 0.0 9.981973636990765e-07 -5.258967243140429e-07 1.144916897842466e-06 -1.8103060651539406e-15 1.8116749963477897e-08 4.307094529482934e-08 0.2951500000000001 -0.11235000004997345 0.4808999999601586 -1.2091995763071837 1.2091995763071837 -1.209199576059172 0.0 0.0 0.0 0.0 0.0 0.0
469.224 1.1058862159352145e-17 -1.5707963267948966 -1.5707963267948966 0.0 1.5707963267948966 0.0 0.0 0.0 0.0 0.0 0.0 0.0 0.0 0.0 0.0 0.0 0.0 0.0 -1.6018983243994446e-26 0.4870342307692309 0.6867077006507593 0.06409467546754684 -8.567713817370151e-28 0.0 -2.1032924999364705e-25 6.394759450000002 6.3947594500000005 0.2913103000000004 -3.894025929994733e-27 0.0 1.1058862159352145e-17 -1.570796314870016 -1.570796314870016 0.0 1.5707963705062866 0.0 0.0 0.0 0.0 0.0 0.0 0.0 -1.6018983942199055e-26 0.48703423142433167 0.6867076754570007 0.064094677567482 -8.567714098795418e-28 0.0 -1.6018983942199055e-26 0.48703423142433167 0.6867076754570007 0.064094677567482 -8.567714098795418e-28 0.0 0.2951499950589256 -0.11234999647001062 0.4809000069994156 -1.2091995794109558 1.2091995265551612 -1.2091995551462715 0.0 0.0 0.0 0.0 0.0 0.0 9.981973636990765e-07 -5.258967243140429e-07 1.144916897842466e-06 -1.8103060651539406e-15 1.8116749963477897e-08 4.307094529482934e-08 0.2951500000000001 -0.11235000004997345 0.4808999999601586 -1.2091995763071837 1.2091995763071837 -1.209199576059172 0.0 0.0 0.0 0.0 0.0 0.0
469.23199999999997 1.1058862159352145e-17 -1.5707963267948966 -1.5707963267948966 0.0 1.5707963267948966 0.0 0.0 0.0 0.0 0.0 0.0 0.0 0.0 0.0 0.0 0.0 0.0 0.0 -1.6018983243994446e-26 0.4870342307692309 0.6867077006507593 0.06409467546754684 -8.567713817370151e-28 0.0 -2.1032924999364705e-25 6.394759450000002 6.3947594500000005 0.2913103000000004 -3.894025929994733e-27 0.0 1.1058862159352145e-17 -1.570796314870016 -1.570796314870016 0.0 1.5707963705062866 0.0 0.0 0.0 0.0 0.0 0.0 0.0 -1.6018983942199055e-26 0.48703423142433167 0.6867076754570007 0.064094677567482 -8.567714098795418e-28 0.0 -1.6018983942199055e-26 0.48703423142433167 0.6867076754570007 0.064094677567482 -8.567714098795418e-28 0.0 0.2951499950589256 -0.11234999647001062 0.4809000069994156 -1.2091995794109558 1.2091995265551612 -1.2091995551462715 0.0 0.0 0.0 0.0 0.0 0.0 9.981973636990765e-07 -5.258967243140429e-07 1.144916897842466e-06 -1.8103060651539406e-15 1.8116749963477897e-08 4.307094529482934e-08 0.2951500000000001 -0.11235000004997345 0.4808999999601586 -1.2091995763071837 1.2091995763071837 -1.209199576059172 0.0 0.0 0.0 0.0 0.0 0.0
469.23999999999995 1.1058862159352145e-17 -1.5707963267948966 -1.5707963267948966 0.0 1.5707963267948966 0.0 0.0 0.0 0.0 0.0 0.0 0.0 0.0 0.0 0.0 0.0 0.0 0.0 -1.6018983243994446e-26 0.4870342307692309 0.6867077006507593 0.06409467546754684 -8.567713817370151e-28 0.0 -2.1032924999364705e-25 6.394759450000002 6.3947594500000005 0.2913103000000004 -3.894025929994733e-27 0.0 1.1058862159352145e-17 -1.570796314870016 -1.570796314870016 0.0 1.5707963705062866 0.0 0.0 0.0 0.0 0.0 0.0 0.0 -1.6018983942199055e-26 0.48703423142433167 0.6867076754570007 0.064094677567482 -8.567714098795418e-28 0.0 -1.6018983942199055e-26 0.48703423142433167 0.6867076754570007 0.064094677567482 -8.567714098795418e-28 0.0 0.2951499950589256 -0.11234999647001062 0.4809000069994156 -1.2091995794109558 1.2091995265551612 -1.2091995551462715 0.0 0.0 0.0 0.0 0.0 0.0 9.981973636990765e-07 -5.258967243140429e-07 1.144916897842466e-06 -1.8103060651539406e-15 1.8116749963477897e-08 4.307094529482934e-08 0.2951500000000001 -0.11235000004997345 0.4808999999601586 -1.2091995763071837 1.2091995763071837 -1.209199576059172 0.0 0.0 0.0 0.0 0.0 0.0
469.248 1.1058862159352145e-17 -1.5707963267948966 -1.5707963267948966 0.0 1.5707963267948966 0.0 0.0 0.0 0.0 0.0 0.0 0.0 0.0 0.0 0.0 0.0 0.0 0.0 -1.6018983243994446e-26 0.4870342307692309 0.6867077006507593 0.06409467546754684 -8.567713817370151e-28 0.0 -2.1032924999364705e-25 6.394759450000002 6.3947594500000005 0.2913103000000004 -3.894025929994733e-27 0.0 1.1058862159352145e-17 -1.570796314870016 -1.570796314870016 0.0 1.5707963705062866 0.0 0.0 0.0 0.0 0.0 0.0 0.0 -1.6018983942199055e-26 0.48703423142433167 0.6867076754570007 0.064094677567482 -8.567714098795418e-28 0.0 -1.6018983942199055e-26 0.48703423142433167 0.6867076754570007 0.064094677567482 -8.567714098795418e-28 0.0 0.2951499950589256 -0.11234999647001062 0.4809000069994156 -1.2091995794109558 1.2091995265551612 -1.2091995551462715 0.0 0.0 0.0 0.0 0.0 0.0 9.981973636990765e-07 -5.258967243140429e-07 1.144916897842466e-06 -1.8103060651539406e-15 1.8116749963477897e-08 4.307094529482934e-08 0.2951500000000001 -0.11235000004997345 0.4808999999601586 -1.2091995763071837 1.2091995763071837 -1.209199576059172 0.0 0.0 0.0 0.0 0.0 0.0
469.256 1.1058862159352145e-17 -1.5707963267948966 -1.5707963267948966 0.0 1.5707963267948966 0.0 0.0 0.0 0.0 0.0 0.0 0.0 0.0 0.0 0.0 0.0 0.0 0.0 -1.6018983243994446e-26 0.4870342307692309 0.6867077006507593 0.06409467546754684 -8.567713817370151e-28 0.0 -2.1032924999364705e-25 6.394759450000002 6.3947594500000005 0.2913103000000004 -3.894025929994733e-27 0.0 1.1058862159352145e-17 -1.570796314870016 -1.570796314870016 0.0 1.5707963705062866 0.0 0.0 0.0 0.0 0.0 0.0 0.0 -1.6018983942199055e-26 0.48703423142433167 0.6867076754570007 0.064094677567482 -8.567714098795418e-28 0.0 -1.6018983942199055e-26 0.48703423142433167 0.6867076754570007 0.064094677567482 -8.567714098795418e-28 0.0 0.2951499950589256 -0.11234999647001062 0.4809000069994156 -1.2091995794109558 1.2091995265551612 -1.2091995551462715 0.0 0.0 0.0 0.0 0.0 0.0 9.981973636990765e-07 -5.258967243140429e-07 1.144916897842466e-06 -1.8103060651539406e-15 1.8116749963477897e-08 4.307094529482934e-08 0.2951500000000001 -0.11235000004997345 0.4808999999601586 -1.2091995763071837 1.2091995763071837 -1.209199576059172 0.0 0.0 0.0 0.0 0.0 0.0
469.26399999999995 1.1058862159352145e-17 -1.5707963267948966 -1.5707963267948966 0.0 1.5707963267948966 0.0 0.0 0.0 0.0 0.0 0.0 0.0 0.0 0.0 0.0 0.0 0.0 0.0 -1.6018983243994446e-26 0.4870342307692309 0.6867077006507593 0.06409467546754684 -8.567713817370151e-28 0.0 -2.1032924999364705e-25 6.394759450000002 6.3947594500000005 0.2913103000000004 -3.894025929994733e-27 0.0 1.1058862159352145e-17 -1.570796314870016 -1.570796314870016 0.0 1.5707963705062866 0.0 0.0 0.0 0.0 0.0 0.0 0.0 -1.6018983942199055e-26 0.48703423142433167 0.6867076754570007 0.064094677567482 -8.567714098795418e-28 0.0 -1.6018983942199055e-26 0.48703423142433167 0.6867076754570007 0.064094677567482 -8.567714098795418e-28 0.0 0.2951499950589256 -0.11234999647001062 0.4809000069994156 -1.2091995794109558 1.2091995265551612 -1.2091995551462715 0.0 0.0 0.0 0.0 0.0 0.0 9.981973636990765e-07 -5.258967243140429e-07 1.144916897842466e-06 -1.8103060651539406e-15 1.8116749963477897e-08 4.307094529482934e-08 0.2951500000000001 -0.11235000004997345 0.4808999999601586 -1.2091995763071837 1.2091995763071837 -1.209199576059172 0.0 0.0 0.0 0.0 0.0 0.0
469.272 1.1058862159352145e-17 -1.5707963267948966 -1.5707963267948966 0.0 1.5707963267948966 0.0 0.0 0.0 0.0 0.0 0.0 0.0 0.0 0.0 0.0 0.0 0.0 0.0 -1.6018983243994446e-26 0.4870342307692309 0.6867077006507593 0.06409467546754684 -8.567713817370151e-28 0.0 -2.1032924999364705e-25 6.394759450000002 6.3947594500000005 0.2913103000000004 -3.894025929994733e-27 0.0 1.1058862159352145e-17 -1.570796314870016 -1.570796314870016 0.0 1.5707963705062866 0.0 0.0 0.0 0.0 0.0 0.0 0.0 -1.6018983942199055e-26 0.48703423142433167 0.6867076754570007 0.064094677567482 -8.567714098795418e-28 0.0 -1.6018983942199055e-26 0.48703423142433167 0.6867076754570007 0.064094677567482 -8.567714098795418e-28 0.0 0.2951499950589256 -0.11234999647001062 0.4809000069994156 -1.2091995794109558 1.2091995265551612 -1.2091995551462715 0.0 0.0 0.0 0.0 0.0 0.0 9.981973636990765e-07 -5.258967243140429e-07 1.144916897842466e-06 -1.8103060651539406e-15 1.8116749963477897e-08 4.307094529482934e-08 0.2951500000000001 -0.11235000004997345 0.4808999999601586 -1.2091995763071837 1.2091995763071837 -1.209199576059172 0.0 0.0 0.0 0.0 0.0 0.0
469.28 1.1058862159352145e-17 -1.5707963267948966 -1.5707963267948966 0.0 1.5707963267948966 0.0 0.0 0.0 0.0 0.0 0.0 0.0 0.0 0.0 0.0 0.0 0.0 0.0 -1.6018983243994446e-26 0.4870342307692309 0.6867077006507593 0.06409467546754684 -8.567713817370151e-28 0.0 -2.1032924999364705e-25 6.394759450000002 6.3947594500000005 0.2913103000000004 -3.894025929994733e-27 0.0 1.1058862159352145e-17 -1.570796314870016 -1.570796314870016 0.0 1.5707963705062866 0.0 0.0 0.0 0.0 0.0 0.0 0.0 -1.6018983942199055e-26 0.48703423142433167 0.6867076754570007 0.064094677567482 -8.567714098795418e-28 0.0 -1.6018983942199055e-26 0.48703423142433167 0.6867076754570007 0.064094677567482 -8.567714098795418e-28 0.0 0.2951499950589256 -0.11234999647001062 0.4809000069994156 -1.2091995794109558 1.2091995265551612 -1.2091995551462715 0.0 0.0 0.0 0.0 0.0 0.0 9.981973636990765e-07 -5.258967243140429e-07 1.144916897842466e-06 -1.8103060651539406e-15 1.8116749963477897e-08 4.307094529482934e-08 0.2951500000000001 -0.11235000004997345 0.4808999999601586 -1.2091995763071837 1.2091995763071837 -1.209199576059172 0.0 0.0 0.0 0.0 0.0 0.0
469.28799999999995 1.1058862159352145e-17 -1.5707963267948966 -1.5707963267948966 0.0 1.5707963267948966 0.0 0.0 0.0 0.0 0.0 0.0 0.0 0.0 0.0 0.0 0.0 0.0 0.0 -1.6018983243994446e-26 0.4870342307692309 0.6867077006507593 0.06409467546754684 -8.567713817370151e-28 0.0 -2.1032924999364705e-25 6.394759450000002 6.3947594500000005 0.2913103000000004 -3.894025929994733e-27 0.0 1.1058862159352145e-17 -1.570796314870016 -1.570796314870016 0.0 1.5707963705062866 0.0 0.0 0.0 0.0 0.0 0.0 0.0 -1.6018983942199055e-26 0.48703423142433167 0.6867076754570007 0.064094677567482 -8.567714098795418e-28 0.0 -1.6018983942199055e-26 0.48703423142433167 0.6867076754570007 0.064094677567482 -8.567714098795418e-28 0.0 0.2951499950589256 -0.11234999647001062 0.4809000069994156 -1.2091995794109558 1.2091995265551612 -1.2091995551462715 0.0 0.0 0.0 0.0 0.0 0.0 9.981973636990765e-07 -5.258967243140429e-07 1.144916897842466e-06 -1.8103060651539406e-15 1.8116749963477897e-08 4.307094529482934e-08 0.2951500000000001 -0.11235000004997345 0.4808999999601586 -1.2091995763071837 1.2091995763071837 -1.209199576059172 0.0 0.0 0.0 0.0 0.0 0.0
469.296 1.1058862159352145e-17 -1.5707963267948966 -1.5707963267948966 0.0 1.5707963267948966 0.0 0.0 0.0 0.0 0.0 0.0 0.0 0.0 0.0 0.0 0.0 0.0 0.0 -1.6018983243994446e-26 0.4870342307692309 0.6867077006507593 0.06409467546754684 -8.567713817370151e-28 0.0 -2.1032924999364705e-25 6.394759450000002 6.3947594500000005 0.2913103000000004 -3.894025929994733e-27 0.0 1.1058862159352145e-17 -1.570796314870016 -1.570796314870016 0.0 1.5707963705062866 0.0 0.0 0.0 0.0 0.0 0.0 0.0 -1.6018983942199055e-26 0.48703423142433167 0.6867076754570007 0.064094677567482 -8.567714098795418e-28 0.0 -1.6018983942199055e-26 0.48703423142433167 0.6867076754570007 0.064094677567482 -8.567714098795418e-28 0.0 0.2951499950589256 -0.11234999647001062 0.4809000069994156 -1.2091995794109558 1.2091995265551612 -1.2091995551462715 0.0 0.0 0.0 0.0 0.0 0.0 9.981973636990765e-07 -5.258967243140429e-07 1.144916897842466e-06 -1.8103060651539406e-15 1.8116749963477897e-08 4.307094529482934e-08 0.2951500000000001 -0.11235000004997345 0.4808999999601586 -1.2091995763071837 1.2091995763071837 -1.209199576059172 0.0 0.0 0.0 0.0 0.0 0.0
469.304 1.1058862159352145e-17 -1.5707963267948966 -1.5707963267948966 0.0 1.5707963267948966 0.0 0.0 0.0 0.0 0.0 0.0 0.0 0.0 0.0 0.0 0.0 0.0 0.0 -1.6018983243994446e-26 0.4870342307692309 0.6867077006507593 0.06409467546754684 -8.567713817370151e-28 0.0 -2.1032924999364705e-25 6.394759450000002 6.3947594500000005 0.2913103000000004 -3.894025929994733e-27 0.0 1.1058862159352145e-17 -1.570796314870016 -1.570796314870016 0.0 1.5707963705062866 0.0 0.0 0.0 0.0 0.0 0.0 0.0 -1.6018983942199055e-26 0.48703423142433167 0.6867076754570007 0.064094677567482 -8.567714098795418e-28 0.0 -1.6018983942199055e-26 0.48703423142433167 0.6867076754570007 0.064094677567482 -8.567714098795418e-28 0.0 0.2951499950589256 -0.11234999647001062 0.4809000069994156 -1.2091995794109558 1.2091995265551612 -1.2091995551462715 0.0 0.0 0.0 0.0 0.0 0.0 9.981973636990765e-07 -5.258967243140429e-07 1.144916897842466e-06 -1.8103060651539406e-15 1.8116749963477897e-08 4.307094529482934e-08 0.2951500000000001 -0.11235000004997345 0.4808999999601586 -1.2091995763071837 1.2091995763071837 -1.209199576059172 0.0 0.0 0.0 0.0 0.0 0.0
469.31199999999995 1.1058862159352145e-17 -1.5707963267948966 -1.5707963267948966 0.0 1.5707963267948966 0.0 0.0 0.0 0.0 0.0 0.0 0.0 0.0 0.0 0.0 0.0 0.0 0.0 -1.6018983243994446e-26 0.4870342307692309 0.6867077006507593 0.06409467546754684 -8.567713817370151e-28 0.0 -2.1032924999364705e-25 6.394759450000002 6.3947594500000005 0.2913103000000004 -3.894025929994733e-27 0.0 1.1058862159352145e-17 -1.570796314870016 -1.570796314870016 0.0 1.5707963705062866 0.0 0.0 0.0 0.0 0.0 0.0 0.0 -1.6018983942199055e-26 0.48703423142433167 0.6867076754570007 0.064094677567482 -8.567714098795418e-28 0.0 -1.6018983942199055e-26 0.48703423142433167 0.6867076754570007 0.064094677567482 -8.567714098795418e-28 0.0 0.2951499950589256 -0.11234999647001062 0.4809000069994156 -1.2091995794109558 1.2091995265551612 -1.2091995551462715 0.0 0.0 0.0 0.0 0.0 0.0 9.981973636990765e-07 -5.258967243140429e-07 1.144916897842466e-06 -1.8103060651539406e-15 1.8116749963477897e-08 4.307094529482934e-08 0.2951500000000001 -0.11235000004997345 0.4808999999601586 -1.2091995763071837 1.2091995763071837 -1.209199576059172 0.0 0.0 0.0 0.0 0.0 0.0
469.32 1.1058862159352145e-17 -1.5707963267948966 -1.5707963267948966 0.0 1.5707963267948966 0.0 0.0 0.0 0.0 0.0 0.0 0.0 0.0 0.0 0.0 0.0 0.0 0.0 -1.6018983243994446e-26 0.4870342307692309 0.6867077006507593 0.06409467546754684 -8.567713817370151e-28 0.0 -2.1032924999364705e-25 6.394759450000002 6.3947594500000005 0.2913103000000004 -3.894025929994733e-27 0.0 1.1058862159352145e-17 -1.570796314870016 -1.570796314870016 0.0 1.5707963705062866 0.0 0.0 0.0 0.0 0.0 0.0 0.0 -1.6018983942199055e-26 0.48703423142433167 0.6867076754570007 0.064094677567482 -8.567714098795418e-28 0.0 -1.6018983942199055e-26 0.48703423142433167 0.6867076754570007 0.064094677567482 -8.567714098795418e-28 0.0 0.2951499950589256 -0.11234999647001062 0.4809000069994156 -1.2091995794109558 1.2091995265551612 -1.2091995551462715 0.0 0.0 0.0 0.0 0.0 0.0 9.981973636990765e-07 -5.258967243140429e-07 1.144916897842466e-06 -1.8103060651539406e-15 1.8116749963477897e-08 4.307094529482934e-08 0.2951500000000001 -0.11235000004997345 0.4808999999601586 -1.2091995763071837 1.2091995763071837 -1.209199576059172 0.0 0.0 0.0 0.0 0.0 0.0
469.328 1.1058862159352145e-17 -1.5707963267948966 -1.5707963267948966 0.0 1.5707963267948966 0.0 0.0 0.0 0.0 0.0 0.0 0.0 0.0 0.0 0.0 0.0 0.0 0.0 -1.6018983243994446e-26 0.4870342307692309 0.6867077006507593 0.06409467546754684 -8.567713817370151e-28 0.0 -2.1032924999364705e-25 6.394759450000002 6.3947594500000005 0.2913103000000004 -3.894025929994733e-27 0.0 1.1058862159352145e-17 -1.570796314870016 -1.570796314870016 0.0 1.5707963705062866 0.0 0.0 0.0 0.0 0.0 0.0 0.0 -1.6018983942199055e-26 0.48703423142433167 0.6867076754570007 0.064094677567482 -8.567714098795418e-28 0.0 -1.6018983942199055e-26 0.48703423142433167 0.6867076754570007 0.064094677567482 -8.567714098795418e-28 0.0 0.2951499950589256 -0.11234999647001062 0.4809000069994156 -1.2091995794109558 1.2091995265551612 -1.2091995551462715 0.0 0.0 0.0 0.0 0.0 0.0 9.981973636990765e-07 -5.258967243140429e-07 1.144916897842466e-06 -1.8103060651539406e-15 1.8116749963477897e-08 4.307094529482934e-08 0.2951500000000001 -0.11235000004997345 0.4808999999601586 -1.2091995763071837 1.2091995763071837 -1.209199576059172 0.0 0.0 0.0 0.0 0.0 0.0
469.33599999999996 1.1058862159352145e-17 -1.5707963267948966 -1.5707963267948966 0.0 1.5707963267948966 0.0 0.0 0.0 0.0 0.0 0.0 0.0 0.0 0.0 0.0 0.0 0.0 0.0 -1.6018983243994446e-26 0.4870342307692309 0.6867077006507593 0.06409467546754684 -8.567713817370151e-28 0.0 -2.1032924999364705e-25 6.394759450000002 6.3947594500000005 0.2913103000000004 -3.894025929994733e-27 0.0 1.1058862159352145e-17 -1.570796314870016 -1.570796314870016 0.0 1.5707963705062866 0.0 0.0 0.0 0.0 0.0 0.0 0.0 -1.6018983942199055e-26 0.48703423142433167 0.6867076754570007 0.064094677567482 -8.567714098795418e-28 0.0 -1.6018983942199055e-26 0.48703423142433167 0.6867076754570007 0.064094677567482 -8.567714098795418e-28 0.0 0.2951499950589256 -0.11234999647001062 0.4809000069994156 -1.2091995794109558 1.2091995265551612 -1.2091995551462715 0.0 0.0 0.0 0.0 0.0 0.0 9.981973636990765e-07 -5.258967243140429e-07 1.144916897842466e-06 -1.8103060651539406e-15 1.8116749963477897e-08 4.307094529482934e-08 0.2951500000000001 -0.11235000004997345 0.4808999999601586 -1.2091995763071837 1.2091995763071837 -1.209199576059172 0.0 0.0 0.0 0.0 0.0 0.0
469.344 1.1058862159352145e-17 -1.5707963267948966 -1.5707963267948966 0.0 1.5707963267948966 0.0 0.0 0.0 0.0 0.0 0.0 0.0 0.0 0.0 0.0 0.0 0.0 0.0 -1.6018983243994446e-26 0.4870342307692309 0.6867077006507593 0.06409467546754684 -8.567713817370151e-28 0.0 -2.1032924999364705e-25 6.394759450000002 6.3947594500000005 0.2913103000000004 -3.894025929994733e-27 0.0 1.1058862159352145e-17 -1.570796314870016 -1.570796314870016 0.0 1.5707963705062866 0.0 0.0 0.0 0.0 0.0 0.0 0.0 -1.6018983942199055e-26 0.48703423142433167 0.6867076754570007 0.064094677567482 -8.567714098795418e-28 0.0 -1.6018983942199055e-26 0.48703423142433167 0.6867076754570007 0.064094677567482 -8.567714098795418e-28 0.0 0.2951499950589256 -0.11234999647001062 0.4809000069994156 -1.2091995794109558 1.2091995265551612 -1.2091995551462715 0.0 0.0 0.0 0.0 0.0 0.0 9.981973636990765e-07 -5.258967243140429e-07 1.144916897842466e-06 -1.8103060651539406e-15 1.8116749963477897e-08 4.307094529482934e-08 0.2951500000000001 -0.11235000004997345 0.4808999999601586 -1.2091995763071837 1.2091995763071837 -1.209199576059172 0.0 0.0 0.0 0.0 0.0 0.0
469.352 1.1058862159352145e-17 -1.5707963267948966 -1.5707963267948966 0.0 1.5707963267948966 0.0 0.0 0.0 0.0 0.0 0.0 0.0 0.0 0.0 0.0 0.0 0.0 0.0 -1.6018983243994446e-26 0.4870342307692309 0.6867077006507593 0.06409467546754684 -8.567713817370151e-28 0.0 -2.1032924999364705e-25 6.394759450000002 6.3947594500000005 0.2913103000000004 -3.894025929994733e-27 0.0 1.1058862159352145e-17 -1.570796314870016 -1.570796314870016 0.0 1.5707963705062866 0.0 0.0 0.0 0.0 0.0 0.0 0.0 -1.6018983942199055e-26 0.48703423142433167 0.6867076754570007 0.064094677567482 -8.567714098795418e-28 0.0 -1.6018983942199055e-26 0.48703423142433167 0.6867076754570007 0.064094677567482 -8.567714098795418e-28 0.0 0.2951499950589256 -0.11234999647001062 0.4809000069994156 -1.2091995794109558 1.2091995265551612 -1.2091995551462715 0.0 0.0 0.0 0.0 0.0 0.0 9.981973636990765e-07 -5.258967243140429e-07 1.144916897842466e-06 -1.8103060651539406e-15 1.8116749963477897e-08 4.307094529482934e-08 0.2951500000000001 -0.11235000004997345 0.4808999999601586 -1.2091995763071837 1.2091995763071837 -1.209199576059172 0.0 0.0 0.0 0.0 0.0 0.0
469.35999999999996 1.1058862159352145e-17 -1.5707963267948966 -1.5707963267948966 0.0 1.5707963267948966 0.0 0.0 0.0 0.0 0.0 0.0 0.0 0.0 0.0 0.0 0.0 0.0 0.0 -1.6018983243994446e-26 0.4870342307692309 0.6867077006507593 0.06409467546754684 -8.567713817370151e-28 0.0 -2.1032924999364705e-25 6.394759450000002 6.3947594500000005 0.2913103000000004 -3.894025929994733e-27 0.0 1.1058862159352145e-17 -1.570796314870016 -1.570796314870016 0.0 1.5707963705062866 0.0 0.0 0.0 0.0 0.0 0.0 0.0 -1.6018983942199055e-26 0.48703423142433167 0.6867076754570007 0.064094677567482 -8.567714098795418e-28 0.0 -1.6018983942199055e-26 0.48703423142433167 0.6867076754570007 0.064094677567482 -8.567714098795418e-28 0.0 0.2951499950589256 -0.11234999647001062 0.4809000069994156 -1.2091995794109558 1.2091995265551612 -1.2091995551462715 0.0 0.0 0.0 0.0 0.0 0.0 9.981973636990765e-07 -5.258967243140429e-07 1.144916897842466e-06 -1.8103060651539406e-15 1.8116749963477897e-08 4.307094529482934e-08 0.2951500000000001 -0.11235000004997345 0.4808999999601586 -1.2091995763071837 1.2091995763071837 -1.209199576059172 0.0 0.0 0.0 0.0 0.0 0.0
469.368 1.1058862159352145e-17 -1.5707963267948966 -1.5707963267948966 0.0 1.5707963267948966 0.0 0.0 0.0 0.0 0.0 0.0 0.0 0.0 0.0 0.0 0.0 0.0 0.0 -1.6018983243994446e-26 0.4870342307692309 0.6867077006507593 0.06409467546754684 -8.567713817370151e-28 0.0 -2.1032924999364705e-25 6.394759450000002 6.3947594500000005 0.2913103000000004 -3.894025929994733e-27 0.0 1.1058862159352145e-17 -1.570796314870016 -1.570796314870016 0.0 1.5707963705062866 0.0 0.0 0.0 0.0 0.0 0.0 0.0 -1.6018983942199055e-26 0.48703423142433167 0.6867076754570007 0.064094677567482 -8.567714098795418e-28 0.0 -1.6018983942199055e-26 0.48703423142433167 0.6867076754570007 0.064094677567482 -8.567714098795418e-28 0.0 0.2951499950589256 -0.11234999647001062 0.4809000069994156 -1.2091995794109558 1.2091995265551612 -1.2091995551462715 0.0 0.0 0.0 0.0 0.0 0.0 9.981973636990765e-07 -5.258967243140429e-07 1.144916897842466e-06 -1.8103060651539406e-15 1.8116749963477897e-08 4.307094529482934e-08 0.2951500000000001 -0.11235000004997345 0.4808999999601586 -1.2091995763071837 1.2091995763071837 -1.209199576059172 0.0 0.0 0.0 0.0 0.0 0.0
469.376 1.1058862159352145e-17 -1.5707963267948966 -1.5707963267948966 0.0 1.5707963267948966 0.0 0.0 0.0 0.0 0.0 0.0 0.0 0.0 0.0 0.0 0.0 0.0 0.0 -1.6018983243994446e-26 0.4870342307692309 0.6867077006507593 0.06409467546754684 -8.567713817370151e-28 0.0 -2.1032924999364705e-25 6.394759450000002 6.3947594500000005 0.2913103000000004 -3.894025929994733e-27 0.0 1.1058862159352145e-17 -1.570796314870016 -1.570796314870016 0.0 1.5707963705062866 0.0 0.0 0.0 0.0 0.0 0.0 0.0 -1.6018983942199055e-26 0.48703423142433167 0.6867076754570007 0.064094677567482 -8.567714098795418e-28 0.0 -1.6018983942199055e-26 0.48703423142433167 0.6867076754570007 0.064094677567482 -8.567714098795418e-28 0.0 0.2951499950589256 -0.11234999647001062 0.4809000069994156 -1.2091995794109558 1.2091995265551612 -1.2091995551462715 0.0 0.0 0.0 0.0 0.0 0.0 9.981973636990765e-07 -5.258967243140429e-07 1.144916897842466e-06 -1.8103060651539406e-15 1.8116749963477897e-08 4.307094529482934e-08 0.2951500000000001 -0.11235000004997345 0.4808999999601586 -1.2091995763071837 1.2091995763071837 -1.209199576059172 0.0 0.0 0.0 0.0 0.0 0.0
469.38399999999996 1.1058862159352145e-17 -1.5707963267948966 -1.5707963267948966 0.0 1.5707963267948966 0.0 0.0 0.0 0.0 0.0 0.0 0.0 0.0 0.0 0.0 0.0 0.0 0.0 -1.6018983243994446e-26 0.4870342307692309 0.6867077006507593 0.06409467546754684 -8.567713817370151e-28 0.0 -2.1032924999364705e-25 6.394759450000002 6.3947594500000005 0.2913103000000004 -3.894025929994733e-27 0.0 1.1058862159352145e-17 -1.570796314870016 -1.570796314870016 0.0 1.5707963705062866 0.0 0.0 0.0 0.0 0.0 0.0 0.0 -1.6018983942199055e-26 0.48703423142433167 0.6867076754570007 0.064094677567482 -8.567714098795418e-28 0.0 -1.6018983942199055e-26 0.48703423142433167 0.6867076754570007 0.064094677567482 -8.567714098795418e-28 0.0 0.2951499950589256 -0.11234999647001062 0.4809000069994156 -1.2091995794109558 1.2091995265551612 -1.2091995551462715 0.0 0.0 0.0 0.0 0.0 0.0 9.981973636990765e-07 -5.258967243140429e-07 1.144916897842466e-06 -1.8103060651539406e-15 1.8116749963477897e-08 4.307094529482934e-08 0.2951500000000001 -0.11235000004997345 0.4808999999601586 -1.2091995763071837 1.2091995763071837 -1.209199576059172 0.0 0.0 0.0 0.0 0.0 0.0
