Fleaurent/UniversalRobot/csv/robot_movel_x400_Singular.csv
timestamp target_q_0 target_q_1 target_q_2 target_q_3 target_q_4 target_q_5 target_qd_0 target_qd_1 target_qd_2 target_qd_3 target_qd_4 target_qd_5 target_qdd_0 target_qdd_1 target_qdd_2 target_qdd_3 target_qdd_4 target_qdd_5 target_current_0 target_current_1 target_current_2 target_current_3 target_current_4 target_current_5 target_moment_0 target_moment_1 target_moment_2 target_moment_3 target_moment_4 target_moment_5 actual_q_0 actual_q_1 actual_q_2 actual_q_3 actual_q_4 actual_q_5 actual_qd_0 actual_qd_1 actual_qd_2 actual_qd_3 actual_qd_4 actual_qd_5 actual_current_0 actual_current_1 actual_current_2 actual_current_3 actual_current_4 actual_current_5 joint_control_output_0 joint_control_output_1 joint_control_output_2 joint_control_output_3 joint_control_output_4 joint_control_output_5 actual_TCP_pose_0 actual_TCP_pose_1 actual_TCP_pose_2 actual_TCP_pose_3 actual_TCP_pose_4 actual_TCP_pose_5 actual_TCP_speed_0 actual_TCP_speed_1 actual_TCP_speed_2 actual_TCP_speed_3 actual_TCP_speed_4 actual_TCP_speed_5 actual_TCP_force_0 actual_TCP_force_1 actual_TCP_force_2 actual_TCP_force_3 actual_TCP_force_4 actual_TCP_force_5 target_TCP_pose_0 target_TCP_pose_1 target_TCP_pose_2 target_TCP_pose_3 target_TCP_pose_4 target_TCP_pose_5 target_TCP_speed_0 target_TCP_speed_1 target_TCP_speed_2 target_TCP_speed_3 target_TCP_speed_4 target_TCP_speed_5
6073.0 -0.5325564460622907 -1.5953254434050104 -1.9350577238206403 0.3889302926232486 2.1035145059768507 0.00019138080159031284 0.0 0.0 0.0 0.0 0.0 0.0 0.0 0.0 0.0 0.0 0.0 0.0 6.72935508242835e-19 0.4707330261765891 0.6334416680007949 0.05518100103746704 -4.550112770485138e-06 0.0 8.835643223228425e-18 6.180724633698615 5.898735500757002 0.2507976497152877 -2.0680262541854954e-05 0.0 -0.5325563589679163 -1.5953252951251429 -1.9350579420672815 0.3889302909374237 2.1035144329071045 0.00019138080824632198 0.0 0.0 0.0 0.0 0.0 0.0 6.729355199472286e-19 0.47073301672935486 0.633441686630249 0.055181000381708145 -4.550112862489186e-06 0.0 6.729355199472286e-19 0.47073301672935486 0.633441686630249 0.055181000381708145 -4.550112862489186e-06 0.0 0.19999998670079064 -0.1999999704610756 0.3999999820253386 -1.2090987476551505 1.2090487830418655 -1.2090486641472589 0.0 0.0 0.0 0.0 0.0 0.0 -7.151161838913478e-07 1.211182847524032e-06 -3.8993763322830386e-07 -2.065595982906687e-12 8.658785810185714e-08 -9.921333774252532e-08 0.19999999999999976 -0.2000000000000001 0.3999999999999999 -1.2090987223823195 1.2090487307044444 -1.2090487304564637 0.0 0.0 0.0 0.0 0.0 0.0
6073.008 -0.5325564460622907 -1.5953254434050104 -1.9350577238206403 0.3889302926232486 2.1035145059768507 0.00019138080159031284 0.0 0.0 0.0 0.0 0.0 0.0 0.0 0.0 0.0 0.0 0.0 0.0 6.72935508242835e-19 0.4707330261765891 0.6334416680007949 0.05518100103746704 -4.550112770485138e-06 0.0 8.835643223228425e-18 6.180724633698615 5.898735500757002 0.2507976497152877 -2.0680262541854954e-05 0.0 -0.5325563589679163 -1.5953252951251429 -1.9350579420672815 0.3889302909374237 2.1035144329071045 0.00019138080824632198 0.0 0.0 0.0 0.0 0.0 0.0 6.729355199472286e-19 0.47073301672935486 0.633441686630249 0.055181000381708145 -4.550112862489186e-06 0.0 6.729355199472286e-19 0.47073301672935486 0.633441686630249 0.055181000381708145 -4.550112862489186e-06 0.0 0.19999998670079064 -0.1999999704610756 0.3999999820253386 -1.2090987476551505 1.2090487830418655 -1.2090486641472589 0.0 0.0 0.0 0.0 0.0 0.0 -7.151161838913478e-07 1.211182847524032e-06 -3.8993763322830386e-07 -2.065595982906687e-12 8.658785810185714e-08 -9.921333774252532e-08 0.19999999999999976 -0.2000000000000001 0.3999999999999999 -1.2090987223823195 1.2090487307044444 -1.2090487304564637 0.0 0.0 0.0 0.0 0.0 0.0
6073.016 -0.5325564460622907 -1.5953254434050104 -1.9350577238206403 0.3889302926232486 2.1035145059768507 0.00019138080159031284 0.0 0.0 0.0 0.0 0.0 0.0 0.0 0.0 0.0 0.0 0.0 0.0 6.72935508242835e-19 0.4707330261765891 0.6334416680007949 0.05518100103746704 -4.550112770485138e-06 0.0 8.835643223228425e-18 6.180724633698615 5.898735500757002 0.2507976497152877 -2.0680262541854954e-05 0.0 -0.5325563589679163 -1.5953252951251429 -1.9350579420672815 0.3889302909374237 2.1035144329071045 0.00019138080824632198 0.0 0.0 0.0 0.0 0.0 0.0 6.729355199472286e-19 0.47073301672935486 0.633441686630249 0.055181000381708145 -4.550112862489186e-06 0.0 6.729355199472286e-19 0.47073301672935486 0.633441686630249 0.055181000381708145 -4.550112862489186e-06 0.0 0.19999998670079064 -0.1999999704610756 0.3999999820253386 -1.2090987476551505 1.2090487830418655 -1.2090486641472589 0.0 0.0 0.0 0.0 0.0 0.0 -7.151161838913478e-07 1.211182847524032e-06 -3.8993763322830386e-07 -2.065595982906687e-12 8.658785810185714e-08 -9.921333774252532e-08 0.19999999999999976 -0.2000000000000001 0.3999999999999999 -1.2090987223823195 1.2090487307044444 -1.2090487304564637 0.0 0.0 0.0 0.0 0.0 0.0
6073.023999999999 -0.5325564460622907 -1.5953254434050104 -1.9350577238206403 0.3889302926232486 2.1035145059768507 0.00019138080159031284 0.0 0.0 0.0 0.0 0.0 0.0 0.0 0.0 0.0 0.0 0.0 0.0 6.72935508242835e-19 0.4707330261765891 0.6334416680007949 0.05518100103746704 -4.550112770485138e-06 0.0 8.835643223228425e-18 6.180724633698615 5.898735500757002 0.2507976497152877 -2.0680262541854954e-05 0.0 -0.5325563589679163 -1.5953252951251429 -1.9350579420672815 0.3889302909374237 2.1035144329071045 0.00019138080824632198 0.0 0.0 0.0 0.0 0.0 0.0 6.729355199472286e-19 0.47073301672935486 0.633441686630249 0.055181000381708145 -4.550112862489186e-06 0.0 6.729355199472286e-19 0.47073301672935486 0.633441686630249 0.055181000381708145 -4.550112862489186e-06 0.0 0.19999998670079064 -0.1999999704610756 0.3999999820253386 -1.2090987476551505 1.2090487830418655 -1.2090486641472589 0.0 0.0 0.0 0.0 0.0 0.0 -7.151161838913478e-07 1.211182847524032e-06 -3.8993763322830386e-07 -2.065595982906687e-12 8.658785810185714e-08 -9.921333774252532e-08 0.19999999999999976 -0.2000000000000001 0.3999999999999999 -1.2090987223823195 1.2090487307044444 -1.2090487304564637 0.0 0.0 0.0 0.0 0.0 0.0
6073.032 -0.5325564460622907 -1.5953254434050104 -1.9350577238206403 0.3889302926232486 2.1035145059768507 0.00019138080159031284 0.0 0.0 0.0 0.0 0.0 0.0 0.0 0.0 0.0 0.0 0.0 0.0 6.72935508242835e-19 0.4707330261765891 0.6334416680007949 0.05518100103746704 -4.550112770485138e-06 0.0 8.835643223228425e-18 6.180724633698615 5.898735500757002 0.2507976497152877 -2.0680262541854954e-05 0.0 -0.5325563589679163 -1.5953252951251429 -1.9350579420672815 0.3889302909374237 2.1035144329071045 0.00019138080824632198 0.0 0.0 0.0 0.0 0.0 0.0 6.729355199472286e-19 0.47073301672935486 0.633441686630249 0.055181000381708145 -4.550112862489186e-06 0.0 6.729355199472286e-19 0.47073301672935486 0.633441686630249 0.055181000381708145 -4.550112862489186e-06 0.0 0.19999998670079064 -0.1999999704610756 0.3999999820253386 -1.2090987476551505 1.2090487830418655 -1.2090486641472589 0.0 0.0 0.0 0.0 0.0 0.0 -7.151161838913478e-07 1.211182847524032e-06 -3.8993763322830386e-07 -2.065595982906687e-12 8.658785810185714e-08 -9.921333774252532e-08 0.19999999999999976 -0.2000000000000001 0.3999999999999999 -1.2090987223823195 1.2090487307044444 -1.2090487304564637 0.0 0.0 0.0 0.0 0.0 0.0
6073.04 -0.5325564460622907 -1.5953254434050104 -1.9350577238206403 0.3889302926232486 2.1035145059768507 0.00019138080159031284 0.0 0.0 0.0 0.0 0.0 0.0 0.0 0.0 0.0 0.0 0.0 0.0 6.72935508242835e-19 0.4707330261765891 0.6334416680007949 0.05518100103746704 -4.550112770485138e-06 0.0 8.835643223228425e-18 6.180724633698615 5.898735500757002 0.2507976497152877 -2.0680262541854954e-05 0.0 -0.5325563589679163 -1.5953252951251429 -1.9350579420672815 0.3889302909374237 2.1035144329071045 0.00019138080824632198 0.0 0.0 0.0 0.0 0.0 0.0 6.729355199472286e-19 0.47073301672935486 0.633441686630249 0.055181000381708145 -4.550112862489186e-06 0.0 6.729355199472286e-19 0.47073301672935486 0.633441686630249 0.055181000381708145 -4.550112862489186e-06 0.0 0.19999998670079064 -0.1999999704610756 0.3999999820253386 -1.2090987476551505 1.2090487830418655 -1.2090486641472589 0.0 0.0 0.0 0.0 0.0 0.0 -7.151161838913478e-07 1.211182847524032e-06 -3.8993763322830386e-07 -2.065595982906687e-12 8.658785810185714e-08 -9.921333774252532e-08 0.19999999999999976 -0.2000000000000001 0.3999999999999999 -1.2090987223823195 1.2090487307044444 -1.2090487304564637 0.0 0.0 0.0 0.0 0.0 0.0
6073.048 -0.5325564460622907 -1.5953254434050104 -1.9350577238206403 0.3889302926232486 2.1035145059768507 0.00019138080159031284 0.0 0.0 0.0 0.0 0.0 0.0 0.0 0.0 0.0 0.0 0.0 0.0 6.72935508242835e-19 0.4707330261765891 0.6334416680007949 0.05518100103746704 -4.550112770485138e-06 0.0 8.835643223228425e-18 6.180724633698615 5.898735500757002 0.2507976497152877 -2.0680262541854954e-05 0.0 -0.5325563589679163 -1.5953252951251429 -1.9350579420672815 0.3889302909374237 2.1035144329071045 0.00019138080824632198 0.0 0.0 0.0 0.0 0.0 0.0 6.729355199472286e-19 0.47073301672935486 0.633441686630249 0.055181000381708145 -4.550112862489186e-06 0.0 6.729355199472286e-19 0.47073301672935486 0.633441686630249 0.055181000381708145 -4.550112862489186e-06 0.0 0.19999998670079064 -0.1999999704610756 0.3999999820253386 -1.2090987476551505 1.2090487830418655 -1.2090486641472589 0.0 0.0 0.0 0.0 0.0 0.0 -7.151161838913478e-07 1.211182847524032e-06 -3.8993763322830386e-07 -2.065595982906687e-12 8.658785810185714e-08 -9.921333774252532e-08 0.19999999999999976 -0.2000000000000001 0.3999999999999999 -1.2090987223823195 1.2090487307044444 -1.2090487304564637 0.0 0.0 0.0 0.0 0.0 0.0
6073.056 -0.5325564460622907 -1.5953254434050104 -1.9350577238206403 0.3889302926232486 2.1035145059768507 0.00019138080159031284 0.0 0.0 0.0 0.0 0.0 0.0 0.0 0.0 0.0 0.0 0.0 0.0 6.72935508242835e-19 0.4707330261765891 0.6334416680007949 0.05518100103746704 -4.550112770485138e-06 0.0 8.835643223228425e-18 6.180724633698615 5.898735500757002 0.2507976497152877 -2.0680262541854954e-05 0.0 -0.5325563589679163 -1.5953252951251429 -1.9350579420672815 0.3889302909374237 2.1035144329071045 0.00019138080824632198 0.0 0.0 0.0 0.0 0.0 0.0 6.729355199472286e-19 0.47073301672935486 0.633441686630249 0.055181000381708145 -4.550112862489186e-06 0.0 6.729355199472286e-19 0.47073301672935486 0.633441686630249 0.055181000381708145 -4.550112862489186e-06 0.0 0.19999998670079064 -0.1999999704610756 0.3999999820253386 -1.2090987476551505 1.2090487830418655 -1.2090486641472589 0.0 0.0 0.0 0.0 0.0 0.0 -7.151161838913478e-07 1.211182847524032e-06 -3.8993763322830386e-07 -2.065595982906687e-12 8.658785810185714e-08 -9.921333774252532e-08 0.19999999999999976 -0.2000000000000001 0.3999999999999999 -1.2090987223823195 1.2090487307044444 -1.2090487304564637 0.0 0.0 0.0 0.0 0.0 0.0
6073.063999999999 -0.5325564460622907 -1.5953254434050104 -1.9350577238206403 0.3889302926232486 2.1035145059768507 0.00019138080159031284 0.0 0.0 0.0 0.0 0.0 0.0 0.0 0.0 0.0 0.0 0.0 0.0 6.72935508242835e-19 0.4707330261765891 0.6334416680007949 0.05518100103746704 -4.550112770485138e-06 0.0 8.835643223228425e-18 6.180724633698615 5.898735500757002 0.2507976497152877 -2.0680262541854954e-05 0.0 -0.5325563589679163 -1.5953252951251429 -1.9350579420672815 0.3889302909374237 2.1035144329071045 0.00019138080824632198 0.0 0.0 0.0 0.0 0.0 0.0 6.729355199472286e-19 0.47073301672935486 0.633441686630249 0.055181000381708145 -4.550112862489186e-06 0.0 6.729355199472286e-19 0.47073301672935486 0.633441686630249 0.055181000381708145 -4.550112862489186e-06 0.0 0.19999998670079064 -0.1999999704610756 0.3999999820253386 -1.2090987476551505 1.2090487830418655 -1.2090486641472589 0.0 0.0 0.0 0.0 0.0 0.0 -7.151161838913478e-07 1.211182847524032e-06 -3.8993763322830386e-07 -2.065595982906687e-12 8.658785810185714e-08 -9.921333774252532e-08 0.19999999999999976 -0.2000000000000001 0.3999999999999999 -1.2090987223823195 1.2090487307044444 -1.2090487304564637 0.0 0.0 0.0 0.0 0.0 0.0
6073.072 -0.5325564460622907 -1.5953254434050104 -1.9350577238206403 0.3889302926232486 2.1035145059768507 0.00019138080159031284 0.0 0.0 0.0 0.0 0.0 0.0 0.0 0.0 0.0 0.0 0.0 0.0 6.72935508242835e-19 0.4707330261765891 0.6334416680007949 0.05518100103746704 -4.550112770485138e-06 0.0 8.835643223228425e-18 6.180724633698615 5.898735500757002 0.2507976497152877 -2.0680262541854954e-05 0.0 -0.5325563589679163 -1.5953252951251429 -1.9350579420672815 0.3889302909374237 2.1035144329071045 0.00019138080824632198 0.0 0.0 0.0 0.0 0.0 0.0 6.729355199472286e-19 0.47073301672935486 0.633441686630249 0.055181000381708145 -4.550112862489186e-06 0.0 6.729355199472286e-19 0.47073301672935486 0.633441686630249 0.055181000381708145 -4.550112862489186e-06 0.0 0.19999998670079064 -0.1999999704610756 0.3999999820253386 -1.2090987476551505 1.2090487830418655 -1.2090486641472589 0.0 0.0 0.0 0.0 0.0 0.0 -7.151161838913478e-07 1.211182847524032e-06 -3.8993763322830386e-07 -2.065595982906687e-12 8.658785810185714e-08 -9.921333774252532e-08 0.19999999999999976 -0.2000000000000001 0.3999999999999999 -1.2090987223823195 1.2090487307044444 -1.2090487304564637 0.0 0.0 0.0 0.0 0.0 0.0
6073.08 -0.5325564460622907 -1.5953254434050104 -1.9350577238206403 0.3889302926232486 2.1035145059768507 0.00019138080159031284 0.0 0.0 0.0 0.0 0.0 0.0 0.0 0.0 0.0 0.0 0.0 0.0 6.72935508242835e-19 0.4707330261765891 0.6334416680007949 0.05518100103746704 -4.550112770485138e-06 0.0 8.835643223228425e-18 6.180724633698615 5.898735500757002 0.2507976497152877 -2.0680262541854954e-05 0.0 -0.5325563589679163 -1.5953252951251429 -1.9350579420672815 0.3889302909374237 2.1035144329071045 0.00019138080824632198 0.0 0.0 0.0 0.0 0.0 0.0 6.729355199472286e-19 0.47073301672935486 0.633441686630249 0.055181000381708145 -4.550112862489186e-06 0.0 6.729355199472286e-19 0.47073301672935486 0.633441686630249 0.055181000381708145 -4.550112862489186e-06 0.0 0.19999998670079064 -0.1999999704610756 0.3999999820253386 -1.2090987476551505 1.2090487830418655 -1.2090486641472589 0.0 0.0 0.0 0.0 0.0 0.0 -7.151161838913478e-07 1.211182847524032e-06 -3.8993763322830386e-07 -2.065595982906687e-12 8.658785810185714e-08 -9.921333774252532e-08 0.19999999999999976 -0.2000000000000001 0.3999999999999999 -1.2090987223823195 1.2090487307044444 -1.2090487304564637 0.0 0.0 0.0 0.0 0.0 0.0
6073.088 -0.5325564460622907 -1.5953254434050104 -1.9350577238206403 0.3889302926232486 2.1035145059768507 0.00019138080159031284 0.0 0.0 0.0 0.0 0.0 0.0 0.0 0.0 0.0 0.0 0.0 0.0 6.72935508242835e-19 0.4707330261765891 0.6334416680007949 0.05518100103746704 -4.550112770485138e-06 0.0 8.835643223228425e-18 6.180724633698615 5.898735500757002 0.2507976497152877 -2.0680262541854954e-05 0.0 -0.5325563589679163 -1.5953252951251429 -1.9350579420672815 0.3889302909374237 2.1035144329071045 0.00019138080824632198 0.0 0.0 0.0 0.0 0.0 0.0 6.729355199472286e-19 0.47073301672935486 0.633441686630249 0.055181000381708145 -4.550112862489186e-06 0.0 6.729355199472286e-19 0.47073301672935486 0.633441686630249 0.055181000381708145 -4.550112862489186e-06 0.0 0.19999998670079064 -0.1999999704610756 0.3999999820253386 -1.2090987476551505 1.2090487830418655 -1.2090486641472589 0.0 0.0 0.0 0.0 0.0 0.0 -7.151161838913478e-07 1.211182847524032e-06 -3.8993763322830386e-07 -2.065595982906687e-12 8.658785810185714e-08 -9.921333774252532e-08 0.19999999999999976 -0.2000000000000001 0.3999999999999999 -1.2090987223823195 1.2090487307044444 -1.2090487304564637 0.0 0.0 0.0 0.0 0.0 0.0
6073.096 -0.5325564460622907 -1.5953254434050104 -1.9350577238206403 0.3889302926232486 2.1035145059768507 0.00019138080159031284 0.0 0.0 0.0 0.0 0.0 0.0 0.0 0.0 0.0 0.0 0.0 0.0 6.72935508242835e-19 0.4707330261765891 0.6334416680007949 0.05518100103746704 -4.550112770485138e-06 0.0 8.835643223228425e-18 6.180724633698615 5.898735500757002 0.2507976497152877 -2.0680262541854954e-05 0.0 -0.5325563589679163 -1.5953252951251429 -1.9350579420672815 0.3889302909374237 2.1035144329071045 0.00019138080824632198 0.0 0.0 0.0 0.0 0.0 0.0 6.729355199472286e-19 0.47073301672935486 0.633441686630249 0.055181000381708145 -4.550112862489186e-06 0.0 6.729355199472286e-19 0.47073301672935486 0.633441686630249 0.055181000381708145 -4.550112862489186e-06 0.0 0.19999998670079064 -0.1999999704610756 0.3999999820253386 -1.2090987476551505 1.2090487830418655 -1.2090486641472589 0.0 0.0 0.0 0.0 0.0 0.0 -7.151161838913478e-07 1.211182847524032e-06 -3.8993763322830386e-07 -2.065595982906687e-12 8.658785810185714e-08 -9.921333774252532e-08 0.19999999999999976 -0.2000000000000001 0.3999999999999999 -1.2090987223823195 1.2090487307044444 -1.2090487304564637 0.0 0.0 0.0 0.0 0.0 0.0
6073.103999999999 -0.5325564460622907 -1.5953254434050104 -1.9350577238206403 0.3889302926232486 2.1035145059768507 0.00019138080159031284 0.0 0.0 0.0 0.0 0.0 0.0 0.0 0.0 0.0 0.0 0.0 0.0 6.72935508242835e-19 0.4707330261765891 0.6334416680007949 0.05518100103746704 -4.550112770485138e-06 0.0 8.835643223228425e-18 6.180724633698615 5.898735500757002 0.2507976497152877 -2.0680262541854954e-05 0.0 -0.5325563589679163 -1.5953252951251429 -1.9350579420672815 0.3889302909374237 2.1035144329071045 0.00019138080824632198 0.0 0.0 0.0 0.0 0.0 0.0 6.729355199472286e-19 0.47073301672935486 0.633441686630249 0.055181000381708145 -4.550112862489186e-06 0.0 6.729355199472286e-19 0.47073301672935486 0.633441686630249 0.055181000381708145 -4.550112862489186e-06 0.0 0.19999998670079064 -0.1999999704610756 0.3999999820253386 -1.2090987476551505 1.2090487830418655 -1.2090486641472589 0.0 0.0 0.0 0.0 0.0 0.0 -7.151161838913478e-07 1.211182847524032e-06 -3.8993763322830386e-07 -2.065595982906687e-12 8.658785810185714e-08 -9.921333774252532e-08 0.19999999999999976 -0.2000000000000001 0.3999999999999999 -1.2090987223823195 1.2090487307044444 -1.2090487304564637 0.0 0.0 0.0 0.0 0.0 0.0
6073.112 -0.5325564460622907 -1.5953254434050104 -1.9350577238206403 0.3889302926232486 2.1035145059768507 0.00019138080159031284 0.0 0.0 0.0 0.0 0.0 0.0 0.0 0.0 0.0 0.0 0.0 0.0 6.72935508242835e-19 0.4707330261765891 0.6334416680007949 0.05518100103746704 -4.550112770485138e-06 0.0 8.835643223228425e-18 6.180724633698615 5.898735500757002 0.2507976497152877 -2.0680262541854954e-05 0.0 -0.5325563589679163 -1.5953252951251429 -1.9350579420672815 0.3889302909374237 2.1035144329071045 0.00019138080824632198 0.0 0.0 0.0 0.0 0.0 0.0 6.729355199472286e-19 0.47073301672935486 0.633441686630249 0.055181000381708145 -4.550112862489186e-06 0.0 6.729355199472286e-19 0.47073301672935486 0.633441686630249 0.055181000381708145 -4.550112862489186e-06 0.0 0.19999998670079064 -0.1999999704610756 0.3999999820253386 -1.2090987476551505 1.2090487830418655 -1.2090486641472589 0.0 0.0 0.0 0.0 0.0 0.0 -7.151161838913478e-07 1.211182847524032e-06 -3.8993763322830386e-07 -2.065595982906687e-12 8.658785810185714e-08 -9.921333774252532e-08 0.19999999999999976 -0.2000000000000001 0.3999999999999999 -1.2090987223823195 1.2090487307044444 -1.2090487304564637 0.0 0.0 0.0 0.0 0.0 0.0
6073.12 -0.5325564460622907 -1.5953254434050104 -1.9350577238206403 0.3889302926232486 2.1035145059768507 0.00019138080159031284 0.0 0.0 0.0 0.0 0.0 0.0 0.0 0.0 0.0 0.0 0.0 0.0 6.72935508242835e-19 0.4707330261765891 0.6334416680007949 0.05518100103746704 -4.550112770485138e-06 0.0 8.835643223228425e-18 6.180724633698615 5.898735500757002 0.2507976497152877 -2.0680262541854954e-05 0.0 -0.5325563589679163 -1.5953252951251429 -1.9350579420672815 0.3889302909374237 2.1035144329071045 0.00019138080824632198 0.0 0.0 0.0 0.0 0.0 0.0 6.729355199472286e-19 0.47073301672935486 0.633441686630249 0.055181000381708145 -4.550112862489186e-06 0.0 6.729355199472286e-19 0.47073301672935486 0.633441686630249 0.055181000381708145 -4.550112862489186e-06 0.0 0.19999998670079064 -0.1999999704610756 0.3999999820253386 -1.2090987476551505 1.2090487830418655 -1.2090486641472589 0.0 0.0 0.0 0.0 0.0 0.0 -7.151161838913478e-07 1.211182847524032e-06 -3.8993763322830386e-07 -2.065595982906687e-12 8.658785810185714e-08 -9.921333774252532e-08 0.19999999999999976 -0.2000000000000001 0.3999999999999999 -1.2090987223823195 1.2090487307044444 -1.2090487304564637 0.0 0.0 0.0 0.0 0.0 0.0
6073.128 -0.5325564460622907 -1.5953254434050104 -1.9350577238206403 0.3889302926232486 2.1035145059768507 0.00019138080159031284 0.0 0.0 0.0 0.0 0.0 0.0 0.0 0.0 0.0 0.0 0.0 0.0 6.72935508242835e-19 0.4707330261765891 0.6334416680007949 0.05518100103746704 -4.550112770485138e-06 0.0 8.835643223228425e-18 6.180724633698615 5.898735500757002 0.2507976497152877 -2.0680262541854954e-05 0.0 -0.5325563589679163 -1.5953252951251429 -1.9350579420672815 0.3889302909374237 2.1035144329071045 0.00019138080824632198 0.0 0.0 0.0 0.0 0.0 0.0 6.729355199472286e-19 0.47073301672935486 0.633441686630249 0.055181000381708145 -4.550112862489186e-06 0.0 6.729355199472286e-19 0.47073301672935486 0.633441686630249 0.055181000381708145 -4.550112862489186e-06 0.0 0.19999998670079064 -0.1999999704610756 0.3999999820253386 -1.2090987476551505 1.2090487830418655 -1.2090486641472589 0.0 0.0 0.0 0.0 0.0 0.0 -7.151161838913478e-07 1.211182847524032e-06 -3.8993763322830386e-07 -2.065595982906687e-12 8.658785810185714e-08 -9.921333774252532e-08 0.19999999999999976 -0.2000000000000001 0.3999999999999999 -1.2090987223823195 1.2090487307044444 -1.2090487304564637 0.0 0.0 0.0 0.0 0.0 0.0
6073.1359999999995 -0.5325564460622907 -1.5953254434050104 -1.9350577238206403 0.3889302926232486 2.1035145059768507 0.00019138080159031284 0.0 0.0 0.0 0.0 0.0 0.0 0.0 0.0 0.0 0.0 0.0 0.0 6.72935508242835e-19 0.4707330261765891 0.6334416680007949 0.05518100103746704 -4.550112770485138e-06 0.0 8.835643223228425e-18 6.180724633698615 5.898735500757002 0.2507976497152877 -2.0680262541854954e-05 0.0 -0.5325563589679163 -1.5953252951251429 -1.9350579420672815 0.3889302909374237 2.1035144329071045 0.00019138080824632198 0.0 0.0 0.0 0.0 0.0 0.0 6.729355199472286e-19 0.47073301672935486 0.633441686630249 0.055181000381708145 -4.550112862489186e-06 0.0 6.729355199472286e-19 0.47073301672935486 0.633441686630249 0.055181000381708145 -4.550112862489186e-06 0.0 0.19999998670079064 -0.1999999704610756 0.3999999820253386 -1.2090987476551505 1.2090487830418655 -1.2090486641472589 0.0 0.0 0.0 0.0 0.0 0.0 -7.151161838913478e-07 1.211182847524032e-06 -3.8993763322830386e-07 -2.065595982906687e-12 8.658785810185714e-08 -9.921333774252532e-08 0.19999999999999976 -0.2000000000000001 0.3999999999999999 -1.2090987223823195 1.2090487307044444 -1.2090487304564637 0.0 0.0 0.0 0.0 0.0 0.0
6073.143999999999 -0.5325564460622907 -1.5953254434050104 -1.9350577238206403 0.3889302926232486 2.1035145059768507 0.00019138080159031284 0.0 0.0 0.0 0.0 0.0 0.0 0.0 0.0 0.0 0.0 0.0 0.0 6.72935508242835e-19 0.4707330261765891 0.6334416680007949 0.05518100103746704 -4.550112770485138e-06 0.0 8.835643223228425e-18 6.180724633698615 5.898735500757002 0.2507976497152877 -2.0680262541854954e-05 0.0 -0.5325563589679163 -1.5953252951251429 -1.9350579420672815 0.3889302909374237 2.1035144329071045 0.00019138080824632198 0.0 0.0 0.0 0.0 0.0 0.0 6.729355199472286e-19 0.47073301672935486 0.633441686630249 0.055181000381708145 -4.550112862489186e-06 0.0 6.729355199472286e-19 0.47073301672935486 0.633441686630249 0.055181000381708145 -4.550112862489186e-06 0.0 0.19999998670079064 -0.1999999704610756 0.3999999820253386 -1.2090987476551505 1.2090487830418655 -1.2090486641472589 0.0 0.0 0.0 0.0 0.0 0.0 -7.151161838913478e-07 1.211182847524032e-06 -3.8993763322830386e-07 -2.065595982906687e-12 8.658785810185714e-08 -9.921333774252532e-08 0.19999999999999976 -0.2000000000000001 0.3999999999999999 -1.2090987223823195 1.2090487307044444 -1.2090487304564637 0.0 0.0 0.0 0.0 0.0 0.0
6073.152 -0.5325564460622907 -1.5953254434050104 -1.9350577238206403 0.3889302926232486 2.1035145059768507 0.00019138080159031284 0.0 0.0 0.0 0.0 0.0 0.0 0.0 0.0 0.0 0.0 0.0 0.0 6.72935508242835e-19 0.4707330261765891 0.6334416680007949 0.05518100103746704 -4.550112770485138e-06 0.0 8.835643223228425e-18 6.180724633698615 5.898735500757002 0.2507976497152877 -2.0680262541854954e-05 0.0 -0.5325563589679163 -1.5953252951251429 -1.9350579420672815 0.3889302909374237 2.1035144329071045 0.00019138080824632198 0.0 0.0 0.0 0.0 0.0 0.0 6.729355199472286e-19 0.47073301672935486 0.633441686630249 0.055181000381708145 -4.550112862489186e-06 0.0 6.729355199472286e-19 0.47073301672935486 0.633441686630249 0.055181000381708145 -4.550112862489186e-06 0.0 0.19999998670079064 -0.1999999704610756 0.3999999820253386 -1.2090987476551505 1.2090487830418655 -1.2090486641472589 0.0 0.0 0.0 0.0 0.0 0.0 -7.151161838913478e-07 1.211182847524032e-06 -3.8993763322830386e-07 -2.065595982906687e-12 8.658785810185714e-08 -9.921333774252532e-08 0.19999999999999976 -0.2000000000000001 0.3999999999999999 -1.2090987223823195 1.2090487307044444 -1.2090487304564637 0.0 0.0 0.0 0.0 0.0 0.0
6073.16 -0.5325564460622907 -1.5953254434050104 -1.9350577238206403 0.3889302926232486 2.1035145059768507 0.00019138080159031284 0.0 0.0 0.0 0.0 0.0 0.0 0.0 0.0 0.0 0.0 0.0 0.0 6.72935508242835e-19 0.4707330261765891 0.6334416680007949 0.05518100103746704 -4.550112770485138e-06 0.0 8.835643223228425e-18 6.180724633698615 5.898735500757002 0.2507976497152877 -2.0680262541854954e-05 0.0 -0.5325563589679163 -1.5953252951251429 -1.9350579420672815 0.3889302909374237 2.1035144329071045 0.00019138080824632198 0.0 0.0 0.0 0.0 0.0 0.0 6.729355199472286e-19 0.47073301672935486 0.633441686630249 0.055181000381708145 -4.550112862489186e-06 0.0 6.729355199472286e-19 0.47073301672935486 0.633441686630249 0.055181000381708145 -4.550112862489186e-06 0.0 0.19999998670079064 -0.1999999704610756 0.3999999820253386 -1.2090987476551505 1.2090487830418655 -1.2090486641472589 0.0 0.0 0.0 0.0 0.0 0.0 -7.151161838913478e-07 1.211182847524032e-06 -3.8993763322830386e-07 -2.065595982906687e-12 8.658785810185714e-08 -9.921333774252532e-08 0.19999999999999976 -0.2000000000000001 0.3999999999999999 -1.2090987223823195 1.2090487307044444 -1.2090487304564637 0.0 0.0 0.0 0.0 0.0 0.0
6073.168 -0.5325564460622907 -1.5953254434050104 -1.9350577238206403 0.3889302926232486 2.1035145059768507 0.00019138080159031284 0.0 0.0 0.0 0.0 0.0 0.0 0.0 0.0 0.0 0.0 0.0 0.0 6.72935508242835e-19 0.4707330261765891 0.6334416680007949 0.05518100103746704 -4.550112770485138e-06 0.0 8.835643223228425e-18 6.180724633698615 5.898735500757002 0.2507976497152877 -2.0680262541854954e-05 0.0 -0.5325563589679163 -1.5953252951251429 -1.9350579420672815 0.3889302909374237 2.1035144329071045 0.00019138080824632198 0.0 0.0 0.0 0.0 0.0 0.0 6.729355199472286e-19 0.47073301672935486 0.633441686630249 0.055181000381708145 -4.550112862489186e-06 0.0 6.729355199472286e-19 0.47073301672935486 0.633441686630249 0.055181000381708145 -4.550112862489186e-06 0.0 0.19999998670079064 -0.1999999704610756 0.3999999820253386 -1.2090987476551505 1.2090487830418655 -1.2090486641472589 0.0 0.0 0.0 0.0 0.0 0.0 -7.151161838913478e-07 1.211182847524032e-06 -3.8993763322830386e-07 -2.065595982906687e-12 8.658785810185714e-08 -9.921333774252532e-08 0.19999999999999976 -0.2000000000000001 0.3999999999999999 -1.2090987223823195 1.2090487307044444 -1.2090487304564637 0.0 0.0 0.0 0.0 0.0 0.0
6073.1759999999995 -0.5325564460622907 -1.5953254434050104 -1.9350577238206403 0.3889302926232486 2.1035145059768507 0.00019138080159031284 0.0 0.0 0.0 0.0 0.0 0.0 0.0 0.0 0.0 0.0 0.0 0.0 6.72935508242835e-19 0.4707330261765891 0.6334416680007949 0.05518100103746704 -4.550112770485138e-06 0.0 8.835643223228425e-18 6.180724633698615 5.898735500757002 0.2507976497152877 -2.0680262541854954e-05 0.0 -0.5325563589679163 -1.5953252951251429 -1.9350579420672815 0.3889302909374237 2.1035144329071045 0.00019138080824632198 0.0 0.0 0.0 0.0 0.0 0.0 6.729355199472286e-19 0.47073301672935486 0.633441686630249 0.055181000381708145 -4.550112862489186e-06 0.0 6.729355199472286e-19 0.47073301672935486 0.633441686630249 0.055181000381708145 -4.550112862489186e-06 0.0 0.19999998670079064 -0.1999999704610756 0.3999999820253386 -1.2090987476551505 1.2090487830418655 -1.2090486641472589 0.0 0.0 0.0 0.0 0.0 0.0 -7.151161838913478e-07 1.211182847524032e-06 -3.8993763322830386e-07 -2.065595982906687e-12 8.658785810185714e-08 -9.921333774252532e-08 0.19999999999999976 -0.2000000000000001 0.3999999999999999 -1.2090987223823195 1.2090487307044444 -1.2090487304564637 0.0 0.0 0.0 0.0 0.0 0.0
6073.183999999999 -0.5325564460622907 -1.5953254434050104 -1.9350577238206403 0.3889302926232486 2.1035145059768507 0.00019138080159031284 0.0 0.0 0.0 0.0 0.0 0.0 0.0 0.0 0.0 0.0 0.0 0.0 6.72935508242835e-19 0.4707330261765891 0.6334416680007949 0.05518100103746704 -4.550112770485138e-06 0.0 8.835643223228425e-18 6.180724633698615 5.898735500757002 0.2507976497152877 -2.0680262541854954e-05 0.0 -0.5325563589679163 -1.5953252951251429 -1.9350579420672815 0.3889302909374237 2.1035144329071045 0.00019138080824632198 0.0 0.0 0.0 0.0 0.0 0.0 6.729355199472286e-19 0.47073301672935486 0.633441686630249 0.055181000381708145 -4.550112862489186e-06 0.0 6.729355199472286e-19 0.47073301672935486 0.633441686630249 0.055181000381708145 -4.550112862489186e-06 0.0 0.19999998670079064 -0.1999999704610756 0.3999999820253386 -1.2090987476551505 1.2090487830418655 -1.2090486641472589 0.0 0.0 0.0 0.0 0.0 0.0 -7.151161838913478e-07 1.211182847524032e-06 -3.8993763322830386e-07 -2.065595982906687e-12 8.658785810185714e-08 -9.921333774252532e-08 0.19999999999999976 -0.2000000000000001 0.3999999999999999 -1.2090987223823195 1.2090487307044444 -1.2090487304564637 0.0 0.0 0.0 0.0 0.0 0.0
6073.192 -0.5325561070490554 -1.5953251234797756 -1.93505805343416 0.38893030228359526 2.103514166963619 0.00019138074658070026 0.00016950666723976012 0.00015996262616982913 -0.00016480673724737766 4.830142033056358e-06 -0.0001695066655838446 -2.7504808869415904e-08 0.021188333404970016 0.01999532827122864 -0.020600842155922207 0.0006037677541320447 -0.021188333197980573 -3.438101108676988e-06 0.0011322479727429115 0.47181864832310955 0.6329226866123779 0.05524979352282203 -0.00030480764038382944 -5.4016388529658454e-08 0.01486641588211443 6.1949788524824285 5.893902642271786 0.2511103115612261 -0.0013853507255445047 -2.4550448586729767e-07 -0.5325558821307581 -1.5953252951251429 -1.9350579420672815 0.3889302909374237 2.1035141944885254 0.00019138075003866106 0.0001695066603133455 0.00015996262663975358 -0.00016480674094054848 4.830142188438913e-06 -0.0001695066603133455 -2.750480909696762e-08 0.001132247969508171 0.4718186557292938 0.6329227089881897 0.05524979531764984 -0.0003048076468985528 -5.401638958346666e-08 0.001132247969508171 0.4718186557292938 0.6329227089881897 0.05524979531764984 -0.0003048076468985528 -5.401638958346666e-08 0.2000000820713507 -0.19999989462010884 0.39999998202672404 -1.2090988603778055 1.209048607464493 -1.2090484885913277 -6.682759273489192e-12 4.00000053364424e-05 5.356742480599104e-12 -8.902690513714414e-12 8.806980375881764e-12 -1.6559150461836068e-12 -2.766642926902347e-07 4.6869893889772773e-07 -8.194502578239397e-07 6.312264687836008e-12 -1.0435137164198347e-08 -3.836452472187093e-08 0.19999999999999987 -0.19999992000000014 0.3999999999999999 -1.2090987223823195 1.2090487307044444 -1.2090487304564634 3.976729928767465e-21 4.000000000000001e-05 -2.8356500925222885e-20 6.219454703512575e-21 1.5453349593707518e-20 6.360604999554548e-20
6073.2 -0.532553394936012 -1.5953225640766426 -1.9350606903390624 0.38893037956186033 2.103511454850602 0.0001913803065034288 0.0007627835842974465 0.0007198324447137139 -0.0007416286901786004 2.1733384959697813e-05 -0.0007627835768458662 -1.2377182527685913e-07 0.0741596146322108 0.06998372731798559 -0.07210274411640284 0.0021129053658301817 -0.07415961390775269 -1.2033377050930403e-05 0.003962880049634653 0.47453117563824315 0.6316252470727616 0.05542183163558509 -0.0010554590194910354 -1.890577238890621e-07 0.05203261505170301 6.230594336130133 5.881820625790971 0.25189222478373424 -0.004797061243586756 -8.592673550757872e-07 -0.5325534979449671 -1.5953224341021937 -1.9350608030902308 0.38893038034439087 2.1035115718841553 0.0001913803134812042 0.0007627835730090737 0.0007198324310593307 -0.000741628697142005 2.1733385437983088e-05 -0.0007627835730090737 -1.23771826565644e-07 0.003962880000472069 0.4745311737060547 0.631625235080719 0.05542183294892311 -0.001055459026247263 -1.8905772947164223e-07 0.003962880000472069 0.4745311737060547 0.631625235080719 0.05542183294892311 -0.001055459026247263 -1.8905772947164223e-07 0.19999995199763226 -0.1999992748690205 0.4000000054448123 -1.2090987243352258 1.209048704634542 -1.2090487341945126 6.459266841475696e-12 0.00017999997568795423 -2.781761443201866e-11 2.2056266137893337e-11 1.0362733896827522e-11 -7.451629767982932e-12 2.1372172046483715e-07 -3.567681388106409e-07 4.465225614074059e-07 -4.678557179091542e-12 7.300728603319254e-09 2.925492625539977e-08 0.19999999999999996 -0.19999928000000017 0.3999999999999999 -1.2090987223823195 1.2090487307044444 -1.2090487304564637 -8.305861747168733e-17 0.00018000000000004164 2.993457614043462e-20 -4.386606255287417e-19 -2.8331414699865987e-19 -5.0528722396985305e-17
6073.208 -0.53254424146047 -1.5953139260746099 -1.9350695898503893 0.38893064031683233 2.1035023013751495 0.00019137882123777182 0.0020341217940275653 0.001919558828570061 -0.001977661860232687 5.793540540405671e-05 -0.0020341217741564497 -3.300598690489078e-07 0.15891727621626484 0.14996579798204338 -0.15450414625676084 0.004525252555544862 -0.15891727466382294 -2.5786005471506085e-05 0.008492021393053583 0.4788672809792213 0.6295493899506539 0.055697214354531496 -0.0022565604246067013 -4.0512679707455113e-07 0.11150024089079356 6.287527399257176 5.86248982909848 0.25314383924134565 -0.010256067129837456 -1.841301292703835e-06 -0.5325444380389612 -1.595313851033346 -1.9350693861590784 0.38893064856529236 2.1035022735595703 0.0001913788146339357 0.0020341218914836645 0.001919558853842318 -0.001977661857381463 5.7935405493481085e-05 -0.002034121658653021 -3.300598621081008e-07 0.008492021821439266 0.4788672924041748 0.6295493841171265 0.05569721385836601 -0.0022565603721886873 -4.0512679788662354e-07 0.008492021821439266 0.4788672924041748 0.6295493841171265 0.05569721385836601 -0.0022565603721886873 -4.0512679788662354e-07 0.1999999432453704 -0.19999715131578136 0.40000007569556073 -1.2090985415686915 1.2090486449600766 -1.209049119891937 8.953277702061008e-11 0.0004799999954843316 -4.4211303730478335e-12 4.885834376431075e-10 -3.2067642508355405e-10 2.1295961059840572e-10 4.7273661171291785e-07 -8.462728586033581e-07 -7.89927083032947e-08 6.529801389699726e-12 -9.201453703770964e-08 6.908384400995742e-08 0.1999999999999999 -0.19999712000000014 0.3999999999999999 -1.2090987223823197 1.2090487307044444 -1.2090487304564632 -1.9406059250101088e-16 0.0004800000000000827 2.14799717360454e-19 -8.412702901193731e-19 -9.580431707643623e-19 -4.0415627390998723e-19
6073.215999999999 -0.5325225437537977 -1.5952934507091001 -1.9350906847250666 0.38893125803800876 2.1034806036686886 0.00019137530057807746 0.004237912932769011 0.0039991087594822075 -0.0041200565451266265 0.00012059857294083734 -0.0042379128913705225 -6.876329661115802e-07 0.2754738923426807 0.2599437413640183 -0.2677993356117424 0.007832895942097578 -0.27547388965175906 -4.469663713283405e-05 0.014720181062470285 0.4848219974356607 0.6266952236833573 0.05607601153801101 -0.003908314741550876 -7.022338322869705e-07 0.19327597735023483 6.365712826330225 5.83591126198416 0.25486547244026003 -0.01776329050034873 -3.191652767744281e-06 -0.5325225035296839 -1.5952933470355433 -1.9350908438311976 0.3889312446117401 2.103480577468872 0.00019137530762236565 0.0042379130609333515 0.003999108914285898 -0.004120056517422199 0.00012059857544954866 -0.0042379130609333515 -6.876329621263721e-07 0.014720181003212929 0.48482200503349304 0.6266952157020569 0.056076012551784515 -0.0039083147421479225 -7.022338195383782e-07 0.014720181003212929 0.48482200503349304 0.6266952157020569 0.056076012551784515 -0.0039083147421479225 -7.022338195383782e-07 0.1999999874924744 -0.19999198198921267 0.39999998482277527 -1.2090987469361907 1.2090487805988468 -1.2090486663330722 -1.0257125387412344e-10 0.0009999999462463342 -6.259523489087138e-11 -3.453195932484868e-10 -1.1233125889976519e-11 -4.1398643286262426e-11 4.186308324566146e-07 -7.024359921236075e-07 1.0615085529985036e-07 2.24164452382387e-12 -5.7030926776006256e-08 5.754242881803419e-08 0.1999999999999997 -0.19999200000000017 0.39999999999999997 -1.2090987223823189 1.2090487307044449 -1.2090487304564637 -1.7210553740850997e-16 0.0010000000000000698 -1.011533098856702e-18 8.493789596844957e-17 8.332210059726509e-19 -1.6552657379850092e-16
6073.224 -0.5324801630697404 -1.5952534593493448 -1.9351318845841678 0.38893246304531215 2.1034382229850457 0.0001913684241679486 0.007628802990367596 0.00719849374741262 -0.00741584749527131 0.0002167251954708069 -0.00762880291584828 -1.2377683077890478e-06 0.42386125719982304 0.39992312349130155 -0.4119738687680854 0.012015827816246195 -0.42386125305971967 -6.876691770968344e-05 0.022648709739263945 0.4923887538286989 0.6230630049850852 0.05655815493541408 -0.006011231300565033 -1.080404684905471e-06 0.2973775588765356 6.465064337770817 5.80208731502211 0.257056814181457 -0.02732104626106807 -4.910439292895366e-06 -0.5324800650226038 -1.5952532927142542 -1.935131851826803 0.388932466506958 2.103438138961792 0.00019136842456646264 0.007628803141415119 0.007198493927717209 -0.007415847387164831 0.0002167251950595528 -0.007628803141415119 -1.2377682878650376e-06 0.022648708894848824 0.4923887550830841 0.6230630278587341 0.05655815452337265 -0.0060112313367426395 -1.0804046723933425e-06 0.022648708894848824 0.4923887550830841 0.6230630278587341 0.05655815452337265 -0.0060112313367426395 -1.0804046723933425e-06 0.1999999836081786 -0.19998196605860488 0.4000000546501943 -1.209098676162653 1.209048542982886 -1.2090488785776643 -3.4582914551096105e-10 0.00179999975932132 -1.530103432459672e-10 1.1871164038336951e-09 -1.033677703594835e-09 -7.451916710949966e-11 -4.521419644598284e-07 8.582103512514224e-07 -7.508437549851966e-07 5.471466701233855e-12 1.8106827974412643e-08 -7.013464665155294e-08 0.19999999999999976 -0.19998200000000005 0.39999999999999997 -1.2090987223823193 1.2090487307044446 -1.2090487304564637 8.161517277458145e-17 0.0018000000000001227 -8.351627035126265e-17 -3.0011440620538267e-16 -1.9691768228170254e-16 -4.628160354898832e-18
6073.232 -0.5324069219180805 -1.595184352996542 -1.9352030746109783 0.3889345406854705 2.1033649818341016 0.00019135654135188148 0.012461958154372482 0.011757816386893669 -0.012111833214574203 0.00035299027815248614 -0.01246195803265267 -2.0217700125732337e-06 0.6041443955006108 0.5699153299351312 -0.5869982149128616 0.017033135335209903 -0.6041443896005487 -9.800021309802323e-05 0.03228044520978876 0.501559425479212 0.6186532573328248 0.057143285789969966 -0.008566347397411777 -1.5396922368956095e-06 0.4238422456045265 6.585475256542053 5.761022862934732 0.2597162339154135 -0.03893404892123652 -6.997901216690545e-06 -0.5324071089373987 -1.5951841513263147 -1.9352029005633753 0.38893455266952515 2.103364944458008 0.00019135653565172106 0.012461958453059196 0.011757816188037395 -0.012111833319067955 0.00035299028968438506 -0.012461958453059196 -2.021770114879473e-06 0.03228044509887695 0.5015594363212585 0.6186532378196716 0.05714328587055206 -0.008566346950829029 -1.539692220831057e-06 0.03228044509887695 0.5015594363212585 0.6186532378196716 0.05714328587055206 -0.008566346950829029 -1.539692220831057e-06 0.199999917934657 -0.19996473414824925 0.4000001026910889 -1.2090985152841334 1.2090485568825877 -1.2090491985487282 3.3415395715752544e-10 0.002939999437692333 -4.690060622068503e-10 4.310859985570651e-09 -2.201051734482971e-09 -1.2171889219447763e-10 7.869931035214937e-07 -1.3031736279154571e-06 3.739321467018132e-07 3.704500632396895e-12 -1.0167468160232637e-07 1.0472002394820476e-07 0.19999999999999987 -0.1999647199999997 0.4000000000000003 -1.2090987223823193 1.2090487307044433 -1.2090487304564639 3.3943830358078367e-18 0.0029399999999999028 -9.593147576143543e-17 -1.1044787246959734e-16 -1.1019590442239688e-16 -1.835301310942566e-18
6073.24 -0.5322905985985198 -1.5950746113266128 -1.9353161130692023 0.38893782789327364 2.103248658515677 0.00019133767089226514 0.01899347440054905 0.017917342128832232 -0.01845439016911167 0.0005354839825918952 -0.01899347421505919 -3.080990344418157e-06 0.8164395307720708 0.7699407177423204 -0.7928196193171834 0.022811713054926134 -0.816439522800815 -0.0001324025414806154 0.04362054686646942 0.5123244004692875 0.6134669276612258 0.05783055890917668 -0.011575512014970356 -2.0801910405954465e-06 0.5727377803567435 6.726819378161745 5.712726723766867 0.262839890242208 -0.052610702108040266 -9.454468279506303e-06 -0.5322907606707972 -1.595074478779928 -1.9353159109698694 0.3889378309249878 2.1032485961914062 0.0001913376763695851 0.018993474543094635 0.017917342483997345 -0.01845438964664936 0.0005354839959181845 -0.018993474543094635 -3.0809903819317697e-06 0.04362054541707039 0.5123243927955627 0.6134669184684753 0.057830557227134705 -0.011575511656701565 -2.0801910523005063e-06 0.04362054541707039 0.5123243927955627 0.6134669184684753 0.057830557227134705 -0.011575511656701565 -2.0801910523005063e-06 0.19999993825100792 -0.199937300234345 0.40000009064468156 -1.2090985282657118 1.2090486006362076 -1.2090491594508526 3.658097673576292e-10 0.004479999479895038 -8.81671617321452e-11 5.074156138726884e-09 -4.022511756864362e-09 -1.8548866153197978e-10 2.1317286613075886e-08 1.3883388715154446e-07 4.164043510687558e-07 -3.2853949462889063e-12 3.038450740325094e-08 -1.2998280309568053e-08 0.20000000000000018 -0.19993727999999897 0.40000000000000024 -1.2090987223823197 1.2090487307044437 -1.2090487304564637 -2.2337379987012685e-16 0.004479999999999221 -7.656996863578981e-16 -1.4904095174957553e-16 6.505221111862178e-16 1.3029428150207874e-16
6073.248 -0.5321169178750651 -1.5949107910563463 -1.9354848270717726 0.38894270732704267 2.103074977793918 0.0001913095004864191 0.0274809629012678 0.02591760196399153 -0.026689207671418573 0.0007693438595804737 -0.02748096263294443 -4.456860054861054e-06 1.060936062589844 1.0000324793949122 -1.029352187788363 0.029232484623572304 -1.0609360522356552 -0.0001719837138053621 0.05667752175278464 0.5246726618771812 0.6075055814243872 0.058618402952044533 -0.015041732565843173 -2.7020552368975777e-06 0.7441758606140624 6.888952050447389 5.657213475340178 0.2664206414170424 -0.06836467451175722 -1.2280841051699491e-05 -0.532116715108053 -1.5949109236346644 -1.9354847113238733 0.3889427185058594 2.1030750274658203 0.00019130950386170298 0.027480963617563248 0.025917602702975273 -0.026689207181334496 0.0007693438674323261 -0.0274809617549181 -4.4568600969796535e-06 0.05667752027511597 0.5246726870536804 0.6075055599212646 0.05861840397119522 -0.015041732229292393 -2.7020553261536406e-06 0.05667752027511597 0.5246726870536804 0.6075055599212646 0.05861840397119522 -0.015041732229292393 -2.7020553261536406e-06 0.20000006760328065 -0.1998962913172216 0.3999999955008505 -1.2090988432025198 1.2090485497737404 -1.2090485401318463 -8.780370202547611e-10 0.006480001044661793 1.1657228824473598e-09 -7.61546743153766e-10 -9.872571459307514e-10 1.594321763705899e-09 1.320821572189426e-06 -2.0586642909233575e-06 1.4405929355699622e-07 1.2528222401127067e-11 -1.990438293293633e-07 1.6710745328639223e-07 0.20000000000000112 -0.19989631999999707 0.40000000000000074 -1.20909872238232 1.2090487307044444 -1.209048730456463 -9.296954601061325e-16 0.006479999999997437 -7.494267153082656e-16 1.4584028824547944e-16 4.517571586426731e-16 -1.8754477122557018e-17
6073.255999999999 -0.5318695362722261 -1.5946775233654895 -1.9357250059169084 0.38894959812757596 2.1028275961934937 0.00019126938600465097 0.038184344047285795 0.03599953192197134 -0.03706092921524406 0.0010582567282265947 -0.03818434367456396 -6.19092960124774e-06 1.3379226432522493 1.2602412447474762 -1.2964651929781856 0.036114108580765136 -1.3379226302024414 -0.00021675869329833576 0.07146444662866175 0.5385918868608067 0.6007716362073363 0.05950423648611283 -0.01896958610169128 -3.4055199147094086e-06 0.9383281842343287 7.071711474482393 5.594505630689957 0.2704467548293828 -0.08621676883218687 -1.547808801235426e-05 -0.5318697134601038 -1.594677750264303 -1.9357250372516077 0.38894960284233093 2.102827548980713 0.00019126938423141837 0.03818434476852417 0.03599953278899193 -0.0370609275996685 0.0010582567192614079 -0.03818434476852417 -6.190929525473621e-06 0.07146444916725159 0.5385918617248535 0.6007716655731201 0.05950423702597618 -0.018969586119055748 -3.405519919397193e-06 0.07146444916725159 0.5385918617248535 0.6007716655731201 0.05950423702597618 -0.018969586119055748 -3.405519919397193e-06 0.20000001288416108 -0.19983806772105886 0.3999999298318596 -1.2090986824806378 1.209049117630436 -1.2090486977487278 2.627226106748245e-09 0.009000002014392631 2.279008331170644e-09 -9.597477578028048e-09 2.777687406581075e-09 -3.727210927257392e-10 -1.52870767954006e-06 2.3041591256494826e-06 -3.5488625176496364e-07 -1.2838617959522618e-11 2.2002148314859016e-07 -1.8866955060484454e-07 0.20000000000000265 -0.19983799999999277 0.400000000000002 -1.2090987223823193 1.2090487307044442 -1.209048730456464 -3.3932955542255924e-15 0.008999999999992438 -2.0881352863093183e-15 3.442750078186547e-16 3.9550704684989197e-17 -4.853072989826997e-16
6073.264 -0.5315300202080397 -1.594357510058984 -1.9360543911942685 0.38895894218772803 2.1024880801326207 0.0001912143503561892 0.0513668840522875 0.04840465562506803 -0.04981268604558092 0.001403809748844977 -0.05136688355108862 -8.324923052522233e-06 1.6478175006252134 1.550640462887086 -1.593969603792108 0.04319412757729777 -1.6478174845655822 -0.00026674918140931166 0.08800039332789279 0.5540685640292966 0.5932686340973331 0.060484139084541574 -0.023365697327659966 -4.19092602791963e-06 1.1554451643952324 7.274920245704665 5.524636174441186 0.27490041213924143 -0.10619709435421454 -1.904775879689472e-05 -0.5315302054034632 -1.5943573156939905 -1.936054531727926 0.3889589309692383 2.1024880409240723 0.0001912143488880247 0.051366884261369705 0.04840465635061264 -0.0498126856982708 0.0014038097579032183 -0.051366884261369705 -8.324923328473233e-06 0.08800039440393448 0.5540685653686523 0.593268632888794 0.0604841373860836 -0.023365696892142296 -4.190926119918004e-06 0.08800039440393448 0.5540685653686523 0.593268632888794 0.0604841373860836 -0.023365696892142296 -4.190926119918004e-06 0.19999992281013756 -0.19975801661595827 0.40000001474627356 -1.2090986051497772 1.209048858672125 -1.2090489289897801 8.777609431376253e-10 0.01209999803109048 -1.9146794816852846e-09 1.3383320964980954e-09 -2.0418129397144013e-09 -5.011984998588267e-10 3.811710207853332e-08 -1.6735963760304028e-07 -3.0300356730549414e-08 2.734862272820889e-12 -2.3090893945770788e-08 1.1729290550536969e-08 0.20000000000000628 -0.1997579999999837 0.4000000000000041 -1.2090987223823195 1.2090487307044453 -1.2090487304564634 -7.91409263468339e-15 0.012099999999979847 -5.81931321976367e-15 -1.4958306793186446e-16 2.0728369291850275e-16 3.9023028386778027e-16
6073.272 -0.531077814901157 -1.5939315181018916 -1.9364926627503891 0.3889711846544831 2.102035874830149 0.00019114108187473977 0.06729650989608157 0.06337531664431903 -0.06518550876104895 0.0018046697414428976 -0.06729650923980328 -1.0900806658097848e-05 1.991203230474259 1.8713326274063748 -1.9216028394335032 0.05010749907474008 -1.991203211089332 -0.0003219854506969518 0.10631206849263025 0.571088131300355 0.5850015530559038 0.061552476348240785 -0.028239286974134758 -5.058749192060998e-06 1.3958774593082353 7.498387163973661 5.447651462367188 0.2797560050027543 -0.12834755929744246 -2.2992015077917237e-05 -0.5310776869403284 -1.5939315001117151 -1.9364927450763147 0.3889711797237396 2.1020357608795166 0.00019114107999484986 0.06729651242494583 0.0633753165602684 -0.06518550962209702 0.0018046697368845344 -0.06729651242494583 -1.0900806955760345e-05 0.10631206631660461 0.5710881352424622 0.585001528263092 0.06155247613787651 -0.028239287436008453 -5.058749138697749e-06 0.10631206631660461 0.5710881352424622 0.585001528263092 0.06155247613787651 -0.028239287436008453 -5.058749138697749e-06 0.2000000223839417 -0.19965150188125275 0.39999998251634544 -1.2090987471308008 1.2090487809585244 -1.209048666066266 -1.6507848615243978e-09 0.015840000034023038 -7.158547924462477e-10 -3.5382895529276135e-09 3.180691757849241e-09 -6.56278426967922e-10 7.504268744829616e-07 -1.0446238809847342e-06 6.832963767964907e-07 -8.312393254229473e-13 -6.159223060118169e-08 8.767216365697981e-08 0.20000000000001328 -0.19965151999996594 0.4000000000000092 -1.209098722382319 1.2090487307044435 -1.2090487304564648 -1.955845385234548e-14 0.015839999999950796 -1.2511010335336118e-14 1.631165343650782e-17 -7.815602868625353e-16 -2.0212849938955445e-16
6073.28 -0.5304902016943203 -1.5933783721031247 -1.937061419489023 0.3889867472153429 2.101448261629041 0.00019104593209886634 0.08624744095453889 0.08115496813633398 -0.08341760275661271 0.0022555690814569274 -0.08624744011402925 -1.3960874266095317e-05 2.368866382307164 2.2224564365018686 -2.2790117494454702 0.05636241750175372 -2.368866359278247 -0.0003825084509996836 0.12643568379459968 0.589635137419293 0.575977157577607 0.06270147722876646 -0.03360279567257049 -6.00963277459503e-06 1.660100528223094 7.741909354315318 5.363614486794193 0.2849782140047435 -0.15272470633183288 -2.7313780960534408e-05 -0.5304902235614222 -1.5933783690081995 -1.937061611806051 0.388986736536026 2.1014482975006104 0.00019104592502117157 0.08624744415283203 0.081154964864254 -0.08341760188341141 0.002255568979308009 -0.08624743670225143 -1.3960874639451504e-05 0.12643568217754364 0.5896351337432861 0.5759771466255188 0.06270147860050201 -0.033602796494960785 -6.009632670611609e-06 0.12643568217754364 0.5896351337432861 0.5759771466255188 0.06270147860050201 -0.033602796494960785 -6.009632670611609e-06 0.1999999965092413 -0.19951328194724055 0.39999994855956966 -1.2090987814825076 1.2090488951896212 -1.209048564159346 1.7559016161054212e-09 0.020280000624510307 -1.4093306499794592e-09 -1.3606743472795042e-08 1.0880209432278911e-08 6.61007369664666e-09 1.7802860740890507e-07 -1.526532616985288e-07 4.538749481148125e-07 -5.912093212845209e-12 2.1554146397319547e-08 1.624352592807868e-08 0.20000000000002638 -0.1995132799999336 0.4000000000000173 -1.2090987223823193 1.2090487307044444 -1.2090487304564637 -4.3921526626160426e-14 0.02027999999988905 -3.0133935454921605e-14 -4.72777544930089e-16 8.741761407311e-16 1.0559504984178014e-15
6073.288 -0.529742241117356 -1.5926749442607289 -1.9377841538684315 0.3890059925440425 2.100700301059363 0.00019092491280421487 0.10850217928899297 0.10198852825144204 -0.10474347331731325 0.0027460754955176345 -0.1085021782325319 -1.7547852021992615e-05 2.7818422918067607 2.604195014388508 -2.665733820087567 0.06131330175758839 -2.781842264812831 -0.0004483722194871622 0.14841907920532055 0.6096934315343187 0.5662043889886308 0.06392076137383972 -0.03947259052416856 -7.044425759498304e-06 1.9487425099658586 8.005274756045605 5.272608511139929 0.2905198604441015 -0.17940292393234608 -3.201691507691979e-05 -0.5297420660602015 -1.59267503419985 -1.9377840201007288 0.38900598883628845 2.1007003784179688 0.00019092491129413247 0.10850217938423157 0.1019885316491127 -0.10474347323179245 0.002746075391769409 -0.10850217938423157 -1.7547852621646598e-05 0.1484190821647644 0.6096934080123901 0.5662043690681458 0.063920758664608 -0.03947259113192558 -7.044425728963688e-06 0.1484190821647644 0.6096934080123901 0.5662043690681458 0.063920758664608 -0.03947259113192558 -7.044425728963688e-06 0.20000005390267966 -0.19933748978341678 0.40000001100359134 -1.2090988311639232 1.2090485097641555 -1.2090485758637255 -3.891211729364099e-09 0.025480002371853026 3.349161295964224e-09 2.0484068097787375e-09 -5.1174043270731486e-09 -1.056460958906073e-09 -3.8514606408654887e-07 2.9772862732229593e-07 1.0754921671640457e-06 -1.722486028012228e-11 1.2155820336914975e-07 -2.1629189735573022e-08 0.20000000000004853 -0.199337519999877 0.40000000000003194 -1.2090987223823195 1.2090487307044437 -1.2090487304564639 -9.316682584078043e-14 0.025479999999767237 -6.079979005489206e-14 -2.4332646819783444e-16 3.740471876225132e-17 -1.811022191789024e-18
6073.295999999999 -0.5288066986600395 -1.5917961412089339 -1.938686218844171 0.38902917809445575 2.0997647586111508 0.00019077369212324973 0.1343539054923805 0.12612281115834803 -0.12939288615467245 0.003259121706654912 -0.13435390418563833 -2.1705025255185807e-05 3.23146577542344 3.0167853633632484 -3.0811766046699005 0.06413077639215968 -3.231465744138304 -0.000519646654149149 0.17232413002423386 0.6312463866881793 0.5556947958451458 0.0651968133924623 -0.04586976411911499 -8.164226321854409e-06 2.2626158272181907 8.288265057215796 5.174741077869167 0.29631951686874114 -0.2084780779213776 -3.7106408632828286e-05 -0.5288065115558069 -1.5917962233172815 -1.9386861960040491 0.3890291750431061 2.099764823913574 0.00019077368779107928 0.134353905916214 0.12612281739711761 -0.12939289212226868 0.003259121673181653 -0.134353905916214 -2.1705025574192405e-05 0.17232413589954376 0.6312463879585266 0.5556948184967041 0.06519681215286255 -0.04586976394057274 -8.164226528606378e-06 0.17232413589954376 0.6312463879585266 0.5556948184967041 0.06519681215286255 -0.04586976394057274 -8.164226528606378e-06 0.20000005497969853 -0.19911796758744854 0.3999999834787258 -1.209098858184066 1.209048599342007 -1.2090484959872514 -5.716097614950345e-09 0.03150000308240137 2.2944168742790127e-09 -7.349256239088057e-09 4.017373093381738e-09 -1.3067416118745678e-09 -6.648254748423483e-07 4.7469386630010776e-07 -7.641803772031296e-07 3.883098045909532e-12 1.1328276773113437e-08 -3.9702921063597946e-08 0.20000000000008591 -0.19911799999978266 0.4000000000000562 -1.2090987223823195 1.2090487307044435 -1.2090487304564634 -1.8283885032145307e-13 0.03149999999953838 -1.2010535553107632e-13 -3.226079827828673e-17 6.63778338302919e-16 2.1704020994191384e-16
6073.304 -0.527653949827358 -1.5907148871222159 -1.9397947858919986 0.3890563972328108 2.0986120097896737 0.0001905875895637325 0.16410933352948628 0.15380704529639 -0.15758964911293608 0.00376926904865941 -0.16410933193548652 -2.647639089534646e-05 3.719428504638224 3.460529267255246 -3.5245953697829524 0.06376841775056225 -3.719428468731023 -0.0005964207050200814 0.19822947852895467 0.6542771648149395 0.5444630050680144 0.06651239990729023 -0.052821038955990746 -9.370431965537724e-06 2.6027530530851752 8.590659174020155 5.070148395794364 0.30229885757863406 -0.2400716220549779 -4.258861328336895e-05 -0.52765399614443 -1.5907147566424769 -1.9397948423968714 0.38905638456344604 2.098612070083618 0.0001905875833472237 0.16410933434963226 0.15380704402923584 -0.1575896441936493 0.0037692689802497625 -0.16410933434963226 -2.647639121278189e-05 0.19822947680950165 0.6542771458625793 0.5444629788398743 0.06651239842176437 -0.05282104015350342 -9.3704320534016e-06 0.19822947680950165 0.6542771458625793 0.5444629788398743 0.06651239842176437 -0.05282104015350342 -9.3704320534016e-06 0.19999996397413747 -0.19884798869790585 0.40000001956689013 -1.2090987127366153 1.2090486668085991 -1.20904876794094 -4.020902335657381e-10 0.038399995435967935 -3.5283844264004593e-09 6.8879828101922495e-09 -8.163761999447701e-09 -1.593999609510434e-09 4.56156085028359e-08 6.826387949793052e-08 1.2014846800963252e-06 -1.4152148715228762e-11 9.007150148592491e-08 -1.4692723387829278e-10 0.2000000000001459 -0.1988479999996307 0.40000000000009495 -1.2090987223823193 1.209048730704444 -1.2090487304564632 -3.446194882951427e-13 0.03839999999913024 -2.2511221776367752e-13 -1.057482617426041e-16 9.761685325592096e-16 -2.4753234766838263e-16
6073.312 -0.5262518605925584 -1.5894021023309772 -1.9411387926308565 0.3890875054829829 2.0972099205684813 0.0001903615697073657 0.1980920865401994 0.18529349271384324 -0.18955020062576222 0.004240676776011334 -0.198092084619262 -3.190683955837437e-05 4.247844126339141 3.935805927181655 -3.9950689391032683 0.0589259659189905 -4.247844085471936 -0.0006788060828784888 0.22623364367841664 0.678769032792556 0.532527234725875 0.06784592399314393 -0.06035979414326239 -1.0664797791002036e-05 2.9704477414976105 8.91223740056626 4.959000115214294 0.30835972454883914 -0.27433526438112754 -4.847150596010425e-05 -0.5262520948993128 -1.5894020239459437 -1.9411385695086878 0.3890874981880188 2.097209930419922 0.0001903615629998967 0.19809208810329437 0.18529349565505981 -0.18955020606517792 0.004240676760673523 -0.19809208810329437 -3.190683855791576e-05 0.22623364627361298 0.678769052028656 0.5325272083282471 0.06784592568874359 -0.06035979464650154 -1.0664797628123779e-05 0.22623364627361298 0.678769052028656 0.5325272083282471 0.06784592568874359 -0.06035979464650154 -1.0664797628123779e-05 0.1999999363411777 -0.19852035609490953 0.4000000806796699 -1.2090985377969168 1.2090486387480888 -1.2090491248533661 8.724608108483425e-09 0.04623999688902755 -1.9012988229033785e-09 5.1659390791969425e-08 -2.710148945640593e-08 -1.920929170261068e-09 1.111354498796599e-06 -2.1762664682280142e-06 4.4300775860700553e-07 2.926740144755472e-12 -1.5759174292958567e-07 1.8055173637172156e-07 0.2000000000002392 -0.19852031999939368 0.400000000000155 -1.2090987223823193 1.2090487307044435 -1.2090487304564637 -6.210029665587094e-13 0.04623999999843003 -4.038921294834131e-13 -2.8502373794104243e-16 5.046672279706254e-16 -5.41238968627899e-16
6073.32 -0.5245656388293645 -1.5878266765827087 -1.9427488784496072 0.38912202942267626 2.0955236988216233 0.00019009023433409547 0.23664666654875233 0.2208381861550232 -0.22548199021773044 0.004624745706317424 -0.23664666425842723 -3.804237231112378e-05 4.819322501069114 4.443086680147496 -4.491473698996027 0.0480086162882613 -4.819322454895653 -0.000766941594093676 0.2564585777793428 0.70470574129186 0.5199098498136624 0.06917071004053171 -0.06852723608713282 -1.204950460053842e-05 3.367301126242771 9.252786383162123 4.841504503434788 0.31438087713421664 -0.31145628801601866 -5.476499840944712e-05 -0.5245655218707483 -1.5878265539752405 -1.9427488485919397 0.38912203907966614 2.0955235958099365 0.00019009022798854858 0.23664666712284088 0.22083818912506104 -0.22548198699951172 0.004624745808541775 -0.23664666712284088 -3.80423734895885e-05 0.256458580493927 0.7047057151794434 0.5199098587036133 0.06917071342468262 -0.0685272365808487 -1.2049504221067764e-05 0.256458580493927 0.7047057151794434 0.5199098587036133 0.06917071342468262 -0.0685272365808487 -1.2049504221067764e-05 0.1999999960162009 -0.19812724932912515 0.40000004208335016 -1.2090986854456727 1.2090485787040308 -1.209048846311542 -1.0682396947213165e-08 0.0550799938175344 -3.4008790768726547e-09 3.0055736661855084e-08 -2.4655895148866268e-08 -2.290322402797467e-09 -1.1146983977524214e-06 1.5494808505591624e-06 3.7191892531312466e-07 -2.2265921965855302e-11 2.1991887545147472e-07 -1.2468652742281763e-07 0.20000000000038026 -0.1981272799990337 0.4000000000002453 -1.2090987223823189 1.209048730704443 -1.2090487304564639 -1.0774912866838492e-12 0.05507999999727119 -6.978890000205106e-13 -2.860766958474306e-16 1.217431671418836e-15 5.8512667052771236e-18
6073.3279999999995 -0.5225576516724315 -1.5859554359372083 -1.9446573064217665 0.3891590555036321 2.093515711684102 0.0001897678126731128 0.2801431049851422 0.26070180399323173 -0.265581635835077 0.004857400889174481 -0.28014310228012845 -4.493035835104114e-05 5.437054804548737 4.982952229776065 -5.012455702168319 0.029081897857132097 -5.437054752712653 -0.0008609982549896704 0.28905375806958217 0.7320719804994646 0.5066379630332162 0.07045421017638534 -0.07737374076968558 -1.3527239250615487e-05 3.7952758434536142 9.61210510395797 4.7179140393579155 0.32021438525167134 -0.35166365179822096 -6.148130239404739e-05 -0.522557560597555 -1.5859554449664515 -1.9446571508990687 0.38915905356407166 2.093515634536743 0.00018976781575474888 0.2801431119441986 0.2607018053531647 -0.2655816376209259 0.004857400897890329 -0.2801431119441986 -4.493035885388963e-05 0.2890537679195404 0.7320719957351685 0.5066379904747009 0.07045421004295349 -0.07737374305725098 -1.3527239389077295e-05 0.2890537679195404 0.7320719957351685 0.5066379904747009 0.07045421004295349 -0.07737374305725098 -1.3527239389077295e-05 0.20000001948470733 -0.19766070895499316 0.40000003912933096 -1.20909868985726 1.2090485940929296 -1.2090488325361448 -4.4615260651238055e-09 0.06498000110070991 2.061691137016241e-09 3.5300319155614164e-08 -1.9847041526546046e-08 -2.7050106971965676e-09 -4.914629283676786e-07 -3.605069623507496e-07 -1.1973390745115656e-06 7.8709282376083e-12 -7.451369787342485e-08 3.991435867662729e-08 0.2000000000005886 -0.19766071999850093 0.40000000000037705 -1.2090987223823186 1.2090487307044429 -1.2090487304564634 -1.80731382081487e-12 0.06497999999540964 -1.1657560767258373e-12 -9.685870390072942e-16 1.9915595347386193e-15 3.3253714446350536e-16
6073.335999999999 -0.5201872029981525 -1.5837531021090587 -1.9468978696678754 0.3891970957690813 2.09114526303268 0.00018938814942624847 0.32898239854514405 0.3051507072442357 -0.3100328419368876 0.004855973006187592 -0.3289823953771886 -5.261984141029167e-05 6.1049116950002285 5.556112906375497 -5.556400762726329 -0.00017848537336117003 -6.104911637132518 -0.0009611853824063165 0.3242009246058487 0.7608539292066303 0.4927440835623478 0.07165712104776413 -0.08696040243802547 -1.5101290341361462e-05 4.256758140074794 9.990012090483056 4.588531454949295 0.32568161516208793 -0.39523502908082575 -6.863536460148785e-05 -0.5201872030841272 -1.5837529341327112 -1.9468978087054651 0.38919708132743835 2.0911452770233154 0.0001893881562864408 0.328982412815094 0.30515071749687195 -0.31003284454345703 0.004855973180383444 -0.3289823830127716 -5.261984188109636e-05 0.32420092821121216 0.7608539462089539 0.4927440881729126 0.07165712118148804 -0.08696040511131287 -1.5101290046004578e-05 0.32420092821121216 0.7608539462089539 0.4927440881729126 0.07165712118148804 -0.08696040511131287 -1.5101290046004578e-05 0.19999996465451947 -0.19711197863213598 0.4000000609430392 -1.2090986704282827 1.2090485329937144 -1.2090488867083466 -6.0004480348220295e-09 0.07599999347316866 -7.609776337825624e-09 5.73428016255428e-08 -4.18599215013289e-08 2.6634374267362207e-08 2.8457125411020074e-07 -9.787439070794294e-07 -5.151789738277518e-07 5.904559601598e-12 -1.1363184100108926e-07 9.231792173443733e-08 0.20000000000088863 -0.1971119999977296 0.4000000000005649 -1.2090987223823184 1.2090487307044426 -1.209048730456464 -2.9441239930294484e-12 0.07599999999250419 -1.8857580771023913e-12 -1.1454792622771795e-15 2.518867587703224e-15 -1.8001705063166366e-16
6073.344 -0.5174102643042087 -1.5811822428594589 -1.9495057801918563 0.3892339270973151 2.088368324365435 0.00018894469013984788 0.365336054299785 0.33757920742899117 -0.3419086294422635 0.004300601847592044 -0.36533605079290116 -5.824943306974992e-05 4.544206969330118 4.053562523094432 -3.984473438171987 -0.0694213948244435 -4.54420692696407 -0.0007036989574322808 0.2407171150359556 0.6769749544666501 0.5323760677331268 0.06619636779051745 -0.06489606998168748 -1.1055892508991612e-05 3.1606157204220975 8.888681152147116 4.957592417944424 0.3008624916079018 -0.2949526380667696 -5.0249031453366875e-05 -0.5174101034747522 -1.5811823050128382 -1.949505631123678 0.38923391699790955 2.0883684158325195 0.0001889446866698563 0.3653360605239868 0.33757922053337097 -0.34190863370895386 0.004300601780414581 -0.3653360605239868 -5.8249432186130434e-05 0.2407171130180359 0.6769749522209167 0.5323760509490967 0.06619636714458466 -0.06489606946706772 -1.1055892173317261e-05 0.2407171130180359 0.6769749522209167 0.5323760509490967 0.06619636714458466 -0.06489606946706772 -1.1055892173317261e-05 0.20000004517138603 -0.19647196806425007 0.4000000224584758 -1.209098820498853 1.2090484778038777 -1.2090486041969875 -1.216243053918345e-08 0.08400000692804686 8.617553926169847e-09 2.005390635556143e-08 -2.150951309846205e-08 -3.5068811690255534e-09 3.824206649994209e-07 -3.9212142932168685e-07 5.614666701806103e-07 -3.640442082133066e-12 -9.096522222594722e-09 2.9784648822483698e-08 0.20000000000131224 -0.1964719999966352 0.4000000000008262 -1.2090987223823177 1.209048730704442 -1.209048730456464 -4.444246289535243e-12 0.08399999998864764 -2.8248563460758924e-12 -1.6166275749019912e-15 2.7652527803754568e-15 1.0459012275521209e-15
6073.352 -0.5143404111007257 -1.578351579018329 -1.9523678002080675 0.3892650421752405 2.085298471191368 0.0001884560830746149 0.40222039689979694 0.37010363333249857 -0.3735565894844873 0.0034215072671241807 -0.40222039305228297 -6.390731253097099e-05 4.610542825001493 4.065553237938425 -3.9559950052779693 -0.10988682255848287 -4.610542782422726 -0.0007072349326526337 0.24385383954261913 0.6748308090491054 0.5329853205071923 0.06560237380365859 -0.06594097068222947 -1.1111446608564713e-05 3.2018009131945897 8.860528522814755 4.963265901627076 0.29816278893762826 -0.29970171175073296 -5.0501524835926614e-05 -0.5143402258502405 -1.5783517996417444 -1.9523676077472132 0.3892650306224823 2.085298538208008 0.00018845607701223344 0.40222039818763733 0.3701036274433136 -0.37355658411979675 0.0034215073101222515 -0.40222039818763733 -6.390731141436845e-05 0.2438538372516632 0.6748307943344116 0.5329853296279907 0.0656023770570755 -0.0659409686923027 -1.1111446838185657e-05 0.2438538372516632 0.6748307943344116 0.5329853296279907 0.0656023770570755 -0.0659409686923027 -1.1111446838185657e-05 0.20000008403343428 -0.1957679844481294 0.3999999912067881 -1.2090988527257203 1.2090485796545822 -1.2090485139467504 -4.578706303758222e-09 0.0920000182630498 1.9105856701286287e-08 -1.3668904936353317e-08 8.273301747412834e-09 -3.847512377671897e-09 -5.798472923140665e-07 1.292602472389429e-06 1.1221481179829648e-07 -7.480118215658038e-12 1.3802004342740696e-07 -1.149248161008742e-07 0.2000000000017617 -0.19576799999546643 0.4000000000010985 -1.2090987223823173 1.2090487307044413 -1.2090487304564643 -6.5622347523648434e-12 0.09199999998317557 -4.131467030925136e-12 -2.5953215632371564e-15 3.583236974704083e-15 8.035519963246638e-16
6073.36 -0.5109731706712726 -1.5752602999064136 -1.9554820200305754 0.38928772088924446 2.081931230794064 0.00018792208909837143 0.439692527433819 0.40273487889854126 -0.404954948035385 0.0021860246930994684 -0.4396925232437766 -6.959671229356883e-05 4.684016316752755 4.078905695755336 -3.924794818862216 -0.15443532175308902 -4.684016273936706 -0.00071117497032473 0.24733391405645574 0.6725005185566425 0.533657896080958 0.06494702135699325 -0.06709811019370479 -1.117334897821298e-05 3.247494291561264 8.829931808648716 4.969529059885097 0.2951842120675343 -0.3049609108303883 -5.0782871105977996e-05 -0.5109732786761683 -1.5752604643451136 -1.9554818312274378 0.38928771018981934 2.0819311141967773 0.00018792209448292851 0.43969252705574036 0.4027348756790161 -0.4049549400806427 0.002186024794355035 -0.43969252705574036 -6.959671009099111e-05 0.24733391404151917 0.672500491142273 0.5336579084396362 0.06494702398777008 -0.06709811091423035 -1.1173348866577726e-05 0.24733391404151917 0.672500491142273 0.5336579084396362 0.06494702398777008 -0.06709811091423035 -1.1173348866577726e-05 0.20000001459237604 -0.19500005113099117 0.4000000056063755 -1.209098612325773 1.209048884148089 -1.2090489064120418 2.0236348740060066e-08 0.1000000148548445 1.7642057063249573e-08 2.8784382037470273e-09 -7.149110848028717e-09 -4.190041276170949e-09 -1.1675048593866142e-06 1.9018971376943235e-06 2.762970000997074e-07 -1.8806761286872875e-11 2.2701635790585562e-07 -1.5251983072386394e-07 0.2000000000022346 -0.1949999999942287 0.4000000000013785 -1.2090987223823164 1.2090487307044409 -1.2090487304564648 -8.809563305602305e-12 0.09999999997733178 -5.492791128864952e-12 -3.347744027247365e-15 4.795620230385346e-15 1.2537621839155984e-15
6073.3679999999995 -0.5073036061375342 -1.5719075058280172 -1.9588463555802749 0.3892989797439626 2.0782616662952225 0.00018734244259244198 0.47781141769772756 0.43548431067583776 -0.4360818780161164 0.0005609640662269059 -0.4778114131630549 -7.532102466891809e-05 4.764861282988572 4.093678972162063 -3.8908662475914264 -0.2031325783590703 -4.764861239909789 -0.0007155390469186577 0.2511691089754425 0.6699858534140972 0.534394654111977 0.06422914940719547 -0.06837117253499594 -1.1241913470477578e-05 3.2978504008475595 8.796914255327097 4.976389898021552 0.2919214840557034 -0.3107469791715566 -5.109449672332059e-05 -0.507303539906637 -1.5719073454486292 -1.958846394215719 0.3892989754676819 2.078261613845825 0.00018734244804363698 0.47781142592430115 0.4354843199253082 -0.4360818862915039 0.0005609640502370894 -0.47781142592430115 -7.532102608820423e-05 0.2511691153049469 0.669985830783844 0.5343946814537048 0.06422915309667587 -0.06837116926908493 -1.1241913853154983e-05 0.2511691153049469 0.669985830783844 0.5343946814537048 0.06422915309667587 -0.06837116926908493 -1.1241913853154983e-05 0.19999997855380736 -0.19416797197229152 0.4000000324728551 -1.2090986953175717 1.2090486179656816 -1.2090488108615451 -1.6654878393901155e-08 0.10799998527634272 -1.4532674288031476e-08 4.859322755736108e-08 -2.810225817912026e-08 -4.534668010086083e-09 -1.5216879109725128e-06 1.9241027172799223e-06 -2.767165282804736e-07 -1.2692361981300663e-11 2.177148527012875e-07 -1.7246383958534183e-07 0.2000000000027285 -0.19416799999292628 0.4000000000016628 -1.209098722382316 1.209048730704441 -1.2090487304564648 -1.1174264205728765e-11 0.10799999997114305 -6.892770285792994e-12 -4.763834798264002e-15 4.9196430248606176e-15 1.5588726900496741e-15
6073.375999999999 -0.5033263007040567 -1.5682922041382303 -1.962458547888609 0.3892955674346547 2.0742843608994086 0.00018671685009451992 0.516638109085589 0.46836380564378094 -0.4669154807795032 -0.0014874464828513847 -0.5166381042039694 -8.108382171705633e-05 4.853336423482686 4.109936870992898 -3.8542003454233447 -0.2560513186347863 -4.853336380114308 -0.0007203496310172801 0.2553724705575494 0.6672886915271077 0.5351965685621752 0.06344746984178536 -0.06976423261545714 -1.1317493091760379e-05 3.3530405384206237 8.761500519750923 4.9838574857646885 0.2883687504309144 -0.3170784372372527 -5.143800610205092e-05 -0.5033262411700647 -1.568291966115133 -1.9624584356891077 0.3892955780029297 2.074284315109253 0.00018671684665605426 0.5166381001472473 0.46836379170417786 -0.466915488243103 -0.0014874464832246304 -0.5166381001472473 -8.108382462523878e-05 0.25537246465682983 0.6672887206077576 0.5351965427398682 0.06344746798276901 -0.06976423412561417 -1.1317492862872314e-05 0.25537246465682983 0.6672887206077576 0.5351965427398682 0.06344746798276901 -0.06976423412561417 -1.1317492862872314e-05 0.1999999585525235 -0.19327196267498323 0.4000000948353346 -1.209098624336522 1.2090484055569177 -1.209048997889928 -2.068177822853202e-08 0.11599996948059184 -2.5512772479565876e-08 1.7360219806176307e-07 -7.115456671754516e-08 -4.881584869393421e-09 1.7065313389164836e-06 -2.195188490262898e-06 1.2870392534253213e-07 1.6529843697502122e-11 -2.479631590511564e-07 1.8668939390922698e-07 0.20000000000324114 -0.19327199999156283 0.40000000000194863 -1.2090987223823146 1.2090487307044397 -1.2090487304564663 -1.3643701866476551e-11 0.11599999996463109 -8.314486142535895e-12 -5.184688438533001e-15 5.114302390430623e-15 1.820614189860154e-15
6073.384 -0.49903534027482976 -1.564413305011505 -1.9663161624396537 0.3892739599594588 2.069993400510631 0.00018604498877513207 0.5562359208912738 0.5013857880266479 -0.4974337641769578 -0.003993619358032114 -0.5562359156601608 -8.688887694168118e-05 4.949726475710597 4.127747797858371 -3.8147854246818254 -0.31327160939759113 -4.949726432023932 -0.0007256319030781054 0.2599583866263516 0.6644110048105575 0.5360647374759365 0.0626005613756716 -0.07128177474642616 -1.1400483455027123e-05 3.4132536164039973 8.72371649316262 4.991942048323416 0.28451955145242747 -0.3239756662225069 -5.181519730309827e-05 -0.4990351835833948 -1.5644133726703089 -1.966316048298971 0.3892739713191986 2.069993495941162 0.00018604498472996056 0.5562359094619751 0.5013858079910278 -0.49743375182151794 -0.003993619233369827 -0.5562359094619751 -8.688887464813888e-05 0.2599583864212036 0.6644110083580017 0.5360647439956665 0.06260056048631668 -0.07128177583217621 -1.1400483344914392e-05 0.2599583864212036 0.6644110083580017 0.5360647439956665 0.06260056048631668 -0.07128177583217621 -1.1400483344914392e-05 0.20000004357724543 -0.19231196816217022 0.400000013436585 -1.2090988245823049 1.2090484945711182 -1.2090485891807798 -2.2053910960869736e-08 0.12400000810051376 1.821104482313875e-08 1.2724152904835247e-08 -4.389317322033924e-08 -5.2311072204048435e-09 -3.930749570639997e-08 4.503587398863074e-08 -3.052052277113646e-07 3.260675440192897e-12 -2.414475635812085e-08 1.2457184698006415e-09 0.20000000000377016 -0.19231199999014306 0.40000000000223157 -1.2090987223823142 1.2090487307044386 -1.209048730456466 -1.6206595214302813e-11 0.12399999995781384 -9.743770077420369e-12 -7.169772122794946e-15 7.196828848408519e-15 4.138949117049138e-15
6073.392 -0.4944242943628536 -1.5602696169203103 -1.9704165883222347 0.38923035525196586 2.0653823546419106 0.00018532650473275652 0.5966706689067706 0.5345632649256189 -0.5276146169600824 -0.0069926687032491625 -0.5966706633233819 -9.274018898930028e-05 5.054343501937092 4.147184612371374 -3.772606597890575 -0.3748811681521311 -5.054343457902635 -0.0007314140059523879 0.26494265884867924 0.6613548438509641 0.5370003934465334 0.061686863111934956 -0.07292871289236266 -1.1491326715740849e-05 3.4786971106831586 8.683589099763159 5.0006550638528084 0.2803667928437444 -0.33146100009578827 -5.222807992304216e-05 -0.4944241682635706 -1.5602696577655237 -1.9704163710223597 0.389230340719223 2.065382242202759 0.00018532649846747518 0.5966706871986389 0.5345632433891296 -0.5276145935058594 -0.006992668844759464 -0.5966706871986389 -9.274019248550758e-05 0.26494264602661133 0.6613548398017883 0.5370004177093506 0.061686862260103226 -0.07292871177196503 -1.1491326404211577e-05 0.26494264602661133 0.6613548398017883 0.5370004177093506 0.061686862260103226 -0.07292871177196503 -1.1491326404211577e-05 0.20000003328537364 -0.19128798891467347 0.40000004659451993 -1.2090986804724762 1.2090485793518653 -1.2090488443545582 -5.859261023401318e-09 0.13200000476802562 9.72509641522224e-09 8.420027314438363e-08 -4.7400395883239e-08 -5.583377845812106e-09 -2.676365079959698e-07 1.9022182716602038e-06 -6.980516615105163e-07 1.0083831485120606e-11 4.881832405115639e-08 -1.6089431664889671e-07 0.20000000000431284 -0.19128799998867166 0.40000000000250807 -1.2090987223823129 1.2090487307044382 -1.2090487304564672 -1.885186540629245e-11 0.13199999995071504 -1.1158028155695904e-11 -8.184857333226786e-15 8.407985210461819e-15 3.918817793697395e-15
6073.4 -0.4894861952067533 -1.5558598418341498 -1.9747570371617709 0.3891606673140726 2.060444255531897 0.00018456101109023599 0.6380108952131673 0.5679098605608074 -0.5574357792664548 -0.010520474131392189 -0.6380108892744606 -9.864200765784987e-05 5.167528288299597 4.168324454398562 -3.727645288296555 -0.4409756785178783 -5.167528243884833 -0.0007377273335686985 0.2703425817748895 0.658122320412731 0.5380049147615581 0.060704667820917844 -0.07471041268177088 -1.159051610740155e-05 3.5495980987042994 8.641146067019159 5.010009367242581 0.2759027152460716 -0.3395588256386486 -5.267889570814005e-05 -0.48948604265321904 -1.5558598677264612 -1.9747570196734827 0.3891606628894806 2.0604443550109863 0.00018456100951880217 0.6380109190940857 0.567909836769104 -0.5574357509613037 -0.010520474053919315 -0.6380108594894409 -9.864200546871871e-05 0.2703425884246826 0.6581223011016846 0.5380049347877502 0.06070466712117195 -0.074710413813591 -1.1590515896386933e-05 0.2703425884246826 0.6581223011016846 0.5380049347877502 0.06070466712117195 -0.074710413813591 -1.1590515896386933e-05 0.20000003495301216 -0.19019996449020124 0.3999999975111691 -1.2090988454407996 1.209048556317403 -1.2090485350575189 -9.760482528619989e-09 0.1400000082491431 4.556937599472987e-09 -9.383623088277855e-09 -2.1145790986733024e-10 5.366594402319831e-08 -1.3238854602422378e-06 1.3494964732800064e-06 -2.2219676765928973e-07 -1.2984962392098837e-11 1.5258315891777812e-07 -1.0540815776712492e-07 0.20000000000486695 -0.19019999998715353 0.4000000000027731 -1.2090987223823124 1.2090487307044373 -1.2090487304564668 -2.1565453369842454e-11 0.13999999994335793 -1.2540748331462616e-11 -1.0001314968898766e-14 9.143126902404626e-15 5.392075839900359e-15
6073.407999999999 -0.48421351500127674 -1.5511825701510036 -1.979334541799501 0.38906051982888834 2.0551715753753617 0.00018374808587300192 0.6803281100720171 0.6014398488762525 -0.5868748089405924 -0.014613746978250148 -0.6803281037746817 -0.00010459886251254923 5.28965185735622 4.191248539430633 -3.679878709267198 -0.5116591058572448 -5.289651812527635 -0.0007446068568374208 0.27617702886706835 0.6547155874810732 0.5390798372137895 0.05965211499861194 -0.07663271520077308 -1.1698601061867921e-05 3.6262043890246076 8.596415663626491 5.020019260102251 0.2711188626686913 -0.34829569058751364 -5.31701418261897e-05 -0.4842136541949671 -1.5511825720416468 -1.9793346563922327 0.38906052708625793 2.055171489715576 0.00018374808132648468 0.6803281307220459 0.6014398336410522 -0.586874783039093 -0.014613746665418148 -0.6803281307220459 -0.00010459886107128114 0.2761770188808441 0.6547155976295471 0.5390798449516296 0.059652116149663925 -0.07663271576166153 -1.1698601156240329e-05 0.2761770188808441 0.6547155976295471 0.5390798449516296 0.059652116149663925 -0.07663271576166153 -1.1698601156240329e-05 0.19999997401521144 -0.18904803500972625 0.3999999691122497 -1.2090986498042489 1.2090489914968479 -1.2090488129087469 2.810618350783292e-08 0.14800000023225587 2.6408723729877246e-10 -7.087324615498953e-08 2.4882296266324763e-08 -6.297327643032592e-09 4.7029882735632215e-07 3.3576114895738516e-07 -4.451752854532984e-07 1.241250335218501e-11 -5.561621520664363e-08 -2.494216602163089e-08 0.20000000000542895 -0.18904799998559432 0.40000000000302216 -1.209098722382311 1.2090487307044362 -1.2090487304564685 -2.433596406024046e-11 0.1479999999357672 -1.3865635595571082e-11 -1.092096749840997e-14 1.0518336437841215e-14 4.003785887171227e-15
6073.416 -0.4785981411412088 -1.5462362753754526 -1.9841459546847995 0.388925239233652 2.0495562015671194 0.00018288726964660375 0.7236970468288411 0.6351681842123961 -0.6159090434421357 -0.01931009903357523 -0.7236970401692666 -0.0001106155944937039 5.421117094602995 4.216041917017951 -3.6292793126929124 -0.5870440069156353 -5.421117049323118 -0.0007520914976443328 0.2824665457133893 0.6511368164689063 0.5402268665629415 0.05852718377955696 -0.07870196257655723 -1.1816193085212073e-05 3.7087857452168014 8.54942640023674 5.030700626807424 0.2660060502780864 -0.3577004199104526 -5.370459757228887e-05 -0.4785979429828089 -1.5462363401996058 -1.9841459433185022 0.3889252245426178 2.049556255340576 0.00018288726278115064 0.7236970663070679 0.635168194770813 -0.6159090399742126 -0.01931009814143181 -0.7236970663070679 -0.00011061559780500829 0.2824665606021881 0.6511368155479431 0.5402268767356873 0.058527182787656784 -0.07870196551084518 -1.1816193364211358e-05 0.2824665606021881 0.6511368155479431 0.5402268767356873 0.058527182787656784 -0.07870196551084518 -1.1816193364211358e-05 0.20000005256907832 -0.18783196390884133 0.3999999848886769 -1.2090988629221027 1.209048604586752 -1.2090484932188912 -2.396491405420478e-08 0.15600001405541844 1.1859261854032145e-08 -5.064838670981347e-08 9.463366582693876e-09 -6.659564668295185e-09 -7.68357669422282e-07 -5.460765840795855e-07 -3.2652942994496107e-07 -7.271612921308527e-12 9.591344841308403e-09 5.8047547245578e-08 0.2000000000059964 -0.18783199998400005 0.4000000000032496 -1.2090987223823102 1.2090487307044346 -1.2090487304564688 -2.7145587273384724e-11 0.1559999999279714 -1.5111086591287798e-11 -1.2673512719650575e-14 1.2193596646242886e-14 7.884815392402725e-15
6073.424 -0.4726313493709995 -1.541019308560304 -1.9891879459442743 0.3887498472332217 2.0435894098516485 0.0001819780628881071 0.7681959307343839 0.669110529693311 -0.6445155570933875 -0.02464811364396805 -0.7681959237086574 -0.00011669739092905201 5.56236048819285 4.242793185114363 -3.5758142064064717 -0.6672518262991023 -5.5623604424238495 -0.0007602245544185146 0.28923345058596894 0.6473881711550362 0.5414478916372788 0.057327685792669454 -0.0809250253383383 -1.1943972443864217e-05 3.7976352061937724 8.500206687265626 5.042071056504668 0.2605543319276827 -0.3678042401627476 -5.428535475736287e-05 -0.4726312796222132 -1.5410192648517054 -1.989188019429342 0.3887498378753662 2.0435893535614014 0.00018197805911768228 0.7681959271430969 0.6691105365753174 -0.6445155739784241 -0.024648113176226616 -0.7681959271430969 -0.00011669738887576386 0.2892334461212158 0.6473881602287292 0.5414478778839111 0.05732768401503563 -0.08092502504587173 -1.1943972822336946e-05 0.2892334461212158 0.6473881602287292 0.5414478778839111 0.05732768401503563 -0.08092502504587173 -1.1943972822336946e-05 0.2000000043732283 -0.18655198622233193 0.3999999909572608 -1.2090987412753615 1.2090487548770985 -1.2090486909532407 -1.6704170756374577e-08 0.1639999928767886 -1.1039092827850377e-08 -2.2423939418283272e-08 2.218186353173174e-08 -7.0257181808376405e-09 9.244417297590127e-08 3.6159631142378553e-07 6.417299150830623e-07 -2.8630401357684153e-12 5.136243789513938e-08 -3.0942699447489314e-08 0.20000000000656606 -0.18655199998237795 0.40000000000344915 -1.209098722382309 1.2090487307044335 -1.2090487304564694 -2.9983341206948135e-11 0.16399999992 -1.6248240159097525e-11 -1.3788059265136314e-14 1.4850970542357444e-14 7.78573230914224e-15
6073.432 -0.46630377472517637 -1.5355298925316383 -1.9944570010893816 0.388529052735811 2.03726183526351 0.00018101992306210617 0.8139067625695744 0.7032832829062767 -0.672671113418077 -0.030667419012788476 -0.8139067551734424 -0.00012284982444308253 5.713853979398817 4.27159415162072 -3.5194445405861834 -0.7524131711025535 -5.713853933098117 -0.0007690541892538148 0.2965019424421507 0.6434717778341883 0.5427449980630116 0.05605125806848403 -0.08330933151601268 -1.2082695817832157e-05 3.893070504265439 8.448784442962893 5.054149970962377 0.2547529679212599 -0.3786409117402776 -5.4915852492047154e-05 -0.4663036505328577 -1.535529915486471 -1.9944570700274866 0.38852906227111816 2.037261724472046 0.00018101991736330092 0.8139067888259888 0.7032833099365234 -0.6726711392402649 -0.030667418614029884 -0.813906729221344 -0.00012284982949495316 0.29650193452835083 0.6434717774391174 0.5427449941635132 0.056051257997751236 -0.08330933004617691 -1.2082696230208967e-05 0.29650193452835083 0.6434717774391174 0.5427449941635132 0.056051257997751236 -0.08330933004617691 -1.2082696230208967e-05 0.20000002765339253 -0.18520798655321824 0.39999997604123233 -1.2090987556031416 1.209048792518039 -1.2090486585417533 -2.017160255859061e-08 0.17200001385757785 1.3396888803399623e-09 -6.060550166467396e-08 2.8716434644784362e-08 5.2208522287973257e-08 3.4045322635825884e-07 4.024443881063412e-07 1.3195902416207264e-07 6.858784836879414e-12 -1.32902877557892e-09 -3.9635352722157147e-08 0.20000000000713444 -0.18520799998073556 0.4000000000036143 -1.209098722382308 1.2090487307044322 -1.2090487304564703 -3.28314792083899e-11 0.17199999991188936 -1.7246075568346727e-11 -1.5813917666258648e-14 1.597393161268884e-14 8.544134713364475e-15
6073.44 -0.4596053801377087 -1.5297661159209124 -1.999949418322279 0.3882572431943623 2.0305634407367075 0.0001800122613681406 0.8609156179216051 0.7377035983688137 -0.7003521123222373 -0.03740876344075258 -0.8609156101504524 -0.00012907889630465297 5.8761069190038375 4.302539432817124 -3.4601248630200394 -0.8426680534955127 -5.876106872126252 -0.0007786339826963054 0.30429821637881677 0.6393896910743283 0.5441204826118375 0.05469535612706047 -0.08586289740028702 -1.223320501702862e-05 3.9954355810538646 8.395186643805932 5.066958758177954 0.24859039359748983 -0.39024686868430447 -5.559991680239508e-05 -0.4596055189715784 -1.5297659079181116 -1.9999492804156702 0.38825723528862 2.0305633544921875 0.00018001225544139743 0.8609156012535095 0.7377036213874817 -0.700352132320404 -0.03740876168012619 -0.8609156012535095 -0.0001290788932237774 0.3042982220649719 0.63938969373703 0.5441204905509949 0.054695356637239456 -0.085862897336483 -1.2233204870426562e-05 0.3042982220649719 0.63938969373703 0.5441204905509949 0.054695356637239456 -0.085862897336483 -1.2233204870426562e-05 0.19999992827034963 -0.18380001193193546 0.40000009100789774 -1.2090985033479384 1.2090486024535656 -1.2090491498340419 -3.885547355190264e-09 0.17999996051622427 -2.5037574186060262e-08 2.586767249195527e-07 -1.333560559067303e-07 -7.771093627444136e-09 -2.6911759818873476e-07 -2.1084563551932475e-07 -3.0242531047440904e-07 -1.4052013534091676e-12 -8.111108261939032e-09 1.6973712515780802e-08 0.20000000000769796 -0.18379999997908217 0.4000000000037375 -1.2090987223823064 1.2090487307044306 -1.2090487304564719 -3.567318873467991e-11 0.1799999999036775 -1.8072238141907663e-11 -1.7028519118370964e-14 1.8967694229924648e-14 1.0267641199377846e-14
6073.447999999999 -0.4525254225919051 -1.523725927032145 -2.0056613053976644 0.38792847533937597 2.0234834832545903 0.00017895443912140785 0.909312962896777 0.7723894061793011 -0.7275345318666256 -0.04491409215320228 -0.9093129547455998 -0.00013539108486150268 6.049668121896487 4.335725976310919 -3.3978024430485476 -0.9381660890562127 -6.04966807439343 -0.0007890235696062128 0.3126505864375277 0.6351438543649909 0.5455768681574277 0.05325724740308844 -0.08859435984130914 -1.2396436971368721e-05 4.105102199924739 8.33943880781233 5.080520911655599 0.24205418944703694 -0.4026613654787501 -5.6341806034870835e-05 -0.4525254408465784 -1.5237258116351526 -2.0056613127337855 0.38792848587036133 2.0234835147857666 0.00017895443306770176 0.9093129634857178 0.7723894119262695 -0.7275345325469971 -0.04491409286856651 -0.9093129634857178 -0.00013539109204430133 0.312650591135025 0.6351438760757446 0.5455768704414368 0.05325724557042122 -0.08859436213970184 -1.239643734152196e-05 0.312650591135025 0.6351438760757446 0.5455768704414368 0.05325724557042122 -0.08859436213970184 -1.239643734152196e-05 0.19999997015393034 -0.18232798814992818 0.40000002874655743 -1.2090986883260104 1.2090486178646183 -1.2090488092891254 -9.391722969534687e-09 0.1879999757442574 -1.6201976390433022e-08 9.50741754143569e-08 -5.106852631481496e-08 -8.151159569981668e-09 5.368885345605012e-07 -1.43969538495832e-06 -6.042976819494958e-07 1.2791067687339945e-11 -1.6432400699413007e-07 1.2837108763933846e-07 0.20000000000825358 -0.1823279999774277 0.4000000000038102 -1.2090987223823058 1.2090487307044286 -1.209048730456473 -3.8490759190063764e-11 0.18799999989541047 -1.868778373491227e-11 -2.000702491382815e-14 2.059793043229112e-14 1.1747742736154789e-14
6073.456 -0.4450524166765266 -1.517407127577524 -2.0115885759963206 0.38753646529229935 2.016010477405959 0.00017784576372327463 0.9591939869624606 0.8073594261296441 -0.754193864378489 -0.05322662524398653 -0.9591939784258324 -0.00014179339979600406 6.235128008210452 4.371252493792873 -3.3324165639829206 -1.0390666363480314 -6.235127960029077 -0.0008002893668126726 0.32158961549568627 0.6307360548177602 0.547116919231761 0.05173400519670389 -0.09151300990122316 -1.2573435163034655e-05 4.222471651458361 8.28156439975719 5.094862175270005 0.23513105361901918 -0.4159266300010592 -5.714626281599251e-05 -0.44505244890321904 -1.517407242451803 -2.0115883986102503 0.3875364661216736 2.0160105228424072 0.00017784576630219817 0.959194004535675 0.8073593974113464 -0.7541938424110413 -0.05322662368416786 -0.959194004535675 -0.0001417933963239193 0.3215896189212799 0.6307360529899597 0.5471169352531433 0.05173400416970253 -0.0915130078792572 -1.2573435014928691e-05 0.3215896189212799 0.6307360529899597 0.5471169352531433 0.05173400416970253 -0.0915130078792572 -1.2573435014928691e-05 0.20000001907394804 -0.18079201457259264 0.40000001852118466 -1.2090987066192391 1.2090486659829367 -1.2090487678362762 2.5375802821480225e-08 0.19600002297669128 2.3614480124835312e-08 5.707942571489255e-08 -2.1478531380071554e-08 -8.53661132179301e-09 -5.222506191387174e-07 4.965357154217564e-07 -4.997066505728573e-07 2.3083935429708854e-12 1.8706045027094036e-08 -4.9866455529902363e-08 0.20000000000879656 -0.18079199997578438 0.40000000000382313 -1.2090987223823042 1.2090487307044269 -1.2090487304564745 -4.1269000435432386e-11 0.19599999988713832 -1.9051239127072005e-11 -2.0708965392087193e-14 2.3492558988345062e-14 1.3917830240031622e-14
6073.464 -0.43717409540871266 -1.5108073663210932 -2.017726945564058 0.3870745780528744 2.0081321562079997 0.00017668548417156988 1.0106589534783201 0.8426331764186412 -0.7803050466487363 -0.062390936127584236 -1.010658944550357 -0.00014829344307244098 6.43312081448244 4.409218786124644 -3.2638977837809167 -1.145538860449713 -6.433120765565583 -0.0008125054095546158 0.3311482517753168 0.6261678709351759 0.5487436581727241 0.05012250337722476 -0.09462882759899142 -1.276536276789141e-05 4.347976545809909 8.22158414537886 5.110010693636042 0.22780677784948652 -0.430088021437416 -5.8018573780066455e-05 -0.437174145375387 -1.5108073393451136 -2.017726723347799 0.3870745897293091 2.008132219314575 0.00017668548389337957 1.0106589794158936 0.8426331877708435 -0.780305027961731 -0.06239093467593193 -1.0106589794158936 -0.0001482934458181262 0.331148236989975 0.626167893409729 0.5487436652183533 0.05012250319123268 -0.09462882578372955 -1.2765362953359727e-05 0.331148236989975 0.626167893409729 0.5487436652183533 0.05012250319123268 -0.09462882578372955 -1.2765362953359727e-05 0.1999999831044968 -0.1791920010836056 0.4000000681722398 -1.2090986359317786 1.2090484947632374 -1.20904891384028 5.817827616728846e-09 0.20399999661746512 1.2952275855196428e-08 2.2552229844469187e-07 -1.4016460328192811e-07 -8.927912293836647e-09 1.1065934578912364e-06 3.445593525056711e-08 -7.390782582298129e-07 2.717437631294095e-11 -1.545466348150651e-07 -1.1052344217729502e-08 0.20000000000932386 -0.1791919999741658 0.40000000000376595 -1.2090987223823033 1.2090487307044242 -1.2090487304564759 -4.398406201903963e-11 0.20399999987892167 -1.9115792729340247e-11 -2.3441934229706367e-14 2.5478843609199105e-14 1.6023787754207316e-14
6073.472 -0.42887736818058375 -1.5039241326776782 -2.0240719265677374 0.3865358163593515 1.999835429052881 0.00017547278605339227 1.0638135682939445 0.8782309759387827 -0.805842383959411 -0.07245302972631211 -1.0638135589682651 -0.00015489947754535307 6.644326851953042 4.449724940017691 -3.1921671638343305 -1.2577616998409842 -6.644326802238504 -0.0008257543091140106 0.3413619712251386 0.6214406122966502 0.5504603818525411 0.048419412113698566 -0.09795251738564495 -1.297351770096901e-05 4.48208268218607 8.159515239455017 5.125997167887233 0.22006622805676 -0.4451941915177563 -5.896463795090415e-05 -0.42887717882265264 -1.5039241949664515 -2.024071995412008 0.3865358233451843 1.9998353719711304 0.0001754727854859084 1.06381356716156 0.8782309889793396 -0.805842399597168 -0.07245302945375443 -1.06381356716156 -0.0001548994769109413 0.34136196970939636 0.621440589427948 0.5504603981971741 0.04841941222548485 -0.09795251488685608 -1.2973518096259795e-05 0.34136196970939636 0.621440589427948 0.5504603981971741 0.04841941222548485 -0.09795251488685608 -1.2973518096259795e-05 0.20000004745156047 -0.17752797309748736 0.3999999658709673 -1.2090988300182768 1.2090487408639146 -1.2090485416457637 -3.566377433018616e-08 0.21200001459342274 7.117681418647746e-09 -1.1914008632844653e-07 5.704361683358866e-08 -9.325653089487741e-09 -1.1406152031339874e-06 1.9794619822633716e-06 -1.1031328534239517e-08 -5.543065028818784e-12 1.7428280309023773e-07 -1.734996894905452e-07 0.20000000000983081 -0.17752799997258806 0.40000000000362707 -1.2090987223823018 1.2090487307044213 -1.209048730456478 -4.6620431371270324e-11 0.21199999987082888 -1.8829989285823648e-11 -2.424067968152227e-14 3.066448135782848e-14 1.8424861015296645e-14
6073.48 -0.4201482756842516 -1.4967547503232463 -2.0306188231179725 0.38591280892742585 1.9911063366327684 0.00017420678595442895 1.118769366544303 0.9141739389121656 -0.8307794676857226 -0.08346041942276475 -1.1187693568139834 -0.00016162050442698332 6.869474781294821 4.492870371672855 -3.117135465788956 -1.3759237120565797 -6.8694747307147805 -0.0008401283602037819 0.3522689246864598 0.6165552498111857 0.5522706789757963 0.046621194962294624 -0.10149554386440049 -1.3199350014757195e-05 4.625290981133218 8.095370430020868 5.142855016758411 0.21189333110362904 -0.4612972468637002 -5.999104581707145e-05 -0.42014819780458623 -1.4967549482928675 -2.030618969594137 0.38591280579566956 1.991106390953064 0.0001742067834129557 1.1187694072723389 0.91417396068573 -0.830779492855072 -0.08346042037010193 -1.1187694072723389 -0.00016162049723789096 0.35226893424987793 0.6165552735328674 0.5522706508636475 0.04662119597196579 -0.10149554163217545 -1.3199350178183522e-05 0.35226893424987793 0.6165552735328674 0.5522706508636475 0.04662119597196579 -0.10149554163217545 -1.3199350178183522e-05 0.20000005947385455 -0.17580000039541335 0.3999999095316576 -1.2090989141375221 1.20904893410064 -1.2090483786760053 1.0318611772144129e-08 0.22000005621895374 2.7267281584472942e-08 -3.532546818415261e-07 1.6256792711638482e-07 -9.730228460454396e-09 1.269992839589652e-06 -2.868035894214226e-06 4.021638512522156e-07 2.856901839886068e-12 -1.798228910000202e-07 2.2477492789054876e-07 0.20000000001031354 -0.1757999999710698 0.4000000000033933 -1.2090987223823007 1.209048730704418 -1.20904873045648 -4.91553176861867e-11 0.21999999986294005 -1.813576328106333e-11 -2.643011940152407e-14 3.5030216646787904e-14 2.159188849205652e-14
6073.487999999999 -0.4109719416702031 -1.4892963708835474 -2.0373627249060977 0.3851977980824193 1.9819300026982054 0.00017288652520876382 1.1756441174481722 0.9504839604183638 -0.8550890862182096 -0.09546220157338789 -1.1756441073056978 -0.00016846635094654522 7.109343862983647 4.538752688274777 -3.038702316560865 -1.5002227688278926 -7.109343811464303 -0.0008557308149452366 0.36391008829751376 0.611512334963584 0.5541784479308446 0.04472410770801201 -0.1052701671111985 -1.3444481914806274e-05 4.778139459346356 8.029156958071859 5.1606205428216105 0.2032710695329146 -0.4784529095203972 -6.110517030279451e-05 -0.4109719435321253 -1.4892962614642542 -2.037362877522604 0.38519778847694397 1.9819300174713135 0.00017288653180003166 1.1756441593170166 0.9504839777946472 -0.8550890684127808 -0.09546220302581787 -1.1756441593170166 -0.00016846634389366955 0.36391007900238037 0.6115123629570007 0.5541784763336182 0.044724106788635254 -0.10527016967535019 -1.344448173767887e-05 0.36391007900238037 0.6115123629570007 0.5541784763336182 0.044724106788635254 -0.10527016967535019 -1.344448173767887e-05 0.19999997628749325 -0.17400798893507538 0.39999998533176595 -1.209098748588564 1.2090487668222225 -1.2090486825264932 -5.615446752494755e-09 0.22799997702103955 -1.849428525023025e-08 -7.036976822650982e-08 -6.126058895311922e-09 -1.0142446724873367e-08 6.159050287668038e-07 2.7159478154361093e-08 -1.58387623260163e-06 2.8115831354998004e-11 -1.8582458154667578e-07 9.440810930269977e-09 0.20000000001076795 -0.17400799996963323 0.4000000000030503 -1.2090987223822995 1.209048730704415 -1.209048730456483 -5.156846955204712e-11 0.22799999985534886 -1.6967332593101128e-11 -2.8086746148596456e-14 3.9738161946361856e-14 2.4909189527121684e-14
6073.496 -0.40133252139718145 -1.4815459677806375 -2.044298500400963 0.38438262680995267 1.9722905825079995 0.00017151096290134445 1.2345622464890538 0.9871836910806816 -0.878743128953705 -0.10850912609920359 -1.2345622359262618 -0.00017544776981434645 7.364766130110195 4.587466332789725 -2.9567553419369283 -1.6308655657269622 -7.364766077570501 -0.0008726773584751545 0.37632941502268485 0.6063119062098753 0.5561879151747042 0.04272419943957548 -0.10928947675523104 -1.3710730943154095e-05 4.941205219247853 7.960875328535662 5.179333103689881 0.19418148645287053 -0.49672067185252505 -6.231527213663536e-05 -0.4013326803790491 -1.4815457502948206 -2.0442984739886683 0.3843826353549957 1.9722906351089478 0.0001715109683573246 1.2345622777938843 0.987183690071106 -0.8787431120872498 -0.1085091233253479 -1.2345622777938843 -0.00017544777074363083 0.3763294219970703 0.6063119173049927 0.5561879277229309 0.04272419959306717 -0.10928947478532791 -1.3710730854654685e-05 0.3763294219970703 0.6063119173049927 0.5561879277229309 0.04272419959306717 -0.10928947478532791 -1.3710730854654685e-05 0.1999999221674427 -0.17215200603725672 0.40000006252593634 -1.2090985736171844 1.2090485912730347 -1.2090489912790972 1.58192543114378e-08 0.23599994061842816 -3.5465585067659686e-08 2.7961899661594454e-07 -1.3890900183722356e-07 -1.0562723572038274e-08 -6.408853597843255e-08 -6.061600702229463e-07 -6.594200872056262e-07 5.958627807827915e-12 -6.972627731873073e-08 4.0691255834117987e-08 0.20000000001119045 -0.17215199996830344 0.4000000000025816 -1.2090987223822984 1.2090487307044115 -1.2090487304564852 -5.384086068861983e-11 0.2359999998481661 -1.5251995729934543e-11 -2.985962428985678e-14 4.443376663329449e-14 2.856500248736208e-14
6073.504 -0.3912131466387896 -1.4735003303320369 -2.0514207892490983 0.3834587252635184 1.9621712078358202 0.00017007896802137873 1.295655273807101 1.024296498850498 -0.901712483110395 -0.12265366133617135 -1.2956552628151194 -0.0001825765523582495 7.6366284147559025 4.639100971227037 -2.871169269586249 -1.7680669046209705 -7.636628361107206 -0.00089109781798788 0.3895739844617037 0.6009533803721833 0.5583036541232385 0.04061731643362127 -0.11356742373186124 -1.400013682927625e-05 5.1151064159821695 7.890517884286767 5.199035287926422 0.18460570319080868 -0.5161639408613093 -6.363062188906055e-05 -0.3912132422076624 -1.4735005537616175 -2.0514209906207483 0.3834587335586548 1.962171196937561 0.00017007897258736193 1.2956552505493164 1.024296522140503 -0.9017124772071838 -0.12265366315841675 -1.2956552505493164 -0.00018257655028719455 0.38957399129867554 0.6009534001350403 0.5583036541938782 0.04061731696128845 -0.11356742680072784 -1.400013661623234e-05 0.38957399129867554 0.6009534001350403 0.5583036541938782 0.04061731696128845 -0.11356742680072784 -1.400013661623234e-05 0.20000003537592773 -0.17023204127075084 0.39999988974808054 -1.2090988385812411 1.2090491677467805 -1.2090485098842947 4.618214023372592e-08 0.24400006338824654 4.176350343726663e-08 -5.093125981170523e-07 1.8047307937065354e-07 -1.0991837017511818e-08 5.259377535007927e-07 -1.6364161361118202e-06 -4.389124031594514e-07 3.2287851981271226e-12 -1.3585638753797005e-07 1.4798238772916398e-07 0.20000000001157753 -0.17023199996711075 0.40000000000196934 -1.209098722382297 1.2090487307044082 -1.2090487304564883 -5.5952836430102434e-11 0.2439999998415172 -1.290835207097206e-11 -3.181689070406429e-14 4.934359105876235e-14 3.205634821487162e-14
