Fleaurent/UniversalRobot/csv/robolib_movel_x400.csv
timestamp target_q_0 target_q_1 target_q_2 target_q_3 target_q_4 target_q_5 target_qd_0 target_qd_1 target_qd_2 target_qd_3 target_qd_4 target_qd_5 target_TCP_pose_0 target_TCP_pose_1 target_TCP_pose_2 target_TCP_pose_3 target_TCP_pose_4 target_TCP_pose_5 target_TCP_speed_0 target_TCP_speed_1 target_TCP_speed_2 target_TCP_speed_3 target_TCP_speed_4 target_TCP_speed_5 target_TCP_acc_0 target_TCP_acc_1 target_TCP_acc_2 target_TCP_acc_3 target_TCP_acc_4 target_TCP_acc_5
0.0 -0.3527446237002967 -1.872135865614346 -1.6035676708007307 0.33413797321956396 1.9237026852187453 -0.00012831772243472844 0.0 0.0 0.0 0.0 0.0 0.0 0.3 -0.2 0.4 2.4186 -2.4185 2.4185 0.0 0.0 0.0 0.0 0.0 0.0 0.0 1.0 0.0 0.0 0.0 0.0 
0.008 -0.35263492756397374 -1.872045184858162 -1.603690897738692 0.33417067172544335 1.923592989083325 -0.00012831253888009457 0.027425760252297048 0.02267199815096626 -0.030808051473946687 0.008135778220734488 -0.027425760242119814 -7.961895186832648e-07 0.3 -0.199968 0.4 2.4186 -2.4185 2.4185 0.0 0.008 0.0 0.0 0.0 0.0 0.0 1.0 0.0 0.0 0.0 0.0 
0.016 -0.3523057563679708 -1.8717731871357173 -1.604060463253204 0.3342681960604661 1.9232638178900312 -0.0001282969960839277 0.05487221599743431 0.04533285911950611 -0.061587277686221145 0.016253869590456542 -0.054872215977137075 -1.5902460989675731e-06 0.3 -0.19987200000000002 0.4 2.4186 -2.4185 2.4185 0.0 0.016 0.0 0.0 0.0 0.0 0.0 1.0 0.0 0.0 0.0 0.0 
0.024 -0.35175686169764164 -1.8713200060883128 -1.6046760215441245 0.3344311591696709 1.9227149232242189 -0.00012827111766959128 0.08236009300569214 0.06797145891454051 -0.0923088967994637 0.024336597579959506 -0.08236009297390058 -2.437790248562629e-06 0.3 -0.199712 0.4 2.4186 -2.4185 2.4185 0.0 0.024 0.0 0.0 0.0 0.0 0.0 1.0 0.0 0.0 0.0 0.0 
0.032 -0.3509878293507154 -1.8706858644625572 -1.605536996603013 0.33465884063180074 1.9219458908836176 -0.00012823494307663034 0.10991013111913878 0.09057666132745441 -0.12294416140964363 0.03236634720899067 -0.10991013107408344 -3.351595284104965e-06 0.3 -0.199488 0.4 2.4186 -2.4185 2.4185 0.0 0.032 0.0 0.0 0.0 0.0 0.0 1.0 0.0 0.0 0.0 0.0 
0.04 -0.34999807907266445 -1.8698710741310784 -1.6066425826958843 0.33494905116702745 1.9209561406137023 -0.00012818852766194433 0.13754304002401874 0.11313726932906387 -0.15346431826264892 0.040325640028836096 -0.1375430399699171 -4.107020141150763e-06 0.3 -0.19920000000000002 0.4 2.4186 -2.4185 2.4185 0.0 0.04 0.0 0.0 0.0 0.0 0.0 1.0 0.0 0.0 0.0 0.0 
0.048 -0.3487868641905747 -1.8688760361296413 -1.6079917450291743 0.3353037255290847 1.9197449257415589 -0.00012813194284195818 0.16527974271399778 0.13564221284876288 -0.18384088882441857 0.04819695623844112 -0.16527974264641127 -5.029795596872286e-06 0.3 -0.19884800000000002 0.4 2.4186 -2.4185 2.4185 0.0 0.048 0.0 0.0 0.0 0.0 0.0 1.0 0.0 0.0 0.0 0.0 
0.056 -0.3473532711499465 -1.8677012407187414 -1.6095832205891873 0.33572033793709455 1.9183113327126935 -0.00012806527627632236 0.1931410542549649 0.1580802709115754 -0.21404531819792255 0.0559630513529174 -0.19314105417635904 -5.860697889584725e-06 0.3 -0.198432 0.4 2.4186 -2.4185 2.4185 0.0 0.056 0.0 0.0 0.0 0.0 0.0 1.0 0.0 0.0 0.0 0.0 
0.064 -0.3456962189602213 -1.8663472674800654 -1.6114155191426014 0.3361990641370185 1.9166542805365476 -0.000127988632093828 0.2211479996199609 0.18044031882998154 -0.24404933652206687 0.06360671220643209 -0.22114799952740946 -6.800763355235485e-06 0.3 -0.19795200000000002 0.4 2.4186 -2.4185 2.4185 0.0 0.064 0.0 0.0 0.0 0.0 0.0 1.0 0.0 0.0 0.0 0.0 
0.072 -0.3438144585562972 -1.8648147854604313 -1.6134869243831382 0.3367386705244335 1.9147725201480263 -0.00012790213116137936 0.2493216273914009 0.20271116007309595 -0.2738247574772991 0.07111095251727827 -0.2493216272820727 -7.842906124941482e-06 0.3 -0.197408 0.4 2.4186 -2.4185 2.4185 0.0 0.07200000000000001 0.0 0.0 0.0 0.0 0.0 1.0 0.0 0.0 0.0 0.0 
0.08 -0.341706572084834 -1.8631045533780943 -1.6157954952070568 0.33733769570288286 1.9126646336937916 -0.00012780591139702676 0.27768306502382295 0.22488155588824785 -0.30334354544829933 0.07845899552164717 -0.277683064896348 -8.93082022186292e-06 0.3 -0.1968 0.4 2.4186 -2.4185 2.4185 0.0 0.08 0.0 0.0 0.0 0.0 0.0 1.0 0.0 0.0 0.0 0.0 
0.088 -0.33937097212584355 -1.861217419908498 -1.6183390670979447 0.33799534961899536 1.910329033753861 -0.00012770012812822468 0.3062536083769251 0.24694028075188487 -0.3325779176235212 0.08563422769455516 -0.30625360822482867 -1.0236339212625552e-05 0.3 -0.19612800000000002 0.4 2.4186 -2.4185 2.4185 0.0 0.088 0.0 0.0 0.0 0.0 0.0 1.0 0.0 0.0 0.0 0.0 
0.096 -0.33680590086186557 -1.859154324068738 -1.6211152535991729 0.33870862840350324 1.9077639625107787 -0.00012758495449664644 0.3350544591403274 0.26887589215629104 -0.3615000617236762 0.09262044813904151 -0.335054458971935 -1.1255677041641016e-05 0.3 -0.195392 0.4 2.4186 -2.4185 2.4185 0.0 0.096 0.0 0.0 0.0 0.0 0.0 1.0 0.0 0.0 0.0 0.0 
0.104 -0.334009429209031 -1.8569162957221872 -1.6241214478505086 0.3394777780765301 1.9049674908806817 -0.000127460581911058 0.36410726028433416 0.2906771427167755 -0.3900827195573311 0.09940144456981041 -0.3641072600898077 -1.259891281255888e-05 0.3 -0.19459200000000001 0.4 2.4186 -2.4185 2.4185 0.0 0.10400000000000001 0.0 0.0 0.0 0.0 0.0 1.0 0.0 0.0 0.0 0.0 
0.112 -0.3309794559264796 -1.8545044562268398 -1.6273548241636975 0.3403001232984997 1.9019375176227178 -0.00012732722054992578 0.393433486983352 0.3123324688331496 -0.4182985281988484 0.10596152854204745 -0.39343348676263273 -1.3935746061855528e-05 0.3 -0.193728 0.4 2.4186 -2.4185 2.4185 0.0 0.112 0.0 0.0 0.0 0.0 0.0 1.0 0.0 0.0 0.0 0.0 
0.12 -0.32771370672300026 -1.8519200192530862 -1.63081233961032 0.34117450951140316 1.898671768445682 -0.00012718509991561437 0.42305490955065833 0.3338303400567577 -0.4461205202437221 0.11228517174229186 -0.42305490929442763 -1.5552612219308553e-05 0.3 -0.1928 0.4 2.4186 -2.4185 2.4185 0.0 0.12 0.0 0.0 0.0 0.0 0.0 1.0 0.0 0.0 0.0 0.0 
0.128 -0.32420973338239545 -1.8491642917986928 -1.6344907355939904 0.3420976861734595 1.895167795133383 -0.00012703446944221187 0.4529931470344125 0.35515888115414973 -0.4735216493298055 0.11835738946438676 -0.4529931467519795 -1.6876342279544825e-05 0.3 -0.191808 0.4 2.4186 -2.4185 2.4185 0.0 0.128 0.0 0.0 0.0 0.0 0.0 1.0 0.0 0.0 0.0 0.0 
0.136 -0.32046491293198187 -1.8462386754308844 -1.6383865393778743 0.3430691867837883 1.8914229747131484 -0.00012687559915920959 0.4832703150940494 0.3763063585232079 -0.5004754732336332 0.12416323678962841 -0.48327031476991217 -1.865051368983277e-05 0.3 -0.190752 0.4 2.4186 -2.4185 2.4185 0.0 0.136 0.0 0.0 0.0 0.0 0.0 1.0 0.0 0.0 0.0 0.0 
0.144 -0.31647644688184373 -1.8431446677874788 -1.6424960655377034 0.34408588948478 1.887434508695069 -0.00012670878041345435 0.5139082656000042 0.39726055537247035 -0.5269553543617869 0.12968843226292096 -0.5139082652326685 -2.0447223966764703e-05 0.3 -0.18963200000000002 0.4 2.4186 -2.4185 2.4185 0.0 0.14400000000000002 0.0 0.0 0.0 0.0 0.0 1.0 0.0 0.0 0.0 0.0 
0.152 -0.3122413605660115 -1.8398838643711137 -1.646815417309834 0.3451455616460062 1.8831994224131876 -0.00012653432665199018 0.5449290623539417 0.41800911909778043 -0.5529349604065255 0.1349189889731971 -0.5449290619409338 -2.2295161850208253e-05 0.3 -0.188448 0.4 2.4186 -2.4185 2.4185 0.0 0.152 0.0 0.0 0.0 0.0 0.0 1.0 0.0 0.0 0.0 0.0 
0.16 -0.3077565026206428 -1.836457960672682 -1.6513404878035118 0.3462459646136813 1.8787145645036711 -0.0001263525742686062 0.5763548462571799 0.4385394261028639 -0.5783881226075451 0.13984133338398122 -0.5763548457921748 -2.4294679189234484e-05 0.3 -0.1872 0.4 2.4186 -2.4185 2.4185 0.0 0.16 0.0 0.0 0.0 0.0 0.0 1.0 0.0 0.0 0.0 0.0 
0.168 -0.30301854463861067 -1.832868754662178 -1.6560669610463346 0.3473844221211677 1.8739766065594035 -0.00012616388351711165 0.6082077307717858 0.45883847241444364 -0.6032887324303793 0.1444423907728813 -0.6082077302515706 -2.6357595101004413e-05 0.3 -0.185888 0.4 2.4186 -2.4185 2.4185 0.0 0.168 0.0 0.0 0.0 0.0 0.0 1.0 0.0 0.0 0.0 0.0 
0.176 -0.2980239810446621 -1.8291181496872673 -1.6609903128319377 0.3485584974174345 1.8689820430051425 -0.00012596863949456745 0.6405098933720459 0.4788929132032766 -0.6276108378305415 0.14870952095540363 -0.640509892788443 -2.8604693295714616e-05 0.3 -0.184512 0.4 2.4186 -2.4185 2.4185 0.0 0.176 0.0 0.0 0.0 0.0 0.0 1.0 0.0 0.0 0.0 0.0 
0.184 -0.292769129240555 -1.8252081578219834 -1.6661058113391927 0.3497658911300472 1.863727191242661 -0.00012576725319791098 0.6732835344226841 0.498688998591593 -0.651328604973709 0.15263055454249186 -0.6732835337537835 -3.134733361739022e-05 0.3 -0.183072 0.4 2.4186 -2.4185 2.4185 0.0 0.184 0.0 0.0 0.0 0.0 0.0 1.0 0.0 0.0 0.0 0.0 
0.192 -0.28725013007534494 -1.8211409037101198 -1.6714085174926454 0.35100252646923935 1.858208192121027 -0.00012556016265761964 0.7065504032026058 0.5182121914831058 -0.6744158697973935 0.15619412140702288 -0.7065504024628925 -3.371385546126454e-05 0.3 -0.181568 0.4 2.4186 -2.4185 2.4185 0.0 0.192 0.0 0.0 0.0 0.0 0.0 1.0 0.0 0.0 0.0 0.0 
0.2 -0.28146294870232635 -1.8169186289500039 -1.676893285034592 0.3522666833878978 1.8524210107935506 -0.00012534783415226548 0.74033265056887 0.5374477676913348 -0.6968469764459521 0.1593890512839734 -0.740332649736388 -3.6548616343034e-05 0.3 -0.18 0.4 2.4186 -2.4185 2.4185 0.0 0.2 0.0 0.0 0.0 0.0 0.0 0.0 0.0 0.0 0.0 0.0 
0.208 -0.2755225459983801 -1.8126292863554396 -1.6824442127317045 0.3535299498589777 1.8464806081361917 -0.00012513498099465617 0.7447688057147336 0.5350293611472148 -0.6910729419742039 0.1560332352354903 -0.7447688048168261 -3.800655632472358e-05 0.3 -0.1784 0.4 2.4186 -2.4185 2.4185 0.0 0.2 0.0 0.0 0.0 0.0 0.0 0.0 0.0 0.0 0.0 0.0 
0.216 -0.26954663732997464 -1.8083593518444092 -1.6879489905482934 0.35476655873282104 1.8405046995144962 -0.00012492602420605722 0.7492090204365027 0.5325960950848238 -0.6853093088551704 0.15270267787097358 -0.7492090194671198 -3.954169638216603e-05 0.3 -0.17679999999999998 0.4 2.4186 -2.4185 2.4185 0.0 0.2 0.0 0.0 0.0 0.0 0.0 0.0 0.0 0.0 0.0 0.0 
0.224 -0.26353519408802795 -1.8041089484903732 -1.693407697816355 0.3559763376615561 1.8344932563193805 -0.00012472101404988224 0.7536522695088258 0.5301468733977569 -0.679555047249226 0.14939752301303047 -0.7536522684763248 -4.086237741467459e-05 0.3 -0.1752 0.4 2.4186 -2.4185 2.4185 0.0 0.2 0.0 0.0 0.0 0.0 0.0 0.0 0.0 0.0 0.0 0.0 
0.232 -0.25748819523366295 -1.7998782075980744 -1.6988204063984917 0.35716014396890294 1.8284462575119709 -0.00012452000141223118 0.7580977557449371 0.5276807831907326 -0.6738093823725378 0.14611777526419226 -0.7580977546321033 -4.2478592903410323e-05 0.3 -0.1736 0.4 2.4186 -2.4185 2.4185 0.0 0.2 0.0 0.0 0.0 0.0 0.0 0.0 0.0 0.0 0.0 0.0 
0.24 -0.25140562753233153 -1.7956672686925623 -1.7041871808587763 0.35831756644430324 1.8223636898577198 -0.00012432303780474308 0.7625443339981411 0.5251966886332511 -0.6680712730123444 0.14286365430391942 -0.7625443328122525 -4.390958750039133e-05 0.3 -0.172 0.4 2.4186 -2.4185 2.4185 0.0 0.2 0.0 0.0 0.0 0.0 0.0 0.0 0.0 0.0 0.0 0.0 
0.248 -0.24528748579077142 -1.791476279509089 -1.7095080786294283 0.35944920735384445 1.8162455481633688 -0.00012413017536718715 0.7669910849831685 0.5226936339013522 -0.6623399272312538 0.13963524524192564 -0.7669910837151127 -4.5466859501200926e-05 0.3 -0.1704 0.4 2.4186 -2.4185 2.4185 0.0 0.2 0.0 0.0 0.0 0.0 0.0 0.0 0.0 0.0 0.0 0.0 
0.256 -0.23913377309664785 -1.787305395983624 -1.714783150173554 0.36055502974213893 1.8100918355165811 -0.0001239414668697774 0.7714368960042088 0.5201705512651008 -0.6566144291110656 0.13643274778167425 -0.7714368946552721 -4.695867692969521e-05 0.3 -0.1688 0.4 2.4186 -2.4185 2.4185 0.0 0.2 0.0 0.0 0.0 0.0 0.0 0.0 0.0 0.0 0.0 0.0 
0.264 -0.2329445010607336 -1.7831547822437535 -1.7200124391441673 0.36163530180134007 1.8039025635281334 -0.00012375696571519595 0.775880701603313 0.5176264277365118 -0.6508939506537894 0.13325633502326362 -0.7758807001723489 -4.8432261905624785e-05 0.3 -0.1672 0.4 2.4186 -2.4185 2.4185 0.0 0.2 0.0 0.0 0.0 0.0 0.0 0.0 0.0 0.0 0.0 0.0 
0.272 -0.2267196900614481 -1.7790246105997016 -1.7251959825397278 0.3626904488270364 1.797677752576448 -0.00012357672594030765 0.7803214477327282 0.5150602788157354 -0.6451777171705931 0.1301061778054729 -0.7803214462082104 -5.006024246274836e-05 0.3 -0.1656 0.4 2.4186 -2.4185 2.4185 0.0 0.2 0.0 0.0 0.0 0.0 0.0 0.0 0.0 0.0 0.0 0.0 
0.28 -0.22045936949157863 -1.7749150615352365 -1.7303338108564021 0.3637203513337528 1.791417432054312 -0.00012340080221755136 0.7847579044930644 0.5124710249033413 -0.6394648519686622 0.12698253980572646 -0.7847579028792171 -5.157869017665216e-05 0.3 -0.16399999999999998 0.4 2.4186 -2.4185 2.4185 0.0 0.2 0.0 0.0 0.0 0.0 0.0 0.0 0.0 0.0 0.0 0.0 
0.288 -0.2141635780069946 -1.7708263236982074 -1.7354259482372434 0.36472554422100933 1.7851216406175963 -0.00012322924985598902 0.7891889847668838 0.509857702503494 -0.6337546407575885 0.12388561340515725 -0.7891889830518888 -5.324624253918596e-05 0.3 -0.1624 0.4 2.4186 -2.4185 2.4185 0.0 0.2 0.0 0.0 0.0 0.0 0.0 0.0 0.0 0.0 0.0 0.0 
0.296 -0.2078323637771371 -1.7667585938904593 -1.7404724126184978 0.3657060047676455 1.7787904264357448 -0.00012306212480199676 0.7936134197652752 0.5072192509628021 -0.6280462643512204 0.12081568243554462 -0.7936134179491812 -5.487206714785718e-05 0.3 -0.1608 0.4 2.4186 -2.4185 2.4185 0.0 0.2 0.0 0.0 0.0 0.0 0.0 0.0 0.0 0.0 0.0 0.0 
0.304 -0.20146578473706733 -1.7627120770568778 -1.7454732158732098 0.36666195482969877 1.7724238474438188 -0.00012289948363957925 0.7980299738225273 0.5045546537564449 -0.6223389748223052 0.11777301423230174 -0.7980299719054049 -5.645960002889121e-05 0.3 -0.1592 0.4 2.4186 -2.4185 2.4185 0.0 0.2 0.0 0.0 0.0 0.0 0.0 0.0 0.0 0.0 0.0 0.0 
0.312 -0.19506390884083746 -1.7586869862733032 -1.7504283639523146 0.36759368225120914 1.7660219715958736 -0.00012274138359028947 0.8024373974445004 0.5018629071259465 -0.6166320554475709 0.11475788450928873 -0.8024373954227763 -5.8064510375927344e-05 0.3 -0.1576 0.4 2.4186 -2.4185 2.4185 0.0 0.2 0.0 0.0 0.0 0.0 0.0 0.0 0.0 0.0 0.0 0.0 
0.32 -0.18862681431592776 -1.754683542733062 -1.7553378570233782 0.3685014081430096 1.7595848771193925 -0.0001225878825127346 0.806834390489131 0.49914299695080544 -0.6109247916190625 0.11177059332304043 -0.8068343883591839 -5.9686675861194936e-05 0.3 -0.156 0.4 2.4186 -2.4185 2.4185 0.0 0.2 0.0 0.0 0.0 0.0 0.0 0.0 0.0 0.0 0.0 0.0 
0.328 -0.18215458991848532 -1.7507019757318534 -1.7602016896071586 0.3693853783024925 1.7531126527705228 -0.00012243903890164968 0.8112196272182252 0.49639391499581165 -0.6052164904093225 0.1088114532004896 -0.8112196249750471 -6.134430582730695e-05 0.3 -0.15439999999999998 0.4 2.4186 -2.4185 2.4185 0.0 0.2 0.0 0.0 0.0 0.0 0.0 0.0 0.0 0.0 0.0 0.0 
0.336 -0.17564733518908615 -1.74674252265073 -1.7650198507121342 0.3702458710902605 1.7466053980898413 -0.00012229491188651858 0.8155917587931342 0.493614660492474 -0.599506481847571 0.10588078822871803 -0.8155917564283164 -6.30807543655942e-05 0.3 -0.1528 0.4 2.4186 -2.4185 2.4185 0.0 0.2 0.0 0.0 0.0 0.0 0.0 0.0 0.0 0.0 0.0 0.0 
0.344 -0.16910516070871617 -1.7428054289369177 -1.7697923239671542 0.371083030133859 1.7400632236583378 -0.00012215556122972313 0.8199493649553262 0.49080421120912343 -0.5937940832225237 0.10297895147723574 -0.8199493624654628 -6.482578166391e-05 0.3 -0.1512 0.4 2.4186 -2.4185 2.4185 0.0 0.2 0.0 0.0 0.0 0.0 0.0 0.0 0.0 0.0 0.0 0.0 
0.352 -0.162528188354659 -1.738890948082192 -1.7745190877523522 0.37189701508541173 1.7334862513532974 -0.00012202104732419914 0.824290996427 0.48796155016717524 -0.5880786312482092 0.10010630678510052 -0.8242909938134249 -6.651900645748065e-05 0.3 -0.1496 0.4 2.4186 -2.4185 2.4185 0.0 0.2 0.0 0.0 0.0 0.0 0.0 0.0 0.0 0.0 0.0 0.0 
0.36 -0.15591655155596262 -1.7349993415985647 -1.7792001153284593 0.3726881162820985 1.7268746146037692 -0.0001218914311905793 0.8286152091385489 0.48508568588762985 -0.5823595056959288 0.09726321746653856 -0.8286152063992319 -6.820622416618539e-05 0.3 -0.148 0.4 2.4186 -2.4185 2.4185 0.0 0.2 0.0 0.0 0.0 0.0 0.0 0.0 0.0 0.0 0.0 0.0 
0.368 -0.1492703955481356 -1.731130878990992 -1.7838353749646512 0.3734566382030333 1.720228458645264 -0.00012176677447380148 0.8329205311981703 0.4821756323668018 -0.5766361042881263 0.09445005898696784 -0.832920528326559 -6.994338385771881e-05 0.3 -0.1464 0.4 2.4186 -2.4185 2.4185 0.0 0.2 0.0 0.0 0.0 0.0 0.0 0.0 0.0 0.0 0.0 0.0 
0.376 -0.14258987762671094 -1.727285837726845 -1.7884248300650438 0.37420280954811647 1.7135479407733163 -0.00012164713943916075 0.837205436015668 0.4792303938945227 -0.5709078239067805 0.09166722651124748 -0.8372054330058095 -7.172064694416969e-05 0.3 -0.14479999999999998 0.4 2.4186 -2.4185 2.4185 0.0 0.2 0.0 0.0 0.0 0.0 0.0 0.0 0.0 0.0 0.0 0.0 
0.384 -0.13587516739929573 -1.7234645032018667 -1.7929684392939695 0.3749268541767681 1.706833230595537 -0.00012153258896778423 0.841468363024214 0.47624897787248816 -0.5651740754351219 0.08891512678858857 -0.8414683598714229 -7.352118100918385e-05 0.3 -0.1432 0.4 2.4186 -2.4185 2.4185 0.0 0.2 0.0 0.0 0.0 0.0 0.0 0.0 0.0 0.0 0.0 0.0 
0.392 -0.12912644703571097 -1.7196671687023344 -1.7974661567001382 0.3756289568692417 1.7000845102817463 -0.00012142318655150544 0.8457077072663708 0.473230389410246 -0.5594342766871067 0.08619418004036027 -0.8457077039705418 -7.529174372422228e-05 0.3 -0.1416 0.4 2.4186 -2.4185 2.4185 0.0 0.2 0.0 0.0 0.0 0.0 0.0 0.0 0.0 0.0 0.0 0.0 
0.4 -0.12234391151580848 -1.715894135363158 -1.8019179318397969 0.3763094520687025 1.6933019748117997 -0.00012131899628711729 0.8499218777116124 0.47017366436540037 -0.5536878907439335 0.08350480437258025 -0.8499218742664866 -7.710350042609527e-05 0.3 -0.13999999999999999 0.4 2.4186 -2.4185 2.4185 0.0 0.2 0.0 0.0 0.0 0.0 0.0 0.0 0.0 0.0 0.0 0.0 
0.408 -0.11552776887453442 -1.7121457121216355 -1.806323709898984 0.37696851438502543 1.6864858322206464 -0.0001212200828699801 0.8541092026618676 0.4670778165335211 -0.5479343626631428 0.08084743991457644 -0.8541091990672124 -7.888839872439837e-05 0.3 -0.1384 0.4 2.4186 -2.4185 2.4185 0.0 0.2 0.0 0.0 0.0 0.0 0.0 0.0 0.0 0.0 0.0 0.0 
0.416 -0.10867824044378716 -1.7084222156665767 -1.81068343181499 0.37760651476903373 1.6796363038401836 -0.00012112651158696263 0.8582680404919906 0.46394189948098385 -0.5421731915850957 0.07822252129590462 -0.8582680367387181 -8.074375898243472e-05 0.3 -0.13679999999999998 0.4 2.4186 -2.4185 2.4185 0.0 0.2 0.0 0.0 0.0 0.0 0.0 0.0 0.0 0.0 0.0 0.0 
0.424 -0.10179556109061783 -1.7047239703825343 -1.8149970343970994 0.37822360796334475 1.672753624537468 -0.00012103834830869325 0.8623966512129781 0.46076493638291255 -0.5364038474904472 0.07563050626119805 -0.8623966473003482 -8.257796161819694e-05 0.3 -0.1352 0.4 2.4186 -2.4185 2.4185 0.0 0.2 0.0 0.0 0.0 0.0 0.0 0.0 0.0 0.0 0.0 0.0 
0.432 -0.09487997945127713 -1.701051308288844 -1.8192644504467181 0.37882011121020365 1.6658380429487494 -0.00012095565948109809 0.8664933157954968 0.4575459855832149 -0.5306258472314002 0.07307184876549339 -0.8664933117185694 -8.443617224194106e-05 0.3 -0.1336 0.4 2.4186 -2.4185 2.4185 0.0 0.2 0.0 0.0 0.0 0.0 0.0 0.0 0.0 0.0 0.0 0.0 
0.44 -0.08793175816062915 -1.6974045689732045 -1.8234856088769604 0.3793963036910766 1.6588898217088957 -0.00012087851211620367 0.8705562738858945 0.4542841069044481 -0.5248387141311371 0.07054701214081079 -0.8705562696387221 -8.632780833697928e-05 0.3 -0.132 0.4 2.4186 -2.4185 2.4185 0.0 0.2 0.0 0.0 0.0 0.0 0.0 0.0 0.0 0.0 0.0 0.0 
0.448 -0.08095117407640506 -1.693784099519513 -1.8276604348317802 0.37995243875160156 1.6519092376756395 -0.00012080697378218094 0.874583727883009 0.4509783645427174 -0.5190419805765645 0.06805646676086334 -0.8745837234611532 -8.823648995107496e-05 0.3 -0.1304 0.4 2.4186 -2.4185 2.4185 0.0 0.2 0.0 0.0 0.0 0.0 0.0 0.0 0.0 0.0 0.0 0.0 
0.456 -0.07393851849778321 -1.6901902544296847 -1.8317888498047157 0.3804887536215562 1.644896582148162 -0.00012074111259260798 0.8785738464624455 0.44762782955037955 -0.5132351900483113 0.06560068809679018 -0.878573841864913 -9.012804629982278e-05 0.3 -0.1288 0.4 2.4186 -2.4185 2.4185 0.0 0.2 0.0 0.0 0.0 0.0 0.0 0.0 0.0 0.0 0.0 0.0 
0.464 -0.06689409737774099 -1.6866233955391663 -1.835870771757321 0.3810055740004503 1.637852161079442 -0.0001206809971949283 0.8825247999378242 0.44423159824261615 -0.5074179172625263 0.06318015164780634 -0.8825247951595945 -9.20426464201997e-05 0.3 -0.12719999999999998 0.4 2.4186 -2.4185 2.4185 0.0 0.2 0.0 0.0 0.0 0.0 0.0 0.0 0.0 0.0 0.0 0.0 
0.472 -0.05981823152863375 -1.6830838919258868 -1.8399061152373484 0.38150317945022016 1.630776295281837 -0.000120626696758083 0.8864347171063047 0.44078877028165664 -0.5015897419402561 0.060795338316733984 -0.8864347121426621 -9.397672547072147e-05 0.3 -0.1256 0.4 2.4186 -2.4185 2.4185 0.0 0.2 0.0 0.0 0.0 0.0 0.0 0.0 0.0 0.0 0.0 0.0 
0.48 -0.052711256820421326 -1.679572119812359 -1.8438947914967416 0.38198184485645337 1.6236693206253094 -0.00012057828095929394 0.8903016995383958 0.4372984565997746 -0.4957502569635085 0.05844673119885764 -0.8903016943857781 -9.591905305468426e-05 0.3 -0.124 0.4 2.4186 -2.4185 2.4185 0.0 0.2 0.0 0.0 0.0 0.0 0.0 0.0 0.0 0.0 0.0 0.0 
0.488 -0.04557352437096718 -1.6760884624606665 -1.8478367086094998 0.38244184484396815 1.6165315882277256 -0.0001205358199699762 0.8941238239908827 0.4337597810659426 -0.4898990692509947 0.05613481434285183 -0.8941238186473877 -9.785452421779927e-05 0.3 -0.1224 0.4 2.4186 -2.4185 2.4185 0.0 0.2 0.0 0.0 0.0 0.0 0.0 0.0 0.0 0.0 0.0 0.0 
0.496 -0.03840540072780829 -1.6726333100600788 -1.8517317715894588 0.38288351367383 1.609363464636622 -0.00012049938444075824 0.8978991640748988 0.4301718913258351 -0.48403581090549813 0.0538600708429906 -0.8978991585348546 -9.981790640278979e-05 0.3 -0.12079999999999999 0.4 2.4186 -2.4185 2.4185 0.0 0.2 0.0 0.0 0.0 0.0 0.0 0.0 0.0 0.0 0.0 0.0 
0.504 -0.03120726804079954 -1.669207059607024 -1.8555798825080423 0.38330712914898 1.602165332001859 -0.00012046904548558905 0.901625751917587 0.4265339404995418 -0.47816011741209197 0.05162298438235065 -0.901625746177384 -0.00010179008933537551 0.3 -0.1192 0.4 2.4186 -2.4185 2.4185 0.0 0.2 0.0 0.0 0.0 0.0 0.0 0.0 0.0 0.0 0.0 0.0 
0.512 -0.02397952422500449 -1.6658101147771727 -1.8593809406120259 0.38371297661333914 1.5949375882385004 -0.00012044487466491127 0.9053016009748568 0.42284509887251726 -0.4722716397902918 0.049424036384604034 -0.9053015950327343 -0.00010375499502211749 0.3 -0.11759999999999998 0.4 2.4186 -2.4185 2.4185 0.0 0.2 0.0 0.0 0.0 0.0 0.0 0.0 0.0 0.0 0.0 0.0 
0.52 -0.016722583113220946 -1.6624428857893827 -1.8631348424413492 0.3841014529240514 1.587680647179347 -0.00012042694396788125 0.9089247440879773 0.4191045718329111 -0.466370063398892 0.04726370538801236 -0.9089247379327822 -0.00010579418051569598 0.3 -0.11599999999999999 0.4 2.4186 -2.4185 2.4185 0.0 0.2 0.0 0.0 0.0 0.0 0.0 0.0 0.0 0.0 0.0 0.0 
0.528 -0.009436874597498868 -1.6591057892612644 -1.8668414819470165 0.3844727513639399 1.5803949387164498 -0.00012041532579361603 0.9124931244206718 0.41531154950914884 -0.46045505057407504 0.04514246633896783 -0.9124931180534857 -0.00010780119624099524 0.3 -0.11439999999999999 0.4 2.4186 -2.4185 2.4185 0.0 0.2 0.0 0.0 0.0 0.0 0.0 0.0 0.0 0.0 0.0 0.0 
0.536 -0.002122844759019138 -1.6557992480561325 -1.8705007506091116 0.38482725638133974 1.573080908930993 -0.00012041009293144979 0.9160047354731455 0.4114652722683593 -0.45452631248414943 0.04306078927839655 -0.9160047288876574 -0.00010983961041145809 0.3 -0.11279999999999998 0.4 2.4186 -2.4185 2.4185 0.0 0.2 0.0 0.0 0.0 0.0 0.0 0.0 0.0 0.0 0.0 0.0 
0.544 0.0052190440143145 -1.6525236911211254 -1.8741125375549588 0.3851652106983501 1.5657390202108836 -0.00012041131854018212 0.919457505129299 0.4075649777643383 -0.44858354901717457 0.041019136860637184 -0.9194574983275099 -0.00011184020635212098 0.3 -0.11119999999999998 0.4 2.4186 -2.4185 2.4185 0.0 0.2 0.0 0.0 0.0 0.0 0.0 0.0 0.0 0.0 0.0 0.0 
0.552 0.01258831292321716 -1.6492795533162727 -1.8776767296774504 0.3854870562787054 1.5583697513554065 -0.00012041907612630171 0.9228494192959478 0.40360995698133934 -0.44262650948096893 0.039017968014352346 -0.9228494122665147 -0.00011391321453630176 0.3 -0.10959999999999999 0.4 2.4186 -2.4185 2.4185 0.0 0.2 0.0 0.0 0.0 0.0 0.0 0.0 0.0 0.0 0.0 0.0 
0.56 0.01998446666593945 -1.646067275234317 -1.8811932117535517 0.38579300584842446 1.5509735976663155 -0.00012043343952117059 0.92617836940536 0.39959948675929796 -0.43665491699602027 0.03705772862671745 -0.9261783621496129 -0.0001159547965830078 0.3 -0.10799999999999998 0.4 2.4186 -2.4185 2.4185 0.0 0.2 0.0 0.0 0.0 0.0 0.0 0.0 0.0 0.0 0.0 0.0 
0.568 0.027406993361419607 -1.6428873030110909 -1.884661866563013 0.3860834634515349 1.5435510710246727 -0.0001204544828571548 0.9294423062480975 0.39553289817632314 -0.4306685424138875 0.03513885971038904 -0.9294422987588098 -0.0001180341522918376 0.3 -0.10639999999999998 0.4 2.4186 -2.4185 2.4185 0.0 0.2 0.0 0.0 0.0 0.0 0.0 0.0 0.0 0.0 0.0 0.0 
0.576 0.03485536448730375 -1.639740088126282 -1.8880825750072832 0.3863587453201103 1.5361026999528358 -0.00012048228054268894 0.9326391407192827 0.3914095332905 -0.4246671555094412 0.03326178934742184 -0.9326391329910149 -0.00012013631714413209 0.3 -0.10479999999999998 0.4 2.4186 -2.4185 2.4185 0.0 0.2 0.0 0.0 0.0 0.0 0.0 0.0 0.0 0.0 0.0 0.0 
0.584 0.04232903483348727 -1.6366260871944176 -1.8914552162286387 0.3866191312759639 1.528629029660912 -0.00012051690723626353 0.9357667638515329 0.3872287548200163 -0.41865053442391337 0.03142693129292082 -0.935766755885628 -0.00012220882953024406 0.3 -0.1032 0.4 2.4186 -2.4185 2.4185 0.0 0.2 0.0 0.0 0.0 0.0 0.0 0.0 0.0 0.0 0.0 0.0 
0.592 0.04982744247180926 -1.6335457617459208 -1.8947796677295308 0.3868650078515319 1.5211306220770624 -0.00012055843781932564 0.93882310230129 0.38298996963681947 -0.41261848977042936 0.029634690829135942 -0.9388230940934916 -0.00012429569154046223 0.3 -0.1016 0.4 2.4186 -2.4185 2.4185 0.0 0.2 0.0 0.0 0.0 0.0 0.0 0.0 0.0 0.0 0.0 0.0 
0.6 0.05735000874252383 -1.6304995779981188 -1.8980558054921413 0.38709675554424927 1.5136080558610367 -0.00012060694736808494 0.9418060791130998 0.37869261226530226 -0.4065708452808401 0.027885459551543357 -0.9418060706543282 -0.0001264328585783917 0.3 -0.09999999999999999 0.4 2.4186 -2.4185 2.4185 0.0 0.2 0.0 0.0 0.0 0.0 0.0 0.0 0.0 0.0 0.0 0.0 
0.608 0.0648961382581752 -1.6274880066160753 -1.901283504098146 0.387314633824847 1.5060619264002932 -0.00012066251112421898 0.9447135719599431 0.37433612881882383 -0.40050741931127753 0.026179605598080087 -0.9447135632518981 -0.0001285393219613214 0.3 -0.09839999999999999 0.4 2.4186 -2.4185 2.4185 0.0 0.2 0.0 0.0 0.0 0.0 0.0 0.0 0.0 0.0 0.0 0.0 
0.616 0.07246521892547375 -1.6245115224631674 -1.9044626368486788 0.38751905218574834 1.498492845788124 -0.00012072520446447377 0.9475435180500809 0.3699200197382085 -0.39442806941036124 0.024517489531526698 -0.9475435090867788 -0.00013067267579146833 0.3 -0.0968 0.4 2.4186 -2.4185 2.4185 0.0 0.2 0.0 0.0 0.0 0.0 0.0 0.0 0.0 0.0 0.0 0.0 
0.624 0.08005662198576591 -1.6215706043413285 -1.907593075884468 0.38771031510841314 1.4909014427831846 -0.00012079510286915757 0.950293819775581 0.36544380225610884 -0.38833265066622746 0.022899446253328463 -0.9502938105571236 -0.00013278855613736433 0.3 -0.09519999999999999 0.4 2.4186 -2.4185 2.4185 0.0 0.2 0.0 0.0 0.0 0.0 0.0 0.0 0.0 0.0 0.0 0.0 
0.632 0.08766970207466884 -1.6186657347209001 -1.9106746923061453 0.3878888422868585 1.483288362749859 -0.00012087228188952772 0.952962431550896 0.3609070448767153 -0.3822210511581509 0.021325800387399754 -0.9529624220687195 -0.00013494968214732762 0.3 -0.09359999999999999 0.4 2.4186 -2.4185 2.4185 0.0 0.2 0.0 0.0 0.0 0.0 0.0 0.0 0.0 0.0 0.0 0.0 
0.64 0.09530379730142036 -1.6157973994600787 -1.9137073562946845 0.38805491186430197 1.475654267578913 -0.0001209568171140729 0.9555472632291464 0.35630933045333435 -0.37609315132629106 0.019796843410281987 -0.9555472534851394 -0.0001370813801343132 0.3 -0.09199999999999998 0.4 2.4186 -2.4185 2.4185 0.0 0.2 0.0 0.0 0.0 0.0 0.0 0.0 0.0 0.0 0.0 0.0 
0.648 0.10295822934847632 -1.6129660875139318 -1.9166909372319627 0.3882089408782492 1.467999835587894 -0.00012104878413369614 0.958046291448647 0.35165029906220935 -0.36994886809340394 0.018312857169981694 -0.9580462814368697 -0.0001392395183225064 0.3 -0.09039999999999998 0.4 2.4186 -2.4185 2.4185 0.0 0.2 0.0 0.0 0.0 0.0 0.0 0.0 0.0 0.0 0.0 0.0 
0.656 0.11063230359185638 -1.61017229063302 -1.9196253038213982 0.38835126951344967 1.460325761400783 -0.00012114825850580475 0.960457478481033 0.34692961747985157 -0.3637881211553932 0.01687409294634287 -0.96045746819834 -0.00014140439912584195 0.3 -0.08879999999999999 0.4 2.4186 -2.4185 2.4185 0.0 0.2 0.0 0.0 0.0 0.0 0.0 0.0 0.0 0.0 0.0 0.0 
0.664 0.11832530924270945 -1.6074165030516594 -1.9225103242086385 0.38848224546627175 1.4526327558064338 -0.00012125531571731811 0.9627788076762904 0.34214699301900514 -0.3576108462978082 0.015480777565750562 -0.9627787971217043 -0.00014356146863201986 0.3 -0.08719999999999999 0.4 2.4186 -2.4185 2.4185 0.0 0.2 0.0 0.0 0.0 0.0 0.0 0.0 0.0 0.0 0.0 0.0 
0.672 0.12603651951054862 -1.604699221165904 -1.9253458661022598 0.3886022654338732 1.444921545595336 -0.00012137003114660508 0.9650083029683615 0.33730218061410727 -0.35141700142549315 0.01413311764267508 -0.9650082921363581 -0.00014574196527849823 0.3 -0.08559999999999998 0.4 2.4186 -2.4185 2.4185 0.0 0.2 0.0 0.0 0.0 0.0 0.0 0.0 0.0 0.0 0.0 0.0 
0.68 0.1337651917885616 -1.602020943201341 -1.9281317968944327 0.38871167385113425 1.437192873374304 -0.00012149248002436704 0.9671439914807407 0.33239496972306093 -0.34520655152771373 0.012831286359106273 -0.9671439803688735 -0.000147925049232199 0.3 -0.08399999999999998 0.4 2.4186 -2.4185 2.4185 0.0 0.2 0.0 0.0 0.0 0.0 0.0 0.0 0.0 0.0 0.0 0.0 
0.688 0.14151056786137017 -1.5993821688708385 -1.9308679837815124 0.38881083818522555 1.4294474973587192 -0.00012162273739348463 0.9691839363418483 0.32742519633493816 -0.3389794799307609 0.011575431010606296 -0.9691839249476927 -0.00015011088847882774 0.3 -0.08239999999999997 0.4 2.4186 -2.4185 2.4185 0.0 0.2 0.0 0.0 0.0 0.0 0.0 0.0 0.0 0.0 0.0 0.0 
0.696 0.1492718741355734 -1.596783399022391 -1.9335542938845003 0.3889000979002417 1.4216861911419836 -0.00012176087806784952 0.9711262191121448 0.322392737155306 -0.33273578096197864 0.010365664928292077 -0.9711262074376714 -0.00015227110602136684 0.3 -0.08079999999999998 0.4 2.4186 -2.4185 2.4185 0.0 0.2 0.0 0.0 0.0 0.0 0.0 0.0 0.0 0.0 0.0 0.0 
0.704 0.15704832189336382 -1.5942251352772718 -1.9361905943693252 0.38897990432497576 1.4139097434419075 -0.00012190697659020583 0.972968999696626 0.31729752975402403 -0.3264754794789771 0.009202087259820305 -0.9729689877314883 -0.00015448636349383473 0.3 -0.07919999999999999 0.4 2.4186 -2.4185 2.4185 0.0 0.2 0.0 0.0 0.0 0.0 0.0 0.0 0.0 0.0 0.0 0.0 
0.712 0.16483910756946707 -1.5917078796586956 -1.9387767525668926 0.38905053941821155 1.4061189578237672 -0.00012206110718902906 0.9747104049033141 0.3121395357660964 -0.320198591657033 0.008084739506293154 -0.9747103926504628 -0.00015667039098673445 0.3 -0.07759999999999999 0.4 2.4186 -2.4185 2.4185 0.0 0.2 0.0 0.0 0.0 0.0 0.0 0.0 0.0 0.0 0.0 0.0 
0.72 0.1726434130515988 -1.5892321342112623 -1.9413126360928343 0.3891124135994384 1.3983146523998506 -0.00012222334373447304 0.9763486528029661 0.3069187822442268 -0.31390516643033556 0.007013649459940652 -0.9763486402592826 -0.00015886287406532068 0.3 -0.07599999999999998 0.4 2.4186 -2.4185 2.4185 0.0 0.2 0.0 0.0 0.0 0.0 0.0 0.0 0.0 0.0 0.0 0.0 
0.728 0.18046040600459512 -1.5867984006114553 -1.9437981129668993 0.38916587381311984 1.3904976595053218 -0.00012239375969341957 0.9778819774381118 0.30163533707018564 -0.3075952589872117 0.005988800309487464 -0.9778819646041544 -0.00016104084171583358 0.3 -0.07439999999999998 0.4 2.4186 -2.4185 2.4185 0.0 0.2 0.0 0.0 0.0 0.0 0.0 0.0 0.0 0.0 0.0 0.0 
0.736 0.18828924021830407 -1.584407179769533 -1.9462330517319213 0.38921132144173787 1.3826688253503372 -0.00012257242808366847 0.9793086804402127 0.2962893255019766 -0.3012689465888243 0.005010149363268338 -0.9793086673116282 -0.00016323556322669366 0.3 -0.07279999999999998 0.4 2.4186 -2.4185 2.4185 0.0 0.2 0.0 0.0 0.0 0.0 0.0 0.0 0.0 0.0 0.0 0.0 
0.744 0.1961290559792883 -1.5820589714231508 -1.9486173215722893 0.38924911165194986 1.3748290096483342 -0.00012275942142730853 0.9806270925074085 0.2908809181985476 -0.29492631523618373 0.00407760939342792 -0.9806270790821016 -0.00016543299140544995 0.3 -0.07119999999999999 0.4 2.4186 -2.4185 2.4185 0.0 0.2 0.0 0.0 0.0 0.0 0.0 0.0 0.0 0.0 0.0 0.0 
0.752 0.2039789804663159 -1.5797542737231205 -1.950950792431855 0.38927960197638267 1.3669790852205492 -0.00012295481170331517 0.9818355965010405 0.2854103385901467 -0.2885674661629381 0.0031910558012421468 -0.9818355827787593 -0.00016762211281843678 0.3 -0.06959999999999998 0.4 2.4186 -2.4185 2.4185 0.0 0.2 0.0 0.0 0.0 0.0 0.0 0.0 0.0 0.0 0.0 0.0 
0.76 0.21183812816957115 -1.5774935828117191 -1.953233335131193 0.38930318275010456 1.3591199375767982 -0.0001231586702994213 0.9829326434017202 0.27987786744828985 -0.28219251943880613 0.0023503322718837743 -0.9829326293785027 -0.00016982590620207518 0.3 -0.06799999999999998 0.4 2.4186 -2.4185 2.4185 0.0 0.2 0.0 0.0 0.0 0.0 0.0 0.0 0.0 0.0 0.0 0.0 
0.768 0.21970560133344108 -1.5752773923940175 -1.9554648214841448 0.38932018371976174 1.3512524644726978 -0.00012337106796331417 0.9839167161182218 0.2742838323907248 -0.27580160241863244 0.00155523069058107 -0.9839167017961554 -0.0001720079716629291 0.3 -0.06639999999999997 0.4 2.4186 -2.4185 2.4185 0.0 0.2 0.0 0.0 0.0 0.0 0.0 0.0 0.0 0.0 0.0 0.0 
0.776 0.22758049042268524 -1.573106193302714 -1.957645124413562 0.38933101481230237 1.3433775754434902 -0.00012359207475321293 0.9847863918701087 0.268628625637093 -0.26939486675543883 0.0008055200933039233 -0.9847863772436876 -0.00017421434685304453 0.3 -0.06479999999999997 0.4 2.4186 -2.4185 2.4185 0.0 0.2 0.0 0.0 0.0 0.0 0.0 0.0 0.0 0.0 0.0 0.0 
0.784 0.2354618746117203 -1.5709804730570107 -1.9597741180661625 0.3893359907945009 1.3354961913147605 -0.00012382175998788461 0.9855402710707759 0.2629126839337881 -0.26297246736839525 0.00010090777747450413 -0.9855402561425326 -0.00017639722638198847 0.3 -0.06319999999999998 0.4 2.4186 -2.4185 2.4185 0.0 0.2 0.0 0.0 0.0 0.0 0.0 0.0 0.0 0.0 0.0 0.0 
0.792 0.24334882229669064 -1.5689007154160879 -1.9618516779264221 0.38933548093644776 1.3276092436903664 -0.00012406019219616166 0.9861770436249435 0.2571365069361578 -0.2565345801578619 -0.0005589285594792139 -0.9861770283959226 -0.00017856614594620245 0.3 -0.061599999999999974 0.4 2.4186 -2.4185 2.4185 0.0 0.2 0.0 0.0 0.0 0.0 0.0 0.0 0.0 0.0 0.0 0.0 
0.8 0.25124039162992595 -1.56686739992778 -1.9638776809294076 0.38932987539088115 1.3197176744179808 -0.0001243074390660255 0.986695477826832 0.2513006535103823 -0.2500813975414909 -0.001174347624266988 -0.9866954622923791 -0.00018075482858633657 0.3 -0.05999999999999997 0.4 2.4186 -2.4185 2.4185 0.0 0.2 0.0 0.0 0.0 0.0 0.0 0.0 0.0 0.0 0.0 0.0 
0.808 0.25913563107632376 -1.5648810014730772 -1.9658520055724678 0.3893195007754684 1.3118224350327086 -0.0001245635673933248 0.9870943870411942 0.2454057329403878 -0.24361311907235983 -0.001745766105612918 -0.9870943712014081 -0.00018293561899299017 0.3 -0.058399999999999966 0.4 2.4186 -2.4185 2.4185 0.0 0.2 0.0 0.0 0.0 0.0 0.0 0.0 0.0 0.0 0.0 0.0 
0.816 0.2670335799911192 -1.5629419898071173 -1.967774532025682 0.38930470503652637 1.303924486179315 -0.00012482864303020008 0.9873726687202439 0.23945241493654754 -0.2371299608780925 -0.0022736387848779015 -0.9873726525757404 -0.00018510595392323524 0.3 -0.05679999999999996 0.4 2.4186 -2.4185 2.4185 0.0 0.2 0.0 0.0 0.0 0.0 0.0 0.0 0.0 0.0 0.0 0.0 
0.824 0.27493326921843697 -1.5610508290973644 -1.9696451422409864 0.3892858283320564 1.2960247970136793 -0.00012510273083329035 0.987529294676988 0.23344142671670198 -0.23063215226717515 -0.0027584659751695353 -0.9875292782296317 -0.0001872591597872855 0.3 -0.05519999999999997 0.4 2.4186 -2.4185 2.4185 0.0 0.2 0.0 0.0 0.0 0.0 0.0 0.0 0.0 0.0 0.0 0.0 
0.832 0.28283372170996346 -1.5592079774596854 -1.9714637200598746 0.3892632488064576 1.2881243445841155 -0.00012538589461179818 0.9875633335298656 0.22737355787734634 -0.2241199401364344 -0.0032007809199285815 -0.9875633167751442 -0.00018943185094522205 0.3 -0.05359999999999995 0.4 2.4186 -2.4185 2.4185 0.0 0.2 0.0 0.0 0.0 0.0 0.0 0.0 0.0 0.0 0.0 0.0 
0.84 0.29073395316298045 -1.5574138864930918 -1.9732301513195787 0.38923726190138064 1.280224113193345 -0.0001256781970754953 0.987473901010127 0.2212496482754503 -0.21759357669718946 -0.003601183701812614 -0.9874738839512629 -0.0001915803872843809 0.3 -0.05200000000000002 0.4 2.4186 -2.4185 2.4185 0.0 0.2 0.0 0.0 0.0 0.0 0.0 0.0 0.0 0.0 0.0 0.0 
0.848 0.298632972676971 -1.555669000813909 -1.9749443239576405 0.3892082203546905 1.272325093741886 -0.00012597969978275138 0.9872602229524219 0.21507060233356015 -0.21105333336663512 -0.0039603023234862445 -0.9872602055891347 -0.00019372496941974865 0.3 -0.0504 0.4 2.4186 -2.4185 2.4185 0.0 0.2 0.0 0.0 0.0 0.0 0.0 0.0 0.0 0.0 0.0 0.0 
0.856 0.30652978342790127 -1.553973757590192 -1.9766061281147673 0.38917644514326555 1.2644282830537747 -0.00012629046308867167 0.9869215990523307 0.2088373799928246 -0.20449949170343085 -0.004278817788811585 -0.9869215813856596 -0.00019585852729853915 0.3 -0.04880000000000001 0.4 2.4186 -2.4185 2.4185 0.0 0.2 0.0 0.0 0.0 0.0 0.0 0.0 0.0 0.0 0.0 0.0 
0.864 0.3144233833592516 -1.5523285860771974 -1.978215456235882 0.38914227008904834 1.2565346831855315 -0.00012661054609343234 0.9864574244264361 0.2025510008978545 -0.19793234747250832 -0.004557450922646564 -0.9864574064553051 -0.0001979930749533213 0.3 -0.04719999999999999 0.4 2.4186 -2.4185 2.4185 0.0 0.2 0.0 0.0 0.0 0.0 0.0 0.0 0.0 0.0 0.0 0.0 
0.872 0.32231276588877655 -1.550733907154777 -1.9797722031692648 0.3891059877451668 1.248645300719405 -0.00012694000659090317 0.9858671680705122 0.1962125391806232 -0.1913522055849961 -0.004796979124426561 -0.9858671497983565 -0.0002001040370029279 0.3 -0.0456 0.4 2.4186 -2.4185 2.4185 0.0 0.2 0.0 0.0 0.0 0.0 0.0 0.0 0.0 0.0 0.0 0.0 
0.88 0.3301969206299349 -1.5491901328675461 -1.9812762662636938 0.38906794885530993 1.2407611460419365 -0.00012727890101765 0.9851504182236414 0.1898231319531702 -0.18475938852538035 -0.004998204229543481 -0.9851503996462032 -0.0002022338445831269 0.3 -0.04400000000000001 0.4 2.4186 -2.4185 2.4185 0.0 0.2 0.0 0.0 0.0 0.0 0.0 0.0 0.0 0.0 0.0 0.0 
0.888 0.33807483412684647 -1.547697665968716 -1.9827275454634807 0.3890283971618782 1.2328832326090102 -0.0001276272844024106 0.9843068119100222 0.18338396445591332 -0.17815422210907125 -0.005162006201631302 -0.9843067930344436 -0.00020432059727988492 0.3 -0.04239999999999999 0.4 2.4186 -2.4185 2.4185 0.0 0.2 0.0 0.0 0.0 0.0 0.0 0.0 0.0 0.0 0.0 0.0 
0.896 0.3459454906016002 -1.5462568994684922 -1.984125943401309 0.3889876783598869 1.2250125761985375 -0.00012798521031613918 0.983336127999818 0.17689628732508322 -0.17153705262106855 -0.005289273314594629 -0.9833361088238113 -0.00020641588085264456 0.3 -0.0408 0.4 2.4186 -2.4185 2.4185 0.0 0.2 0.0 0.0 0.0 0.0 0.0 0.0 0.0 0.0 0.0 0.0 
0.904 0.353807872712659 -1.5448682161879357 -1.9854713654887743 0.38894605920577074 1.2171501941520566 -0.00012835273082271545 0.9822382094793393 0.17036140059824484 -0.16490823168557445 -0.0053809621901044005 -0.9822381900048941 -0.0002084967598348614 0.3 -0.039199999999999985 0.4 2.4186 -2.4185 2.4185 0.0 0.2 0.0 0.0 0.0 0.0 0.0 0.0 0.0 0.0 0.0 0.0 
0.912 0.3616609623230722 -1.5435319883192222 -1.9867637200045332 0.38890380646175915 1.2092971046065204 -0.00012872989643041537 0.9810129993012775 0.1637806596665169 -0.15826812258810813 -0.005438071001537934 -0.9810129795332495 -0.00021054828707398976 0.3 -0.037599999999999995 0.4 2.4186 -2.4185 2.4185 0.0 0.2 0.0 0.0 0.0 0.0 0.0 0.0 0.0 0.0 0.0 0.0 
0.92 0.3695037412771507 -1.5422485769932 -1.988002918179964 0.3888612243350411 1.2014543257176185 -0.0001291167560442408 0.9796605579751083 0.15715547686451142 -0.15161710242011797 -0.005461624259171631 -0.9796605379122587 -0.00021260328204469417 0.3 -0.036000000000000004 0.4 2.4186 -2.4185 2.4185 0.0 0.2 0.0 0.0 0.0 0.0 0.0 0.0 0.0 0.0 0.0 0.0 
0.928 0.3773351921842161 -1.5410183318551933 -1.9891888742822488 0.3888185543484006 1.1936228748760336 -0.0001295133569192062 0.9781810205493215 0.15048731297813156 -0.1449555545983056 -0.005452708581713059 -0.9781810001949716 -0.00021463771283344938 0.3 -0.034399999999999986 0.4 2.4186 -2.4185 2.4185 0.0 0.2 0.0 0.0 0.0 0.0 0.0 0.0 0.0 0.0 0.0 0.0 
0.936 0.38515429920799815 -1.5398415906499636 -1.990321505694777 0.38877604965147805 1.185803767918034 -0.00012991974461467871 0.97657462999872 0.14377768165411461 -0.13828387394902622 -0.005412444720836789 -0.9765746093567664 -0.00021664891196809897 0.3 -0.032799999999999996 0.4 2.4186 -2.4185 2.4185 0.0 0.2 0.0 0.0 0.0 0.0 0.0 0.0 0.0 0.0 0.0 0.0 
0.944 0.3929600488602134 -1.5387186788167502 -1.9914007329947914 0.38873397759874107 1.177998018331906 -0.00013033596294986994 0.9748417389336668 0.13702814796762483 -0.13160246623467883 -0.005341984583696673 -0.9748417180038781 -0.0002186588113022676 0.3 -0.031199999999999978 0.4 2.4186 -2.4185 2.4185 0.0 0.2 0.0 0.0 0.0 0.0 0.0 0.0 0.0 0.0 0.0 0.0 
0.952 0.40075143079683384 -1.5376499090953066 -1.9924264800281748 0.3886925582330665 1.170206636461679 -0.00013076205396057394 0.9729827829637833 0.13024032304406438 -0.12491174400094938 -0.005242534274515369 -0.9729827617493924 -0.0002206494417551947 0.3 -0.029599999999999987 0.4 2.4186 -2.4185 2.4185 0.0 0.2 0.0 0.0 0.0 0.0 0.0 0.0 0.0 0.0 0.0 0.0 
0.96 0.40852743861552376 -1.5366355811438366 -1.9933986739813039 0.38865203443221374 1.1624306287096906 -0.0001311980578572476 0.9709983116825346 0.12341586701079826 -0.11821213052115889 -0.005115325039196338 -0.970998290183659 -0.000222637211125139 0.3 -0.02799999999999997 0.4 2.4186 -2.4185 2.4185 0.0 0.2 0.0 0.0 0.0 0.0 0.0 0.0 0.0 0.0 0.0 0.0 
0.968 0.41628707065270243 -1.535675981169709 -1.9943172454498765 0.38861259631563083 1.1546709967395212 -0.0001316440129845259 0.9688889554903062 0.11655648287960399 -0.11150405513554745 -0.004961642731264439 -0.9688889337126503 -0.00022459336242021703 0.3 -0.02639999999999998 0.4 2.4186 -2.4185 2.4185 0.0 0.2 0.0 0.0 0.0 0.0 0.0 0.0 0.0 0.0 0.0 0.0 
0.976 0.42402933077867644 -1.534771381573835 -1.995182128504637 0.3885744653154528 1.146928736680866 -0.0001320999557822638 0.9666554622581627 0.109663919629156 -0.10478795749433534 -0.0047827915656037485 -0.9666554402045318 -0.00022653317637017813 0.3 -0.02479999999999999 0.4 2.4186 -2.4185 2.4185 0.0 0.2 0.0 0.0 0.0 0.0 0.0 0.0 0.0 0.0 0.0 0.0 
0.984 0.43175322918927406 -1.5339220406095437 -1.9959932607539175 0.38853785053288226 1.1392048383378979 -0.0001325659207481936 0.9642986777451935 0.10273996768084165 -0.09806428460723188 -0.0045801101372177945 -0.9642986554157837 -0.000228470187115564 0.3 -0.02319999999999997 0.4 2.4186 -2.4185 2.4185 0.0 0.2 0.0 0.0 0.0 0.0 0.0 0.0 0.0 0.0 0.0 0.0 
0.992 0.43945778319240825 -1.5331282020567938 -1.9967505834029224 0.3885029164323617 1.1315002844027051 -0.00013304194040228464 0.9618195308825901 0.09578645555909 -0.09133348912754716 -0.004354984354885146 -0.9618195082819728 -0.00023038211047460346 0.3 -0.02159999999999998 0.4 2.4186 -2.4185 2.4185 0.0 0.2 0.0 0.0 0.0 0.0 0.0 0.0 0.0 0.0 0.0 0.0 
1.0 0.44714201798800324 -1.5323900949125067 -1.9974540413096833 0.3884698266423945 1.1238160496753642 -0.00013352804525288849 0.9592190521482508 0.08880525013130132 -0.08459603113158058 -0.004108826969339123 -0.9592190292832952 -0.00023225753244160332 0.3 -0.019999999999999962 0.4 2.4186 -2.4185 2.4185 0.0 0.2 0.0 0.0 0.0 0.0 0.0 0.0 0.0 0.0 0.0 0.0 
1.008 0.45480496743971166 -1.5317079330977963 -1.9981035830376144 0.38843877700156715 1.1161531002922227 -0.00013402426376475012 0.9564983868843783 0.08179825553151443 -0.07785237871310674 -0.003843059925324241 -0.956498363755115 -0.0002341314143066135 0.3 -0.018399999999999972 0.4 2.4186 -2.4185 2.4185 0.0 0.2 0.0 0.0 0.0 0.0 0.0 0.0 0.0 0.0 0.0 0.0 
1.016 0.4624456748368815 -1.5310819151828168 -1.9986991609046068 0.3884099050474157 1.1085123929639347 -0.00013453062232896172 0.9536587546317407 0.074767407145409 -0.0711030039646318 -0.003559153592481524 -0.9536587312411046 -0.00023598907814970728 0.3 -0.01679999999999998 0.4 2.4186 -2.4185 2.4185 0.0 0.2 0.0 0.0 0.0 0.0 0.0 0.0 0.0 0.0 0.0 0.0 
1.024 0.47006319364523375 -1.530512224129937 -1.9992407310285933 0.3883833334604532 1.1008948742247795 -0.00013504714523493132 0.9507014667225073 0.06771467136490553 -0.06434838452044406 -0.0032586056952083374 -0.9507014430770293 -0.000237812554461332 0.3 -0.015199999999999964 0.4 2.4186 -2.4185 2.4185 0.0 0.2 0.0 0.0 0.0 0.0 0.0 0.0 0.0 0.0 0.0 0.0 
1.032 0.4776565882447459 -1.5299990270558725 -1.99972825336954 0.3883592101057034 1.09330147969478 -0.00013557385464443532 0.9476279419796895 0.06064204434308469 -0.0575890042081925 -0.002942919788006971 -0.9476279180816285 -0.00023962351864334312 0.3 -0.013599999999999973 0.4 2.4186 -2.4185 2.4185 0.0 0.2 0.0 0.0 0.0 0.0 0.0 0.0 0.0 0.0 0.0 0.0 
1.04 0.48522493465326355 -1.5295424750134095 -2.0001616917677936 0.3883376494544095 1.0857331333560907 -0.0001361107705678176 0.9444396795030645 0.053551547483352446 -0.0508253506694784 -0.0026136307973049317 -0.9444396553548708 -0.0002414210678777076 0.3 -0.011999999999999955 0.4 2.4186 -2.4185 2.4185 0.0 0.2 0.0 0.0 0.0 0.0 0.0 0.0 0.0 0.0 0.0 0.0 
1.048 0.4927673212343959 -1.5291427027932643 -2.0005410139787534 0.3883187327730364 1.078190746845104 -0.0001366579108423958 0.9411382568863855 0.04644522523404327 -0.0440579152277345 -0.002272303566445265 -0.9411382324951678 -0.00024318202444058865 0.3 -0.010399999999999965 0.4 2.4186 -2.4185 2.4185 0.0 0.2 0.0 0.0 0.0 0.0 0.0 0.0 0.0 0.0 0.0 0.0 
1.056 0.5002828493882985 -1.5287998287466034 -2.0008661917038113 0.38830257483695063 1.0706752187616648 -0.00013721529111312644 0.937725356729297 0.03932514401888839 -0.0372871938774287 -0.0019204972902479743 -0.9377253320969885 -0.00024493234224144797 0.3 -0.008799999999999975 0.4 2.4186 -2.4185 2.4185 0.0 0.2 0.0 0.0 0.0 0.0 0.0 0.0 0.0 0.0 0.0 0.0 
1.064 0.5077706342239858 -1.5285139546286852 -2.001137200617527 0.3882892348802778 1.063187433996759 -0.00013778292481557978 0.9342027260307273 0.03219338750895417 -0.030513684864370484 -0.001559807741880988 -0.9342027011632688 -0.0002466521478253919 0.3 -0.0071999999999999564 0.4 2.4186 -2.4185 2.4185 0.0 0.2 0.0 0.0 0.0 0.0 0.0 0.0 0.0 0.0 0.0 0.0 
1.072 0.5152298052118696 -1.5282851654640326 -2.001354020391 0.388278783369834 1.055728263079974 -0.000138360823161265 0.9305722023518715 0.025052055374621005 -0.023737889594134465 -0.001191831427537416 -0.9305721772540716 -0.0002483471830229532 0.3 -0.005599999999999966 0.4 2.4186 -2.4185 2.4185 0.0 0.2 0.0 0.0 0.0 0.0 0.0 0.0 0.0 0.0 0.0 0.0 
1.08 0.5226595068152802 -1.528113529433496 -2.0015166347114093 0.388271287248513 1.0482985615479818 -0.00013894899512534455 0.9268357047314899 0.017903260017917307 -0.016960311667607277 -0.0008181702517868083 -0.9268356794049897 -0.0002500331632075634 0.3 -0.003999999999999948 0.4 2.4186 -2.4185 2.4185 0.0 0.2 0.0 0.0 0.0 0.0 0.0 0.0 0.0 0.0 0.0 0.0 
1.088 0.5300588990997839 -1.5279990977834983 -2.001625031297698 0.3882667649111198 1.0408991693352136 -0.00013954744743676815 0.9229952118151021 0.010749123404210203 -0.01018145604426613 -0.00044045317299925744 -0.9229951862660821 -0.0002516876936083737 0.3 -0.0023999999999999577 0.4 2.4186 -2.4185 2.4185 0.0 0.2 0.0 0.0 0.0 0.0 0.0 0.0 0.0 0.0 0.0 0.0 
1.096 0.537427158319173 -1.5279419047577143 -2.0016792019123764 0.38826525679347057 1.0335309101878802 -0.00014015618457085174 0.9190527888195317 0.0035917749504928275 -0.003401829216759595 -6.0296464380363814e-05 -0.9190527630511305 -0.00025332582688417186 0.3 -0.0007999999999999674 0.4 2.4186 -2.4185 2.4185 0.0 0.2 0.0 0.0 0.0 0.0 0.0 0.0 0.0 0.0 0.0 0.0 
1.104 0.5447634774770844 -1.5279419675513537 -2.0016791423694325 0.388266761790905 1.0261945911023427 -0.00014077520874432046 0.9150105575699632 -0.003566651785596906 0.0033780617199444824 0.00032066464373711073 -0.9150105315884707 -0.00025493209508164804 0.3 0.0008000000000000507 0.4 2.4186 -2.4185 2.4185 0.0 0.2 0.0 0.0 0.0 0.0 0.0 0.0 0.0 0.0 0.0 0.0 
1.112 0.5520670668632588 -1.5279992862881788 -2.0016248525383435 0.3882712878057677 1.0188910017888613 -0.00014140451991282785 0.9108707145637684 -0.01072402172898864 0.010157709350413005 0.0007008057097232387 -0.9108706883738344 -0.000256514606368265 0.3 0.002400000000000041 0.4 2.4186 -2.4185 2.4185 0.0 0.2 0.0 0.0 0.0 0.0 0.0 0.0 0.0 0.0 0.0 0.0 
1.12 0.5593371545635479 -1.5281138440203148 -2.0015163363441713 0.3882788267819137 1.011620914161583 -0.00014204411577095895 0.9066355170944287 -0.01787820129722439 0.01693660657539825 0.0010785020219543286 -0.9066354906996879 -0.0002580783349228479 0.3 0.004000000000000059 0.4 2.4186 -2.4185 2.4185 0.0 0.2 0.0 0.0 0.0 0.0 0.0 0.0 0.0 0.0 0.0 0.0 
1.128 0.5665729869428395 -1.5282856067508526 -2.0013536017637534 0.38828934358799394 1.0043850818556226 -0.00014269399175471527 0.9023072752577858 -0.02502706107391993 0.023714246934286618 0.0014521244583721013 -0.9023072486639324 -0.00025961321007918523 0.3 0.005600000000000049 0.4 2.4186 -2.4185 2.4185 0.0 0.2 0.0 0.0 0.0 0.0 0.0 0.0 0.0 0.0 0.0 0.0 
1.136 0.5737738291001633 -1.5285145234791866 -2.001136660817988 0.388302806772014 0.9971842397719473 -0.00014335414104647734 0.8978883611616439 -0.03216847886291059 0.030490125302967314 0.0018200592153729163 -0.8978883343727877 -0.00026112697438367285 0.3 0.00720000000000004 0.4 2.4186 -2.4185 2.4185 0.0 0.2 0.0 0.0 0.0 0.0 0.0 0.0 0.0 0.0 0.0 0.0 
1.144 0.5809389652953136 -1.5288005262689655 -2.0008655295602256 0.38831915951009166 0.9900191036507637 -0.00014402455458243117 0.8933811932915113 -0.03930034225787046 0.03726373814190922 0.0021806935886420813 -0.8933811663129023 -0.00026261405086361306 0.3 0.008800000000000058 0.4 2.4186 -2.4185 2.4185 0.0 0.2 0.0 0.0 0.0 0.0 0.0 0.0 0.0 0.0 0.0 0.0 
1.152 0.5880676993464219 -1.5291435303384708 -2.0005402280607805 0.3883383383858212 0.9828903696739411 -0.00014470522106243918 0.8887882405619445 -0.046420551624454555 0.044034584163540336 0.002532428982741531 -0.8887882133986024 -0.00026407554758580364 0.3 0.010400000000000048 0.4 2.4186 -2.4185 2.4185 0.0 0.2 0.0 0.0 0.0 0.0 0.0 0.0 0.0 0.0 0.0 0.0 
1.16 0.5951593549979891 -1.5295434341731942 -2.000160780387582 0.38836026281306246 0.9757987140969749 -0.00014539612696233193 0.8841120142294001 -0.053527022699651386 0.0508021646623429 0.0028736769877794463 -0.8841119868870841 -0.0002655078519234298 0.3 0.01200000000000001 0.4 2.4186 -2.4185 2.4185 0.0 0.2 0.0 0.0 0.0 0.0 0.0 0.0 0.0 0.0 0.0 0.0 
1.168 0.6022132762589762 -1.5300001196603028 -1.9997272145829927 0.38838485320088356 0.9687447929109074 -0.00014609725654858772 0.8793550714102978 -0.06061768973300489 0.057565984398049955 0.003202872417133835 -0.8793550438925062 -0.00026692190815431904 0.3 0.013600000000000001 0.4 2.4186 -2.4185 2.4185 0.0 0.2 0.0 0.0 0.0 0.0 0.0 0.0 0.0 0.0 0.0 0.0 
1.176 0.6092288277106461 -1.5305134522446489 -1.9992395626368222 0.388411998386645 0.9617292415344727 -0.0001468085918953647 0.8745199981060682 -0.06769050737026228 0.06432555132019512 0.0035184559160955503 -0.8745199704182283 -0.00026830830633835527 0.3 0.015200000000000019 0.4 2.4186 -2.4185 2.4185 0.0 0.2 0.0 0.0 0.0 0.0 0.0 0.0 0.0 0.0 0.0 0.0 
1.184 0.6162053947839272 -1.5310832811059065 -1.9986978604555694 0.38844158534964346 0.9547526745367427 -0.00014753011290384094 0.8696094173099932 -0.07474345396346187 0.07108037770151698 0.003818893794551493 -0.8696093894571503 -0.0002696688552768372 0.3 0.01680000000000001 0.4 2.4186 -2.4185 2.4185 0.0 0.2 0.0 0.0 0.0 0.0 0.0 0.0 0.0 0.0 0.0 0.0 
1.192 0.6231423840061647 -1.5317094393563777 -1.9981021478279335 0.388473483903639 0.9478156853903715 -0.00014826179732381535 0.864625978967451 -0.08177453371830173 0.07782998021463544 0.004102670787216419 -0.8646259509553591 -0.0002710000720561428 0.3 0.018400000000000027 0.4 2.4186 -2.4185 2.4185 0.0 0.2 0.0 0.0 0.0 0.0 0.0 0.0 0.0 0.0 0.0 0.0 
1.2 0.6300392232172063 -1.5323917442589527 -1.9974524683866406 0.3885075539035343 0.9409188462555105 -0.00014900362077751453 0.8595723589499866 -0.08878177938327897 0.08457388058435161 0.004368296357895948 -0.8595723307846534 -0.00027230067912950774 0.3 0.020000000000000018 0.4 2.4186 -2.4185 2.4185 0.0 0.2 0.0 0.0 0.0 0.0 0.0 0.0 0.0 0.0 0.0 0.0 
1.208 0.6368953617548584 -1.5331299974646577 -1.9967488695666284 0.38854365723218476 0.9340627077943517 -0.00014975555678554788 0.85445125977588 -0.09576325520519668 0.09131160655919472 0.0046143141930599435 -0.8544512314605166 -0.000273584128218045 0.3 0.021600000000000008 0.4 2.4186 -2.4185 2.4185 0.0 0.2 0.0 0.0 0.0 0.0 0.0 0.0 0.0 0.0 0.0 0.0 
1.216 0.6437102706098252 -1.533923985269193 -1.9959914025596466 0.38858162234023785 0.9272477990161908 -0.0001505175767949458 0.8492653928911585 -0.10271705782186911 0.098042690979105 0.0048392816604831525 -0.8492653644309807 -0.00027484065295418897 0.3 0.023200000000000026 0.4 2.4186 -2.4185 2.4185 0.0 0.2 0.0 0.0 0.0 0.0 0.0 0.0 0.0 0.0 0.0 0.0 
1.224 0.6504834425503361 -1.5347734788877923 -1.995180122265328 0.3886212780636151 0.9204746271527979 -0.00015128965020921403 0.8440174880266156 -0.10964131983454191 0.1047666734779018 0.005041792684034706 -0.844017459426252 -0.00027607301187594646 0.3 0.024800000000000016 0.4 2.4186 -2.4185 2.4185 0.0 0.2 0.0 0.0 0.0 0.0 0.0 0.0 0.0 0.0 0.0 0.0 
1.232 0.6572143922167313 -1.5356782347477274 -1.99431508723879 0.38866242935345396 0.9137436775638318 -0.00015207174442033014 0.8387102800077149 -0.11653421086161278 0.1114830998534378 0.0052204638688008774 -0.8387102512740047 -0.0002772704577937688 0.3 0.026400000000000035 0.4 2.4186 -2.4185 2.4185 0.0 0.2 0.0 0.0 0.0 0.0 0.0 0.0 0.0 0.0 0.0 0.0 
1.24 0.6639026561863668 -1.5366379947977133 -1.9933963596348336 0.3887049000766636 0.9070554136719342 -0.00015286382484260713 0.8333465212619973 -0.12339394177621571 0.1181915245709858 0.0053739636607940365 -0.8333464923974421 -0.00027845383641004985 0.3 0.028000000000000025 0.4 2.4186 -2.4185 2.4185 0.0 0.2 0.0 0.0 0.0 0.0 0.0 0.0 0.0 0.0 0.0 0.0 
1.248 0.670547793009258 -1.5376524868334638 -1.9924240051488042 0.38874846858918444 0.900410276927089 -0.00015366585494834222 0.827928953606002 -0.13021876333462068 0.12489150797186732 0.005500972003379437 -0.8279289246164254 -0.0002796070277146637 0.3 0.029600000000000015 0.4 2.4186 -2.4185 2.4185 0.0 0.2 0.0 0.0 0.0 0.0 0.0 0.0 0.0 0.0 0.0 0.0 
1.256 0.6771493832149673 -1.5387214248385839 -1.9913980929541917 0.3887929207712475 0.8938086867997339 -0.00015447779630516905 0.8224603247347736 -0.13700697076695537 0.13158261928880488 0.005600215970745014 -0.8224602956253954 -0.0002807328555913495 0.3 0.031200000000000033 0.4 2.4186 -2.4185 2.4185 0.0 0.2 0.0 0.0 0.0 0.0 0.0 0.0 0.0 0.0 0.0 0.0 
1.264 0.6837070292912936 -1.5398445093399866 -1.9903186956370404 0.3888380315510702 0.8872510408020664 -0.00015529960861502534 0.8169433775786152 -0.14375690459653342 0.1382644361354724 0.005670459023212263 -0.8169433483542478 -0.00028183318864645403 0.3 0.032800000000000024 0.4 2.4186 -2.4185 2.4185 0.0 0.2 0.0 0.0 0.0 0.0 0.0 0.0 0.0 0.0 0.0 0.0 
1.272 0.690220355635394 -1.5410214277769856 -1.9891858891272483 0.38888355726135826 0.8807377145369305 -0.00015613124975464725 0.8113808440172655 -0.15046695174517 0.14493654435934009 0.005710496916131525 -0.8113808146842438 -0.0002829005865944146 0.3 0.03440000000000004 0.4 2.4186 -2.4185 2.4185 0.0 0.2 0.0 0.0 0.0 0.0 0.0 0.0 0.0 0.0 0.0 0.0 
1.28 0.6966890084780231 -1.5422518548831845 -1.9879997526268365 0.3889292715170727 0.8742690617735686 -0.0001569726758175003 0.8057754545498231 -0.15713554945109526 0.15159854070554876 0.005719182739571414 -0.8057754251101712 -0.0002839557379106414 0.3 0.03600000000000003 0.4 2.4186 -2.4185 2.4185 0.0 0.2 0.0 0.0 0.0 0.0 0.0 0.0 0.0 0.0 0.0 0.0 
1.288 0.7031126557816324 -1.543535453080283 -1.9867603685352744 0.38897489965847387 0.8678454145495283 -0.00015782384115705148 0.8001299110687987 -0.16376118226500772 0.15825002889565196 0.005695383718514386 -0.8001298815287706 -0.0002849781408910982 0.3 0.03760000000000002 0.4 2.4186 -2.4185 2.4185 0.0 0.2 0.0 0.0 0.0 0.0 0.0 0.0 0.0 0.0 0.0 0.0 
1.296 0.70949098711312 -1.544871872882894 -1.9854678223719442 0.38902018823277773 0.86146708329791 -0.00015868469843128904 0.7944469089026729 -0.1703423880661878 0.16489062451565764 0.0056380287094912164 -0.7944468792662094 -0.0002859788488944837 0.3 0.03920000000000004 0.4 2.4186 -2.4185 2.4185 0.0 0.2 0.0 0.0 0.0 0.0 0.0 0.0 0.0 0.0 0.0 0.0 
1.304 0.7158237134920699 -1.5462607533134616 -1.9841222026958345 0.3890648499097562 0.8551343569991293 -0.00015955519864839393 0.7887291138383785 -0.1768777553259058 0.17151995154269273 0.005546071525982142 -0.788729084112628 -0.00028694227977865694 0.3 0.04080000000000003 0.4 2.4186 -2.4185 2.4185 0.0 0.2 0.0 0.0 0.0 0.0 0.0 0.0 0.0 0.0 0.0 0.0 
1.312 0.722110567215367 -1.5477017223263536 -1.9827236010225522 0.3891086263085095 0.8488475033562979 -0.00016043529121346516 0.782979181413054 -0.1833659289374331 0.17813764727349513 0.005418534442443082 -0.7829791516003323 -0.00028789164614738833 0.3 0.04240000000000005 0.4 2.4186 -2.4185 2.4185 0.0 0.2 0.0 0.0 0.0 0.0 0.0 0.0 0.0 0.0 0.0 0.0 
1.32 0.7283513016591001 -1.5491943972402122 -1.9812721117387473 0.3891512200763416 0.8426067689933262 -0.00016132492397620275 0.7771997299602593 -0.18980560594739826 0.18474335755409255 0.0052544620603387805 -0.7771997000648172 -0.00028881750594882014 0.3 0.04400000000000004 0.4 2.4186 -2.4185 2.4185 0.0 0.2 0.0 0.0 0.0 0.0 0.0 0.0 0.0 0.0 0.0 0.0 
1.328 0.7345456910587097 -1.5507383851776282 -1.9797678320140426 0.3891923343087571 0.8364123796747726 -0.00016222404327944915 0.7713933518205214 -0.19619553938351808 0.19133673996643186 0.0050529485965140645 -0.7713933218468344 -0.0002897186713252186 0.3 0.04560000000000003 0.4 2.4186 -2.4185 2.4185 0.0 0.2 0.0 0.0 0.0 0.0 0.0 0.0 0.0 0.0 0.0 0.0 
1.336 0.7406935302683625 -1.552333283511226 -1.9782108617105618 0.38923165631095413 0.8302645405464675 -0.00016313259400849378 0.7655626050569684 -0.2025345376187466 0.1979174627775099 0.004813126826343152 -0.765562575011604 -0.00029058491867229127 0.3 0.04720000000000005 0.4 2.4186 -2.4185 2.4185 0.0 0.2 0.0 0.0 0.0 0.0 0.0 0.0 0.0 0.0 0.0 0.0 
1.344 0.746794634500558 -1.5539786803152291 -1.9766013032901553 0.3892688995401017 0.82416343639591 -0.00016405051964104144 0.7597100251481974 -0.20882146871757523 0.20448520886057464 0.0045341976061066495 -0.7597099950327615 -0.00029144012893407383 0.3 0.04880000000000004 0.4 2.4186 -2.4185 2.4185 0.0 0.2 0.0 0.0 0.0 0.0 0.0 0.0 0.0 0.0 0.0 0.0 
1.352 0.7528488390469951 -1.555674154821611 -1.974939261719418 0.38930372543556757 0.8181092319314005 -0.00016497776229775038 0.7538380960727215 -0.2150552539404702 0.2110396691012676 0.004215375035038416 -0.753838065893655 -0.0002922608108035886 0.3 0.050400000000000056 0.4 2.4186 -2.4185 2.4185 0.0 0.2 0.0 0.0 0.0 0.0 0.0 0.0 0.0 0.0 0.0 0.0 
1.36 0.7588559989817403 -1.5574192778799194 -1.9732248443725986 0.389335833771959 0.8121020720788685 -0.00016591426279324376 0.7479492785235194 -0.2212348763101765 0.21758055065494264 0.003855949872966716 -0.7479492482826157 -0.0002930693579821363 0.3 0.052000000000000046 0.4 2.4186 -2.4185 2.4185 0.0 0.2 0.0 0.0 0.0 0.0 0.0 0.0 0.0 0.0 0.0 0.0 
1.368 0.7648159888477535 -1.559213612419906 -1.9714581609324948 0.38936487688496046 0.8061420822953546 -0.0001668599606875006 0.7420459791066744 -0.22735937287938868 0.2241075693087905 0.003455228776327825 -0.742045948810001 -0.0002938449637905806 0.3 0.053600000000000037 0.4 2.4186 -2.4185 2.4185 0.0 0.2 0.0 0.0 0.0 0.0 0.0 0.0 0.0 0.0 0.0 0.0 
1.376 0.7707287023278351 -1.5610567139160738 -1.9696393232894376 0.38939053113474076 0.8002293688980547 -0.00016781479433753573 0.7361305720746131 -0.23342784165879793 0.23062045634300496 0.00301258458327235 -0.7361305417262693 -0.0002945970562378646 0.3 0.055200000000000055 0.4 2.4186 -2.4185 2.4185 0.0 0.2 0.0 0.0 0.0 0.0 0.0 0.0 0.0 0.0 0.0 0.0 
1.384 0.7765940519010566 -1.562948130853313 -1.9677684454384572 0.3894124679058 0.7943640194078974 -0.0001687787009492756 0.730205387724202 -0.2394394389899358 0.23711895609447767 0.0025274354663840596 -0.7302053573263598 -0.0002953348976633001 0.3 0.056800000000000045 0.4 2.4186 -2.4185 2.4185 0.0 0.2 0.0 0.0 0.0 0.0 0.0 0.0 0.0 0.0 0.0 0.0 
1.392 0.7824119684857483 -1.5648874051927881 -1.965845643374731 0.38943033040393593 0.7885461029065476 -0.00016975161662954495 0.7242727033452323 -0.24539337700398828 0.24360282365927508 0.001999227714964208 -0.7242726729031268 -0.0002960435168964931 0.3 0.05840000000000006 0.4 2.4186 -2.4185 2.4185 0.0 0.2 0.0 0.0 0.0 0.0 0.0 0.0 0.0 0.0 0.0 0.0 
1.4 0.7881824010701006 -1.5668740728372734 -1.9638710349874124 0.3894437734033158 0.7827756704058149 -0.00017073347643807577 0.718334754435754 -0.2512889275247691 0.25007182906866715 0.0014274636152898476 -0.7183347239543475 -0.00029672412548160563 0.3 0.06000000000000005 0.4 2.4186 -2.4185 2.4185 0.0 0.2 0.0 0.0 0.0 0.0 0.0 0.0 0.0 0.0 0.0 0.0 
1.408 0.7939053163314388 -1.5689076640951596 -1.9618447399519285 0.38945245596283784 0.7770527552283717 -0.00017172421443945694 0.7123937307278566 -0.2571254211875396 0.2565257568258554 0.0008116956928535549 -0.7123937002101515 -0.0002973861599012236 0.3 0.061600000000000016 0.4 2.4186 -2.4185 2.4185 0.0 0.2 0.0 0.0 0.0 0.0 0.0 0.0 0.0 0.0 0.0 0.0 
1.416 0.7995806982452183 -1.5709877041423774 -1.9597668796208558 0.389456022434453 0.7713773733987609 -0.00017272376375494295 0.7064517689202141 -0.2629022450246548 0.2629644039784535 0.0001515122548937531 -0.7064517383696164 -0.00029802756919489415 0.3 0.0632 0.4 2.4186 -2.4185 2.4185 0.0 0.2 0.0 0.0 0.0 0.0 0.0 0.0 0.0 0.0 0.0 0.0 
1.424 0.8052085476847695 -1.573113713481519 -1.957637576913452 0.3894541164694687 0.7657495240436474 -0.0001737320566140441 0.7005109559023815 -0.2686188435252312 0.26938758172565386 -0.0005534533308944207 -0.7005109253221953 -0.000298648765607215 0.3 0.06480000000000002 0.4 2.4186 -2.4185 2.4185 0.0 0.2 0.0 0.0 0.0 0.0 0.0 0.0 0.0 0.0 0.0 0.0 
1.432 0.8107888820128095 -1.575285208397459 -1.9554569562039503 0.38944637442451024 0.7601691898003154 -0.00017474902440582288 0.6945733256748444 -0.27427471736406583 0.2757951147741166 -0.001303528307146679 -0.6945732950692052 -0.0002992455981861109 0.3 0.06640000000000001 0.4 2.4186 -2.4185 2.4185 0.0 0.2 0.0 0.0 0.0 0.0 0.0 0.0 0.0 0.0 0.0 0.0 
1.44 0.816321734665725 -1.5775017014088148 -1.9532251432087002 0.38943244660741394 0.7546363372323741 -0.00017577459772982586 0.6886408647600637 -0.2798694253013424 0.28218684395354454 -0.0020989859712248243 -0.688640834130561 -0.00029983043485327314 0.3 0.068 0.4 2.4186 -2.4185 2.4185 0.0 0.2 0.0 0.0 0.0 0.0 0.0 0.0 0.0 0.0 0.0 0.0 
1.448 0.8218071547315916 -1.5797627017146185 -1.9509422648722428 0.3894119512248486 0.7491509172517467 -0.000176808706446581 0.6827154976552368 -0.2854025780558551 0.28856262081159556 -0.0029400803068952573 -0.6827154670070912 -0.0003003854289112255 0.3 0.06960000000000002 0.4 2.4186 -2.4185 2.4185 0.0 0.2 0.0 0.0 0.0 0.0 0.0 0.0 0.0 0.0 0.0 0.0 
1.456 0.8272452065228926 -1.582067715635593 -1.9486084492524152 0.38938453096961045 0.7437128655459458 -0.00017785127972759626 0.6767991029776638 -0.29087384426533547 0.2949223144540693 -0.0038270057234880105 -0.6767990723143187 -0.00030091918728746204 0.3 0.07120000000000004 0.4 2.4186 -2.4185 2.4185 0.0 0.2 0.0 0.0 0.0 0.0 0.0 0.0 0.0 0.0 0.0 0.0 
1.464 0.8326359691448567 -1.584416247049485 -1.9462238254045618 0.38934982252747075 0.7383221030097433 -0.00017890224610479655 0.6708935037396203 -0.2962829460917388 0.3012658080116977 -0.004759920419088376 -0.6708934730636943 -0.000301435682994119 0.3 0.07280000000000003 0.4 2.4186 -2.4185 2.4185 0.0 0.2 0.0 0.0 0.0 0.0 0.0 0.0 0.0 0.0 0.0 0.0 
1.472 0.8379795360603226 -1.5868077978199064 -1.943788523264941 0.3893074542401307 0.7329785361802971 -0.00017996153351934198 0.6650004662979148 -0.3016296579930956 0.3075929983348561 -0.0057389493020476405 -0.6650004356126701 -0.0003019316842346157 0.3 0.07440000000000002 0.4 2.4186 -2.4185 2.4185 0.0 0.2 0.0 0.0 0.0 0.0 0.0 0.0 0.0 0.0 0.0 0.0 
1.48 0.843276014651994 -1.589241868218206 -1.9413026735334051 0.3892570587600317 0.7276820576749004 -0.00018102906936977078 0.659121703644399 -0.30691380735410667 0.3139037976360697 -0.006764175914807155 -0.6591216729526956 -0.0003024090987799866 0.3 0.07600000000000001 0.4 2.4186 -2.4185 2.4185 0.0 0.2 0.0 0.0 0.0 0.0 0.0 0.0 0.0 0.0 0.0 0.0 
1.488 0.8485255257829285 -1.591717957337897 -1.9387664075554314 0.3891982628179935 0.7224325466304939 -0.00018210478055941622 0.6532588722505406 -0.31213527219231973 0.32019813220279275 -0.007835651211126868 -0.6532588415559213 -0.0003028644947783451 0.3 0.0776 0.4 2.4186 -2.4185 2.4185 0.0 0.2 0.0 0.0 0.0 0.0 0.0 0.0 0.0 0.0 0.0 0.0 
1.496 0.8537282033560707 -1.5942355635012235 -1.9361798572035838 0.3891307068728016 0.7172298691441307 -0.00018318859354304908 0.6474135773557598 -0.317293982680926 0.3264759450619409 -0.008953380356384077 -0.6474135466596506 -0.0003033082537951168 0.3 0.07920000000000005 0.4 2.4186 -2.4185 2.4185 0.0 0.2 0.0 0.0 0.0 0.0 0.0 0.0 0.0 0.0 0.0 0.0 
1.504 0.8588841938736022 -1.5967941846574727 -1.9335431547584694 0.3890540053933027 0.712073878713627 -0.00018428043437270162 0.6415873620068948 -0.32238991481709084 0.33273719061295676 -0.010117353352357646 -0.6415873313138065 -0.0003037250799955709 0.3 0.08080000000000004 0.4 2.4186 -2.4185 2.4185 0.0 0.2 0.0 0.0 0.0 0.0 0.0 0.0 0.0 0.0 0.0 0.0 
1.512 0.8639936559968536 -1.5993933187726725 -1.930856432789271 0.3889677995213716 0.706964416677649 -0.000185380228742631 0.6357817215170132 -0.3274230962604328 0.33898184181412344 -0.011327507518108753 -0.6357816908292753 -0.00030412568754322275 0.3 0.08240000000000003 0.4 2.4186 -2.4185 2.4185 0.0 0.2 0.0 0.0 0.0 0.0 0.0 0.0 0.0 0.0 0.0 0.0 
1.52 0.8690567601074866 -1.602032464210358 -1.9281198240339121 0.38887172458018315 0.701901312654535 -0.00018648790203338553 0.6299980946421724 -0.3323936008904755 0.3452098858005978 -0.012583752832833014 -0.629998063961227 -0.0003045144334737731 0.3 0.08400000000000002 0.4 2.4186 -2.4185 2.4185 0.0 0.2 0.0 0.0 0.0 0.0 0.0 0.0 0.0 0.0 0.0 0.0 
1.528 0.8740736878706171 -1.6047111201031137 -1.9253334612789206 0.388765400546065 0.6968843849791642 -0.00018760337935493833 0.6242378614356047 -0.3373015462133424 0.35142132242027935 -0.013885980394001017 -0.6242378307651859 -0.00030487990158369814 0.3 0.08560000000000001 0.4 2.4186 -2.4185 2.4185 0.0 0.2 0.0 0.0 0.0 0.0 0.0 0.0 0.0 0.0 0.0 0.0 
1.536 0.8790446318005216 -1.6074287867146397 -1.922497477239054 0.388648465214962 0.6919134411372598 -0.0001887265855888584 0.6185023522958293 -0.3421470966912293 0.357616168963593 -0.015234039294112607 -0.6185023216386543 -0.00030522707900455576 0.3 0.08720000000000006 0.4 2.4186 -2.4185 2.4185 0.0 0.2 0.0 0.0 0.0 0.0 0.0 0.0 0.0 0.0 0.0 0.0 
1.544 0.8839697948295262 -1.6101849657921141 -1.9196120044367413 0.38852055679331854 0.6869882781964923 -0.00018985744542949028 0.6127928436724681 -0.3469304601266603 0.3637944577113501 -0.01662775090709216 -0.6127928130304254 -0.0003055600441349896 0.3 0.08880000000000005 0.4 2.4186 -2.4185 2.4185 0.0 0.2 0.0 0.0 0.0 0.0 0.0 0.0 0.0 0.0 0.0 0.0 
1.552 0.8888493898806535 -1.612979160908663 -1.916677175081392 0.3883813111574783 0.6821086832338363 -0.00019099588342411965 0.6071105578450441 -0.351651885978613 0.36995623548682244 -0.018066912345961722 -0.6071105272199511 -0.0003058791259981523 0.3 0.09040000000000004 0.4 2.4186 -2.4185 2.4185 0.0 0.2 0.0 0.0 0.0 0.0 0.0 0.0 0.0 0.0 0.0 0.0 
1.56 0.8936836394445503 -1.615810877795782 -1.9136931209486248 0.3882303558609119 0.6772744337586429 -0.00019214182401210077 0.6014566620233422 -0.3563116631631045 0.3761015626669168 -0.01955130232608597 -0.6014566314188726 -0.0003061750097127301 0.3 0.09200000000000003 0.4 2.4186 -2.4185 2.4185 0.0 0.2 0.0 0.0 0.0 0.0 0.0 0.0 0.0 0.0 0.0 0.0 
1.568 0.8984727751612036 -1.6186796246655715 -1.9106599732594614 0.3880673485177919 0.6724852981309247 -0.00019329519156293014 0.5958322784208538 -0.3609101243238968 0.3822305190444476 -0.021080654199926538 -0.5958322478371287 -0.0003064654262242485 0.3 0.09360000000000002 0.4 2.4186 -2.4185 2.4185 0.0 0.2 0.0 0.0 0.0 0.0 0.0 0.0 0.0 0.0 0.0 0.0 
1.576 0.9032170374069055 -1.621584912522687 -1.907577862559527 0.3878919088259447 0.6677410359743842 -0.0001944559104132489 0.5902384681280065 -0.36544763460870544 0.38834319332788375 -0.022654707669163793 -0.5902384375692694 -0.00030672970452427155 0.3 0.09520000000000006 0.4 2.4186 -2.4185 2.4185 0.0 0.2 0.0 0.0 0.0 0.0 0.0 0.0 0.0 0.0 0.0 0.0 
1.584 0.9079166748868939 -1.6245262554659399 -1.9044469185982944 0.3877036976258763 0.6630413985837822 -0.0001956239049027623 0.5846762511686306 -0.36992460192203863 0.3944396953615984 -0.024273151739709935 -0.5846762206358223 -0.0003069843660946333 0.3 0.09680000000000005 0.4 2.4186 -2.4185 2.4185 0.0 0.2 0.0 0.0 0.0 0.0 0.0 0.0 0.0 0.0 0.0 0.0 
1.592 0.9125719442340732 -1.6275031709794856 -1.901267270208411 0.38750235279582723 0.6583861293262138 -0.000196799099409067 0.5791465916423181 -0.3743414661645703 0.4005201460838163 -0.02593567353869708 -0.5791465611379238 -0.000307221633248935 0.3 0.09840000000000004 0.4 2.4186 -2.4185 2.4185 0.0 0.2 0.0 0.0 0.0 0.0 0.0 0.0 0.0 0.0 0.0 0.0 
1.6 0.9171831096141705 -1.6305151802136009 -1.8980390451851343 0.3872875269398153 0.6537749640359487 -0.0001979814183813766 0.5736504076085738 -0.3786987034839587 0.40658468341329546 -0.027641931862930177 -0.5736503771343292 -0.0003074452529547579 0.3 0.10000000000000003 0.4 2.4186 -2.4185 2.4185 0.0 0.2 0.0 0.0 0.0 0.0 0.0 0.0 0.0 0.0 0.0 0.0 
1.608 0.9217504423376666 -1.633561808255037 -1.894762370165905 0.3870588742347798 0.6492076314025012 -0.00019917078637314418 0.5681885687359939 -0.38299682300656746 0.4126334601415342 -0.02939156829824004 -0.5681885382931234 -0.00030765779019581945 0.3 0.10160000000000002 0.4 2.4186 -2.4185 2.4185 0.0 0.2 0.0 0.0 0.0 0.0 0.0 0.0 0.0 0.0 0.0 0.0 
1.616 0.926274220478796 -1.6366425843869863 -1.8914373705100804 0.3868160444303137 0.6446838533516369 -0.00020036712807357558 0.5627618958416 -0.3872363645836534 0.41866664287160743 -0.031184213010872965 -0.5627618654321869 -0.0003078548968924147 0.3 0.10320000000000007 0.4 2.4186 -2.4185 2.4185 0.0 0.2 0.0 0.0 0.0 0.0 0.0 0.0 0.0 0.0 0.0 0.0 
1.624 0.9307547285018931 -1.6397570423387147 -1.8880641701788474 0.3865586930972347 0.6402033454190187 -0.00020157036833803665 0.5573711641801368 -0.39141789903753094 0.42468441364025183 -0.03301947854484804 -0.557371133806594 -0.00030803487909090055 0.3 0.10480000000000006 0.4 2.4186 -2.4185 2.4185 0.0 0.2 0.0 0.0 0.0 0.0 0.0 0.0 0.0 0.0 0.0 0.0 
1.632 0.9351922568953223 -1.6429047205249268 -1.8846428916153288 0.3862864850032097 0.6357658171162813 -0.00020278043221735496 0.552017105077251 -0.39554202741088984 0.4306869704751042 -0.03489695869491982 -0.5520170747412096 -0.00030820167758265597 0.3 0.10640000000000005 0.4 2.4186 -2.4185 2.4185 0.0 0.2 0.0 0.0 0.0 0.0 0.0 0.0 0.0 0.0 0.0 0.0 
1.64 0.9395871018132054 -1.6460851622749648 -1.8811736556248946 0.38599909411971933 0.631370972289299 -0.00020399724498601995 0.5467004068058924 -0.39960937971737426 0.4366745274036933 -0.03681622985129247 -0.5467003765071387 -0.0003083646695721229 0.3 0.10800000000000004 0.4 2.4186 -2.4185 2.4185 0.0 0.2 0.0 0.0 0.0 0.0 0.0 0.0 0.0 0.0 0.0 0.0 
1.648 0.9439395647251334 -1.6492979160519416 -1.877656581255685 0.38569616621558644 0.627018509468476 -0.00020522073216928857 0.5414217075120111 -0.40362060776285413 0.44264730793544244 -0.038776879705649706 -0.5414216772542444 -0.00030850395170708235 0.3 0.10960000000000003 0.4 2.4186 -2.4185 2.4185 0.0 0.2 0.0 0.0 0.0 0.0 0.0 0.0 0.0 0.0 0.0 0.0 
1.656 0.9482499520740205 -1.6525425356619539 -1.8740917856793442 0.3853773946175676 0.6227081222109 -0.00020645081956920263 0.5361816126160143 -0.40757639584886074 0.44860555809032415 -0.04077845299189422 -0.536181582398822 -0.00030864045877647856 0.3 0.11120000000000008 0.4 2.4186 -2.4185 2.4185 0.0 0.2 0.0 0.0 0.0 0.0 0.0 0.0 0.0 0.0 0.0 0.0 
1.664 0.9525185749422386 -1.6558185804535017 -1.8704793840719744 0.3850424326786641 0.6184394994341951 -0.00020768743328952993 0.5309806770396465 -0.4114774456908352 0.4545495311717093 -0.042820516833616665 -0.5309806468663858 -0.00030875495155962434 0.3 0.11280000000000007 0.4 2.4186 -2.4185 2.4185 0.0 0.2 0.0 0.0 0.0 0.0 0.0 0.0 0.0 0.0 0.0 0.0 
1.672 0.9567457487261384 -1.659125615507299 -1.8668194894952852 0.3846909778952654 0.6142123257420081 -0.0002089304997596375 0.5258194240864197 -0.415324488606152 0.4604795024554209 -0.044902600453370446 -0.5258193939569198 -0.0003088654627046617 0.3 0.1144 0.4 2.4186 -2.4185 2.4185 0.0 0.2 0.0 0.0 0.0 0.0 0.0 0.0 0.0 0.0 0.0 0.0 
1.68 0.9609317928190488 -1.6624632118166303 -1.8631122127779518 0.3843227039762933 0.6100262817410089 -0.00021017994575731175 0.520698332203457 -0.41911827348019615 0.4663957571915833 -0.047024245988649634 -0.520698302118959 -0.00030896478619001446 0.3 0.11599999999999999 0.4 2.4186 -2.4185 2.4185 0.0 0.2 0.0 0.0 0.0 0.0 0.0 0.0 0.0 0.0 0.0 0.0 
1.688 0.965077030302818 -1.6658309464584575 -1.8593576623971468 0.38393729203342697 0.6058810443493446 -0.00021143569843053777 0.515617842639156 -0.42285957058616286 0.472298596045001 -0.04918498684851525 -0.5156178126016354 -0.00030904915093512945 0.3 0.11760000000000004 0.4 2.4186 -2.4185 2.4185 0.0 0.2 0.0 0.0 0.0 0.0 0.0 0.0 0.0 0.0 0.0 0.0 
1.696 0.9691817876479412 -1.6692284027554742 -1.855555944360243 0.3835344393985902 0.6017762870965202 -0.00021269768531825419 0.5105783621911569 -0.42654917192290615 0.4781883367219811 -0.05138434248859378 -0.5105783322011288 -0.000309126071258019 0.3 0.11920000000000003 0.4 2.4186 -2.4185 2.4185 0.0 0.2 0.0 0.0 0.0 0.0 0.0 0.0 0.0 0.0 0.0 0.0 
1.704 0.9732463944223054 -1.672655170429317 -1.8517071620866559 0.3831138297661876 0.5977116804146463 -0.0002139658343700992 0.505580258320096 -0.43018788524531737 0.4840653085003983 -0.053621841162909537 -0.5055802283796837 -0.00030918726950927654 0.3 0.12080000000000002 0.4 2.4186 -2.4185 2.4185 0.0 0.2 0.0 0.0 0.0 0.0 0.0 0.0 0.0 0.0 0.0 0.0 
1.712 0.9772711830085534 -1.6761108457451628 -1.8478114162898032 0.38267516898014087 0.593686891921077 -0.00021524007396516557 0.5006238672991248 -0.4337765388553284 0.48992985877690265 -0.05589699507854149 -0.5006238374088555 -0.00030924098785033437 0.3 0.12240000000000001 0.4 2.4186 -2.4185 2.4185 0.0 0.2 0.0 0.0 0.0 0.0 0.0 0.0 0.0 0.0 0.0 0.0 
1.72 0.9812564883300593 -1.679595031647942 -1.843868804859149 0.38221815824567673 0.5897015866924363 -0.00021652033292978253 0.49570948999024034 -0.43731597617898665 0.49578234813913263 -0.058209320833260615 -0.49570946015054224 -0.00030928776882218473 0.3 0.12400000000000005 0.4 2.4186 -2.4185 2.4185 0.0 0.2 0.0 0.0 0.0 0.0 0.0 0.0 0.0 0.0 0.0 0.0 
1.728 0.9852026475854895 -1.6831073378904051 -1.8398794227423005 0.3817424944858745 0.5857554275300559 -0.00021780654055434276 0.4908373930922656 -0.4408070547904984 0.5016231503631191 -0.06055834009572532 -0.4908373633048636 -0.0003093209118634911 0.3 0.12560000000000004 0.4 2.4186 -2.4185 2.4185 0.0 0.2 0.0 0.0 0.0 0.0 0.0 0.0 0.0 0.0 0.0 0.0 
1.736 0.9891099999919089 -1.686647381153295 -1.8358433618271142 0.3812478906044139 0.5818480752168682 -0.00021909862660919724 0.48600781402711013 -0.4442506488092402 0.5074526562373152 -0.06294356602011539 -0.48600778429293634 -0.0003093445362630942 0.3 0.12720000000000004 0.4 2.4186 -2.4185 2.4185 0.0 0.2 0.0 0.0 0.0 0.0 0.0 0.0 0.0 0.0 0.0 0.0 
1.744 0.9929788865363751 -1.6902147851578802 -1.8317607108237675 0.38073406082700467 0.5779791887658121 -0.00022039652135963402 0.481220959190042 -0.4476476455357068 0.5132712708290478 -0.0653645147501929 -0.48122092950968354 -0.00030936045933960705 0.3 0.12880000000000003 0.4 2.4186 -2.4185 2.4185 0.0 0.2 0.0 0.0 0.0 0.0 0.0 0.0 0.0 0.0 0.0 0.0 
1.752 0.9968096497359537 -1.6938091807710969 -1.8276315551467581 0.3802007235835563 0.5741484256598232 -0.00022170015557996625 0.4764770055470554 -0.4509989450249478 0.5190794140417114 -0.06782070425828526 -0.47647697592070304 -0.00030937078116722205 0.3 0.13040000000000002 0.4 2.4186 -2.4185 2.4185 0.0 0.2 0.0 0.0 0.0 0.0 0.0 0.0 0.0 0.0 0.0 0.0 
1.76 1.0006026334060727 -1.6974302061035864 -1.8234559767967622 0.3796475874894938 0.5703554420834689 -0.0002230094605667487 0.4717760992047844 -0.4543054568442097 0.5248775178956762 -0.07031166516843995 -0.4717760696345207 -0.00030936564506885237 0.3 0.13200000000000006 0.4 2.4186 -2.4185 2.4185 0.0 0.2 0.0 0.0 0.0 0.0 0.0 0.0 0.0 0.0 0.0 0.0 
1.768 1.0043581824371253 -1.7010775066008703 -1.8192340542423102 0.37907438772198554 0.5665998931463545 -0.00022432436815114347 0.4671183629191951 -0.45756810537892556 0.5306660336398656 -0.07283691574792883 -0.467118333405171 -0.0003093551621394139 0.3 0.13360000000000005 0.4 2.4186 -2.4185 2.4185 0.0 0.2 0.0 0.0 0.0 0.0 0.0 0.0 0.0 0.0 0.0 0.0 
1.776 1.0080766425792214 -1.70475073512796 -1.8149658623012113 0.37848085215949867 0.5628814330983672 -0.00022564481071046173 0.46250389104129797 -0.46078782332658863 0.5364454252268706 -0.07539598682431238 -0.4625038615836048 -0.00030933968800040117 0.3 0.13520000000000004 0.4 2.4186 -2.4185 2.4185 0.0 0.2 0.0 0.0 0.0 0.0 0.0 0.0 0.0 0.0 0.0 0.0 
1.784 1.0117583602349698 -1.7084495520476581 -1.8106514720216615 0.377866704432386 0.5591997155368986 -0.00022697072117889783 0.4579327511708397 -0.4639655514248398 0.542216169898865 -0.07798842031459195 -0.4579327217708198 -0.0003093126864857633 0.3 0.13680000000000003 0.4 2.4186 -2.4185 2.4185 0.0 0.2 0.0 0.0 0.0 0.0 0.0 0.0 0.0 0.0 0.0 0.0 
1.792 1.0154036822601797 -1.7121736252928348 -1.8062909505629725 0.3772316802850697 0.5555543936061345 -0.00022830203305748426 0.4534049879618369 -0.4671022405076013 0.5479787614886611 -0.0806137584307901 -0.4534049586206783 -0.0003092749785038459 0.3 0.13840000000000002 0.4 2.4186 -2.4185 2.4185 0.0 0.2 0.0 0.0 0.0 0.0 0.0 0.0 0.0 0.0 0.0 0.0 
1.8 1.0190129557723488 -1.7159226304329607 -1.8018843610758348 0.37657552714625075 0.551945120188577 -0.00022963868042328615 0.4489206239258614 -0.4701988507594809 0.5537337104611321 -0.08327154479635784 -0.4489205946432952 -0.0003092342709500641 0.3 0.14000000000000007 0.4 2.4186 -2.4185 2.4185 0.0 0.2 0.0 0.0 0.0 0.0 0.0 0.0 0.0 0.0 0.0 0.0 
1.808 1.0225865279668023 -1.7196962507351699 -1.79743176258205 0.3758979850692463 0.5483715480888983 -0.00023098059793785948 0.4444796572142733 -0.4732563477962879 0.5594815401663584 -0.08596133850268246 -0.4444796279903721 -0.00030918881232222084 0.3 0.14160000000000006 0.4 2.4186 -2.4185 2.4185 0.0 0.2 0.0 0.0 0.0 0.0 0.0 0.0 0.0 0.0 0.0 0.0 
1.816 1.026124745940351 -1.723494177220136 -1.792933209853637 0.3751987896841593 0.5448333302102856 -0.0002323277208549983 0.44008206315590104 -0.47627570253143986 0.5652227874713145 -0.08868271260771911 -0.44008203399234136 -0.00030913014752295296 0.3 0.14320000000000005 0.4 2.4186 -2.4185 2.4185 0.0 0.2 0.0 0.0 0.0 0.0 0.0 0.0 0.0 0.0 0.0 0.0 
1.824 1.0296279565223125 -1.7273161087130422 -1.7883887532912306 0.37447770365512456 0.5413301197234192 -0.0002336799850277891 0.43572780021517643 -0.4792578960153224 0.5709580093052056 -0.09143523293130348 -0.4357277711114419 -0.0003090699209242092 0.3 0.14480000000000004 0.4 2.4186 -2.4185 2.4185 0.0 0.2 0.0 0.0 0.0 0.0 0.0 0.0 0.0 0.0 0.0 0.0 
1.832 1.0330965061127495 -1.7311617518899245 -1.7837984388016759 0.37373446638686203 0.5378615702282338 -0.00023503732691499907 0.4314168028341671 -0.4822039102202331 0.5766877724978373 -0.09421849360536837 -0.43141677379181376 -0.00030899716795963154 0.3 0.14640000000000003 0.4 2.4186 -2.4185 2.4185 0.0 0.2 0.0 0.0 0.0 0.0 0.0 0.0 0.0 0.0 0.0 0.0 
1.84 1.0365307405277742 -1.7350308213196612 -1.7791623076747252 0.3729688488787506 0.5344273359086181 -0.00023639968358681976 0.4271489909987187 -0.48511473699997193 0.582412665193694 -0.0970320796777386 -0.42714896201686997 -0.00030892485725414806 0.3 0.14800000000000008 0.4 2.4186 -2.4185 2.4185 0.0 0.2 0.0 0.0 0.0 0.0 0.0 0.0 0.0 0.0 0.0 0.0 
1.848 1.0399310048517543 -1.7389230395019009 -1.774480396458727 0.372180596307353 0.5310270716801981 -0.00023776699272998764 0.42292426214066137 -0.4879913676794367 0.5881332851298664 -0.09987560730854617 -0.4229242332206042 -0.0003088415103234298 0.3 0.14960000000000007 0.4 2.4186 -2.4185 2.4185 0.0 0.2 0.0 0.0 0.0 0.0 0.0 0.0 0.0 0.0 0.0 0.0 
1.856 1.0432976432962644 -1.7428381369011894 -1.769752736835201 0.37136947960687006 0.5276604333313998 -0.000239139192652305 0.4187424999628599 -0.49083480154908854 0.5938502505073647 -0.10274868878826626 -0.4187424711044697 -0.00030875468619480893 0.3 0.15120000000000006 0.4 2.4186 -2.4185 2.4185 0.0 0.2 0.0 0.0 0.0 0.0 0.0 0.0 0.0 0.0 0.0 0.0 
1.864 1.0466309990656186 -1.7467758519775827 -1.7649793554921938 0.37053526424266625 0.5243270776579076 -0.0002405162222865832 0.4146035704485943 -0.49364604004727886 0.5995641936835489 -0.10565095454810791 -0.4146035416516788 -0.0003086648018450187 0.3 0.15280000000000005 0.4 2.4186 -2.4185 2.4185 0.0 0.2 0.0 0.0 0.0 0.0 0.0 0.0 0.0 0.0 0.0 0.0 
1.872 1.04993141422882 -1.7507359312140147 -1.7601602739962794 0.36967770786860865 0.5210266625907162 -0.0002418980211940292 0.4105073224188249 -0.4964260859681914 0.6052757608212564 -0.10858205513783631 -0.41050729368477046 -0.0003085634306293735 0.3 0.15440000000000004 0.4 2.4186 -2.4185 2.4185 0.0 0.2 0.0 0.0 0.0 0.0 0.0 0.0 0.0 0.0 0.0 0.0 
1.88 1.053199229597758 -1.7547181291406933 -1.7552955086630966 0.3687965901806922 0.5177588473179325 -0.00024328452956709728 0.40645359268042053 -0.49917594833255113 0.6109856184391771 -0.11154164143498069 -0.40645356400921656 -0.0003084580940203585 0.3 0.15600000000000008 0.4 2.4186 -2.4185 2.4185 0.0 0.2 0.0 0.0 0.0 0.0 0.0 0.0 0.0 0.0 0.0 0.0 
1.888 1.0564347846114903 -1.7587222083567902 -1.750385070426282 0.36789168255463145 0.5145232924005003 -0.0002446756882318271 0.40244220233062133 -0.5018966367932126 0.6166944472131486 -0.11452938574108873 -0.4024421737225643 -0.0003083471848678827 0.3 0.15760000000000007 0.4 2.4186 -2.4185 2.4185 0.0 0.2 0.0 0.0 0.0 0.0 0.0 0.0 0.0 0.0 0.0 0.0 
1.896 1.0596384172264446 -1.7627479395497003 -1.7454289647046648 0.3669627652747016 0.5113196598819886 -0.00024607143864968997 0.39847295999923016 -0.5045891643742408 0.6224029458943514 -0.11754497055067954 -0.3984729314539605 -0.000308234282072346 0.3 0.15920000000000006 0.4 2.4186 -2.4185 2.4185 0.0 0.2 0.0 0.0 0.0 0.0 0.0 0.0 0.0 0.0 0.0 0.0 
1.904 1.0628104638123617 -1.7667951015121295 -1.740427191267581 0.36600960775334834 0.5081476133926538 -0.0002474717229189612 0.39454565980919204 -0.5072545437729916 0.6281118273118449 -0.12058810223803516 -0.39454563132770876 -0.00030811209507594466 0.3 0.16080000000000005 0.4 2.4186 -2.4185 2.4185 0.0 0.2 0.0 0.0 0.0 0.0 0.0 0.0 0.0 0.0 0.0 0.0 
1.912 1.065951259053826 -1.7708634811572734 -1.7353797440981593 0.36503200237367683 0.5050068182479074 -0.0002488764837756406 0.3906600867661312 -0.509893793090335 0.633821825986743 -0.12365848882015579 -0.39066005834768364 -0.00030799012095044444 0.3 0.16240000000000004 0.4 2.4186 -2.4185 2.4185 0.0 0.2 0.0 0.0 0.0 0.0 0.0 0.0 0.0 0.0 0.0 0.0 
1.92 1.0690611358572077 -1.774952873532359 -1.730286611254416 0.3640297230410987 0.5018969415413851 -0.0002502856645939395 0.38681601174120617 -0.5125079283960302 0.6395336894516612 -0.12675586802479574 -0.38681598338640066 -0.0003078610609884485 0.3 0.16400000000000003 0.4 2.4186 -2.4185 2.4185 0.0 0.2 0.0 0.0 0.0 0.0 0.0 0.0 0.0 0.0 0.0 0.0 
1.928 1.0721404252628597 -1.7790630818307895 -1.7251477747280064 0.36300255643294577 0.498817652232726 -0.00025169920938635654 0.38301319642035414 -0.5150979690746956 0.6452481853685533 -0.12987998681347027 -0.3830131681295472 -0.0003077263005968815 0.3 0.16560000000000002 0.4 2.4186 -2.4185 2.4185 0.0 0.2 0.0 0.0 0.0 0.0 0.0 0.0 0.0 0.0 0.0 0.0 
1.936 1.075189456362394 -1.7831939174031717 -1.719963210300451 0.3619502966529269 0.4957686212303153 -0.00025311706280335515 0.37925139315642004 -0.5176649367912022 0.6509661007548336 -0.13303060539392728 -0.3792513649289228 -0.0003075915703300687 0.3 0.16720000000000002 0.4 2.4186 -2.4185 2.4185 0.0 0.2 0.0 0.0 0.0 0.0 0.0 0.0 0.0 0.0 0.0 0.0 
1.944 1.0782085562208863 -1.7873451997674596 -1.7147328873966674 0.36087272157064065 0.49274952146908096 -0.0002545391701326659 0.3755303425316652 -0.5202098512569675 0.6566882371234486 -0.1362075130999123 -0.3755303143683935 -0.00030744817617703925 0.3 0.1688 0.4 2.4186 -2.4185 2.4185 0.0 0.2 0.0 0.0 0.0 0.0 0.0 0.0 0.0 0.0 0.0 0.0 
1.952 1.0811980498038416 -1.7915167566184844 -1.7094567689356168 0.35976963015122365 0.4897600279835144 -0.0002559654772982316 0.371849778807311 -0.5227337367614012 0.6624154191420195 -0.13941050421208107 -0.37184975070793846 -0.0003073029274776823 0.3 0.17040000000000005 0.4 2.4186 -2.4185 2.4185 0.0 0.2 0.0 0.0 0.0 0.0 0.0 0.0 0.0 0.0 0.0 0.0 
1.96 1.0841582599087634 -1.795708423837111 -1.7041348111778738 0.35864081172898055 0.48679981797610766 -0.0002573959308588085 0.3682094265319392 -0.5252376167590859 0.6681484882592105 -0.1426393984562173 -0.3682093984965309 -0.000307153733516274 0.3 0.17200000000000004 0.4 2.4186 -2.4185 2.4185 0.0 0.2 0.0 0.0 0.0 0.0 0.0 0.0 0.0 0.0 0.0 0.0 
1.968 1.0870895071011706 -1.7999200454992785 -1.6987669635699143 0.3574860620850573 0.48386857088134294 -0.00025883047800624465 0.3646090031656104 -0.527722516727116 0.6738883067316886 -0.1458940308110457 -0.36460897519388996 -0.0003070025091880507 0.3 0.17360000000000003 0.4 2.4186 -2.4185 2.4185 0.0 0.2 0.0 0.0 0.0 0.0 0.0 0.0 0.0 0.0 0.0 0.0 
1.976 1.0899921096549066 -1.8041514738851672 -1.6933531685849106 0.3563051717396766 0.4809659684253737 -0.0002602690665634498 0.361048218172825 -0.530189462159294 0.6796357554816295 -0.1491742594169789 -0.361048190265105 -0.00030684606906180635 0.3 0.17520000000000002 0.4 2.4186 -2.4185 2.4185 0.0 0.2 0.0 0.0 0.0 0.0 0.0 0.0 0.0 0.0 0.0 0.0 
1.984 1.0928663834965906 -1.8084025694887447 -1.687893361559814 0.35509793488812 0.4780916946815802 -0.0002617116449820736 0.35752677466392263 -0.5326394802311935 0.685391736611312 -0.15247996009156664 -0.35752674682072344 -0.0003066832998860926 0.3 0.1768 0.4 2.4186 -2.4185 2.4185 0.0 0.2 0.0 0.0 0.0 0.0 0.0 0.0 0.0 0.0 0.0 0.0 
1.992 1.0957126421540604 -1.8126732010279372 -1.682387470528489 0.3538641579583941 0.4752454361221245 -0.00026315816233990686 0.35404437088141877 -0.5350736014335412 0.6911571759136206 -0.15581102123470442 -0.35404434310187755 -0.00030652186083492193 0.3 0.17840000000000006 0.4 2.4186 -2.4185 2.4185 0.0 0.2 0.0 0.0 0.0 0.0 0.0 0.0 0.0 0.0 0.0 0.0 
2.0 1.0985311967086604 -1.816963245455671 -1.676835416050658 0.3526036302558062 0.4724268816656593 -0.0002646085683380222 0.3506006972124067 -0.5374928545423657 0.696933016770643 -0.15916736289988795 -0.35060066949680413 -0.00030635549939866003 0.3 0.18 0.4 2.4186 -2.4185 2.4185 0.0 0.20000000000000018 0.0 0.0 0.0 0.0 -0.0 -1.0 -0.0 0.0 0.0 0.0 
2.008 1.1012667990625937 -1.8211862127031662 -1.6713495309927964 0.35134216656562667 0.46969127940801036 -0.0002660336910949984 0.33337264383817067 -0.5182562805538701 0.6745001904399689 -0.15598179986292837 -0.3333726172913706 -0.0002939415203538976 0.3 0.18156799999999995 0.4 2.4186 -2.4185 2.4185 0.0 0.19200000000000017 0.0 0.0 0.0 0.0 -0.0 -1.0 -0.0 0.0 0.0 0.0 
2.016 1.1038662895019788 -1.825254135430478 -1.6660457404890565 0.35010769628465055 0.46709178906108784 -0.0002674040670448294 0.3165685581433093 -0.4987319303167022 0.6514109249162658 -0.1524276079759454 -0.3165685327577738 -0.0002815453048226014 0.3 0.18307199999999987 0.4 2.4186 -2.4185 2.4185 0.0 0.18400000000000016 0.0 0.0 0.0 0.0 -0.0 -1.0 -0.0 0.0 0.0 0.0 
2.024 1.1063329612162764 -1.8291647715194892 -1.6609291922570506 0.34890312683800717 0.4646251174354132 -0.00026871923076211374 0.30016396261204464 -0.4789347242667831 0.6276911334883575 -0.14851577581220346 -0.30016393838031535 -0.0002691680160856706 0.3 0.18451200000000015 0.4 2.4186 -2.4185 2.4185 0.0 0.17600000000000016 0.0 0.0 0.0 0.0 -0.0 -1.0 -0.0 0.0 0.0 0.0 
2.032 1.108669915342996 -1.83291599582499 -1.6560048267869762 0.3477312693878738 0.4622881633934647 -0.00026997874503919216 0.2841353125314567 -0.4588789978299564 0.6033667180475861 -0.1442578694832659 -0.28413528944689703 -0.00025680661340140405 0.3 0.18588799999999994 0.4 2.4186 -2.4185 2.4185 0.0 0.16800000000000015 0.0 0.0 0.0 0.0 -0.0 -1.0 -0.0 0.0 0.0 0.0 
2.04 1.1108800682202307 -1.836505795789678 -1.6512773772682738 0.3465948407717119 0.4600780105971362 -0.00027118219967070843 0.26845994325587785 -0.43857857324976857 0.5784636084281757 -0.13966599580366784 -0.2684599213125373 -0.00024445871448984595 0.3 0.1872000000000001 0.4 2.4186 -2.4185 2.4185 0.0 0.16000000000000014 0.0 0.0 0.0 0.0 -0.0 -1.0 -0.0 0.0 0.0 0.0 
2.048 1.1129661582168322 -1.8399322676006793 -1.646751369227818 0.34549647010770634 0.45799192067756445 -0.00027232921031911984 0.25311601895046043 -0.41804682576257407 0.5530077985490053 -0.1347527667469758 -0.2531159981418434 -0.00023212872094417275 0.3 0.18844800000000017 0.4 2.4186 -2.4185 2.4185 0.0 0.15200000000000014 0.0 0.0 0.0 0.0 -0.0 -1.0 -0.0 0.0 0.0 0.0 
2.056 1.11493075215118 -1.8431936128409148 -1.6424311199092416 0.34443867187952715 0.45602732681635916 -0.00027341941745731335 0.23808247982524416 -0.3972967393132369 0.5270253725261923 -0.12953128254133262 -0.23808246014562767 -0.0002198136278614018 0.3 0.18963200000000022 0.4 2.4186 -2.4185 2.4185 0.0 0.14400000000000013 0.0 0.0 0.0 0.0 -0.0 -1.0 -0.0 0.0 0.0 0.0 
2.064 1.11677625130983 -1.8462881355907252 -1.6383207374236752 0.34342386228723143 0.45418182772695326 -0.00027445248538467067 0.22333899456980252 -0.3763409629783247 0.5005425350753229 -0.12401509478090696 -0.2233389760133805 -0.00020751514242745055 0.3 0.1907520000000002 0.4 2.4186 -2.4185 2.4185 0.0 0.13600000000000012 0.0 0.0 0.0 0.0 -0.0 -1.0 -0.0 0.0 0.0 0.0 
2.072 1.1185048970774805 -1.8492142399373197 -1.6344241197026395 0.34245433789570123 0.4524531820246381 -0.0002754281013131449 0.2088659110911393 -0.35519185707648826 0.47358563125195147 -0.11821818886061224 -0.20886589365292618 -0.000195229862040704 0.3 0.1918080000000001 0.4 2.4186 -2.4185 2.4185 0.0 0.1280000000000001 0.0 0.0 0.0 0.0 -0.0 -1.0 -0.0 0.0 0.0 0.0 
2.08 1.1201187761896612 -1.8519704278517344 -1.6307449532840756 0.341532288512153 0.4508393029738762 -0.00027634597452011483 0.19464421129169146 -0.3338615387332743 0.44618116810222197 -0.11215495221246723 -0.19464419496686367 -0.0001829580062575587 0.3 0.19279999999999994 0.4 2.4186 -2.4185 2.4185 0.0 0.1200000000000001 0.0 0.0 0.0 0.0 -0.0 -1.0 -0.0 0.0 0.0 0.0 
2.088 1.1216198256193808 -1.854555297395073 -1.6272867119625392 0.3406597893969383 0.44933825360164914 -0.0002772058355649959 0.18065546557768136 -0.31236192004648705 0.41835582879041266 -0.10584015292851597 -0.18065545036145436 -0.0001707004384660168 0.3 0.19372800000000015 0.4 2.4186 -2.4185 2.4185 0.0 0.1120000000000001 0.0 0.0 0.0 0.0 -0.0 -1.0 -0.0 0.0 0.0 0.0 
2.096 1.1230098371086572 -1.856967541217904 -1.6240526553344203 0.3398387857292626 0.44794824216593526 -0.00027800743556678146 0.16688178842910273 -0.290704741332938 0.3901364821606234 -0.09928892071646173 -0.1668817743175277 -0.00015845350648214975 0.3 0.19459199999999985 0.4 2.4186 -2.4185 2.4185 0.0 0.10400000000000009 0.0 0.0 0.0 0.0 -0.0 -1.0 -0.0 0.0 0.0 0.0 
2.104 1.1242904613554956 -1.8592059453187628 -1.6210458272686428 0.33907111684962876 0.44666761796871757 -0.00027875054553990787 0.15330579751005155 -0.26890160413931996 0.3615501937414375 -0.0925167148034183 -0.1533057844988178 -0.00014622023631734462 0.3 0.19539199999999995 0.4 2.4186 -2.4185 2.4185 0.0 0.09600000000000009 0.0 0.0 0.0 0.0 -0.0 -1.0 -0.0 0.0 0.0 0.0 
2.112 1.125463211866356 -1.861269388029771 -1.618269054332722 0.33835847676028896 0.4454948675035308 -0.0002794349557860049 0.13991057047543398 -0.24696399427063043 0.33262422486151494 -0.08553931307584309 -0.1399105585612533 -0.00013399583921266307 0.3 0.19612799999999997 0.4 2.4186 -2.4185 2.4185 0.0 0.08800000000000008 0.0 0.0 0.0 0.0 -0.0 -1.0 -0.0 0.0 0.0 0.0 
2.12 1.12652946848368 -1.8631568391994997 -1.6157249442031734 0.33770245130273424 0.4444286109279288 -0.0002800604753393212 0.1266796069400016 -0.2249033081828424 0.3033860375627603 -0.07837277729783518 -0.12667959611936835 -0.0001217824592144172 0.3 0.19679999999999992 0.4 2.4186 -2.4185 2.4185 0.0 0.08000000000000007 0.0 0.0 0.0 0.0 -0.0 -1.0 -0.0 0.0 0.0 0.0 
2.128 1.127490480597404 -1.8648673595452516 -1.613415884088268 0.33710448367868495 0.4434675988519687 -0.00028062693146377093 0.11359678795286876 -0.20273086978286778 0.2738632876898343 -0.07103343969771857 -0.11359677822285298 -0.0001095777481604466 0.3 0.19740799999999986 0.4 2.4186 -2.4185 2.4185 0.0 0.07200000000000006 0.0 0.0 0.0 0.0 -0.0 -1.0 -0.0 0.0 0.0 0.0 
2.136 1.1283473700487954 -1.8664001001490653 -1.6113440391898206 0.33656589164344797 0.44261070943437864 -0.0002811341691997539 0.10064633891124737 -0.18045794842550394 0.24408382049004285 -0.06353787472028594 -0.10064633026913661 -9.738134388616376e-05 0.3 0.19795200000000013 0.4 2.4186 -2.4185 2.4185 0.0 0.06400000000000006 0.0 0.0 0.0 0.0 -0.0 -1.0 -0.0 0.0 0.0 0.0 
2.144 1.1291011337342702 -1.8677543020738452 -1.6095113512292345 0.3360878583806972 0.44185694577873824 -0.0002815820509590635 0.08781279218150188 -0.15809577196848318 0.21407566029748076 -0.05590287782675791 -0.08781278462487253 -8.519245766752427e-05 0.3 0.1984319999999999 0.4 2.4186 -2.4185 2.4185 0.0 0.05600000000000005 0.0 0.0 0.0 0.0 -0.0 -1.0 -0.0 0.0 0.0 0.0 
2.152 1.1297526459161862 -1.8689292960781958 -1.6079195370613049 0.33567143188928816 0.44120543362268644 -0.0002819704561663896 0.07508095092489693 -0.1356555379422848 0.18386699828141767 -0.04814544175154781 -0.0750809444516237 -7.301022451906269e-05 0.3 0.19884800000000002 0.4 2.4186 -2.4185 2.4185 0.0 0.04800000000000004 0.0 0.0 0.0 0.0 -0.0 -1.0 -0.0 0.0 0.0 0.0 
2.16 1.1303026602468762 -1.8699245024106335 -1.6065700873974575 0.3353175186357502 0.4406554193138883 -0.00028229928094607247 0.0624358535223041 -0.11314842219155803 0.15348617727146438 -0.04028273331898462 -0.06243584813069521 -6.083299723414808e-05 0.3 0.19920000000000015 0.4 2.4186 -2.4185 2.4185 0.0 0.040000000000000036 0.0 0.0 0.0 0.0 -0.0 -1.0 -0.0 0.0 0.0 0.0 
2.168 1.1307518115115014 -1.8707394306661285 -1.6054642656579425 0.335026897725087 0.4402062680671761 -0.00028256843785295075 0.04986273908060427 -0.09058558629812519 0.12296167533328722 -0.03233206730264028 -0.04986273476908864 -4.8660876217446166e-05 0.3 0.19948800000000017 0.4 2.4186 -2.4185 2.4185 0.0 0.03200000000000003 0.0 0.0 0.0 0.0 -0.0 -1.0 -0.0 0.0 0.0 0.0 
2.176 1.1311006170945526 -1.871373679690065 -1.6046031069703421 0.3348001989790679 0.4398574624980625 -0.000282777855646294 0.03734701271004905 -0.0679781818589984 0.09232208539185639 -0.02431088481916389 -0.03734700947746272 -3.6492332467037145e-05 0.3 0.1997120000000001 0.4 2.4186 -2.4185 2.4185 0.0 0.02400000000000002 0.0 0.0 0.0 0.0 -0.0 -1.0 -0.0 0.0 0.0 0.0 
2.184 1.1313494781741076 -1.8718269375169982 -1.6039874173293043 0.3346379177276242 0.43960860142846026 -0.0002829274791059814 0.024874212041942404 -0.04533735472392099 0.06159609504166091 -0.01623672670494363 -0.024874209887386055 -2.4326629984173552e-05 0.3 0.199872 0.4 2.4186 -2.4185 2.4185 0.0 0.016000000000000014 0.0 0.0 0.0 0.0 -0.0 -1.0 -0.0 0.0 0.0 0.0 
2.192 1.1314986806472014 -1.8720989813338187 -1.603617772929926 0.33454040768376236 0.43945939896134256 -0.0002830172688902332 0.012429973666197811 -0.022674247256634746 0.030812463853754322 -0.008127209445851156 -0.012429972589068973 -1.2162842763816615e-05 0.3 0.1999679999999998 0.4 2.4186 -2.4185 2.4185 0.0 0.008000000000000007 0.0 0.0 0.0 0.0 -0.0 -1.0 -0.0 0.0 0.0 0.0 
2.2 1.131548395788938 -1.8721896774592424 -1.6034945196845336 0.33450788016589583 0.4394096838215976 -0.00028304720143437355 0.0 0.0 0.0 0.0 0.0 0.0 0.3 0.20000000000000007 0.4 2.4186 -2.4185 2.4185 0.0 0.0 0.0 0.0 0.0 0.0 -0.0 -1.0 -0.0 0.0 0.0 0.0 
