Fleaurent/UniversalRobot/csv/robolib_movej_Trapez_Zeit.csv
timestamp target_q_0 target_q_1 target_q_2 target_q_3 target_q_4 target_q_5 target_qd_0 target_qd_1 target_qd_2 target_qd_3 target_qd_4 target_qd_5 target_qdd_0 target_qdd_1 target_qdd_2 target_qdd_3 target_qdd_4 target_qdd_5 actual_TCP_pose_0 actual_TCP_pose_1 actual_TCP_pose_2 actual_TCP_pose_3 actual_TCP_pose_4 actual_TCP_pose_5
0.0 0.0 -1.5707963267948966 -1.5707963267948966 0.0 1.5707963267948966 0.0 0.0 0.0 0.0 0.0 0.0 0.0 1.0 0.0 0.0 0.0 0.0 0.0 295.15 -112.34999999999998 480.9 -1.2091995761561454 1.2091995761561456 -1.2091995761561458 
0.008 3.2e-05 -1.5707963267948966 -1.5707963267948966 0.0 1.5707963267948966 0.0 0.008 0.0 0.0 0.0 0.0 0.0 1.0 0.0 0.0 0.0 0.0 0.0 295.1535950488826 -112.34055514247841 480.9 -1.2092147055764364 1.2091760113249628 -1.209176011324963 
0.016 0.000128 -1.5707963267948966 -1.5707963267948966 0.0 1.5707963267948966 0.0 0.016 0.0 0.0 0.0 0.0 0.0 1.0 0.0 0.0 0.0 0.0 0.0 295.1643783820919 -112.31221987973194 480.9 -1.2092600917893326 1.209105316402997 -1.2091053164029972 
0.024 0.000288 -1.5707963267948966 -1.5707963267948966 0.0 1.5707963267948966 0.0 0.024 0.0 0.0 0.0 0.0 0.0 1.0 0.0 0.0 0.0 0.0 0.0 295.182344559092 -112.2649921417959 480.9 -1.2093357286510245 1.2089874901051165 -1.2089874901051167 
0.032 0.000512 -1.5707963267948966 -1.5707963267948966 0.0 1.5707963267948966 0.0 0.032 0.0 0.0 0.0 0.0 0.0 1.0 0.0 0.0 0.0 0.0 0.0 295.2074845115868 -112.19886848066349 480.9 -1.2094416059222521 1.2088225302898576 -1.2088225302898579 
0.04 0.0008 -1.5707963267948966 -1.5707963267948966 0.0 1.5707963267948966 0.0 0.04 0.0 0.0 0.0 0.0 0.0 1.0 0.0 0.0 0.0 0.0 0.0 295.23978554241785 -112.11384407318803 480.9 -1.209577709268942 1.2086104339600623 -1.2086104339600627 
0.048 0.001152 -1.5707963267948966 -1.5707963267948966 0.0 1.5707963267948966 0.0 0.048 0.0 0.0 0.0 0.0 0.0 1.0 0.0 0.0 0.0 0.0 0.0 295.2792313240216 -112.00991272514642 480.9 -1.2097440202630958 1.2083511972637653 -1.2083511972637655 
0.056 0.0015680000000000002 -1.5707963267948966 -1.5707963267948966 0.0 1.5707963267948966 0.0 0.056 0.0 0.0 0.0 0.0 0.0 1.0 0.0 0.0 0.0 0.0 0.0 295.32580189645034 -111.88706687646494 480.9 -1.2099405163839287 1.208044815495334 -1.2080448154953343 
0.064 0.002048 -1.5707963267948966 -1.5707963267948966 0.0 1.5707963267948966 0.0 0.064 0.0 0.0 0.0 0.0 0.0 1.0 0.0 0.0 0.0 0.0 0.0 295.379473664957 -111.74529760760825 480.9 -1.21016717101927 1.2076912830968698 -1.20769128309687 
0.072 0.0025920000000000006 -1.5707963267948966 -1.5707963267948966 0.0 1.5707963267948966 0.0 0.07200000000000001 0.0 0.0 0.0 0.0 0.0 1.0 0.0 0.0 0.0 0.0 0.0 295.4402193971484 -111.58459464713222 480.9 -1.2104239534672074 1.2072905936598501 -1.2072905936598504 
0.08 0.0032 -1.5707963267948966 -1.5707963267948966 0.0 1.5707963267948966 0.0 0.08 0.0 0.0 0.0 0.0 0.0 1.0 0.0 0.0 0.0 0.0 0.0 295.50800821970904 -111.40494638040256 480.9 -1.2107108289379842 1.2068427399270305 -1.206842739927031 
0.088 0.0038719999999999996 -1.5707963267948966 -1.5707963267948966 0.0 1.5707963267948966 0.0 0.088 0.0 0.0 0.0 0.0 0.0 1.0 0.0 0.0 0.0 0.0 0.0 295.5828056147004 -111.20633985948024 480.9 -1.2110277585561553 1.206347713794597 -1.2063477137945973 
0.096 0.004608 -1.5707963267948966 -1.5707963267948966 0.0 1.5707963267948966 0.0 0.096 0.0 0.0 0.0 0.0 0.0 1.0 0.0 0.0 0.0 0.0 0.0 295.6645734154394 -110.98876081417534 480.9 -1.2113746993629853 1.2058055063145694 -1.2058055063145698 
0.104 0.005408000000000001 -1.5707963267948966 -1.5707963267948966 0.0 1.5707963267948966 0.0 0.10400000000000001 0.0 0.0 0.0 0.0 0.0 1.0 0.0 0.0 0.0 0.0 0.0 295.75326980196127 -110.75219366427145 480.9 -1.211751604319099 1.2052161076974512 -1.2052161076974515 
0.112 0.006272000000000001 -1.5707963267948966 -1.5707963267948966 0.0 1.5707963267948966 0.0 0.112 0.0 0.0 0.0 0.0 0.0 1.0 0.0 0.0 0.0 0.0 0.0 295.8488492960722 -110.49662153292248 480.9 -1.212158422307384 1.204579507315135 -1.2045795073151353 
0.12 0.0072 -1.5707963267948966 -1.5707963267948966 0.0 1.5707963267948966 0.0 0.12 0.0 0.0 0.0 0.0 0.0 1.0 0.0 0.0 0.0 0.0 0.0 295.95126275599847 -110.22202626122389 480.9 -1.212595098136135 1.203895693704051 -1.2038956937040513 
0.128 0.008192 -1.5707963267948966 -1.5707963267948966 0.0 1.5707963267948966 0.0 0.128 0.0 0.0 0.0 0.0 0.0 1.0 0.0 0.0 0.0 0.0 0.0 296.06045737063687 -109.92838842396122 480.9 -1.2130615725424498 1.2031646545685644 -1.2031646545685646 
0.136 0.009248000000000001 -1.5707963267948966 -1.5707963267948966 0.0 1.5707963267948966 0.0 0.136 0.0 0.0 0.0 0.0 0.0 1.0 0.0 0.0 0.0 0.0 0.0 296.17637665341584 -109.61568734653784 480.9 -1.2135577821958687 1.202386376784623 -1.2023863767846232 
0.144 0.010368000000000002 -1.5707963267948966 -1.5707963267948966 0.0 1.5707963267948966 0.0 0.14400000000000002 0.0 0.0 0.0 0.0 0.0 1.0 0.0 0.0 0.0 0.0 0.0 296.2989604357729 -109.28390112308516 480.9 -1.2140836597022584 1.201560846403644 -1.2015608464036442 
0.152 0.011552 -1.5707963267948966 -1.5707963267948966 0.0 1.5707963267948966 0.0 0.152 0.0 0.0 0.0 0.0 0.0 1.0 0.0 0.0 0.0 0.0 0.0 296.4281448602577 -108.93300663575795 480.9 -1.2146391336079376 1.2006880486566487 -1.200688048656649 
0.16 0.0128 -1.5707963267948966 -1.5707963267948966 0.0 1.5707963267948966 0.0 0.16 0.0 0.0 0.0 0.0 0.0 1.0 0.0 0.0 0.0 0.0 0.0 296.5638623732683 -108.56297957521768 480.9 -1.2152241284040484 1.1997679679586404 -1.1997679679586406 
0.168 0.014112000000000001 -1.5707963267948966 -1.5707963267948966 0.0 1.5707963267948966 0.0 0.168 0.0 0.0 0.0 0.0 0.0 1.0 0.0 0.0 0.0 0.0 0.0 296.70604171743196 -108.1737944623074 480.9 -1.2158385645311605 1.1988005879132215 -1.1988005879132217 
0.176 0.015487999999999998 -1.5707963267948966 -1.5707963267948966 0.0 1.5707963267948966 0.0 0.176 0.0 0.0 0.0 0.0 0.0 1.0 0.0 0.0 0.0 0.0 0.0 296.8546079236366 -107.7654246709212 480.9 -1.21648235838412 1.1977858913174522 -1.1977858913174524 
0.184 0.016928 -1.5707963267948966 -1.5707963267948966 0.0 1.5707963267948966 0.0 0.184 0.0 0.0 0.0 0.0 0.0 1.0 0.0 0.0 0.0 0.0 0.0 297.0094823027274 -107.33784245207201 480.9 -1.2171554223171324 1.1967238601669474 -1.1967238601669477 
0.192 0.018432 -1.5707963267948966 -1.5707963267948966 0.0 1.5707963267948966 0.0 0.192 0.0 0.0 0.0 0.0 0.0 1.0 0.0 0.0 0.0 0.0 0.0 297.1705824368763 -106.891018959161 480.9 -1.217857664649078 1.195614475661211 -1.1956144756612113 
0.2 0.020000000000000004 -1.5707963267948966 -1.5707963267948966 0.0 1.5707963267948966 0.0 0.2 0.0 0.0 0.0 0.0 0.0 1.0 0.0 0.0 0.0 0.0 0.0 297.3378221706364 -106.42492427445274 480.9 -1.2185889896690676 1.194457718209207 -1.1944577182092075 
0.208 0.021632000000000005 -1.5707963267948966 -1.5707963267948966 0.0 1.5707963267948966 0.0 0.20800000000000002 0.0 0.0 0.0 0.0 0.0 1.0 0.0 0.0 0.0 0.0 0.0 297.51111160169467 -105.93952743675972 480.9 -1.2193492976422196 1.1932535674351608 -1.193253567435161 
0.216 0.023327999999999998 -1.5707963267948966 -1.5707963267948966 0.0 1.5707963267948966 0.0 0.216 0.0 0.0 0.0 0.0 0.0 1.0 0.0 0.0 0.0 0.0 0.0 297.69035707133327 -105.4347964703403 480.9 -1.2201384848156724 1.192002002184595 -1.1920020021845952 
0.224 0.025088000000000003 -1.5707963267948966 -1.5707963267948966 0.0 1.5707963267948966 0.0 0.224 0.0 0.0 0.0 0.0 0.0 1.0 0.0 0.0 0.0 0.0 0.0 297.8754611546139 -104.91069841501428 480.9 -1.2209564434248221 1.1907030005305959 -1.190703000530596 
0.232 0.026912000000000002 -1.5707963267948966 -1.5707963267948966 0.0 1.5707963267948966 0.0 0.232 0.0 0.0 0.0 0.0 0.0 1.0 0.0 0.0 0.0 0.0 0.0 298.0663226502984 -104.36719935750016 480.9 -1.2218030616997861 1.1893565397803083 -1.1893565397803085 
0.24 0.0288 -1.5707963267948966 -1.5707963267948966 0.0 1.5707963267948966 0.0 0.24 0.0 0.0 0.0 0.0 0.0 1.0 0.0 0.0 0.0 0.0 0.0 298.2628365705195 -103.80426446397853 480.9 -1.2226782238720857 1.187962596481655 -1.1879625964816551 
0.248 0.030751999999999998 -1.5707963267948966 -1.5707963267948966 0.0 1.5707963267948966 0.0 0.248 0.0 0.0 0.0 0.0 0.0 1.0 0.0 0.0 0.0 0.0 0.0 298.46489413021624 -103.2218580138858 480.9 -1.2235818101815525 1.1865211464302812 -1.1865211464302814 
0.256 0.032768 -1.5707963267948966 -1.5707963267948966 0.0 1.5707963267948966 0.0 0.256 0.0 0.0 0.0 0.0 0.0 1.0 0.0 0.0 0.0 0.0 0.0 298.6723827363506 -102.61994343494302 480.9 -1.2245136968834491 1.1850321646767241 -1.1850321646767243 
0.264 0.034848000000000004 -1.5707963267948966 -1.5707963267948966 0.0 1.5707963267948966 0.0 0.264 0.0 0.0 0.0 0.0 0.0 1.0 0.0 0.0 0.0 0.0 0.0 298.8851859769186 -101.99848333942413 480.9 -1.2254737562558078 1.1834956255337983 -1.1834956255337985 
0.272 0.036992000000000004 -1.5707963267948966 -1.5707963267948966 0.0 1.5707963267948966 0.0 0.272 0.0 0.0 0.0 0.0 0.0 1.0 0.0 0.0 0.0 0.0 0.0 299.10318360977504 -101.35743956166809 480.9 -1.2264618566069785 1.1819115025842022 -1.1819115025842024 
0.28 0.0391840016747206 -1.5707963267948966 -1.5707963267948966 0.0 1.5707963267948966 0.0 0.2743434418098265 0.0 0.0 0.0 0.0 0.0 0.0 0.0 0.0 0.0 0.0 0.0 299.3246405332488 -100.7015619026903 480.9 -1.2274705064958296 1.1802915927890807 -1.180291592789081 
0.288 0.04137874920919921 -1.5707963267948966 -1.5707963267948966 0.0 1.5707963267948966 0.0 0.2743434418098265 0.0 0.0 0.0 0.0 0.0 0.0 0.0 0.0 0.0 0.0 0.0 299.54493394987173 -100.04437787785467 480.9 -1.228478827264019 1.1786693301156386 -1.1786693301156388 
0.296 0.04357349674367781 -1.5707963267948966 -1.5707963267948966 0.0 1.5707963267948966 0.0 0.2743434418098265 0.0 0.0 0.0 0.0 0.0 0.0 0.0 0.0 0.0 0.0 0.0 299.763784484067 -99.38671194777393 480.9 -1.229485555068668 1.17704674424165 -1.1770467442416501 
0.304 0.04576824427815643 -1.5707963267948966 -1.5707963267948966 0.0 1.5707963267948966 0.0 0.2743434418098265 0.0 0.0 0.0 0.0 0.0 0.0 0.0 0.0 0.0 0.0 0.0 299.9811910816504 -98.72856728036885 480.9 -1.2304906905706925 1.1754238358306544 -1.1754238358306546 
0.312 0.04796299181263504 -1.5707963267948966 -1.5707963267948966 0.0 1.5707963267948966 0.0 0.2743434418098265 0.0 0.0 0.0 0.0 0.0 0.0 0.0 0.0 0.0 0.0 0.0 300.1971526953928 -98.0699470458662 480.9 -1.231494234429866 1.1738006055452033 -1.1738006055452035 
0.32 0.05015773934711366 -1.5707963267948966 -1.5707963267948966 0.0 1.5707963267948966 0.0 0.2743434418098265 0.0 0.0 0.0 0.0 0.0 0.0 0.0 0.0 0.0 0.0 0.0 300.4116682850255 -97.41085441678355 480.9 -1.2324961873048201 1.1721770540468597 -1.17217705404686 
0.328 0.05235248688159227 -1.5707963267948966 -1.5707963267948966 0.0 1.5707963267948966 0.0 0.2743434418098265 0.0 0.0 0.0 0.0 0.0 0.0 0.0 0.0 0.0 0.0 0.0 300.62473681724515 -96.75129256791394 480.9 -1.233496549853044 1.1705531819962018 -1.170553181996202 
0.336 0.054547234416070886 -1.5707963267948966 -1.5707963267948966 0.0 1.5707963267948966 0.0 0.2743434418098265 0.0 0.0 0.0 0.0 0.0 0.0 0.0 0.0 0.0 0.0 0.0 300.8363572657188 -96.0912646763106 480.9 -1.2344953227308872 1.1689289900528252 -1.1689289900528255 
0.344 0.0567419819505495 -1.5707963267948966 -1.5707963267948966 0.0 1.5707963267948966 0.0 0.2743434418098265 0.0 0.0 0.0 0.0 0.0 0.0 0.0 0.0 0.0 0.0 0.0 301.04652861108883 -95.43077392127168 480.9 -1.2354925065935594 1.1673044788753466 -1.167304478875347 
0.352 0.058936729485028094 -1.5707963267948966 -1.5707963267948966 0.0 1.5707963267948966 0.0 0.2743434418098265 0.0 0.0 0.0 0.0 0.0 0.0 0.0 0.0 0.0 0.0 0.0 301.2552498409777 -94.76982348432483 480.9 -1.2364881020951304 1.165679649121403 -1.1656796491214032 
0.36 0.061131477019506705 -1.5707963267948966 -1.5707963267948966 0.0 1.5707963267948966 0.0 0.2743434418098265 0.0 0.0 0.0 0.0 0.0 0.0 0.0 0.0 0.0 0.0 0.0 301.46251994999307 -94.10841654921205 480.9 -1.2374821098885331 1.1640545014476587 -1.1640545014476589 
0.368 0.06332622455398532 -1.5707963267948966 -1.5707963267948966 0.0 1.5707963267948966 0.0 0.2743434418098265 0.0 0.0 0.0 0.0 0.0 0.0 0.0 0.0 0.0 0.0 0.0 301.6683379397325 -93.44655630187415 480.9 -1.2384745306255611 1.1624290365098024 -1.1624290365098027 
0.376 0.06552097208846394 -1.5707963267948966 -1.5707963267948966 0.0 1.5707963267948966 0.0 0.2743434418098265 0.0 0.0 0.0 0.0 0.0 0.0 0.0 0.0 0.0 0.0 0.0 301.87270281878824 -92.78424593043559 480.9 -1.2394653649568723 1.1608032549625547 -1.1608032549625549 
0.384 0.06771571962294255 -1.5707963267948966 -1.5707963267948966 0.0 1.5707963267948966 0.0 0.2743434418098265 0.0 0.0 0.0 0.0 0.0 0.0 0.0 0.0 0.0 0.0 0.0 302.075613602752 -92.12148862518902 480.9 -1.2404546135319872 1.1591771574596665 -1.1591771574596668 
0.392 0.06991046715742116 -1.5707963267948966 -1.5707963267948966 0.0 1.5707963267948966 0.0 0.2743434418098265 0.0 0.0 0.0 0.0 0.0 0.0 0.0 0.0 0.0 0.0 0.0 302.27706931422 -91.45828757857984 480.9 -1.2414422769992932 1.1575507446539246 -1.1575507446539248 
0.4 0.07210521469189979 -1.5707963267948966 -1.5707963267948966 0.0 1.5707963267948966 0.0 0.2743434418098265 0.0 0.0 0.0 0.0 0.0 0.0 0.0 0.0 0.0 0.0 0.0 302.4770689827971 -90.79464598519108 480.9 -1.2424283560060412 1.1559240171971508 -1.155924017197151 
0.408 0.07429996222637839 -1.5707963267948966 -1.5707963267948966 0.0 1.5707963267948966 0.0 0.2743434418098265 0.0 0.0 0.0 0.0 0.0 0.0 0.0 0.0 0.0 0.0 0.0 302.675611645102 -90.1305670417277 480.9 -1.243412851198348 1.154296975740207 -1.1542969757402073 
0.416 0.07649470976085701 -1.5707963267948966 -1.5707963267948966 0.0 1.5707963267948966 0.0 0.2743434418098265 0.0 0.0 0.0 0.0 0.0 0.0 0.0 0.0 0.0 0.0 0.0 302.87269634477155 -89.46605394700144 480.9 -1.2443957632211988 1.1526696209329967 -1.152669620932997 
0.424 0.07868945729533561 -1.5707963267948966 -1.5707963267948966 0.0 1.5707963267948966 0.0 0.2743434418098265 0.0 0.0 0.0 0.0 0.0 0.0 0.0 0.0 0.0 0.0 0.0 303.06832213246565 -88.80110990191523 480.9 -1.2453770927184455 1.1510419534244667 -1.151041953424467 
0.432 0.08088420482981422 -1.5707963267948966 -1.5707963267948966 0.0 1.5707963267948966 0.0 0.2743434418098265 0.0 0.0 0.0 0.0 0.0 0.0 0.0 0.0 0.0 0.0 0.0 303.2624880658714 -88.13573810944787 480.9 -1.2463568403328087 1.14941397386261 -1.1494139738626103 
0.44 0.08307895236429283 -1.5707963267948966 -1.5707963267948966 0.0 1.5707963267948966 0.0 0.2743434418098265 0.0 0.0 0.0 0.0 0.0 0.0 0.0 0.0 0.0 0.0 0.0 303.45519320970817 -87.46994177463864 480.9 -1.247335006705877 1.1477856828944681 -1.1477856828944684 
0.448 0.08527369989877145 -1.5707963267948966 -1.5707963267948966 0.0 1.5707963267948966 0.0 0.2743434418098265 0.0 0.0 0.0 0.0 0.0 0.0 0.0 0.0 0.0 0.0 0.0 303.6464366357316 -86.80372410457176 480.9 -1.2483115924781099 1.1461570811661337 -1.146157081166134 
0.456 0.08746844743325007 -1.5707963267948966 -1.5707963267948966 0.0 1.5707963267948966 0.0 0.2743434418098265 0.0 0.0 0.0 0.0 0.0 0.0 0.0 0.0 0.0 0.0 0.0 303.83621742273846 -86.13708830836096 480.9 -1.2492865982888384 1.1445281693227531 -1.1445281693227534 
0.464 0.08966319496772868 -1.5707963267948966 -1.5707963267948966 0.0 1.5707963267948966 0.0 0.2743434418098265 0.0 0.0 0.0 0.0 0.0 0.0 0.0 0.0 0.0 0.0 0.0 304.0245346565709 -85.47003759713411 480.9 -1.2502600247762625 1.142898948008527 -1.1428989480085274 
0.472 0.09185794250220729 -1.5707963267948966 -1.5707963267948966 0.0 1.5707963267948966 0.0 0.2743434418098265 0.0 0.0 0.0 0.0 0.0 0.0 0.0 0.0 0.0 0.0 0.0 304.21138743012074 -84.80257518401764 480.9 -1.2512318725774554 1.1412694178667149 -1.141269417866715 
0.48 0.0940526900366859 -1.5707963267948966 -1.5707963267948966 0.0 1.5707963267948966 0.0 0.2743434418098265 0.0 0.0 0.0 0.0 0.0 0.0 0.0 0.0 0.0 0.0 0.0 304.39677484333413 -84.13470428412111 480.9 -1.2522021423283651 1.1396395795396366 -1.1396395795396368 
0.488 0.0962474375711645 -1.5707963267948966 -1.5707963267948966 0.0 1.5707963267948966 0.0 0.2743434418098265 0.0 0.0 0.0 0.0 0.0 0.0 0.0 0.0 0.0 0.0 0.0 304.5806960032158 -83.4664281145218 480.9 -1.2531708346638095 1.138009433668674 -1.1380094336686741 
0.496 0.09844218510564312 -1.5707963267948966 -1.5707963267948966 0.0 1.5707963267948966 0.0 0.2743434418098265 0.0 0.0 0.0 0.0 0.0 0.0 0.0 0.0 0.0 0.0 0.0 304.763150023833 -82.79774989424904 480.9 -1.254137950217483 1.136378980894273 -1.1363789808942732 
0.504 0.10063693264012173 -1.5707963267948966 -1.5707963267948966 0.0 1.5707963267948966 0.0 0.2743434418098265 0.0 0.0 0.0 0.0 0.0 0.0 0.0 0.0 0.0 0.0 0.0 304.94413602632045 -82.12867284426889 480.9 -1.2551034896219553 1.1347482218559497 -1.13474822185595 
0.512 0.10283168017460034 -1.5707963267948966 -1.5707963267948966 0.0 1.5707963267948966 0.0 0.2743434418098265 0.0 0.0 0.0 0.0 0.0 0.0 0.0 0.0 0.0 0.0 0.0 305.1236531388839 -81.45920018746845 480.9 -1.256067453508671 1.1331171571922867 -1.1331171571922871 
0.52 0.10502642770907895 -1.5707963267948966 -1.5707963267948966 0.0 1.5707963267948966 0.0 0.2743434418098265 0.0 0.0 0.0 0.0 0.0 0.0 0.0 0.0 0.0 0.0 0.0 305.30170049680464 -80.7893351486405 480.9 -1.2570298425079516 1.1314857875409394 -1.1314857875409396 
0.528 0.10722117524355758 -1.5707963267948966 -1.5707963267948966 0.0 1.5707963267948966 0.0 0.2743434418098265 0.0 0.0 0.0 0.0 0.0 0.0 0.0 0.0 0.0 0.0 0.0 305.47827724244394 -80.11908095446786 480.9 -1.257990657248995 1.1298541135386373 -1.1298541135386375 
0.536 0.10941592277803619 -1.5707963267948966 -1.5707963267948966 0.0 1.5707963267948966 0.0 0.2743434418098265 0.0 0.0 0.0 0.0 0.0 0.0 0.0 0.0 0.0 0.0 0.0 305.65338252524634 -79.44844083350789 480.9 -1.2589498983598797 1.1282221358211868 -1.1282221358211872 
0.544 0.1116106703125148 -1.5707963267948966 -1.5707963267948966 0.0 1.5707963267948966 0.0 0.2743434418098265 0.0 0.0 0.0 0.0 0.0 0.0 0.0 0.0 0.0 0.0 0.0 305.8270155017449 -78.77741801617691 480.9 -1.2599075664675594 1.1265898550234728 -1.126589855023473 
0.552 0.11380541784699341 -1.5707963267948966 -1.5707963267948966 0.0 1.5707963267948966 0.0 0.2743434418098265 0.0 0.0 0.0 0.0 0.0 0.0 0.0 0.0 0.0 0.0 0.0 305.99917533556425 -78.10601573473467 480.9 -1.2608636621978695 1.1249572717794598 -1.12495727177946 
0.56 0.11600016538147202 -1.5707963267948966 -1.5707963267948966 0.0 1.5707963267948966 0.0 0.2743434418098265 0.0 0.0 0.0 0.0 0.0 0.0 0.0 0.0 0.0 0.0 0.0 306.16986119742506 -77.43423722326877 480.9 -1.2618181861755264 1.1233243867221983 -1.1233243867221985 
0.568 0.11819491291595065 -1.5707963267948966 -1.5707963267948966 0.0 1.5707963267948966 0.0 0.2743434418098265 0.0 0.0 0.0 0.0 0.0 0.0 0.0 0.0 0.0 0.0 0.0 306.33907226514816 -76.76208571767904 480.9 -1.262771139024125 1.1216912004838213 -1.121691200483822 
0.576 0.12038966045042926 -1.5707963267948966 -1.5707963267948966 0.0 1.5707963267948966 0.0 0.2743434418098265 0.0 0.0 0.0 0.0 0.0 0.0 0.0 0.0 0.0 0.0 0.0 306.5068077236583 -76.08956445566203 480.9 -1.263722521366144 1.1200577136955525 -1.1200577136955527 
0.584 0.12258440798490784 -1.5707963267948966 -1.5707963267948966 0.0 1.5707963267948966 0.0 0.2743434418098265 0.0 0.0 0.0 0.0 0.0 0.0 0.0 0.0 0.0 0.0 0.0 306.673066764988 -75.41667667669537 480.9 -1.2646723338229433 1.1184239269877032 -1.1184239269877034 
0.592 0.12477915551938645 -1.5707963267948966 -1.5707963267948966 0.0 1.5707963267948966 0.0 0.2743434418098265 0.0 0.0 0.0 0.0 0.0 0.0 0.0 0.0 0.0 0.0 0.0 306.8378485882816 -74.74342562202219 480.9 -1.265620577014768 1.1167898409896795 -1.11678984098968 
0.6 0.12697390305386508 -1.5707963267948966 -1.5707963267948966 0.0 1.5707963267948966 0.0 0.2743434418098265 0.0 0.0 0.0 0.0 0.0 0.0 0.0 0.0 0.0 0.0 0.0 307.00115239979914 -74.06981453463541 480.9 -1.2665672515607433 1.115155456329979 -1.1151554563299793 
0.608 0.1291686505883437 -1.5707963267948966 -1.5707963267948966 0.0 1.5707963267948966 0.0 0.2743434418098265 0.0 0.0 0.0 0.0 0.0 0.0 0.0 0.0 0.0 0.0 0.0 307.1629774129201 -73.39584665926229 480.9 -1.2675123580788836 1.1135207736361994 -1.1135207736361996 
0.616 0.1313633981228223 -1.5707963267948966 -1.5707963267948966 0.0 1.5707963267948966 0.0 0.2743434418098265 0.0 0.0 0.0 0.0 0.0 0.0 0.0 0.0 0.0 0.0 0.0 307.32332284814703 -72.72152524234868 480.9 -1.268455897186085 1.111885793535035 -1.1118857935350352 
0.624 0.1335581456573009 -1.5707963267948966 -1.5707963267948966 0.0 1.5707963267948966 0.0 0.2743434418098265 0.0 0.0 0.0 0.0 0.0 0.0 0.0 0.0 0.0 0.0 0.0 307.4821879331098 -72.04685353204334 480.9 -1.2693978694981323 1.1102505166522831 -1.1102505166522834 
0.632 0.13575289319177952 -1.5707963267948966 -1.5707963267948966 0.0 1.5707963267948966 0.0 0.2743434418098265 0.0 0.0 0.0 0.0 0.0 0.0 0.0 0.0 0.0 0.0 0.0 307.63957190256883 -71.37183477818247 480.9 -1.270338275629696 1.1086149436128434 -1.1086149436128436 
0.64 0.13794764072625815 -1.5707963267948966 -1.5707963267948966 0.0 1.5707963267948966 0.0 0.2743434418098265 0.0 0.0 0.0 0.0 0.0 0.0 0.0 0.0 0.0 0.0 0.0 307.7954739984188 -70.69647223227389 480.9 -1.2712771161943337 1.1069790750407225 -1.106979075040723 
0.648 0.14014238826073677 -1.5707963267948966 -1.5707963267948966 0.0 1.5707963267948966 0.0 0.2743434418098265 0.0 0.0 0.0 0.0 0.0 0.0 0.0 0.0 0.0 0.0 0.0 307.9498934696927 -70.02076914748146 480.9 -1.2722143918044935 1.1053429115590345 -1.1053429115590347 
0.656 0.14233713579521537 -1.5707963267948966 -1.5707963267948966 0.0 1.5707963267948966 0.0 0.2743434418098265 0.0 0.0 0.0 0.0 0.0 0.0 0.0 0.0 0.0 0.0 0.0 308.1028295725651 -69.34472877860934 480.9 -1.2731501030715109 1.1037064537900043 -1.1037064537900045 
0.664 0.14453188332969397 -1.5707963267948966 -1.5707963267948966 0.0 1.5707963267948966 0.0 0.2743434418098265 0.0 0.0 0.0 0.0 0.0 0.0 0.0 0.0 0.0 0.0 0.0 308.25428157035583 -68.66835438208642 480.9 -1.2740842506056107 1.102069702354968 -1.1020697023549682 
0.672 0.1467266308641726 -1.5707963267948966 -1.5707963267948966 0.0 1.5707963267948966 0.0 0.2743434418098265 0.0 0.0 0.0 0.0 0.0 0.0 0.0 0.0 0.0 0.0 0.0 308.4042487335334 -67.99164921595052 480.9 -1.275016835015909 1.1004326578743768 -1.100432657874377 
0.68 0.14892137839865122 -1.5707963267948966 -1.5707963267948966 0.0 1.5707963267948966 0.0 0.2743434418098265 0.0 0.0 0.0 0.0 0.0 0.0 0.0 0.0 0.0 0.0 0.0 308.55273033971883 -67.31461653983278 480.9 -1.2759478569104148 1.0987953209678005 -1.0987953209678007 
0.688 0.15111612593312984 -1.5707963267948966 -1.5707963267948966 0.0 1.5707963267948966 0.0 0.2743434418098265 0.0 0.0 0.0 0.0 0.0 0.0 0.0 0.0 0.0 0.0 0.0 308.699725673689 -66.63725961494195 480.9 -1.2768773168960266 1.0971576922539263 -1.0971576922539266 
0.696 0.15331087346760844 -1.5707963267948966 -1.5707963267948966 0.0 1.5707963267948966 0.0 0.2743434418098265 0.0 0.0 0.0 0.0 0.0 0.0 0.0 0.0 0.0 0.0 0.0 308.84523402737966 -65.95958170404862 480.9 -1.277805215578536 1.0955197723505625 -1.0955197723505627 
0.704 0.15550562100208704 -1.5707963267948966 -1.5707963267948966 0.0 1.5707963267948966 0.0 0.2743434418098265 0.0 0.0 0.0 0.0 0.0 0.0 0.0 0.0 0.0 0.0 0.0 308.98925469988967 -65.28158607146955 480.9 -1.2787315535626307 1.093881561874643 -1.0938815618746431 
0.712 0.15770036853656563 -1.5707963267948966 -1.5707963267948966 0.0 1.5707963267948966 0.0 0.2743434418098265 0.0 0.0 0.0 0.0 0.0 0.0 0.0 0.0 0.0 0.0 0.0 309.1317869974837 -64.60327598305194 480.9 -1.2796563314518898 1.0922430614422252 -1.0922430614422254 
0.72 0.15989511607104423 -1.5707963267948966 -1.5707963267948966 0.0 1.5707963267948966 0.0 0.2743434418098265 0.0 0.0 0.0 0.0 0.0 0.0 0.0 0.0 0.0 0.0 0.0 309.27283023359564 -63.92465470615768 480.9 -1.280579549848788 1.0906042716684956 -1.0906042716684958 
0.728 0.16208986360552285 -1.5707963267948966 -1.5707963267948966 0.0 1.5707963267948966 0.0 0.2743434418098265 0.0 0.0 0.0 0.0 0.0 0.0 0.0 0.0 0.0 0.0 0.0 309.4123837288325 -63.24572550964767 480.9 -1.2815012093546962 1.0889651931677702 -1.0889651931677704 
0.736 0.16428461114000148 -1.5707963267948966 -1.5707963267948966 0.0 1.5707963267948966 0.0 0.2743434418098265 0.0 0.0 0.0 0.0 0.0 0.0 0.0 0.0 0.0 0.0 0.0 309.5504468109768 -62.56649166386599 480.9 -1.2824213105698825 1.087325826553498 -1.0873258265534984 
0.744 0.1664793586744801 -1.5707963267948966 -1.5707963267948966 0.0 1.5707963267948966 0.0 0.2743434418098265 0.0 0.0 0.0 0.0 0.0 0.0 0.0 0.0 0.0 0.0 0.0 309.68701881499044 -61.88695644062423 480.9 -1.2833398540935097 1.0856861724382614 -1.0856861724382616 
0.752 0.16867410620895873 -1.5707963267948966 -1.5707963267948966 0.0 1.5707963267948966 0.0 0.2743434418098265 0.0 0.0 0.0 0.0 0.0 0.0 0.0 0.0 0.0 0.0 0.0 309.8220990830178 -61.20712311318566 480.9 -1.2842568405236416 1.0840462314337809 -1.084046231433781 
0.76 0.1708688537434373 -1.5707963267948966 -1.5707963267948966 0.0 1.5707963267948966 0.0 0.2743434418098265 0.0 0.0 0.0 0.0 0.0 0.0 0.0 0.0 0.0 0.0 0.0 309.95568696438875 -60.526994956249524 480.9 -1.2851722704572377 1.082406004150914 -1.0824060041509143 
0.768 0.17306360127791592 -1.5707963267948966 -1.5707963267948966 0.0 1.5707963267948966 0.0 0.2743434418098265 0.0 0.0 0.0 0.0 0.0 0.0 0.0 0.0 0.0 0.0 0.0 310.0877818156217 -59.84657524593514 480.9 -1.286086144490159 1.0807654911996603 -1.0807654911996605 
0.776 0.17525834881239455 -1.5707963267948966 -1.5707963267948966 0.0 1.5707963267948966 0.0 0.2743434418098265 0.0 0.0 0.0 0.0 0.0 0.0 0.0 0.0 0.0 0.0 0.0 310.21838300042714 -59.165867259766344 480.9 -1.2869984632171658 1.079124693189163 -1.0791246931891632 
0.784 0.17745309634687317 -1.5707963267948966 -1.5707963267948966 0.0 1.5707963267948966 0.0 0.2743434418098265 0.0 0.0 0.0 0.0 0.0 0.0 0.0 0.0 0.0 0.0 0.0 310.34748988971023 -58.48487427665553 480.9 -1.2879092272319188 1.0774836107277088 -1.077483610727709 
0.792 0.1796478438813518 -1.5707963267948966 -1.5707963267948966 0.0 1.5707963267948966 0.0 0.2743434418098265 0.0 0.0 0.0 0.0 0.0 0.0 0.0 0.0 0.0 0.0 0.0 310.4751018615741 -57.803599576887834 480.9 -1.288818437126981 1.0758422444227336 -1.075842244422734 
0.8 0.18184259141583037 -1.5707963267948966 -1.5707963267948966 0.0 1.5707963267948966 0.0 0.2743434418098265 0.0 0.0 0.0 0.0 0.0 0.0 0.0 0.0 0.0 0.0 0.0 310.60121830132266 -57.12204644210547 480.9 -1.289726093493817 1.0742005948808218 -1.074200594880822 
0.808 0.184037338950309 -1.5707963267948966 -1.5707963267948966 0.0 1.5707963267948966 0.0 0.2743434418098265 0.0 0.0 0.0 0.0 0.0 0.0 0.0 0.0 0.0 0.0 0.0 310.725838601464 -56.44021815529184 480.9 -1.2906321969227945 1.0725586627077093 -1.0725586627077095 
0.816 0.18623208648478762 -1.5707963267948966 -1.5707963267948966 0.0 1.5707963267948966 0.0 0.2743434418098265 0.0 0.0 0.0 0.0 0.0 0.0 0.0 0.0 0.0 0.0 0.0 310.8489621617125 -55.75811800075565 480.9 -1.2915367480031854 1.070916448508287 -1.0709164485082872 
0.824 0.18842683401926624 -1.5707963267948966 -1.5707963267948966 0.0 1.5707963267948966 0.0 0.2743434418098265 0.0 0.0 0.0 0.0 0.0 0.0 0.0 0.0 0.0 0.0 0.0 310.9705883889926 -55.07574926411531 480.9 -1.2924397473231664 1.0692739528866007 -1.0692739528866009 
0.832 0.19062158155374487 -1.5707963267948966 -1.5707963267948966 0.0 1.5707963267948966 0.0 0.2743434418098265 0.0 0.0 0.0 0.0 0.0 0.0 0.0 0.0 0.0 0.0 0.0 311.0907166974411 -54.393115232282824 480.9 -1.2933411954698175 1.0676311764458544 -1.0676311764458546 
0.84 0.19281632908822344 -1.5707963267948966 -1.5707963267948966 0.0 1.5707963267948966 0.0 0.2743434418098265 0.0 0.0 0.0 0.0 0.0 0.0 0.0 0.0 0.0 0.0 0.0 311.2093465084102 -53.71021919344825 480.9 -1.2942410930291255 1.0659881197884125 -1.0659881197884127 
0.848 0.19501107662270206 -1.5707963267948966 -1.5707963267948966 0.0 1.5707963267948966 0.0 0.2743434418098265 0.0 0.0 0.0 0.0 0.0 0.0 0.0 0.0 0.0 0.0 0.0 311.32647725047013 -53.02706443706354 480.9 -1.295139440585986 1.064344783515802 -1.0643447835158024 
0.856 0.19720582415718063 -1.5707963267948966 -1.5707963267948966 0.0 1.5707963267948966 0.0 0.2743434418098265 0.0 0.0 0.0 0.0 0.0 0.0 0.0 0.0 0.0 0.0 0.0 311.4421083594121 -52.34365425382704 480.9 -1.2960362387241984 1.0627011682287142 -1.0627011682287144 
0.864 0.19940057169165926 -1.5707963267948966 -1.5707963267948966 0.0 1.5707963267948966 0.0 0.2743434418098265 0.0 0.0 0.0 0.0 0.0 0.0 0.0 0.0 0.0 0.0 0.0 311.556239278251 -51.65999193566731 480.9 -1.2969314880264724 1.0610572745270062 -1.0610572745270064 
0.872 0.20159531922613788 -1.5707963267948966 -1.5707963267948966 0.0 1.5707963267948966 0.0 0.2743434418098265 0.0 0.0 0.0 0.0 0.0 0.0 0.0 0.0 0.0 0.0 0.0 311.66886945722774 -50.97608077572751 480.9 -1.2978251890744257 1.0594131030097045 -1.0594131030097047 
0.88 0.2037900667606165 -1.5707963267948966 -1.5707963267948966 0.0 1.5707963267948966 0.0 0.2743434418098265 0.0 0.0 0.0 0.0 0.0 0.0 0.0 0.0 0.0 0.0 0.0 311.7799983538126 -50.29192406834943 480.9 -1.2987173424485858 1.0577686542750064 -1.0577686542750067 
0.888 0.20598481429509513 -1.5707963267948966 -1.5707963267948966 0.0 1.5707963267948966 0.0 0.2743434418098265 0.0 0.0 0.0 0.0 0.0 0.0 0.0 0.0 0.0 0.0 0.0 311.8896254327069 -49.60752510905769 480.9 -1.2996079487283898 1.0561239289202813 -1.0561239289202815 
0.896 0.2081795618295737 -1.5707963267948966 -1.5707963267948966 0.0 1.5707963267948966 0.0 0.2743434418098265 0.0 0.0 0.0 0.0 0.0 0.0 0.0 0.0 0.0 0.0 0.0 311.9977501658464 -48.922887194543705 480.9 -1.300497008492187 1.0544789275420743 -1.0544789275420745 
0.904 0.21037430936405233 -1.5707963267948966 -1.5707963267948966 0.0 1.5707963267948966 0.0 0.2743434418098265 0.0 0.0 0.0 0.0 0.0 0.0 0.0 0.0 0.0 0.0 0.0 312.1043720324036 -48.238013622650044 480.9 -1.301384522317237 1.052833650736107 -1.0528336507361074 
0.912 0.21256905689853095 -1.5707963267948966 -1.5707963267948966 0.0 1.5707963267948966 0.0 0.2743434418098265 0.0 0.0 0.0 0.0 0.0 0.0 0.0 0.0 0.0 0.0 0.0 312.20949051879 -47.552907692354296 480.9 -1.302270490779713 1.0511880990972808 -1.051188099097281 
0.92 0.21476380443300958 -1.5707963267948966 -1.5707963267948966 0.0 1.5707963267948966 0.0 0.2743434418098265 0.0 0.0 0.0 0.0 0.0 0.0 0.0 0.0 0.0 0.0 0.0 312.3131051186587 -46.8675727037534 480.9 -1.3031549144546994 1.049542273219677 -1.0495422732196773 
0.928 0.2169585519674882 -1.5707963267948966 -1.5707963267948966 0.0 1.5707963267948966 0.0 0.2743434418098265 0.0 0.0 0.0 0.0 0.0 0.0 0.0 0.0 0.0 0.0 0.0 312.4152153329071 -46.182011958047596 480.9 -1.3040377939161971 1.0478961736965613 -1.0478961736965615 
0.936 0.21915329950196677 -1.5707963267948966 -1.5707963267948966 0.0 1.5707963267948966 0.0 0.2743434418098265 0.0 0.0 0.0 0.0 0.0 0.0 0.0 0.0 0.0 0.0 0.0 312.51582066967904 -45.496228757524634 480.9 -1.3049191297371197 1.0462498011203851 -1.0462498011203853 
0.944 0.2213480470364454 -1.5707963267948966 -1.5707963267948966 0.0 1.5707963267948966 0.0 0.2743434418098265 0.0 0.0 0.0 0.0 0.0 0.0 0.0 0.0 0.0 0.0 0.0 312.61492064436703 -44.8102264055437 480.9 -1.3057989224892959 1.0446031560827849 -1.044603156082785 
0.952 0.22354279457092402 -1.5707963267948966 -1.5707963267948966 0.0 1.5707963267948966 0.0 0.2743434418098265 0.0 0.0 0.0 0.0 0.0 0.0 0.0 0.0 0.0 0.0 0.0 312.71251477961505 -44.1240082065197 480.9 -1.3066771727434714 1.0429562391745892 -1.0429562391745895 
0.96 0.2257375421054026 -1.5707963267948966 -1.5707963267948966 0.0 1.5707963267948966 0.0 0.2743434418098265 0.0 0.0 0.0 0.0 0.0 0.0 0.0 0.0 0.0 0.0 0.0 312.8086026053204 -43.43757746590725 480.9 -1.3075538810693084 1.0413090509858163 -1.0413090509858165 
0.968 0.2279322896398812 -1.5707963267948966 -1.5707963267948966 0.0 1.5707963267948966 0.0 0.2743434418098265 0.0 0.0 0.0 0.0 0.0 0.0 0.0 0.0 0.0 0.0 0.0 312.9031836586363 -42.750937490184754 480.9 -1.3084290480353855 1.0396615921056793 -1.0396615921056795 
0.976 0.23012703717435984 -1.5707963267948966 -1.5707963267948966 0.0 1.5707963267948966 0.0 0.2743434418098265 0.0 0.0 0.0 0.0 0.0 0.0 0.0 0.0 0.0 0.0 0.0 312.9962574839738 -42.06409158683846 480.9 -1.3093026742092009 1.0380138631225864 -1.0380138631225866 
0.984 0.23232178470883846 -1.5707963267948966 -1.5707963267948966 0.0 1.5707963267948966 0.0 0.2743434418098265 0.0 0.0 0.0 0.0 0.0 0.0 0.0 0.0 0.0 0.0 0.0 313.0878236330043 -41.37704306434658 480.9 -1.31017476015717 1.0363658646241425 -1.0363658646241427 
0.992 0.2345165322433171 -1.5707963267948966 -1.5707963267948966 0.0 1.5707963267948966 0.0 0.2743434418098265 0.0 0.0 0.0 0.0 0.0 0.0 0.0 0.0 0.0 0.0 0.0 313.1778816646613 -40.689795232163306 480.9 -1.3110453064446292 1.0347175971971536 -1.034717597197154 
1.0 0.23671127977779566 -1.5707963267948966 -1.5707963267948966 0.0 1.5707963267948966 0.0 0.2743434418098265 0.0 0.0 0.0 0.0 0.0 0.0 0.0 0.0 0.0 0.0 0.0 313.2664311451431 -40.00235140070291 480.9 -1.3119143136358347 1.033069061427627 -1.0330690614276272 
1.008 0.23890602731227428 -1.5707963267948966 -1.5707963267948966 0.0 1.5707963267948966 0.0 0.2743434418098265 0.0 0.0 0.0 0.0 0.0 0.0 0.0 0.0 0.0 0.0 0.0 313.35347164791426 -39.31471488132376 480.9 -1.3127817822939627 1.0314202579007736 -1.0314202579007739 
1.016 0.2411007748467529 -1.5707963267948966 -1.5707963267948966 0.0 1.5707963267948966 0.0 0.2743434418098265 0.0 0.0 0.0 0.0 0.0 0.0 0.0 0.0 0.0 0.0 0.0 313.43900275370817 -38.62688898631238 480.9 -1.3136477129811124 1.0297711872010096 -1.0297711872010098 
1.024 0.24329552238123153 -1.5707963267948966 -1.5707963267948966 0.0 1.5707963267948966 0.0 0.2743434418098265 0.0 0.0 0.0 0.0 0.0 0.0 0.0 0.0 0.0 0.0 0.0 313.52302405052876 -37.9388770288675 480.9 -1.3145121062583056 1.0281218499119602 -1.0281218499119604 
1.032 0.24549026991571016 -1.5707963267948966 -1.5707963267948966 0.0 1.5707963267948966 0.0 0.2743434418098265 0.0 0.0 0.0 0.0 0.0 0.0 0.0 0.0 0.0 0.0 0.0 313.60553513365267 -37.25068232308412 480.9 -1.3153749626854847 1.026472246616459 -1.0264722466164593 
1.04 0.24768501745018873 -1.5707963267948966 -1.5707963267948966 0.0 1.5707963267948966 0.0 0.2743434418098265 0.0 0.0 0.0 0.0 0.0 0.0 0.0 0.0 0.0 0.0 0.0 313.6865356056309 -36.56230818393753 480.9 -1.316236282821519 1.0248223778965526 -1.0248223778965528 
1.048 0.24987976498466735 -1.5707963267948966 -1.5707963267948966 0.0 1.5707963267948966 0.0 0.2743434418098265 0.0 0.0 0.0 0.0 0.0 0.0 0.0 0.0 0.0 0.0 0.0 313.7660250762912 -35.873757927267256 480.9 -1.3170960672242 1.0231722443335012 -1.0231722443335014 
1.056 0.252074512519146 -1.5707963267948966 -1.5707963267948966 0.0 1.5707963267948966 0.0 0.2743434418098265 0.0 0.0 0.0 0.0 0.0 0.0 0.0 0.0 0.0 0.0 0.0 313.84400316273957 -35.18503486976126 480.9 -1.3179543164502467 1.0215218465077807 -1.0215218465077809 
1.064 0.2542692600536246 -1.5707963267948966 -1.5707963267948966 0.0 1.5707963267948966 0.0 0.2743434418098265 0.0 0.0 0.0 0.0 0.0 0.0 0.0 0.0 0.0 0.0 0.0 313.92046948936206 -34.49614232893984 480.9 -1.3188110310553012 1.0198711849990842 -1.0198711849990845 
1.072 0.2564640075881032 -1.5707963267948966 -1.5707963267948966 0.0 1.5707963267948966 0.0 0.2743434418098265 0.0 0.0 0.0 0.0 0.0 0.0 0.0 0.0 0.0 0.0 0.0 313.99542368782704 -33.807083623139654 480.9 -1.3196662115939342 1.018220260386326 -1.0182202603863262 
1.08 0.2586587551225818 -1.5707963267948966 -1.5707963267948966 0.0 1.5707963267948966 0.0 0.2743434418098265 0.0 0.0 0.0 0.0 0.0 0.0 0.0 0.0 0.0 0.0 0.0 314.0688653970865 -33.117862071497825 480.9 -1.3205198586196436 1.0165690732476416 -1.0165690732476418 
1.088 0.2608535026570604 -1.5707963267948966 -1.5707963267948966 0.0 1.5707963267948966 0.0 0.2743434418098265 0.0 0.0 0.0 0.0 0.0 0.0 0.0 0.0 0.0 0.0 0.0 314.1407942633779 -32.4284809939358 480.9 -1.3213719726848552 1.0149176241603903 -1.0149176241603906 
1.096 0.26304825019153905 -1.5707963267948966 -1.5707963267948966 0.0 1.5707963267948966 0.0 0.2743434418098265 0.0 0.0 0.0 0.0 0.0 0.0 0.0 0.0 0.0 0.0 0.0 314.2112099402261 -31.738943711143527 480.9 -1.3222225543409218 1.0132659137011564 -1.0132659137011568 
1.104 0.26524299772601767 -1.5707963267948966 -1.5707963267948966 0.0 1.5707963267948966 0.0 0.2743434418098265 0.0 0.0 0.0 0.0 0.0 0.0 0.0 0.0 0.0 0.0 0.0 314.28011208844475 -31.049253544563342 480.9 -1.3230716041381292 1.0116139424457546 -1.0116139424457549 
1.112 0.2674377452604963 -1.5707963267948966 -1.5707963267948966 0.0 1.5707963267948966 0.0 0.2743434418098265 0.0 0.0 0.0 0.0 0.0 0.0 0.0 0.0 0.0 0.0 0.0 314.3475003761381 -30.35941381637403 480.9 -1.32391912262569 1.0099617109692265 -1.0099617109692267 
1.12 0.26963249279497487 -1.5707963267948966 -1.5707963267948966 0.0 1.5707963267948966 0.0 0.2743434418098265 0.0 0.0 0.0 0.0 0.0 0.0 0.0 0.0 0.0 0.0 0.0 314.41337447870245 -29.6694278494748 480.9 -1.3247651103517493 1.008309219845847 -1.0083092198458472 
1.128 0.2718272403294535 -1.5707963267948966 -1.5707963267948966 0.0 1.5707963267948966 0.0 0.2743434418098265 0.0 0.0 0.0 0.0 0.0 0.0 0.0 0.0 0.0 0.0 0.0 314.47773407882795 -28.97929896746925 480.9 -1.3256095678633832 1.0066564696491247 -1.006656469649125 
1.136 0.2740219878639321 -1.5707963267948966 -1.5707963267948966 0.0 1.5707963267948966 0.0 0.2743434418098265 0.0 0.0 0.0 0.0 0.0 0.0 0.0 0.0 0.0 0.0 0.0 314.5405788664998 -28.289030494649413 480.9 -1.3264524957066002 1.005003460951803 -1.0050034609518033 
1.144 0.27621673539841074 -1.5707963267948966 -1.5707963267948966 0.0 1.5707963267948966 0.0 0.2743434418098265 0.0 0.0 0.0 0.0 0.0 0.0 0.0 0.0 0.0 0.0 0.0 314.601908539 -27.59862575597973 480.9 -1.3272938944263428 1.0033501943258647 -1.003350194325865 
1.152 0.27841148293288936 -1.5707963267948966 -1.5707963267948966 0.0 1.5707963267948966 0.0 0.2743434418098265 0.0 0.0 0.0 0.0 0.0 0.0 0.0 0.0 0.0 0.0 0.0 314.66172280090893 -26.908088077081004 480.9 -1.328133764566485 1.001696670342531 -1.0016966703425312 
1.16 0.2806062304673679 -1.5707963267948966 -1.5707963267948966 0.0 1.5707963267948966 0.0 0.2743434418098265 0.0 0.0 0.0 0.0 0.0 0.0 0.0 0.0 0.0 0.0 0.0 314.7200213641061 -26.21742078421442 480.9 -1.328972106669837 1.0000428895722642 -1.0000428895722644 
1.168 0.2828009780018465 -1.5707963267948966 -1.5707963267948966 0.0 1.5707963267948966 0.0 0.2743434418098265 0.0 0.0 0.0 0.0 0.0 0.0 0.0 0.0 0.0 0.0 0.0 314.7768039477726 -25.526627204265463 480.9 -1.3298089212781428 0.9983888525847718 -0.9983888525847721 
1.176 0.28499572553632513 -1.5707963267948966 -1.5707963267948966 0.0 1.5707963267948966 0.0 0.2743434418098265 0.0 0.0 0.0 0.0 0.0 0.0 0.0 0.0 0.0 0.0 0.0 314.83207027839126 -24.835710664727955 480.9 -1.330644208932083 0.9967345599490053 -0.9967345599490055 
1.184 0.28719047307080375 -1.5707963267948966 -1.5707963267948966 0.0 1.5707963267948966 0.0 0.2743434418098265 0.0 0.0 0.0 0.0 0.0 0.0 0.0 0.0 0.0 0.0 0.0 314.8858200897491 -24.14467449368801 480.9 -1.3314779701712742 0.9950800122331642 -0.9950800122331644 
1.192 0.2893852206052824 -1.5707963267948966 -1.5707963267948966 0.0 1.5707963267948966 0.0 0.2743434418098265 0.0 0.0 0.0 0.0 0.0 0.0 0.0 0.0 0.0 0.0 0.0 314.93805312293773 -23.453522019808 480.9 -1.3323102055342704 0.9934252100046977 -0.993425210004698 
1.2 0.291579968139761 -1.5707963267948966 -1.5707963267948966 0.0 1.5707963267948966 0.0 0.2743434418098265 0.0 0.0 0.0 0.0 0.0 0.0 0.0 0.0 0.0 0.0 0.0 314.9887691263552 -22.762256572310505 480.9 -1.3331409155585632 0.991770153830306 -0.9917701538303062 
1.208 0.2937747156742396 -1.5707963267948966 -1.5707963267948966 0.0 1.5707963267948966 0.0 0.2743434418098265 0.0 0.0 0.0 0.0 0.0 0.0 0.0 0.0 0.0 0.0 0.0 315.0379678557067 -22.07088148096231 480.9 -1.333970100780583 0.9901148442759429 -0.9901148442759431 
1.216 0.2959694632087182 -1.5707963267948966 -1.5707963267948966 0.0 1.5707963267948966 0.0 0.2743434418098265 0.0 0.0 0.0 0.0 0.0 0.0 0.0 0.0 0.0 0.0 0.0 315.08564907400626 -21.379400076058296 480.9 -1.3347977617356992 0.9884592819068165 -0.9884592819068168 
1.224 0.2981642107431968 -1.5707963267948966 -1.5707963267948966 0.0 1.5707963267948966 0.0 0.2743434418098265 0.0 0.0 0.0 0.0 0.0 0.0 0.0 0.0 0.0 0.0 0.0 315.13181255157747 -20.68781568840552 480.9 -1.3356238989582205 0.986803467287393 -0.9868034672873932 
1.232 0.30035895827767545 -1.5707963267948966 -1.5707963267948966 0.0 1.5707963267948966 0.0 0.2743434418098265 0.0 0.0 0.0 0.0 0.0 0.0 0.0 0.0 0.0 0.0 0.0 315.1764580660547 -19.996131649307024 480.9 -1.3364485129813979 0.9851474009813974 -0.9851474009813976 
1.24 0.3025537058121541 -1.5707963267948966 -1.5707963267948966 0.0 1.5707963267948966 0.0 0.2743434418098265 0.0 0.0 0.0 0.0 0.0 0.0 0.0 0.0 0.0 0.0 0.0 315.2195854023845 -19.30435129054592 480.9 -1.337271604337422 0.9834910835518155 -0.9834910835518157 
1.248 0.30474845334663264 -1.5707963267948966 -1.5707963267948966 0.0 1.5707963267948966 0.0 0.2743434418098265 0.0 0.0 0.0 0.0 0.0 0.0 0.0 0.0 0.0 0.0 0.0 315.26119435282607 -18.612477944369274 480.9 -1.3380931735574255 0.9818345155608953 -0.9818345155608954 
1.256 0.30694320088111127 -1.5707963267948966 -1.5707963267948966 0.0 1.5707963267948966 0.0 0.2743434418098265 0.0 0.0 0.0 0.0 0.0 0.0 0.0 0.0 0.0 0.0 0.0 315.3012847169526 -17.920514943472 480.9 -1.338913221171485 0.9801776975701509 -0.9801776975701512 
1.264 0.3091379484155899 -1.5707963267948966 -1.5707963267948966 0.0 1.5707963267948966 0.0 0.2743434418098265 0.0 0.0 0.0 0.0 0.0 0.0 0.0 0.0 0.0 0.0 0.0 315.3398563016522 -17.228465620980952 480.9 -1.33973174770862 0.9785206301403627 -0.978520630140363 
1.272 0.3113326959500685 -1.5707963267948966 -1.5707963267948966 0.0 1.5707963267948966 0.0 0.2743434418098265 0.0 0.0 0.0 0.0 0.0 0.0 0.0 0.0 0.0 0.0 0.0 315.376908921129 -16.53633331043879 480.9 -1.3405487536967926 0.9768633138315787 -0.9768633138315789 
1.28 0.31352744348454714 -1.5707963267948966 -1.5707963267948966 0.0 1.5707963267948966 0.0 0.2743434418098265 0.0 0.0 0.0 0.0 0.0 0.0 0.0 0.0 0.0 0.0 0.0 315.41244239690343 -15.84412134578783 480.9 -1.3413642396629117 0.9752057492031183 -0.9752057492031185 
1.288 0.3157221910190257 -1.5707963267948966 -1.5707963267948966 0.0 1.5707963267948966 0.0 0.2743434418098265 0.0 0.0 0.0 0.0 0.0 0.0 0.0 0.0 0.0 0.0 0.0 315.44645655781403 -15.151833061354179 480.9 -1.3421782061328302 0.9735479368135735 -0.9735479368135738 
1.296 0.31791693855350434 -1.5707963267948966 -1.5707963267948966 0.0 1.5707963267948966 0.0 0.2743434418098265 0.0 0.0 0.0 0.0 0.0 0.0 0.0 0.0 0.0 0.0 0.0 315.4789512400173 -14.459471791831522 480.9 -1.342990653631348 0.9718898772208099 -0.9718898772208101 
1.304 0.32011168608798296 -1.5707963267948966 -1.5707963267948966 0.0 1.5707963267948966 0.0 0.2743434418098265 0.0 0.0 0.0 0.0 0.0 0.0 0.0 0.0 0.0 0.0 0.0 315.5099262869892 -13.767040872265053 480.9 -1.3438015826822112 0.9702315709819694 -0.9702315709819697 
1.312 0.3223064336224616 -1.5707963267948966 -1.5707963267948966 0.0 1.5707963267948966 0.0 0.2743434418098265 0.0 0.0 0.0 0.0 0.0 0.0 0.0 0.0 0.0 0.0 0.0 315.53938154952556 -13.0745436380356 480.9 -1.3446109938081137 0.9685730186534722 -0.9685730186534725 
1.32 0.3245011811569402 -1.5707963267948966 -1.5707963267948966 0.0 1.5707963267948966 0.0 0.2743434418098265 0.0 0.0 0.0 0.0 0.0 0.0 0.0 0.0 0.0 0.0 0.0 315.5673168857429 -12.381983424843295 480.9 -1.3454188875306972 0.9669142207910185 -0.9669142207910187 
1.328 0.3266959286914188 -1.5707963267948966 -1.5707963267948966 0.0 1.5707963267948966 0.0 0.2743434418098265 0.0 0.0 0.0 0.0 0.0 0.0 0.0 0.0 0.0 0.0 0.0 315.59373216107906 -11.68936356869171 480.9 -1.3462252643705528 0.96525517794959 -0.9652551779495904 
1.336 0.3288906762258974 -1.5707963267948966 -1.5707963267948966 0.0 1.5707963267948966 0.0 0.2743434418098265 0.0 0.0 0.0 0.0 0.0 0.0 0.0 0.0 0.0 0.0 0.0 315.61862724829393 -10.996687405871658 480.9 -1.3470301248472198 0.9635958906834521 -0.9635958906834523 
1.344 0.33108542376037603 -1.5707963267948966 -1.5707963267948966 0.0 1.5707963267948966 0.0 0.2743434418098265 0.0 0.0 0.0 0.0 0.0 0.0 0.0 0.0 0.0 0.0 0.0 315.64200202746997 -10.30395827294522 480.9 -1.3478334694791898 0.9619363595461559 -0.9619363595461561 
1.352 0.33328017129485465 -1.5707963267948966 -1.5707963267948966 0.0 1.5707963267948966 0.0 0.2743434418098265 0.0 0.0 0.0 0.0 0.0 0.0 0.0 0.0 0.0 0.0 0.0 315.6638563860129 -9.611179506729602 480.9 -1.3486352987839034 0.9602765850905395 -0.9602765850905396 
1.36 0.3354749188293333 -1.5707963267948966 -1.5707963267948966 0.0 1.5707963267948966 0.0 0.2743434418098265 0.0 0.0 0.0 0.0 0.0 0.0 0.0 0.0 0.0 0.0 0.0 315.6841902186522 -8.918354444281118 480.9 -1.3494356132777543 0.9586165678687315 -0.9586165678687317 
1.368 0.33766966636381185 -1.5707963267948966 -1.5707963267948966 0.0 1.5707963267948966 0.0 0.2743434418098265 0.0 0.0 0.0 0.0 0.0 0.0 0.0 0.0 0.0 0.0 0.0 315.70300342744133 -8.22548642287908 480.9 -1.3502344134760862 0.9569563084321495 -0.9569563084321497 
1.376 0.3398644138982905 -1.5707963267948966 -1.5707963267948966 0.0 1.5707963267948966 0.0 0.2743434418098265 0.0 0.0 0.0 0.0 0.0 0.0 0.0 0.0 0.0 0.0 0.0 315.72029592175875 -7.532578780009697 480.9 -1.3510316998931982 0.9552958073315062 -0.9552958073315065 
1.384 0.3420591614327691 -1.5707963267948966 -1.5707963267948966 0.0 1.5707963267948966 0.0 0.2743434418098265 0.0 0.0 0.0 0.0 0.0 0.0 0.0 0.0 0.0 0.0 0.0 315.7360676183081 -6.839634853350024 480.9 -1.3518274730423416 0.9536350651168082 -0.9536350651168084 
1.392 0.3442539089672477 -1.5707963267948966 -1.5707963267948966 0.0 1.5707963267948966 0.0 0.2743434418098265 0.0 0.0 0.0 0.0 0.0 0.0 0.0 0.0 0.0 0.0 0.0 315.75031844111834 -6.146657980751982 480.9 -1.352621733435722 0.9519740823373586 -0.9519740823373588 
1.4 0.34644865650172635 -1.5707963267948966 -1.5707963267948966 0.0 1.5707963267948966 0.0 0.2743434418098265 0.0 0.0 0.0 0.0 0.0 0.0 0.0 0.0 0.0 0.0 0.0 315.7630483215445 -5.453651500226091 480.9 -1.3534144815845006 0.9503128595417594 -0.9503128595417596 
1.408 0.34864340403620486 -1.5707963267948966 -1.5707963267948966 0.0 1.5707963267948966 0.0 0.2743434418098265 0.0 0.0 0.0 0.0 0.0 0.0 0.0 0.0 0.0 0.0 0.0 315.7742571982679 -4.760618749925587 480.9 -1.3542057179987936 0.9486513972779129 -0.948651397277913 
1.416 0.3508381515706835 -1.5707963267948966 -1.5707963267948966 0.0 1.5707963267948966 0.0 0.2743434418098265 0.0 0.0 0.0 0.0 0.0 0.0 0.0 0.0 0.0 0.0 0.0 315.7839450172962 -4.0675630681300845 480.9 -1.3549954431876736 0.9469896960930235 -0.9469896960930237 
1.424 0.3530328991051621 -1.5707963267948966 -1.5707963267948966 0.0 1.5707963267948966 0.0 0.2743434418098265 0.0 0.0 0.0 0.0 0.0 0.0 0.0 0.0 0.0 0.0 0.0 315.79211173196416 -3.3744877932298145 480.9 -1.35578365765917 0.9453277565335997 -0.9453277565335998 
1.432 0.35522764663964074 -1.5707963267948966 -1.5707963267948966 0.0 1.5707963267948966 0.0 0.2743434418098265 0.0 0.0 0.0 0.0 0.0 0.0 0.0 0.0 0.0 0.0 0.0 315.79875730293327 -2.6813962637093276 480.9 -1.3565703619202707 0.9436655791454558 -0.943665579145456 
1.44 0.35742239417411936 -1.5707963267948966 -1.5707963267948966 0.0 1.5707963267948966 0.0 0.2743434418098265 0.0 0.0 0.0 0.0 0.0 0.0 0.0 0.0 0.0 0.0 0.0 315.80388169819247 -1.988291818131497 480.9 -1.3573555564769202 0.9420031644737138 -0.942003164473714 
1.448 0.35961714170859793 -1.5707963267948966 -1.5707963267948966 0.0 1.5707963267948966 0.0 0.2743434418098265 0.0 0.0 0.0 0.0 0.0 0.0 0.0 0.0 0.0 0.0 0.0 315.8074848930579 -1.2951777951213543 480.9 -1.3581392418340243 0.940340513062806 -0.9403405130628062 
1.456 0.36181188924307656 -1.5707963267948966 -1.5707963267948966 0.0 1.5707963267948966 0.0 0.2743434418098265 0.0 0.0 0.0 0.0 0.0 0.0 0.0 0.0 0.0 0.0 0.0 315.8095668701734 -0.6020575333501021 480.9 -1.358921418495446 0.9386776254564742 -0.9386776254564744 
1.464 0.3640066367775552 -1.5707963267948966 -1.5707963267948966 0.0 1.5707963267948966 0.0 0.2743434418098265 0.0 0.0 0.0 0.0 0.0 0.0 0.0 0.0 0.0 0.0 0.0 315.8101276195101 0.09106562848096544 480.9 -1.3597020869640102 0.9370145021977755 -0.9370145021977757 
1.472 0.3662013843120338 -1.5707963267948966 -1.5707963267948966 0.0 1.5707963267948966 0.0 0.2743434418098265 0.0 0.0 0.0 0.0 0.0 0.0 0.0 0.0 0.0 0.0 0.0 315.8091671383672 0.7841883516566917 480.9 -1.360481247741502 0.9353511438290805 -0.9353511438290807 
1.48 0.36839613184651243 -1.5707963267948966 -1.5707963267948966 0.0 1.5707963267948966 0.0 0.2743434418098265 0.0 0.0 0.0 0.0 0.0 0.0 0.0 0.0 0.0 0.0 0.0 315.8066854313709 1.4773072974639163 480.9 -1.3612589013286691 0.9336875508920771 -0.9336875508920773 
1.488 0.370590879380991 -1.5707963267948966 -1.5707963267948966 0.0 1.5707963267948966 0.0 0.2743434418098265 0.0 0.0 0.0 0.0 0.0 0.0 0.0 0.0 0.0 0.0 0.0 315.8026825104756 2.1704191272077615 480.9 -1.3620350482252197 0.9320237239277716 -0.9320237239277718 
1.496 0.3727856269154696 -1.5707963267948966 -1.5707963267948966 0.0 1.5707963267948966 0.0 0.2743434418098265 0.0 0.0 0.0 0.0 0.0 0.0 0.0 0.0 0.0 0.0 0.0 315.79715839496293 2.8635205022275585 480.9 -1.3628096889298271 0.9303596634764909 -0.9303596634764912 
1.504 0.37498037444994825 -1.5707963267948966 -1.5707963267948966 0.0 1.5707963267948966 0.0 0.2743434418098265 0.0 0.0 0.0 0.0 0.0 0.0 0.0 0.0 0.0 0.0 0.0 315.7901131114421 3.5566080839130656 480.9 -1.3635828239401266 0.9286953700778842 -0.9286953700778843 
1.512 0.3771751219844269 -1.5707963267948966 -1.5707963267948966 0.0 1.5707963267948966 0.0 0.2743434418098265 0.0 0.0 0.0 0.0 0.0 0.0 0.0 0.0 0.0 0.0 0.0 315.78154669384975 4.24967853372042 480.9 -1.3643544537527184 0.9270308442709241 -0.9270308442709243 
1.52 0.3793698695189055 -1.5707963267948966 -1.5707963267948966 0.0 1.5707963267948966 0.0 0.2743434418098265 0.0 0.0 0.0 0.0 0.0 0.0 0.0 0.0 0.0 0.0 0.0 315.77145918344945 4.942728513188339 480.9 -1.3651245788631672 0.925366086593909 -0.9253660865939092 
1.528 0.38156461705338407 -1.5707963267948966 -1.5707963267948966 0.0 1.5707963267948966 0.0 0.2743434418098265 0.0 0.0 0.0 0.0 0.0 0.0 0.0 0.0 0.0 0.0 0.0 315.759850628832 5.635754683954062 480.9 -1.3658931997660047 0.9237010975844664 -0.9237010975844666 
1.536 0.3837593645878627 -1.5707963267948966 -1.5707963267948966 0.0 1.5707963267948966 0.0 0.2743434418098265 0.0 0.0 0.0 0.0 0.0 0.0 0.0 0.0 0.0 0.0 0.0 315.74672108591466 6.328753707769636 480.9 -1.3666603169547273 0.9220358777795512 -0.9220358777795514 
1.544 0.3859541121223413 -1.5707963267948966 -1.5707963267948966 0.0 1.5707963267948966 0.0 0.2743434418098265 0.0 0.0 0.0 0.0 0.0 0.0 0.0 0.0 0.0 0.0 0.0 315.7320706179414 7.021722246517758 480.9 -1.3674259309217989 0.9203704277154497 -0.92037042771545 
1.552 0.38814885965681994 -1.5707963267948966 -1.5707963267948966 0.0 1.5707963267948966 0.0 0.2743434418098265 0.0 0.0 0.0 0.0 0.0 0.0 0.0 0.0 0.0 0.0 0.0 315.7158992954823 7.71465696222802 480.9 -1.3681900421586508 0.9187047479277822 -0.9187047479277825 
1.56 0.39034360719129857 -1.5707963267948966 -1.5707963267948966 0.0 1.5707963267948966 0.0 0.2743434418098265 0.0 0.0 0.0 0.0 0.0 0.0 0.0 0.0 0.0 0.0 0.0 315.69820719643326 8.40755451709295 480.9 -1.3689526511556835 0.9170388389515032 -0.9170388389515034 
1.568 0.39253835472577714 -1.5707963267948966 -1.5707963267948966 0.0 1.5707963267948966 0.0 0.2743434418098265 0.0 0.0 0.0 0.0 0.0 0.0 0.0 0.0 0.0 0.0 0.0 315.6789944060155 9.10041157348402 480.9 -1.3697137584022643 0.915372701320903 -0.9153727013209032 
1.576 0.39473310226025576 -1.5707963267948966 -1.5707963267948966 0.0 1.5707963267948966 0.0 0.2743434418098265 0.0 0.0 0.0 0.0 0.0 0.0 0.0 0.0 0.0 0.0 0.0 315.65826101677555 9.793224793967827 480.9 -1.3704733643867324 0.9137063355696106 -0.9137063355696108 
1.584 0.3969278497947344 -1.5707963267948966 -1.5707963267948966 0.0 1.5707963267948966 0.0 0.2743434418098265 0.0 0.0 0.0 0.0 0.0 0.0 0.0 0.0 0.0 0.0 0.0 315.6360071285843 10.485990841322131 480.9 -1.3712314695963959 0.9120397422305955 -0.9120397422305957 
1.592 0.399122597329213 -1.5707963267948966 -1.5707963267948966 0.0 1.5707963267948966 0.0 0.2743434418098265 0.0 0.0 0.0 0.0 0.0 0.0 0.0 0.0 0.0 0.0 0.0 315.6122328486367 11.178706378551905 480.9 -1.3719880745175337 0.9103729218361677 -0.9103729218361679 
1.6 0.40131734486369164 -1.5707963267948966 -1.5707963267948966 0.0 1.5707963267948966 0.0 0.2743434418098265 0.0 0.0 0.0 0.0 0.0 0.0 0.0 0.0 0.0 0.0 0.0 315.58693829145176 11.871368068905387 480.9 -1.372743179635397 0.908705874917982 -0.9087058749179823 
1.608 0.4035120923981702 -1.5707963267948966 -1.5707963267948966 0.0 1.5707963267948966 0.0 0.2743434418098265 0.0 0.0 0.0 0.0 0.0 0.0 0.0 0.0 0.0 0.0 0.0 315.56012357887084 12.56397257589025 480.9 -1.3734967854342084 0.9070386020070377 -0.9070386020070379 
1.616 0.40570683993264883 -1.5707963267948966 -1.5707963267948966 0.0 1.5707963267948966 0.0 0.2743434418098265 0.0 0.0 0.0 0.0 0.0 0.0 0.0 0.0 0.0 0.0 0.0 315.5317888400584 13.256516563289583 480.9 -1.3742488923971634 0.9053711036336813 -0.9053711036336816 
1.624 0.40790158746712746 -1.5707963267948966 -1.5707963267948966 0.0 1.5707963267948966 0.0 0.2743434418098265 0.0 0.0 0.0 0.0 0.0 0.0 0.0 0.0 0.0 0.0 0.0 315.5019342115004 13.948996695178007 480.9 -1.3749995010064315 0.903703380327608 -0.9037033803276082 
1.632 0.4100963350016061 -1.5707963267948966 -1.5707963267948966 0.0 1.5707963267948966 0.0 0.2743434418098265 0.0 0.0 0.0 0.0 0.0 0.0 0.0 0.0 0.0 0.0 0.0 315.4705598370039 14.641409635937716 480.9 -1.3757486117431568 0.9020354326178639 -0.9020354326178641 
1.64 0.4122910825360847 -1.5707963267948966 -1.5707963267948966 0.0 1.5707963267948966 0.0 0.2743434418098265 0.0 0.0 0.0 0.0 0.0 0.0 0.0 0.0 0.0 0.0 0.0 315.43766586769675 15.333752050274558 480.9 -1.3764962250874553 0.9003672610328461 -0.9003672610328464 
1.648 0.4144858300705633 -1.5707963267948966 -1.5707963267948966 0.0 1.5707963267948966 0.0 0.2743434418098265 0.0 0.0 0.0 0.0 0.0 0.0 0.0 0.0 0.0 0.0 0.0 315.40325246202633 16.026020603234098 480.9 -1.3772423415184216 0.8986988661003074 -0.8986988661003076 
1.656 0.4166805776050419 -1.5707963267948966 -1.5707963267948966 0.0 1.5707963267948966 0.0 0.2743434418098265 0.0 0.0 0.0 0.0 0.0 0.0 0.0 0.0 0.0 0.0 0.0 315.36731978575904 16.718211960217698 480.9 -1.3779869615141251 0.8970302483473551 -0.8970302483473553 
1.664 0.4188753251395205 -1.5707963267948966 -1.5707963267948966 0.0 1.5707963267948966 0.0 0.2743434418098265 0.0 0.0 0.0 0.0 0.0 0.0 0.0 0.0 0.0 0.0 0.0 315.32986801197967 17.410322786998588 480.9 -1.378730085551612 0.8953614083004543 -0.8953614083004545 
1.672 0.4210700726739991 -1.5707963267948966 -1.5707963267948966 0.0 1.5707963267948966 0.0 0.2743434418098265 0.0 0.0 0.0 0.0 0.0 0.0 0.0 0.0 0.0 0.0 0.0 315.29089732109003 18.102349749737837 480.9 -1.3794717141069055 0.8936923464854296 -0.8936923464854298 
1.68 0.4232648202084777 -1.5707963267948966 -1.5707963267948966 0.0 1.5707963267948966 0.0 0.2743434418098265 0.0 0.0 0.0 0.0 0.0 0.0 0.0 0.0 0.0 0.0 0.0 315.2504079008088 18.794289515000575 480.9 -1.3802118476550078 0.892023063427466 -0.8920230634274661 
1.688 0.4254595677429563 -1.5707963267948966 -1.5707963267948966 0.0 1.5707963267948966 0.0 0.2743434418098265 0.0 0.0 0.0 0.0 0.0 0.0 0.0 0.0 0.0 0.0 0.0 315.20839994616995 19.486138749771822 480.9 -1.3809504866698976 0.890353559651111 -0.8903535596511112 
1.696 0.4276543152774349 -1.5707963267948966 -1.5707963267948966 0.0 1.5707963267948966 0.0 0.2743434418098265 0.0 0.0 0.0 0.0 0.0 0.0 0.0 0.0 0.0 0.0 0.0 315.16487365952224 20.177894121472857 480.9 -1.381687631624536 0.8886838356802771 -0.8886838356802773 
1.704 0.42984906281191354 -1.5707963267948966 -1.5707963267948966 0.0 1.5707963267948966 0.0 0.2743434418098265 0.0 0.0 0.0 0.0 0.0 0.0 0.0 0.0 0.0 0.0 0.0 315.1198292505281 20.8695522979769 480.9 -1.3824232829908605 0.8870138920382423 -0.8870138920382425 
1.712 0.43204381034639217 -1.5707963267948966 -1.5707963267948966 0.0 1.5707963267948966 0.0 0.2743434418098265 0.0 0.0 0.0 0.0 0.0 0.0 0.0 0.0 0.0 0.0 0.0 315.07326693616267 21.56110994762548 480.9 -1.3831574412397922 0.8853437292476527 -0.8853437292476529 
1.72 0.4342385578808708 -1.5707963267948966 -1.5707963267948966 0.0 1.5707963267948966 0.0 0.2743434418098265 0.0 0.0 0.0 0.0 0.0 0.0 0.0 0.0 0.0 0.0 0.0 315.0251869407125 22.252563739244298 480.9 -1.383890106841232 0.883673347830524 -0.8836733478305242 
1.728 0.43643330541534936 -1.5707963267948966 -1.5707963267948966 0.0 1.5707963267948966 0.0 0.2743434418098265 0.0 0.0 0.0 0.0 0.0 0.0 0.0 0.0 0.0 0.0 0.0 314.97558949577495 22.943910342159366 480.9 -1.3846212802640616 0.8820027483082423 -0.8820027483082424 
1.736 0.438628052949828 -1.5707963267948966 -1.5707963267948966 0.0 1.5707963267948966 0.0 0.2743434418098265 0.0 0.0 0.0 0.0 0.0 0.0 0.0 0.0 0.0 0.0 0.0 314.92447484025666 23.635146426212987 480.9 -1.3853509619761473 0.8803319312015673 -0.8803319312015674 
1.744 0.4408228004843066 -1.5707963267948966 -1.5707963267948966 0.0 1.5707963267948966 0.0 0.2743434418098265 0.0 0.0 0.0 0.0 0.0 0.0 0.0 0.0 0.0 0.0 0.0 314.87184322037257 24.326268661779856 480.9 -1.386079152444337 0.8786608970306329 -0.878660897030633 
1.752 0.44301754801878523 -1.5707963267948966 -1.5707963267948966 0.0 1.5707963267948966 0.0 0.2743434418098265 0.0 0.0 0.0 0.0 0.0 0.0 0.0 0.0 0.0 0.0 0.0 314.8176948896447 25.01727371978297 480.9 -1.386805852134463 0.8769896463149499 -0.87698964631495 
1.76 0.44521229555326386 -1.5707963267948966 -1.5707963267948966 0.0 1.5707963267948966 0.0 0.2743434418098265 0.0 0.0 0.0 0.0 0.0 0.0 0.0 0.0 0.0 0.0 0.0 314.762030108901 25.70815827170992 480.9 -1.3875310615113414 0.8753181795734065 -0.8753181795734066 
1.768 0.44740704308774243 -1.5707963267948966 -1.5707963267948966 0.0 1.5707963267948966 0.0 0.2743434418098265 0.0 0.0 0.0 0.0 0.0 0.0 0.0 0.0 0.0 0.0 0.0 314.7048491462739 26.398918989628633 480.9 -1.3882547810387738 0.8736464973242704 -0.8736464973242704 
1.776 0.44960179062222105 -1.5707963267948966 -1.5707963267948966 0.0 1.5707963267948966 0.0 0.2743434418098265 0.0 0.0 0.0 0.0 0.0 0.0 0.0 0.0 0.0 0.0 0.0 314.6461522771993 27.089552546203578 480.9 -1.3889770111795472 0.8719746000851913 -0.8719746000851913 
1.784 0.4517965381566997 -1.5707963267948966 -1.5707963267948966 0.0 1.5707963267948966 0.0 0.2743434418098265 0.0 0.0 0.0 0.0 0.0 0.0 0.0 0.0 0.0 0.0 0.0 314.5859397844149 27.780055614711788 480.9 -1.389697752395435 0.8703024883732012 -0.8703024883732013 
1.792 0.4539912856911783 -1.5707963267948966 -1.5707963267948966 0.0 1.5707963267948966 0.0 0.2743434418098265 0.0 0.0 0.0 0.0 0.0 0.0 0.0 0.0 0.0 0.0 0.0 314.52421195795927 28.47042486905878 480.9 -1.390417005147197 0.8686301627047175 -0.8686301627047176 
1.8 0.45618603322565693 -1.5707963267948966 -1.5707963267948966 0.0 1.5707963267948966 0.0 0.2743434418098265 0.0 0.0 0.0 0.0 0.0 0.0 0.0 0.0 0.0 0.0 0.0 314.46096909517 29.16065698379465 480.9 -1.3911347698945813 0.8669576235955438 -0.8669576235955441 
1.808 0.4583807807601355 -1.5707963267948966 -1.5707963267948966 0.0 1.5707963267948966 0.0 0.2743434418098265 0.0 0.0 0.0 0.0 0.0 0.0 0.0 0.0 0.0 0.0 0.0 314.3962115006826 29.850748634130138 480.9 -1.3918510470963232 0.8652848715608714 -0.8652848715608715 
1.816 0.4605755282946141 -1.5707963267948966 -1.5707963267948966 0.0 1.5707963267948966 0.0 0.2743434418098265 0.0 0.0 0.0 0.0 0.0 0.0 0.0 0.0 0.0 0.0 0.0 314.329939486429 30.54069649595254 480.9 -1.392565837210148 0.8636119071152818 -0.8636119071152819 
1.824 0.46277027582909275 -1.5707963267948966 -1.5707963267948966 0.0 1.5707963267948966 0.0 0.2743434418098265 0.0 0.0 0.0 0.0 0.0 0.0 0.0 0.0 0.0 0.0 0.0 314.2621533716357 31.2304972458418 480.9 -1.3932791406927685 0.8619387307727474 -0.8619387307727475 
1.832 0.4649650233635714 -1.5707963267948966 -1.5707963267948966 0.0 1.5707963267948966 0.0 0.2743434418098265 0.0 0.0 0.0 0.0 0.0 0.0 0.0 0.0 0.0 0.0 0.0 314.19285348282267 31.92014756108645 480.9 -1.3939909579998897 0.8602653430466344 -0.8602653430466345 
1.84 0.46715977089805 -1.5707963267948966 -1.5707963267948966 0.0 1.5707963267948966 0.0 0.2743434418098265 0.0 0.0 0.0 0.0 0.0 0.0 0.0 0.0 0.0 0.0 0.0 314.12204015380155 32.60964411969967 480.9 -1.3947012895862052 0.8585917444497028 -0.8585917444497029 
1.848 0.46935451843252857 -1.5707963267948966 -1.5707963267948966 0.0 1.5707963267948966 0.0 0.2743434418098265 0.0 0.0 0.0 0.0 0.0 0.0 0.0 0.0 0.0 0.0 0.0 314.0497137256742 33.29898360043531 480.9 -1.3954101359054019 0.8569179354941098 -0.8569179354941099 
1.856 0.4715492659670072 -1.5707963267948966 -1.5707963267948966 0.0 1.5707963267948966 0.0 0.2743434418098265 0.0 0.0 0.0 0.0 0.0 0.0 0.0 0.0 0.0 0.0 0.0 313.9758745468308 33.9881626828038 480.9 -1.396117497410157 0.8552439166914104 -0.8552439166914105 
1.864 0.4737440135014858 -1.5707963267948966 -1.5707963267948966 0.0 1.5707963267948966 0.0 0.2743434418098265 0.0 0.0 0.0 0.0 0.0 0.0 0.0 0.0 0.0 0.0 0.0 313.90052297294847 34.677178047088205 480.9 -1.3968233745521403 0.8535696885525592 -0.8535696885525593 
1.872 0.47593876103596444 -1.5707963267948966 -1.5707963267948966 0.0 1.5707963267948966 0.0 0.2743434418098265 0.0 0.0 0.0 0.0 0.0 0.0 0.0 0.0 0.0 0.0 0.0 313.82365936698915 35.366026374360246 480.9 -1.397527767782016 0.8518952515879121 -0.8518952515879122 
1.88 0.47813350857044307 -1.5707963267948966 -1.5707963267948966 0.0 1.5707963267948966 0.0 0.2743434418098265 0.0 0.0 0.0 0.0 0.0 0.0 0.0 0.0 0.0 0.0 0.0 313.74528409919844 36.0547043464962 480.9 -1.3982306775494406 0.8502206063072285 -0.8502206063072286 
1.888 0.48032825610492164 -1.5707963267948966 -1.5707963267948966 0.0 1.5707963267948966 0.0 0.2743434418098265 0.0 0.0 0.0 0.0 0.0 0.0 0.0 0.0 0.0 0.0 0.0 313.6653975471032 36.743208646192926 480.9 -1.3989321043030651 0.8485457532196713 -0.8485457532196714 
1.896 0.48252300363940026 -1.5707963267948966 -1.5707963267948966 0.0 1.5707963267948966 0.0 0.2743434418098265 0.0 0.0 0.0 0.0 0.0 0.0 0.0 0.0 0.0 0.0 0.0 313.5840000955103 37.43153595698387 480.9 -1.3996320484905371 0.8468706928338113 -0.8468706928338114 
1.904 0.4847177511738789 -1.5707963267948966 -1.5707963267948966 0.0 1.5707963267948966 0.0 0.2743434418098265 0.0 0.0 0.0 0.0 0.0 0.0 0.0 0.0 0.0 0.0 0.0 313.5010921365042 38.11968296325506 480.9 -1.4003305105584973 0.8451954256576257 -0.8451954256576258 
1.912 0.4869124987083575 -1.5707963267948966 -1.5707963267948966 0.0 1.5707963267948966 0.0 0.2743434418098265 0.0 0.0 0.0 0.0 0.0 0.0 0.0 0.0 0.0 0.0 0.0 313.41667406944555 38.80764635026096 480.9 -1.401027490952585 0.8435199521985025 -0.8435199521985026 
1.92 0.4891072462428361 -1.5707963267948966 -1.5707963267948966 0.0 1.5707963267948966 0.0 0.2743434418098265 0.0 0.0 0.0 0.0 0.0 0.0 0.0 0.0 0.0 0.0 0.0 313.33074630096894 39.49542280414051 480.9 -1.401722990117434 0.8418442729632398 -0.8418442729632399 
1.928 0.49130199377731465 -1.5707963267948966 -1.5707963267948966 0.0 1.5707963267948966 0.0 0.2743434418098265 0.0 0.0 0.0 0.0 0.0 0.0 0.0 0.0 0.0 0.0 0.0 313.2433092449811 40.18300901193321 480.9 -1.402417008496678 0.8401683884580494 -0.8401683884580495 
1.936 0.4934967413117933 -1.5707963267948966 -1.5707963267948966 0.0 1.5707963267948966 0.0 0.2743434418098265 0.0 0.0 0.0 0.0 0.0 0.0 0.0 0.0 0.0 0.0 0.0 313.1543633226589 40.87040166159481 480.9 -1.4031095465329466 0.838492299188557 -0.8384922991885572 
1.944 0.4956914888462719 -1.5707963267948966 -1.5707963267948966 0.0 1.5707963267948966 0.0 0.2743434418098265 0.0 0.0 0.0 0.0 0.0 0.0 0.0 0.0 0.0 0.0 0.0 313.0639089624474 41.55759744201348 480.9 -1.4038006046678686 0.8368160056598046 -0.8368160056598047 
1.952 0.4978862363807505 -1.5707963267948966 -1.5707963267948966 0.0 1.5707963267948966 0.0 0.2743434418098265 0.0 0.0 0.0 0.0 0.0 0.0 0.0 0.0 0.0 0.0 0.0 312.9719466000573 42.24459304302576 480.9 -1.4044901833420733 0.8351395083762521 -0.8351395083762522 
1.96 0.5000809839152291 -1.5707963267948966 -1.5707963267948966 0.0 1.5707963267948966 0.0 0.2743434418098265 0.0 0.0 0.0 0.0 0.0 0.0 0.0 0.0 0.0 0.0 0.0 312.8784766784636 42.93138515543228 480.9 -1.4051782829951882 0.8334628078417781 -0.8334628078417782 
1.968 0.5022757314497077 -1.5707963267948966 -1.5707963267948966 0.0 1.5707963267948966 0.0 0.2743434418098265 0.0 0.0 0.0 0.0 0.0 0.0 0.0 0.0 0.0 0.0 0.0 312.783499647903 43.617970471013955 480.9 -1.4058649040658422 0.8317859045596827 -0.8317859045596827 
1.976 0.5044704789841863 -1.5707963267948966 -1.5707963267948966 0.0 1.5707963267948966 0.0 0.2743434418098265 0.0 0.0 0.0 0.0 0.0 0.0 0.0 0.0 0.0 0.0 0.0 312.6870159658717 44.304345682547854 480.9 -1.406550046991665 0.8301087990326881 -0.8301087990326882 
1.984 0.506665226518665 -1.5707963267948966 -1.5707963267948966 0.0 1.5707963267948966 0.0 0.2743434418098265 0.0 0.0 0.0 0.0 0.0 0.0 0.0 0.0 0.0 0.0 0.0 312.58902609712334 44.990507483823066 480.9 -1.407233712209288 0.8284314917629411 -0.8284314917629412 
1.992 0.5088599740531435 -1.5707963267948966 -1.5707963267948966 0.0 1.5707963267948966 0.0 0.2743434418098265 0.0 0.0 0.0 0.0 0.0 0.0 0.0 0.0 0.0 0.0 0.0 312.4895305136668 45.676452569656604 480.9 -1.4079159001543449 0.8267539832520141 -0.8267539832520142 
2.0 0.5110547215876222 -1.5707963267948966 -1.5707963267948966 0.0 1.5707963267948966 0.0 0.2743434418098265 0.0 0.0 0.0 0.0 0.0 0.0 0.0 0.0 0.0 0.0 0.0 312.38852969476386 46.36217763590947 480.9 -1.4085966112614727 0.8250762740009066 -0.8250762740009067 
2.008 0.5132494691221008 -1.5707963267948966 -1.5707963267948966 0.0 1.5707963267948966 0.0 0.2743434418098265 0.0 0.0 0.0 0.0 0.0 0.0 0.0 0.0 0.0 0.0 0.0 312.2860241269268 47.047679379502405 480.9 -1.409275845964311 0.8233983645100472 -0.8233983645100473 
2.016 0.5154442166565794 -1.5707963267948966 -1.5707963267948966 0.0 1.5707963267948966 0.0 0.2743434418098265 0.0 0.0 0.0 0.0 0.0 0.0 0.0 0.0 0.0 0.0 0.0 312.18201430391633 47.7329544984319 480.9 -1.4099536046955043 0.8217202552792952 -0.8217202552792953 
2.024 0.517638964191058 -1.5707963267948966 -1.5707963267948966 0.0 1.5707963267948966 0.0 0.2743434418098265 0.0 0.0 0.0 0.0 0.0 0.0 0.0 0.0 0.0 0.0 0.0 312.07650072673874 48.41799969178616 480.9 -1.4106298878867012 0.8200419468079417 -0.8200419468079418 
2.032 0.5198337117255366 -1.5707963267948966 -1.5707963267948966 0.0 1.5707963267948966 0.0 0.2743434418098265 0.0 0.0 0.0 0.0 0.0 0.0 0.0 0.0 0.0 0.0 0.0 311.9694839036441 49.10281165976074 480.9 -1.411304695968556 0.8183634395947125 -0.8183634395947126 
2.04 0.5220284592600153 -1.5707963267948966 -1.5707963267948966 0.0 1.5707963267948966 0.0 0.2743434418098265 0.0 0.0 0.0 0.0 0.0 0.0 0.0 0.0 0.0 0.0 0.0 311.8609643501232 49.787387103674845 480.9 -1.4119780293707287 0.8166847341377669 -0.816684734137767 
2.048 0.5242232067944939 -1.5707963267948966 -1.5707963267948966 0.0 1.5707963267948966 0.0 0.2743434418098265 0.0 0.0 0.0 0.0 0.0 0.0 0.0 0.0 0.0 0.0 0.0 311.75094258890556 50.47172272598682 480.9 -1.412649888521886 0.8150058309347032 -0.8150058309347034 
2.056 0.5264179543289724 -1.5707963267948966 -1.5707963267948966 0.0 1.5707963267948966 0.0 0.2743434418098265 0.0 0.0 0.0 0.0 0.0 0.0 0.0 0.0 0.0 0.0 0.0 311.6394191499566 51.15581523031027 480.9 -1.4133202738497015 0.8133267304825568 -0.8133267304825569 
2.064 0.5286127018634511 -1.5707963267948966 -1.5707963267948966 0.0 1.5707963267948966 0.0 0.2743434418098265 0.0 0.0 0.0 0.0 0.0 0.0 0.0 0.0 0.0 0.0 0.0 311.52639457047525 51.83966132142992 480.9 -1.4139891857808564 0.8116474332778034 -0.8116474332778035 
2.072 0.5308074493979297 -1.5707963267948966 -1.5707963267948966 0.0 1.5707963267948966 0.0 0.2743434418098265 0.0 0.0 0.0 0.0 0.0 0.0 0.0 0.0 0.0 0.0 0.0 311.41186939489126 52.52325770531734 480.9 -1.41465662474104 0.809967939816361 -0.8099679398163611 
2.08 0.5330021969324084 -1.5707963267948966 -1.5707963267948966 0.0 1.5707963267948966 0.0 0.2743434418098265 0.0 0.0 0.0 0.0 0.0 0.0 0.0 0.0 0.0 0.0 0.0 311.2958441748626 53.20660108914711 480.9 -1.4153225911549516 0.8082882505935901 -0.8082882505935902 
2.088 0.5351969444668869 -1.5707963267948966 -1.5707963267948966 0.0 1.5707963267948966 0.0 0.2743434418098265 0.0 0.0 0.0 0.0 0.0 0.0 0.0 0.0 0.0 0.0 0.0 311.178319469273 53.88968818131221 480.9 -1.4159870854462981 0.8066083661042965 -0.8066083661042966 
2.096 0.5373916920013655 -1.5707963267948966 -1.5707963267948966 0.0 1.5707963267948966 0.0 0.2743434418098265 0.0 0.0 0.0 0.0 0.0 0.0 0.0 0.0 0.0 0.0 0.0 311.0592958442288 54.57251569144041 480.9 -1.4166501080377973 0.8049282868427317 -0.8049282868427318 
2.104 0.5395864395358442 -1.5707963267948966 -1.5707963267948966 0.0 1.5707963267948966 0.0 0.2743434418098265 0.0 0.0 0.0 0.0 0.0 0.0 0.0 0.0 0.0 0.0 0.0 310.9387738730568 55.255080330409776 480.9 -1.4173116593511788 0.803248013302596 -0.8032480133025961 
2.112 0.5417811870703227 -1.5707963267948966 -1.5707963267948966 0.0 1.5707963267948966 0.0 0.2743434418098265 0.0 0.0 0.0 0.0 0.0 0.0 0.0 0.0 0.0 0.0 0.0 310.816754136301 55.93737881036451 480.9 -1.4179717398071818 0.8015675459770388 -0.8015675459770389 
2.12 0.5439759346048013 -1.5707963267948966 -1.5707963267948966 0.0 1.5707963267948966 0.0 0.2743434418098265 0.0 0.0 0.0 0.0 0.0 0.0 0.0 0.0 0.0 0.0 0.0 310.69323722172004 56.61940784473104 480.9 -1.418630349825558 0.7998868853586607 -0.7998868853586607 
2.128 0.54617068213928 -1.5707963267948966 -1.5707963267948966 0.0 1.5707963267948966 0.0 0.2743434418098265 0.0 0.0 0.0 0.0 0.0 0.0 0.0 0.0 0.0 0.0 0.0 310.5682237242844 57.30116414823359 480.9 -1.4192874898250707 0.7982060319395142 -0.7982060319395142 
2.136 0.5483654296737586 -1.5707963267948966 -1.5707963267948966 0.0 1.5707963267948966 0.0 0.2743434418098265 0.0 0.0 0.0 0.0 0.0 0.0 0.0 0.0 0.0 0.0 0.0 310.44171424617355 57.98264443691011 480.9 -1.4199431602234973 0.7965249862111071 -0.7965249862111072 
2.144 0.5505601772082372 -1.5707963267948966 -1.5707963267948966 0.0 1.5707963267948966 0.0 0.2743434418098265 0.0 0.0 0.0 0.0 0.0 0.0 0.0 0.0 0.0 0.0 0.0 310.31370939677265 58.66384542812816 480.9 -1.4205973614376288 0.7948437486644023 -0.7948437486644024 
2.152 0.5527549247427158 -1.5707963267948966 -1.5707963267948966 0.0 1.5707963267948966 0.0 0.2743434418098265 0.0 0.0 0.0 0.0 0.0 0.0 0.0 0.0 0.0 0.0 0.0 310.18420979267034 59.3447638406005 480.9 -1.4212500938832688 0.79316231978982 -0.7931623197898201 
2.16 0.5549496722771944 -1.5707963267948966 -1.5707963267948966 0.0 1.5707963267948966 0.0 0.2743434418098265 0.0 0.0 0.0 0.0 0.0 0.0 0.0 0.0 0.0 0.0 0.0 310.05321605765516 60.02539639440123 480.9 -1.4219013579752378 0.7914807000772395 -0.7914807000772396 
2.168 0.5571444198116731 -1.5707963267948966 -1.5707963267948966 0.0 1.5707963267948966 0.0 0.2743434418098265 0.0 0.0 0.0 0.0 0.0 0.0 0.0 0.0 0.0 0.0 0.0 309.9207288227127 60.70573981098133 480.9 -1.4225511541273694 0.789798890016 -0.7897988900160001 
2.176 0.5593391673461516 -1.5707963267948966 -1.5707963267948966 0.0 1.5707963267948966 0.0 0.2743434418098265 0.0 0.0 0.0 0.0 0.0 0.0 0.0 0.0 0.0 0.0 0.0 309.7867487260228 61.385790813184435 480.9 -1.4231994827525145 0.788116890094903 -0.7881168900949032 
2.184 0.5615339148806303 -1.5707963267948966 -1.5707963267948966 0.0 1.5707963267948966 0.0 0.2743434418098265 0.0 0.0 0.0 0.0 0.0 0.0 0.0 0.0 0.0 0.0 0.0 309.65127641295595 62.0655461252629 480.9 -1.4238463442625409 0.7864347008022134 -0.7864347008022136 
2.192 0.5637286624151089 -1.5707963267948966 -1.5707963267948966 0.0 1.5707963267948966 0.0 0.2743434418098265 0.0 0.0 0.0 0.0 0.0 0.0 0.0 0.0 0.0 0.0 0.0 309.5143125360709 62.74500247289326 480.9 -1.4244917390683318 0.7847523226256614 -0.7847523226256615 
2.2 0.5659234099495875 -1.5707963267948966 -1.5707963267948966 0.0 1.5707963267948966 0.0 0.2743434418098265 0.0 0.0 0.0 0.0 0.0 0.0 0.0 0.0 0.0 0.0 0.0 309.37585775511104 63.42415658319213 480.9 -1.4251356675797888 0.7830697560524431 -0.7830697560524432 
2.208 0.5681181574840661 -1.5707963267948966 -1.5707963267948966 0.0 1.5707963267948966 0.0 0.2743434418098265 0.0 0.0 0.0 0.0 0.0 0.0 0.0 0.0 0.0 0.0 0.0 309.2359127370012 64.10300518473211 480.9 -1.4257781302058326 0.7813870015692227 -0.7813870015692228 
2.216 0.5703129050185447 -1.5707963267948966 -1.5707963267948966 0.0 1.5707963267948966 0.0 0.2743434418098265 0.0 0.0 0.0 0.0 0.0 0.0 0.0 0.0 0.0 0.0 0.0 309.09447815584446 64.78154500755724 480.9 -1.426419127354401 0.7797040596621345 -0.7797040596621346 
2.224 0.5725076525530234 -1.5707963267948966 -1.5707963267948966 0.0 1.5707963267948966 0.0 0.2743434418098265 0.0 0.0 0.0 0.0 0.0 0.0 0.0 0.0 0.0 0.0 0.0 308.95155469291933 65.45977278319906 480.9 -1.4270586594324521 0.7780209308167838 -0.7780209308167839 
2.232 0.574702400087502 -1.5707963267948966 -1.5707963267948966 0.0 1.5707963267948966 0.0 0.2743434418098265 0.0 0.0 0.0 0.0 0.0 0.0 0.0 0.0 0.0 0.0 0.0 308.80714303667594 66.13768524469211 480.9 -1.427696726845964 0.7763376155182482 -0.7763376155182483 
2.24 0.5768971476219805 -1.5707963267948966 -1.5707963267948966 0.0 1.5707963267948966 0.0 0.2743434418098265 0.0 0.0 0.0 0.0 0.0 0.0 0.0 0.0 0.0 0.0 0.0 308.66124388273283 66.81527912658981 480.9 -1.4283333299999352 0.7746541142510794 -0.7746541142510796 
2.248 0.5790918951564592 -1.5707963267948966 -1.5707963267948966 0.0 1.5707963267948966 0.0 0.2743434418098265 0.0 0.0 0.0 0.0 0.0 0.0 0.0 0.0 0.0 0.0 0.0 308.5138579338739 67.49255116498026 480.9 -1.4289684692983846 0.7729704274993056 -0.7729704274993057 
2.256 0.5812866426909378 -1.5707963267948966 -1.5707963267948966 0.0 1.5707963267948966 0.0 0.2743434418098265 0.0 0.0 0.0 0.0 0.0 0.0 0.0 0.0 0.0 0.0 0.0 308.3649859000446 68.16949809750162 480.9 -1.4296021451443541 0.7712865557464312 -0.7712865557464313 
2.264 0.5834813902254165 -1.5707963267948966 -1.5707963267948966 0.0 1.5707963267948966 0.0 0.2743434418098265 0.0 0.0 0.0 0.0 0.0 0.0 0.0 0.0 0.0 0.0 0.0 308.21462849834893 68.84611666335823 480.9 -1.4302343579399057 0.7696024994754399 -0.76960249947544 
2.272 0.585676137759895 -1.5707963267948966 -1.5707963267948966 0.0 1.5707963267948966 0.0 0.2743434418098265 0.0 0.0 0.0 0.0 0.0 0.0 0.0 0.0 0.0 0.0 0.0 308.06278645304565 69.5224036033361 480.9 -1.4308651080861263 0.7679182591687955 -0.7679182591687955 
2.28 0.5878708852943736 -1.5707963267948966 -1.5707963267948966 0.0 1.5707963267948966 0.0 0.2743434418098265 0.0 0.0 0.0 0.0 0.0 0.0 0.0 0.0 0.0 0.0 0.0 307.909460495545 70.19835565981869 480.9 -1.4314943959831252 0.7662338353084432 -0.7662338353084434 
2.288 0.5900656328288523 -1.5707963267948966 -1.5707963267948966 0.0 1.5707963267948966 0.0 0.2743434418098265 0.0 0.0 0.0 0.0 0.0 0.0 0.0 0.0 0.0 0.0 0.0 307.754651364405 70.87396957680252 480.9 -1.4321222220300351 0.764549228375812 -0.7645492283758121 
2.296 0.5922603803633308 -1.5707963267948966 -1.5707963267948966 0.0 1.5707963267948966 0.0 0.2743434418098265 0.0 0.0 0.0 0.0 0.0 0.0 0.0 0.0 0.0 0.0 0.0 307.598359805328 71.54924209991289 480.9 -1.432748586625014 0.7628644388518151 -0.7628644388518152 
2.304 0.5944551278978095 -1.5707963267948966 -1.5707963267948966 0.0 1.5707963267948966 0.0 0.2743434418098265 0.0 0.0 0.0 0.0 0.0 0.0 0.0 0.0 0.0 0.0 0.0 307.44058657115727 72.2241699764196 480.9 -1.4333734901652446 0.7611794672168525 -0.7611794672168526 
2.312 0.596649875432288 -1.5707963267948966 -1.5707963267948966 0.0 1.5707963267948966 0.0 0.2743434418098265 0.0 0.0 0.0 0.0 0.0 0.0 0.0 0.0 0.0 0.0 0.0 307.2813324218729 72.8987499552525 480.9 -1.4339969330469344 0.7594943139508115 -0.7594943139508116 
2.32 0.5988446229667665 -1.5707963267948966 -1.5707963267948966 0.0 1.5707963267948966 0.0 0.2743434418098265 0.0 0.0 0.0 0.0 0.0 0.0 0.0 0.0 0.0 0.0 0.0 307.12059812458864 73.57297878701738 480.9 -1.4346189156653184 0.7578089795330685 -0.7578089795330686 
2.328 0.6010393705012452 -1.5707963267948966 -1.5707963267948966 0.0 1.5707963267948966 0.0 0.2743434418098265 0.0 0.0 0.0 0.0 0.0 0.0 0.0 0.0 0.0 0.0 0.0 306.9583844535478 74.24685322401143 480.9 -1.4352394384146576 0.756123464442491 -0.7561234644424911 
2.336 0.6032341180357238 -1.5707963267948966 -1.5707963267948966 0.0 1.5707963267948966 0.0 0.2743434418098265 0.0 0.0 0.0 0.0 0.0 0.0 0.0 0.0 0.0 0.0 0.0 306.79469219012003 74.9203700202388 480.9 -1.4358585016882404 0.7544377691574387 -0.7544377691574388 
2.344 0.6054288655702024 -1.5707963267948966 -1.5707963267948966 0.0 1.5707963267948966 0.0 0.2743434418098265 0.0 0.0 0.0 0.0 0.0 0.0 0.0 0.0 0.0 0.0 0.0 306.6295221227968 75.59352593142653 480.9 -1.436476105878382 0.7527518941557646 -0.7527518941557646 
2.352 0.607623613104681 -1.5707963267948966 -1.5707963267948966 0.0 1.5707963267948966 0.0 0.2743434418098265 0.0 0.0 0.0 0.0 0.0 0.0 0.0 0.0 0.0 0.0 0.0 306.4628750471884 76.26631771503995 480.9 -1.437092251376428 0.7510658399148176 -0.7510658399148177 
2.36 0.6098183606391596 -1.5707963267948966 -1.5707963267948966 0.0 1.5707963267948966 0.0 0.2743434418098265 0.0 0.0 0.0 0.0 0.0 0.0 0.0 0.0 0.0 0.0 0.0 306.2947517660194 76.9387421302983 480.9 -1.4377069385727508 0.7493796069114421 -0.7493796069114422 
2.368 0.6120131081736383 -1.5707963267948966 -1.5707963267948966 0.0 1.5707963267948966 0.0 0.2743434418098265 0.0 0.0 0.0 0.0 0.0 0.0 0.0 0.0 0.0 0.0 0.0 306.12515308912555 77.61079593819046 480.9 -1.4383201678567537 0.7476931956219821 -0.7476931956219822 
2.376 0.6142078557081169 -1.5707963267948966 -1.5707963267948966 0.0 1.5707963267948966 0.0 0.2743434418098265 0.0 0.0 0.0 0.0 0.0 0.0 0.0 0.0 0.0 0.0 0.0 305.9540798334491 78.28247590149054 480.9 -1.438931939616869 0.74600660652228 -0.7460066065222801 
2.384 0.6164026032425954 -1.5707963267948966 -1.5707963267948966 0.0 1.5707963267948966 0.0 0.2743434418098265 0.0 0.0 0.0 0.0 0.0 0.0 0.0 0.0 0.0 0.0 0.0 305.7815328230354 78.95377878477336 480.9 -1.439542254240561 0.7443198400876802 -0.7443198400876803 
2.392 0.6185973507770741 -1.5707963267948966 -1.5707963267948966 0.0 1.5707963267948966 0.0 0.2743434418098265 0.0 0.0 0.0 0.0 0.0 0.0 0.0 0.0 0.0 0.0 0.0 305.6075128890286 79.62470135443013 480.9 -1.4401511121143231 0.7426328967930288 -0.7426328967930289 
2.4 0.6207920983115527 -1.5707963267948966 -1.5707963267948966 0.0 1.5707963267948966 0.0 0.2743434418098265 0.0 0.0 0.0 0.0 0.0 0.0 0.0 0.0 0.0 0.0 0.0 305.432020869668 80.29524037868397 480.9 -1.440758513623682 0.740945777112677 -0.7409457771126771 
2.408 0.6229868458460314 -1.5707963267948966 -1.5707963267948966 0.0 1.5707963267948966 0.0 0.2743434418098265 0.0 0.0 0.0 0.0 0.0 0.0 0.0 0.0 0.0 0.0 0.0 305.25505761028376 80.96539262760554 480.9 -1.441364459153196 0.7392584815204802 -0.7392584815204803 
2.416 0.6251815933805099 -1.5707963267948966 -1.5707963267948966 0.0 1.5707963267948966 0.0 0.2743434418098265 0.0 0.0 0.0 0.0 0.0 0.0 0.0 0.0 0.0 0.0 0.0 305.0766239632927 81.63515487312853 480.9 -1.4419689490864567 0.7375710104898022 -0.7375710104898023 
2.424 0.6273763409149885 -1.5707963267948966 -1.5707963267948966 0.0 1.5707963267948966 0.0 0.2743434418098265 0.0 0.0 0.0 0.0 0.0 0.0 0.0 0.0 0.0 0.0 0.0 304.89672078819456 82.30452388906528 480.9 -1.4425719838060884 0.7358833644935141 -0.7358833644935142 
2.432 0.6295710884494672 -1.5707963267948966 -1.5707963267948966 0.0 1.5707963267948966 0.0 0.2743434418098265 0.0 0.0 0.0 0.0 0.0 0.0 0.0 0.0 0.0 0.0 0.0 304.71534895156753 82.9734964511223 480.9 -1.4431735636937486 0.7341955440039973 -0.7341955440039974 
2.44 0.6317658359839458 -1.5707963267948966 -1.5707963267948966 0.0 1.5707963267948966 0.0 0.2743434418098265 0.0 0.0 0.0 0.0 0.0 0.0 0.0 0.0 0.0 0.0 0.0 304.53250932706436 83.64206933691568 480.9 -1.4437736891301305 0.732507549493145 -0.7325075494931451 
2.448 0.6339605835184244 -1.5707963267948966 -1.5707963267948966 0.0 1.5707963267948966 0.0 0.2743434418098265 0.0 0.0 0.0 0.0 0.0 0.0 0.0 0.0 0.0 0.0 0.0 304.34820279540804 84.31023932598681 480.9 -1.4443723604949616 0.7308193814323624 -0.7308193814323625 
2.456 0.636155331052903 -1.5707963267948966 -1.5707963267948966 0.0 1.5707963267948966 0.0 0.2743434418098265 0.0 0.0 0.0 0.0 0.0 0.0 0.0 0.0 0.0 0.0 0.0 304.1624302443872 84.97800319981778 480.9 -1.4449695781670053 0.7291310402925697 -0.7291310402925698 
2.464 0.6383500785873816 -1.5707963267948966 -1.5707963267948966 0.0 1.5707963267948966 0.0 0.2743434418098265 0.0 0.0 0.0 0.0 0.0 0.0 0.0 0.0 0.0 0.0 0.0 303.9751925688526 85.64535774184696 480.9 -1.4455653425240602 0.7274425265442024 -0.7274425265442024 
2.472 0.6405448261218603 -1.5707963267948966 -1.5707963267948966 0.0 1.5707963267948966 0.0 0.2743434418098265 0.0 0.0 0.0 0.0 0.0 0.0 0.0 0.0 0.0 0.0 0.0 303.7864906707121 86.31229973748427 480.9 -1.4461596539429622 0.7257538406572129 -0.725753840657213 
2.48 0.6427395736563388 -1.5707963267948966 -1.5707963267948966 0.0 1.5707963267948966 0.0 0.2743434418098265 0.0 0.0 0.0 0.0 0.0 0.0 0.0 0.0 0.0 0.0 0.0 303.59632545892663 86.97882597412703 480.9 -1.4467525127995842 0.7240649831010733 -0.7240649831010734 
2.488 0.6449343211908175 -1.5707963267948966 -1.5707963267948966 0.0 1.5707963267948966 0.0 0.2743434418098265 0.0 0.0 0.0 0.0 0.0 0.0 0.0 0.0 0.0 0.0 0.0 303.40469784950585 87.6449332411751 480.9 -1.447343919468836 0.7223759543447744 -0.7223759543447745 
2.496 0.6471290687252961 -1.5707963267948966 -1.5707963267948966 0.0 1.5707963267948966 0.0 0.2743434418098265 0.0 0.0 0.0 0.0 0.0 0.0 0.0 0.0 0.0 0.0 0.0 303.2116087655037 88.31061833004647 480.9 -1.4479338743246664 0.7206867548568294 -0.7206867548568295 
2.504 0.6493238162597746 -1.5707963267948966 -1.5707963267948966 0.0 1.5707963267948966 0.0 0.2743434418098265 0.0 0.0 0.0 0.0 0.0 0.0 0.0 0.0 0.0 0.0 0.0 303.01705913701363 88.97587803419285 480.9 -1.4485223777400629 0.7189973851052743 -0.7189973851052744 
2.512 0.6515185637942533 -1.5707963267948966 -1.5707963267948966 0.0 1.5707963267948966 0.0 0.2743434418098265 0.0 0.0 0.0 0.0 0.0 0.0 0.0 0.0 0.0 0.0 0.0 302.8210499011649 89.64070914911491 480.9 -1.4491094300870513 0.7173078455576692 -0.7173078455576694 
2.52 0.6537133113287319 -1.5707963267948966 -1.5707963267948966 0.0 1.5707963267948966 0.0 0.2743434418098265 0.0 0.0 0.0 0.0 0.0 0.0 0.0 0.0 0.0 0.0 0.0 302.6235820021171 90.30510847237781 480.9 -1.4496950317366983 0.7156181366811002 -0.7156181366811003 
2.528 0.6559080588632106 -1.5707963267948966 -1.5707963267948966 0.0 1.5707963267948966 0.0 0.2743434418098265 0.0 0.0 0.0 0.0 0.0 0.0 0.0 0.0 0.0 0.0 0.0 302.4246563910563 90.9690728036266 480.9 -1.4502791830591102 0.7139282589421806 -0.7139282589421807 
2.536 0.6581028063976891 -1.5707963267948966 -1.5707963267948966 0.0 1.5707963267948966 0.0 0.2743434418098265 0.0 0.0 0.0 0.0 0.0 0.0 0.0 0.0 0.0 0.0 0.0 302.22427402619036 91.63259894460168 480.9 -1.4508618844234342 0.7122382128070525 -0.7122382128070526 
2.544 0.6602975539321678 -1.5707963267948966 -1.5707963267948966 0.0 1.5707963267948966 0.0 0.2743434418098265 0.0 0.0 0.0 0.0 0.0 0.0 0.0 0.0 0.0 0.0 0.0 302.02243587274387 92.29568369915413 480.9 -1.4514431361978586 0.7105479987413874 -0.7105479987413875 
2.552 0.6624923014666464 -1.5707963267948966 -1.5707963267948966 0.0 1.5707963267948966 0.0 0.2743434418098265 0.0 0.0 0.0 0.0 0.0 0.0 0.0 0.0 0.0 0.0 0.0 301.8191429029542 92.95832387326116 480.9 -1.4520229387496142 0.70885761721039 -0.70885761721039 
2.56 0.664687049001125 -1.5707963267948966 -1.5707963267948966 0.0 1.5707963267948966 0.0 0.2743434418098265 0.0 0.0 0.0 0.0 0.0 0.0 0.0 0.0 0.0 0.0 0.0 301.6143960960661 93.62051627504155 480.9 -1.4526012924449743 0.7071670686787959 -0.707167068678796 
2.568 0.6668817965356036 -1.5707963267948966 -1.5707963267948966 0.0 1.5707963267948966 0.0 0.2743434418098265 0.0 0.0 0.0 0.0 0.0 0.0 0.0 0.0 0.0 0.0 0.0 301.40819643832765 94.28225771477092 480.9 -1.4531781976492542 0.7054763536108763 -0.7054763536108765 
2.576 0.6690765440700822 -1.5707963267948966 -1.5707963267948966 0.0 1.5707963267948966 0.0 0.2743434418098265 0.0 0.0 0.0 0.0 0.0 0.0 0.0 0.0 0.0 0.0 0.0 301.20054492298493 94.94354500489709 480.9 -1.4537536547268128 0.703785472470438 -0.7037854724704381 
2.584 0.6712712916045609 -1.5707963267948966 -1.5707963267948966 0.0 1.5707963267948966 0.0 0.2743434418098265 0.0 0.0 0.0 0.0 0.0 0.0 0.0 0.0 0.0 0.0 0.0 300.99144255027767 95.60437496005557 480.9 -1.4543276640410543 0.7020944257208249 -0.7020944257208249 
2.592 0.6734660391390395 -1.5707963267948966 -1.5707963267948966 0.0 1.5707963267948966 0.0 0.2743434418098265 0.0 0.0 0.0 0.0 0.0 0.0 0.0 0.0 0.0 0.0 0.0 300.78089032743407 96.26474439708468 480.9 -1.4549002259544253 0.7004032138249194 -0.7004032138249194 
2.6 0.675660786673518 -1.5707963267948966 -1.5707963267948966 0.0 1.5707963267948966 0.0 0.2743434418098265 0.0 0.0 0.0 0.0 0.0 0.0 0.0 0.0 0.0 0.0 0.0 300.5688892686664 96.92465013504116 480.9 -1.4554713408284194 0.6987118372451441 -0.6987118372451442 
2.608 0.6778555342079967 -1.5707963267948966 -1.5707963267948966 0.0 1.5707963267948966 0.0 0.2743434418098265 0.0 0.0 0.0 0.0 0.0 0.0 0.0 0.0 0.0 0.0 0.0 300.3554403951656 97.58408899521534 480.9 -1.4560410090235743 0.697020296443463 -0.6970202964434631 
2.616 0.6800502817424753 -1.5707963267948966 -1.5707963267948966 0.0 1.5707963267948966 0.0 0.2743434418098265 0.0 0.0 0.0 0.0 0.0 0.0 0.0 0.0 0.0 0.0 0.0 300.14054473509674 98.2430578011463 480.9 -1.4566092308994738 0.695328591881383 -0.6953285918813831 
2.624 0.682245029276954 -1.5707963267948966 -1.5707963267948966 0.0 1.5707963267948966 0.0 0.2743434418098265 0.0 0.0 0.0 0.0 0.0 0.0 0.0 0.0 0.0 0.0 0.0 299.9242033235939 98.90155337863756 480.9 -1.4571760068147503 0.6936367240199552 -0.6936367240199554 
2.632 0.6844397768114325 -1.5707963267948966 -1.5707963267948966 0.0 1.5707963267948966 0.0 0.2743434418098265 0.0 0.0 0.0 0.0 0.0 0.0 0.0 0.0 0.0 0.0 0.0 299.70641720275523 99.55957255577192 480.9 -1.45774133712708 0.6919446933197761 -0.6919446933197761 
2.64 0.6866345243459111 -1.5707963267948966 -1.5707963267948966 0.0 1.5707963267948966 0.0 0.2743434418098265 0.0 0.0 0.0 0.0 0.0 0.0 0.0 0.0 0.0 0.0 0.0 299.4871874216379 100.21711216292705 480.9 -1.458305222193189 0.6902525002409896 -0.6902525002409897 
2.648 0.6888292718803898 -1.5707963267948966 -1.5707963267948966 0.0 1.5707963267948966 0.0 0.2743434418098265 0.0 0.0 0.0 0.0 0.0 0.0 0.0 0.0 0.0 0.0 0.0 299.26651503625317 100.87416903279083 480.9 -1.458867662368851 0.688560145243288 -0.6885601452432881 
2.656 0.6910240194148684 -1.5707963267948966 -1.5707963267948966 0.0 1.5707963267948966 0.0 0.2743434418098265 0.0 0.0 0.0 0.0 0.0 0.0 0.0 0.0 0.0 0.0 0.0 299.044401109561 101.53074000037617 480.9 -1.4594286580088887 0.6868676287859135 -0.6868676287859136 
2.664 0.693218766949347 -1.5707963267948966 -1.5707963267948966 0.0 1.5707963267948966 0.0 0.2743434418098265 0.0 0.0 0.0 0.0 0.0 0.0 0.0 0.0 0.0 0.0 0.0 298.82084671146526 102.18682190303666 480.9 -1.4599882094671721 0.6851749513276588 -0.6851749513276589 
2.672 0.6954135144838256 -1.5707963267948966 -1.5707963267948966 0.0 1.5707963267948966 0.0 0.2743434418098265 0.0 0.0 0.0 0.0 0.0 0.0 0.0 0.0 0.0 0.0 0.0 298.59585291880865 102.84241158048172 480.9 -1.4605463170966235 0.6834821133268707 -0.6834821133268708 
2.68 0.6976082620183042 -1.5707963267948966 -1.5707963267948966 0.0 1.5707963267948966 0.0 0.2743434418098265 0.0 0.0 0.0 0.0 0.0 0.0 0.0 0.0 0.0 0.0 0.0 298.3694208153668 103.49750587479166 480.9 -1.4611029812492127 0.6817891152414486 -0.6817891152414487 
2.688 0.6998030095527829 -1.5707963267948966 -1.5707963267948966 0.0 1.5707963267948966 0.0 0.2743434418098265 0.0 0.0 0.0 0.0 0.0 0.0 0.0 0.0 0.0 0.0 0.0 298.1415514918441 104.15210163043315 480.9 -1.4616582022759623 0.6800959575288478 -0.6800959575288479 
2.696 0.7019977570872614 -1.5707963267948966 -1.5707963267948966 0.0 1.5707963267948966 0.0 0.2743434418098265 0.0 0.0 0.0 0.0 0.0 0.0 0.0 0.0 0.0 0.0 0.0 297.9122460458675 104.80619569427415 480.9 -1.462211980526945 0.6784026406460808 -0.6784026406460809 
2.704 0.7041925046217401 -1.5707963267948966 -1.5707963267948966 0.0 1.5707963267948966 0.0 0.2743434418098265 0.0 0.0 0.0 0.0 0.0 0.0 0.0 0.0 0.0 0.0 0.0 297.6815055819819 105.4597849155993 480.9 -1.4627643163512853 0.6767091650497178 -0.6767091650497179 
2.712 0.7063872521562187 -1.5707963267948966 -1.5707963267948966 0.0 1.5707963267948966 0.0 0.2743434418098265 0.0 0.0 0.0 0.0 0.0 0.0 0.0 0.0 0.0 0.0 0.0 297.44933121164445 106.11286614612496 480.9 -1.46331521009716 0.6750155311958886 -0.6750155311958888 
2.72 0.7085819996906972 -1.5707963267948966 -1.5707963267948966 0.0 1.5707963267948966 0.0 0.2743434418098265 0.0 0.0 0.0 0.0 0.0 0.0 0.0 0.0 0.0 0.0 0.0 297.2157240532193 106.76543624001452 480.9 -1.4638646621117986 0.6733217395402844 -0.6733217395402845 
2.728 0.7107767472251759 -1.5707963267948966 -1.5707963267948966 0.0 1.5707963267948966 0.0 0.2743434418098265 0.0 0.0 0.0 0.0 0.0 0.0 0.0 0.0 0.0 0.0 0.0 296.98068523197213 107.41749205389345 480.9 -1.464412672741483 0.6716277905381576 -0.6716277905381577 
2.736 0.7129714947596545 -1.5707963267948966 -1.5707963267948966 0.0 1.5707963267948966 0.0 0.2743434418098265 0.0 0.0 0.0 0.0 0.0 0.0 0.0 0.0 0.0 0.0 0.0 296.7442158800651 108.06903044686442 480.9 -1.4649592423315496 0.6699336846443256 -0.6699336846443257 
2.744 0.7151662422941332 -1.5707963267948966 -1.5707963267948966 0.0 1.5707963267948966 0.0 0.2743434418098265 0.0 0.0 0.0 0.0 0.0 0.0 0.0 0.0 0.0 0.0 0.0 296.50631713655076 108.72004828052253 480.9 -1.4655043712263889 0.6682394223131699 -0.66823942231317 
2.752 0.7173609898286117 -1.5707963267948966 -1.5707963267948966 0.0 1.5707963267948966 0.0 0.2743434418098265 0.0 0.0 0.0 0.0 0.0 0.0 0.0 0.0 0.0 0.0 0.0 296.2669901473672 109.37054241897027 480.9 -1.466048059769446 0.666545003998639 -0.6665450039986391 
2.76 0.7195557373630903 -1.5707963267948966 -1.5707963267948966 0.0 1.5707963267948966 0.0 0.2743434418098265 0.0 0.0 0.0 0.0 0.0 0.0 0.0 0.0 0.0 0.0 0.0 296.0262360653322 110.02050972883282 480.9 -1.4665903083032212 0.6648504301542488 -0.6648504301542489 
2.768 0.721750484897569 -1.5707963267948966 -1.5707963267948966 0.0 1.5707963267948966 0.0 0.2743434418098265 0.0 0.0 0.0 0.0 0.0 0.0 0.0 0.0 0.0 0.0 0.0 295.78405605013745 110.66994707927307 480.9 -1.46713111716927 0.6631557012330849 -0.663155701233085 
2.776 0.7239452324320476 -1.5707963267948966 -1.5707963267948966 0.0 1.5707963267948966 0.0 0.2743434418098265 0.0 0.0 0.0 0.0 0.0 0.0 0.0 0.0 0.0 0.0 0.0 295.54045126834365 111.31885134200661 480.9 -1.4676704867082047 0.6614608176878027 -0.6614608176878028 
2.784 0.7261399799665262 -1.5707963267948966 -1.5707963267948966 0.0 1.5707963267948966 0.0 0.2743434418098265 0.0 0.0 0.0 0.0 0.0 0.0 0.0 0.0 0.0 0.0 0.0 295.29542289337417 111.96721939131683 480.9 -1.4682084172596934 0.6597657799706299 -0.65976577997063 
2.792 0.7283347275010048 -1.5707963267948966 -1.5707963267948966 0.0 1.5707963267948966 0.0 0.2743434418098265 0.0 0.0 0.0 0.0 0.0 0.0 0.0 0.0 0.0 0.0 0.0 295.0489721055099 112.61504810407013 480.9 -1.468744909162462 0.6580705885333675 -0.6580705885333675 
2.8 0.7305294750354834 -1.5707963267948966 -1.5707963267948966 0.0 1.5707963267948966 0.0 0.2743434418098265 0.0 0.0 0.0 0.0 0.0 0.0 0.0 0.0 0.0 0.0 0.0 294.8011000918832 113.26233435973077 480.9 -1.469279962754294 0.6563752438273908 -0.6563752438273909 
2.808 0.7327242225699621 -1.5707963267948966 -1.5707963267948966 0.0 1.5707963267948966 0.0 0.2743434418098265 0.0 0.0 0.0 0.0 0.0 0.0 0.0 0.0 0.0 0.0 0.0 294.55180804647244 113.90907504037605 480.9 -1.4698135783720307 0.654679746303651 -0.6546797463036511 
2.816 0.7349189701044405 -1.5707963267948966 -1.5707963267948966 0.0 1.5707963267948966 0.0 0.2743434418098265 0.0 0.0 0.0 0.0 0.0 0.0 0.0 0.0 0.0 0.0 0.0 294.30109717009634 114.55526703071108 480.9 -1.4703457563515723 0.6529840964126776 -0.6529840964126777 
2.824 0.7371137176389191 -1.5707963267948966 -1.5707963267948966 0.0 1.5707963267948966 0.0 0.2743434418098265 0.0 0.0 0.0 0.0 0.0 0.0 0.0 0.0 0.0 0.0 0.0 294.0489686704076 115.20090721808423 480.9 -1.4708764970278776 0.6512882946045773 -0.6512882946045774 
2.832 0.7393084651733978 -1.5707963267948966 -1.5707963267948966 0.0 1.5707963267948966 0.0 0.2743434418098265 0.0 0.0 0.0 0.0 0.0 0.0 0.0 0.0 0.0 0.0 0.0 293.79542376188783 115.84599249250172 480.9 -1.471405800734966 0.6495923413290376 -0.6495923413290378 
2.84 0.7415032127078763 -1.5707963267948966 -1.5707963267948966 0.0 1.5707963267948966 0.0 0.2743434418098265 0.0 0.0 0.0 0.0 0.0 0.0 0.0 0.0 0.0 0.0 0.0 293.54046366584123 116.4905197466426 480.9 -1.4719336678059154 0.6478962370353275 -0.6478962370353276 
2.848 0.743697960242355 -1.5707963267948966 -1.5707963267948966 0.0 1.5707963267948966 0.0 0.2743434418098265 0.0 0.0 0.0 0.0 0.0 0.0 0.0 0.0 0.0 0.0 0.0 293.2840896103889 117.13448587587422 480.9 -1.4724600985728655 0.646199982172298 -0.6461999821722981 
2.856 0.7458927077768336 -1.5707963267948966 -1.5707963267948966 0.0 1.5707963267948966 0.0 0.2743434418098265 0.0 0.0 0.0 0.0 0.0 0.0 0.0 0.0 0.0 0.0 0.0 293.0263028304628 117.77788777826638 480.9 -1.472985093367017 0.644503577188385 -0.6445035771883851 
2.864 0.7480874553113122 -1.5707963267948966 -1.5707963267948966 0.0 1.5707963267948966 0.0 0.2743434418098265 0.0 0.0 0.0 0.0 0.0 0.0 0.0 0.0 0.0 0.0 0.0 292.76710456779983 118.42072235460701 480.9 -1.4735086525186314 0.6428070225316094 -0.6428070225316095 
2.872 0.7502822028457908 -1.5707963267948966 -1.5707963267948966 0.0 1.5707963267948966 0.0 0.2743434418098265 0.0 0.0 0.0 0.0 0.0 0.0 0.0 0.0 0.0 0.0 0.0 292.5064960709361 119.06298650841678 480.9 -1.4740307763570326 0.6411103186495785 -0.6411103186495786 
2.88 0.7524769503802694 -1.5707963267948966 -1.5707963267948966 0.0 1.5707963267948966 0.0 0.2743434418098265 0.0 0.0 0.0 0.0 0.0 0.0 0.0 0.0 0.0 0.0 0.0 292.24447859520035 119.7046771459639 480.9 -1.4745514652106064 0.6394134659894881 -0.6394134659894882 
2.888 0.7546716979147481 -1.5707963267948966 -1.5707963267948966 0.0 1.5707963267948966 0.0 0.2743434418098265 0.0 0.0 0.0 0.0 0.0 0.0 0.0 0.0 0.0 0.0 0.0 291.98105340270854 120.34579117627923 480.9 -1.475070719406802 0.637716464998123 -0.6377164649981231 
2.896 0.7568664454492267 -1.5707963267948966 -1.5707963267948966 0.0 1.5707963267948966 0.0 0.2743434418098265 0.0 0.0 0.0 0.0 0.0 0.0 0.0 0.0 0.0 0.0 0.0 291.71622176235746 120.9863255111712 480.9 -1.4755885392721328 0.6360193161218592 -0.6360193161218594 
2.904 0.7590611929837052 -1.5707963267948966 -1.5707963267948966 0.0 1.5707963267948966 0.0 0.2743434418098265 0.0 0.0 0.0 0.0 0.0 0.0 0.0 0.0 0.0 0.0 0.0 291.4499849498184 121.62627706524037 480.9 -1.4761049251321745 0.6343220198066646 -0.6343220198066646 
2.912 0.7612559405181839 -1.5707963267948966 -1.5707963267948966 0.0 1.5707963267948966 0.0 0.2743434418098265 0.0 0.0 0.0 0.0 0.0 0.0 0.0 0.0 0.0 0.0 0.0 291.18234424753143 122.26564275589473 480.9 -1.4766198773115684 0.6326245764981001 -0.6326245764981002 
2.92 0.7634506880526625 -1.5707963267948966 -1.5707963267948966 0.0 1.5707963267948966 0.0 0.2743434418098265 0.0 0.0 0.0 0.0 0.0 0.0 0.0 0.0 0.0 0.0 0.0 290.9133009446991 122.90441950336412 480.9 -1.4771333961340203 0.6309269866413217 -0.6309269866413219 
2.928 0.7656454355871412 -1.5707963267948966 -1.5707963267948966 0.0 1.5707963267948966 0.0 0.2743434418098265 0.0 0.0 0.0 0.0 0.0 0.0 0.0 0.0 0.0 0.0 0.0 290.64285633728 123.54260423071545 480.9 -1.4776454819223004 0.6292292506810814 -0.6292292506810815 
2.936 0.7678401831216197 -1.5707963267948966 -1.5707963267948966 0.0 1.5707963267948966 0.0 0.2743434418098265 0.0 0.0 0.0 0.0 0.0 0.0 0.0 0.0 0.0 0.0 0.0 290.3710117279828 124.1801938638672 480.9 -1.4781561349982464 0.6275313690617286 -0.6275313690617286 
2.944 0.7700349306560983 -1.5707963267948966 -1.5707963267948966 0.0 1.5707963267948966 0.0 0.2743434418098265 0.0 0.0 0.0 0.0 0.0 0.0 0.0 0.0 0.0 0.0 0.0 290.0977684262599 124.81718533160446 480.9 -1.4786653556827605 0.6258333422272109 -0.625833342227211 
2.952 0.772229678190577 -1.5707963267948966 -1.5707963267948966 0.0 1.5707963267948966 0.0 0.2743434418098265 0.0 0.0 0.0 0.0 0.0 0.0 0.0 0.0 0.0 0.0 0.0 289.8231277483008 125.45357556559361 480.9 -1.479173144295813 0.6241351706210765 -0.6241351706210765 
2.96 0.7744244257250555 -1.5707963267948966 -1.5707963267948966 0.0 1.5707963267948966 0.0 0.2743434418098265 0.0 0.0 0.0 0.0 0.0 0.0 0.0 0.0 0.0 0.0 0.0 289.5470910170264 126.08936150039702 480.9 -1.4796795011564403 0.6224368546864747 -0.6224368546864748 
2.968 0.7766191732595342 -1.5707963267948966 -1.5707963267948966 0.0 1.5707963267948966 0.0 0.2743434418098265 0.0 0.0 0.0 0.0 0.0 0.0 0.0 0.0 0.0 0.0 0.0 289.2696595620821 126.72454007348813 480.9 -1.4801844265827475 0.6207383948661573 -0.6207383948661575 
2.976 0.7788139207940128 -1.5707963267948966 -1.5707963267948966 0.0 1.5707963267948966 0.0 0.2743434418098265 0.0 0.0 0.0 0.0 0.0 0.0 0.0 0.0 0.0 0.0 0.0 288.9908347198316 127.35910822526577 480.9 -1.4806879208919068 0.6190397916024805 -0.6190397916024806 
2.984 0.7810086683284914 -1.5707963267948966 -1.5707963267948966 0.0 1.5707963267948966 0.0 0.2743434418098265 0.0 0.0 0.0 0.0 0.0 0.0 0.0 0.0 0.0 0.0 0.0 288.71061783335034 127.99306289906929 480.9 -1.481189984400159 0.6173410453374047 -0.6173410453374049 
2.992 0.78320341586297 -1.5707963267948966 -1.5707963267948966 0.0 1.5707963267948966 0.0 0.2743434418098265 0.0 0.0 0.0 0.0 0.0 0.0 0.0 0.0 0.0 0.0 0.0 288.42901025241923 128.626401041193 480.9 -1.4816906174228153 0.6156421565124982 -0.6156421565124983 
3.0 0.7853981633974486 -1.5707963267948966 -1.5707963267948966 0.0 1.5707963267948966 0.0 0.2743434418098265 0.0 0.0 0.0 0.0 0.0 0.0 0.0 0.0 0.0 0.0 0.0 288.14601333351806 129.25911960090093 480.9 -1.4821898202742554 0.6139431255689366 -0.6139431255689367 
3.008 0.7875929109319273 -1.5707963267948966 -1.5707963267948966 0.0 1.5707963267948966 0.0 0.2743434418098265 0.0 0.0 0.0 0.0 0.0 0.0 0.0 0.0 0.0 0.0 0.0 287.86162843981873 129.89121553044188 480.9 -1.4826875932679282 0.612243952947504 -0.612243952947504 
3.016 0.7897876584664059 -1.5707963267948966 -1.5707963267948966 0.0 1.5707963267948966 0.0 0.2743434418098265 0.0 0.0 0.0 0.0 0.0 0.0 0.0 0.0 0.0 0.0 0.0 287.5758569411792 130.52268578506346 480.9 -1.4831839367163537 0.6105446390885958 -0.6105446390885959 
3.024 0.7919824060008844 -1.5707963267948966 -1.5707963267948966 0.0 1.5707963267948966 0.0 0.2743434418098265 0.0 0.0 0.0 0.0 0.0 0.0 0.0 0.0 0.0 0.0 0.0 287.2887002141364 131.15352732302728 480.9 -1.483678850931124 0.6088451844322195 -0.6088451844322195 
3.032 0.7941771535353631 -1.5707963267948966 -1.5707963267948966 0.0 1.5707963267948966 0.0 0.2743434418098265 0.0 0.0 0.0 0.0 0.0 0.0 0.0 0.0 0.0 0.0 0.0 287.0001596418997 131.78373710562346 480.9 -1.4841723362229 0.6071455894179941 -0.6071455894179942 
3.04 0.7963719010698417 -1.5707963267948966 -1.5707963267948966 0.0 1.5707963267948966 0.0 0.2743434418098265 0.0 0.0 0.0 0.0 0.0 0.0 0.0 0.0 0.0 0.0 0.0 286.7102366143446 132.41331209718507 480.9 -1.4846643929014165 0.6054458544851551 -0.6054458544851552 
3.048 0.7985666486043204 -1.5707963267948966 -1.5707963267948966 0.0 1.5707963267948966 0.0 0.2743434418098265 0.0 0.0 0.0 0.0 0.0 0.0 0.0 0.0 0.0 0.0 0.0 286.41893252800554 133.0422492651031 480.9 -1.4851550212754798 0.6037459800725519 -0.603745980072552 
3.056 0.8007613961387989 -1.5707963267948966 -1.5707963267948966 0.0 1.5707963267948966 0.0 0.2743434418098265 0.0 0.0 0.0 0.0 0.0 0.0 0.0 0.0 0.0 0.0 0.0 286.1262487860695 133.67054557984068 480.9 -1.4856442216529686 0.602045966618652 -0.6020459666186521 
3.064 0.8029561436732776 -1.5707963267948966 -1.5707963267948966 0.0 1.5707963267948966 0.0 0.2743434418098265 0.0 0.0 0.0 0.0 0.0 0.0 0.0 0.0 0.0 0.0 0.0 285.83218679836915 134.29819801494813 480.9 -1.4861319943408355 0.6003458145615403 -0.6003458145615403 
3.072 0.8051508912077562 -1.5707963267948966 -1.5707963267948966 0.0 1.5707963267948966 0.0 0.2743434418098265 0.0 0.0 0.0 0.0 0.0 0.0 0.0 0.0 0.0 0.0 0.0 285.536747981376 134.925203547077 480.9 -1.4866183396451047 0.5986455243389217 -0.5986455243389218 
3.08 0.8073456387422348 -1.5707963267948966 -1.5707963267948966 0.0 1.5707963267948966 0.0 0.2743434418098265 0.0 0.0 0.0 0.0 0.0 0.0 0.0 0.0 0.0 0.0 0.0 285.23993375819373 135.55155915599514 480.9 -1.4871032578708778 0.5969450963881225 -0.5969450963881227 
3.088 0.8095403862767134 -1.5707963267948966 -1.5707963267948966 0.0 1.5707963267948966 0.0 0.2743434418098265 0.0 0.0 0.0 0.0 0.0 0.0 0.0 0.0 0.0 0.0 0.0 284.9417455585511 136.17726182460095 480.9 -1.4875867493223278 0.5952445311460898 -0.5952445311460899 
3.096 0.811735133811192 -1.5707963267948966 -1.5707963267948966 0.0 1.5707963267948966 0.0 0.2743434418098265 0.0 0.0 0.0 0.0 0.0 0.0 0.0 0.0 0.0 0.0 0.0 284.6421848187953 136.80230853893795 480.9 -1.4880688143027039 0.5935438290493953 -0.5935438290493954 
3.104 0.8139298813456707 -1.5707963267948966 -1.5707963267948966 0.0 1.5707963267948966 0.0 0.2743434418098265 0.0 0.0 0.0 0.0 0.0 0.0 0.0 0.0 0.0 0.0 0.0 284.34125298188485 137.42669628820943 480.9 -1.4885494531143302 0.5918429905342344 -0.5918429905342345 
