Fleaurent/UniversalRobot/csv/robolib_movel_x400_Zeit.csv
timestamp target_q_0 target_q_1 target_q_2 target_q_3 target_q_4 target_q_5 target_qd_0 target_qd_1 target_qd_2 target_qd_3 target_qd_4 target_qd_5 target_qdd_0 target_qdd_1 target_qdd_2 target_qdd_3 target_qdd_4 target_qdd_5 target_current_0 target_current_1 target_current_2 target_current_3 target_current_4 target_current_5 target_moment_0 target_moment_1 target_moment_2 target_moment_3 target_moment_4 target_moment_5 actual_q_0 actual_q_1 actual_q_2 actual_q_3 actual_q_4 actual_q_5 actual_qd_0 actual_qd_1 actual_qd_2 actual_qd_3 actual_qd_4 actual_qd_5 actual_current_0 actual_current_1 actual_current_2 actual_current_3 actual_current_4 actual_current_5 joint_control_output_0 joint_control_output_1 joint_control_output_2 joint_control_output_3 joint_control_output_4 joint_control_output_5 actual_TCP_pose_0 actual_TCP_pose_1 actual_TCP_pose_2 actual_TCP_pose_3 actual_TCP_pose_4 actual_TCP_pose_5 actual_TCP_speed_0 actual_TCP_speed_1 actual_TCP_speed_2 actual_TCP_speed_3 actual_TCP_speed_4 actual_TCP_speed_5 actual_TCP_force_0 actual_TCP_force_1 actual_TCP_force_2 actual_TCP_force_3 actual_TCP_force_4 actual_TCP_force_5 target_TCP_pose_0 target_TCP_pose_1 target_TCP_pose_2 target_TCP_pose_3 target_TCP_pose_4 target_TCP_pose_5 target_TCP_speed_0 target_TCP_speed_1 target_TCP_speed_2 target_TCP_speed_3 target_TCP_speed_4 target_TCP_speed_5
6025.0 -0.3527446235783671 -1.8721694061323095 -1.6035221024492134 0.33422717271415786 1.9237026850968149 0.0001647403121838309 0.0 0.0 0.0 0.0 0.0 0.0 0.0 0.0 0.0 0.0 0.0 0.0 -2.042413869045912e-17 0.7198734422690869 0.6485245092712706 0.06011522847260531 -2.842599262969041e-06 0.0 -2.681689410057282e-16 9.451938296993111 6.039189935235926 0.2732237134079911 -1.291961365019429e-05 0.0 -0.3527444044696253 -1.872169319783346 -1.6035221258746546 0.33422717452049255 1.9237027168273926 0.00016474031144753098 0.0 0.0 0.0 0.0 0.0 0.0 -2.042413818895097e-17 0.7198734283447266 0.6485245227813721 0.060115229338407516 -2.842599315044936e-06 0.0 -2.042413818895097e-17 0.7198734283447266 0.6485245227813721 0.060115229338407516 -2.842599315044936e-06 0.0 0.3000000239117409 -0.1999999243390919 0.4000000238953417 -1.2090988127156799 1.2090484906990822 -1.2090485909104884 0.0 0.0 0.0 0.0 0.0 0.0 -1.0890554845333376e-06 9.987661807391644e-07 -1.3043892167158444e-07 -9.23571660963833e-12 1.1786325497188171e-07 -8.181886359624684e-08 0.30000000000000016 -0.20000000000000007 0.4 -1.2090987223823242 1.2090487307044393 -1.2090487304564579 0.0 0.0 0.0 0.0 0.0 0.0
6025.008 -0.3527446235783671 -1.8721694061323095 -1.6035221024492134 0.33422717271415786 1.9237026850968149 0.0001647403121838309 0.0 0.0 0.0 0.0 0.0 0.0 0.0 0.0 0.0 0.0 0.0 0.0 -2.042413869045912e-17 0.7198734422690869 0.6485245092712706 0.06011522847260531 -2.842599262969041e-06 0.0 -2.681689410057282e-16 9.451938296993111 6.039189935235926 0.2732237134079911 -1.291961365019429e-05 0.0 -0.3527444044696253 -1.872169319783346 -1.6035221258746546 0.33422717452049255 1.9237027168273926 0.00016474031144753098 0.0 0.0 0.0 0.0 0.0 0.0 -2.042413818895097e-17 0.7198734283447266 0.6485245227813721 0.060115229338407516 -2.842599315044936e-06 0.0 -2.042413818895097e-17 0.7198734283447266 0.6485245227813721 0.060115229338407516 -2.842599315044936e-06 0.0 0.3000000239117409 -0.1999999243390919 0.4000000238953417 -1.2090988127156799 1.2090484906990822 -1.2090485909104884 0.0 0.0 0.0 0.0 0.0 0.0 -1.0890554845333376e-06 9.987661807391644e-07 -1.3043892167158444e-07 -9.23571660963833e-12 1.1786325497188171e-07 -8.181886359624684e-08 0.30000000000000016 -0.20000000000000007 0.4 -1.2090987223823242 1.2090487307044393 -1.2090487304564579 0.0 0.0 0.0 0.0 0.0 0.0
6025.016 -0.3527446235783671 -1.8721694061323095 -1.6035221024492134 0.33422717271415786 1.9237026850968149 0.0001647403121838309 0.0 0.0 0.0 0.0 0.0 0.0 0.0 0.0 0.0 0.0 0.0 0.0 -2.042413869045912e-17 0.7198734422690869 0.6485245092712706 0.06011522847260531 -2.842599262969041e-06 0.0 -2.681689410057282e-16 9.451938296993111 6.039189935235926 0.2732237134079911 -1.291961365019429e-05 0.0 -0.3527444044696253 -1.872169319783346 -1.6035221258746546 0.33422717452049255 1.9237027168273926 0.00016474031144753098 0.0 0.0 0.0 0.0 0.0 0.0 -2.042413818895097e-17 0.7198734283447266 0.6485245227813721 0.060115229338407516 -2.842599315044936e-06 0.0 -2.042413818895097e-17 0.7198734283447266 0.6485245227813721 0.060115229338407516 -2.842599315044936e-06 0.0 0.3000000239117409 -0.1999999243390919 0.4000000238953417 -1.2090988127156799 1.2090484906990822 -1.2090485909104884 0.0 0.0 0.0 0.0 0.0 0.0 -1.0890554845333376e-06 9.987661807391644e-07 -1.3043892167158444e-07 -9.23571660963833e-12 1.1786325497188171e-07 -8.181886359624684e-08 0.30000000000000016 -0.20000000000000007 0.4 -1.2090987223823242 1.2090487307044393 -1.2090487304564579 0.0 0.0 0.0 0.0 0.0 0.0
6025.023999999999 -0.3527446235783671 -1.8721694061323095 -1.6035221024492134 0.33422717271415786 1.9237026850968149 0.0001647403121838309 0.0 0.0 0.0 0.0 0.0 0.0 0.0 0.0 0.0 0.0 0.0 0.0 -2.042413869045912e-17 0.7198734422690869 0.6485245092712706 0.06011522847260531 -2.842599262969041e-06 0.0 -2.681689410057282e-16 9.451938296993111 6.039189935235926 0.2732237134079911 -1.291961365019429e-05 0.0 -0.3527444044696253 -1.872169319783346 -1.6035221258746546 0.33422717452049255 1.9237027168273926 0.00016474031144753098 0.0 0.0 0.0 0.0 0.0 0.0 -2.042413818895097e-17 0.7198734283447266 0.6485245227813721 0.060115229338407516 -2.842599315044936e-06 0.0 -2.042413818895097e-17 0.7198734283447266 0.6485245227813721 0.060115229338407516 -2.842599315044936e-06 0.0 0.3000000239117409 -0.1999999243390919 0.4000000238953417 -1.2090988127156799 1.2090484906990822 -1.2090485909104884 0.0 0.0 0.0 0.0 0.0 0.0 -1.0890554845333376e-06 9.987661807391644e-07 -1.3043892167158444e-07 -9.23571660963833e-12 1.1786325497188171e-07 -8.181886359624684e-08 0.30000000000000016 -0.20000000000000007 0.4 -1.2090987223823242 1.2090487307044393 -1.2090487304564579 0.0 0.0 0.0 0.0 0.0 0.0
6025.032 -0.3527446235783671 -1.8721694061323095 -1.6035221024492134 0.33422717271415786 1.9237026850968149 0.0001647403121838309 0.0 0.0 0.0 0.0 0.0 0.0 0.0 0.0 0.0 0.0 0.0 0.0 -2.042413869045912e-17 0.7198734422690869 0.6485245092712706 0.06011522847260531 -2.842599262969041e-06 0.0 -2.681689410057282e-16 9.451938296993111 6.039189935235926 0.2732237134079911 -1.291961365019429e-05 0.0 -0.3527444044696253 -1.872169319783346 -1.6035221258746546 0.33422717452049255 1.9237027168273926 0.00016474031144753098 0.0 0.0 0.0 0.0 0.0 0.0 -2.042413818895097e-17 0.7198734283447266 0.6485245227813721 0.060115229338407516 -2.842599315044936e-06 0.0 -2.042413818895097e-17 0.7198734283447266 0.6485245227813721 0.060115229338407516 -2.842599315044936e-06 0.0 0.3000000239117409 -0.1999999243390919 0.4000000238953417 -1.2090988127156799 1.2090484906990822 -1.2090485909104884 0.0 0.0 0.0 0.0 0.0 0.0 -1.0890554845333376e-06 9.987661807391644e-07 -1.3043892167158444e-07 -9.23571660963833e-12 1.1786325497188171e-07 -8.181886359624684e-08 0.30000000000000016 -0.20000000000000007 0.4 -1.2090987223823242 1.2090487307044393 -1.2090487304564579 0.0 0.0 0.0 0.0 0.0 0.0
6025.04 -0.3527446235783671 -1.8721694061323095 -1.6035221024492134 0.33422717271415786 1.9237026850968149 0.0001647403121838309 0.0 0.0 0.0 0.0 0.0 0.0 0.0 0.0 0.0 0.0 0.0 0.0 -2.042413869045912e-17 0.7198734422690869 0.6485245092712706 0.06011522847260531 -2.842599262969041e-06 0.0 -2.681689410057282e-16 9.451938296993111 6.039189935235926 0.2732237134079911 -1.291961365019429e-05 0.0 -0.3527444044696253 -1.872169319783346 -1.6035221258746546 0.33422717452049255 1.9237027168273926 0.00016474031144753098 0.0 0.0 0.0 0.0 0.0 0.0 -2.042413818895097e-17 0.7198734283447266 0.6485245227813721 0.060115229338407516 -2.842599315044936e-06 0.0 -2.042413818895097e-17 0.7198734283447266 0.6485245227813721 0.060115229338407516 -2.842599315044936e-06 0.0 0.3000000239117409 -0.1999999243390919 0.4000000238953417 -1.2090988127156799 1.2090484906990822 -1.2090485909104884 0.0 0.0 0.0 0.0 0.0 0.0 -1.0890554845333376e-06 9.987661807391644e-07 -1.3043892167158444e-07 -9.23571660963833e-12 1.1786325497188171e-07 -8.181886359624684e-08 0.30000000000000016 -0.20000000000000007 0.4 -1.2090987223823242 1.2090487307044393 -1.2090487304564579 0.0 0.0 0.0 0.0 0.0 0.0
6025.048 -0.3527446235783671 -1.8721694061323095 -1.6035221024492134 0.33422717271415786 1.9237026850968149 0.0001647403121838309 0.0 0.0 0.0 0.0 0.0 0.0 0.0 0.0 0.0 0.0 0.0 0.0 -2.042413869045912e-17 0.7198734422690869 0.6485245092712706 0.06011522847260531 -2.842599262969041e-06 0.0 -2.681689410057282e-16 9.451938296993111 6.039189935235926 0.2732237134079911 -1.291961365019429e-05 0.0 -0.3527444044696253 -1.872169319783346 -1.6035221258746546 0.33422717452049255 1.9237027168273926 0.00016474031144753098 0.0 0.0 0.0 0.0 0.0 0.0 -2.042413818895097e-17 0.7198734283447266 0.6485245227813721 0.060115229338407516 -2.842599315044936e-06 0.0 -2.042413818895097e-17 0.7198734283447266 0.6485245227813721 0.060115229338407516 -2.842599315044936e-06 0.0 0.3000000239117409 -0.1999999243390919 0.4000000238953417 -1.2090988127156799 1.2090484906990822 -1.2090485909104884 0.0 0.0 0.0 0.0 0.0 0.0 -1.0890554845333376e-06 9.987661807391644e-07 -1.3043892167158444e-07 -9.23571660963833e-12 1.1786325497188171e-07 -8.181886359624684e-08 0.30000000000000016 -0.20000000000000007 0.4 -1.2090987223823242 1.2090487307044393 -1.2090487304564579 0.0 0.0 0.0 0.0 0.0 0.0
6025.056 -0.3527446235783671 -1.8721694061323095 -1.6035221024492134 0.33422717271415786 1.9237026850968149 0.0001647403121838309 0.0 0.0 0.0 0.0 0.0 0.0 0.0 0.0 0.0 0.0 0.0 0.0 -2.042413869045912e-17 0.7198734422690869 0.6485245092712706 0.06011522847260531 -2.842599262969041e-06 0.0 -2.681689410057282e-16 9.451938296993111 6.039189935235926 0.2732237134079911 -1.291961365019429e-05 0.0 -0.3527444044696253 -1.872169319783346 -1.6035221258746546 0.33422717452049255 1.9237027168273926 0.00016474031144753098 0.0 0.0 0.0 0.0 0.0 0.0 -2.042413818895097e-17 0.7198734283447266 0.6485245227813721 0.060115229338407516 -2.842599315044936e-06 0.0 -2.042413818895097e-17 0.7198734283447266 0.6485245227813721 0.060115229338407516 -2.842599315044936e-06 0.0 0.3000000239117409 -0.1999999243390919 0.4000000238953417 -1.2090988127156799 1.2090484906990822 -1.2090485909104884 0.0 0.0 0.0 0.0 0.0 0.0 -1.0890554845333376e-06 9.987661807391644e-07 -1.3043892167158444e-07 -9.23571660963833e-12 1.1786325497188171e-07 -8.181886359624684e-08 0.30000000000000016 -0.20000000000000007 0.4 -1.2090987223823242 1.2090487307044393 -1.2090487304564579 0.0 0.0 0.0 0.0 0.0 0.0
6025.063999999999 -0.3527446235783671 -1.8721694061323095 -1.6035221024492134 0.33422717271415786 1.9237026850968149 0.0001647403121838309 0.0 0.0 0.0 0.0 0.0 0.0 0.0 0.0 0.0 0.0 0.0 0.0 -2.042413869045912e-17 0.7198734422690869 0.6485245092712706 0.06011522847260531 -2.842599262969041e-06 0.0 -2.681689410057282e-16 9.451938296993111 6.039189935235926 0.2732237134079911 -1.291961365019429e-05 0.0 -0.3527444044696253 -1.872169319783346 -1.6035221258746546 0.33422717452049255 1.9237027168273926 0.00016474031144753098 0.0 0.0 0.0 0.0 0.0 0.0 -2.042413818895097e-17 0.7198734283447266 0.6485245227813721 0.060115229338407516 -2.842599315044936e-06 0.0 -2.042413818895097e-17 0.7198734283447266 0.6485245227813721 0.060115229338407516 -2.842599315044936e-06 0.0 0.3000000239117409 -0.1999999243390919 0.4000000238953417 -1.2090988127156799 1.2090484906990822 -1.2090485909104884 0.0 0.0 0.0 0.0 0.0 0.0 -1.0890554845333376e-06 9.987661807391644e-07 -1.3043892167158444e-07 -9.23571660963833e-12 1.1786325497188171e-07 -8.181886359624684e-08 0.30000000000000016 -0.20000000000000007 0.4 -1.2090987223823242 1.2090487307044393 -1.2090487304564579 0.0 0.0 0.0 0.0 0.0 0.0
6025.072 -0.3527446235783671 -1.8721694061323095 -1.6035221024492134 0.33422717271415786 1.9237026850968149 0.0001647403121838309 0.0 0.0 0.0 0.0 0.0 0.0 0.0 0.0 0.0 0.0 0.0 0.0 -2.042413869045912e-17 0.7198734422690869 0.6485245092712706 0.06011522847260531 -2.842599262969041e-06 0.0 -2.681689410057282e-16 9.451938296993111 6.039189935235926 0.2732237134079911 -1.291961365019429e-05 0.0 -0.3527444044696253 -1.872169319783346 -1.6035221258746546 0.33422717452049255 1.9237027168273926 0.00016474031144753098 0.0 0.0 0.0 0.0 0.0 0.0 -2.042413818895097e-17 0.7198734283447266 0.6485245227813721 0.060115229338407516 -2.842599315044936e-06 0.0 -2.042413818895097e-17 0.7198734283447266 0.6485245227813721 0.060115229338407516 -2.842599315044936e-06 0.0 0.3000000239117409 -0.1999999243390919 0.4000000238953417 -1.2090988127156799 1.2090484906990822 -1.2090485909104884 0.0 0.0 0.0 0.0 0.0 0.0 -1.0890554845333376e-06 9.987661807391644e-07 -1.3043892167158444e-07 -9.23571660963833e-12 1.1786325497188171e-07 -8.181886359624684e-08 0.30000000000000016 -0.20000000000000007 0.4 -1.2090987223823242 1.2090487307044393 -1.2090487304564579 0.0 0.0 0.0 0.0 0.0 0.0
6025.08 -0.3527446235783671 -1.8721694061323095 -1.6035221024492134 0.33422717271415786 1.9237026850968149 0.0001647403121838309 0.0 0.0 0.0 0.0 0.0 0.0 0.0 0.0 0.0 0.0 0.0 0.0 -2.042413869045912e-17 0.7198734422690869 0.6485245092712706 0.06011522847260531 -2.842599262969041e-06 0.0 -2.681689410057282e-16 9.451938296993111 6.039189935235926 0.2732237134079911 -1.291961365019429e-05 0.0 -0.3527444044696253 -1.872169319783346 -1.6035221258746546 0.33422717452049255 1.9237027168273926 0.00016474031144753098 0.0 0.0 0.0 0.0 0.0 0.0 -2.042413818895097e-17 0.7198734283447266 0.6485245227813721 0.060115229338407516 -2.842599315044936e-06 0.0 -2.042413818895097e-17 0.7198734283447266 0.6485245227813721 0.060115229338407516 -2.842599315044936e-06 0.0 0.3000000239117409 -0.1999999243390919 0.4000000238953417 -1.2090988127156799 1.2090484906990822 -1.2090485909104884 0.0 0.0 0.0 0.0 0.0 0.0 -1.0890554845333376e-06 9.987661807391644e-07 -1.3043892167158444e-07 -9.23571660963833e-12 1.1786325497188171e-07 -8.181886359624684e-08 0.30000000000000016 -0.20000000000000007 0.4 -1.2090987223823242 1.2090487307044393 -1.2090487304564579 0.0 0.0 0.0 0.0 0.0 0.0
6025.088 -0.3527446235783671 -1.8721694061323095 -1.6035221024492134 0.33422717271415786 1.9237026850968149 0.0001647403121838309 0.0 0.0 0.0 0.0 0.0 0.0 0.0 0.0 0.0 0.0 0.0 0.0 -2.042413869045912e-17 0.7198734422690869 0.6485245092712706 0.06011522847260531 -2.842599262969041e-06 0.0 -2.681689410057282e-16 9.451938296993111 6.039189935235926 0.2732237134079911 -1.291961365019429e-05 0.0 -0.3527444044696253 -1.872169319783346 -1.6035221258746546 0.33422717452049255 1.9237027168273926 0.00016474031144753098 0.0 0.0 0.0 0.0 0.0 0.0 -2.042413818895097e-17 0.7198734283447266 0.6485245227813721 0.060115229338407516 -2.842599315044936e-06 0.0 -2.042413818895097e-17 0.7198734283447266 0.6485245227813721 0.060115229338407516 -2.842599315044936e-06 0.0 0.3000000239117409 -0.1999999243390919 0.4000000238953417 -1.2090988127156799 1.2090484906990822 -1.2090485909104884 0.0 0.0 0.0 0.0 0.0 0.0 -1.0890554845333376e-06 9.987661807391644e-07 -1.3043892167158444e-07 -9.23571660963833e-12 1.1786325497188171e-07 -8.181886359624684e-08 0.30000000000000016 -0.20000000000000007 0.4 -1.2090987223823242 1.2090487307044393 -1.2090487304564579 0.0 0.0 0.0 0.0 0.0 0.0
6025.096 -0.3527446235783671 -1.8721694061323095 -1.6035221024492134 0.33422717271415786 1.9237026850968149 0.0001647403121838309 0.0 0.0 0.0 0.0 0.0 0.0 0.0 0.0 0.0 0.0 0.0 0.0 -2.042413869045912e-17 0.7198734422690869 0.6485245092712706 0.06011522847260531 -2.842599262969041e-06 0.0 -2.681689410057282e-16 9.451938296993111 6.039189935235926 0.2732237134079911 -1.291961365019429e-05 0.0 -0.3527444044696253 -1.872169319783346 -1.6035221258746546 0.33422717452049255 1.9237027168273926 0.00016474031144753098 0.0 0.0 0.0 0.0 0.0 0.0 -2.042413818895097e-17 0.7198734283447266 0.6485245227813721 0.060115229338407516 -2.842599315044936e-06 0.0 -2.042413818895097e-17 0.7198734283447266 0.6485245227813721 0.060115229338407516 -2.842599315044936e-06 0.0 0.3000000239117409 -0.1999999243390919 0.4000000238953417 -1.2090988127156799 1.2090484906990822 -1.2090485909104884 0.0 0.0 0.0 0.0 0.0 0.0 -1.0890554845333376e-06 9.987661807391644e-07 -1.3043892167158444e-07 -9.23571660963833e-12 1.1786325497188171e-07 -8.181886359624684e-08 0.30000000000000016 -0.20000000000000007 0.4 -1.2090987223823242 1.2090487307044393 -1.2090487304564579 0.0 0.0 0.0 0.0 0.0 0.0
6025.103999999999 -0.3527446235783671 -1.8721694061323095 -1.6035221024492134 0.33422717271415786 1.9237026850968149 0.0001647403121838309 0.0 0.0 0.0 0.0 0.0 0.0 0.0 0.0 0.0 0.0 0.0 0.0 -2.042413869045912e-17 0.7198734422690869 0.6485245092712706 0.06011522847260531 -2.842599262969041e-06 0.0 -2.681689410057282e-16 9.451938296993111 6.039189935235926 0.2732237134079911 -1.291961365019429e-05 0.0 -0.3527444044696253 -1.872169319783346 -1.6035221258746546 0.33422717452049255 1.9237027168273926 0.00016474031144753098 0.0 0.0 0.0 0.0 0.0 0.0 -2.042413818895097e-17 0.7198734283447266 0.6485245227813721 0.060115229338407516 -2.842599315044936e-06 0.0 -2.042413818895097e-17 0.7198734283447266 0.6485245227813721 0.060115229338407516 -2.842599315044936e-06 0.0 0.3000000239117409 -0.1999999243390919 0.4000000238953417 -1.2090988127156799 1.2090484906990822 -1.2090485909104884 0.0 0.0 0.0 0.0 0.0 0.0 -1.0890554845333376e-06 9.987661807391644e-07 -1.3043892167158444e-07 -9.23571660963833e-12 1.1786325497188171e-07 -8.181886359624684e-08 0.30000000000000016 -0.20000000000000007 0.4 -1.2090987223823242 1.2090487307044393 -1.2090487304564579 0.0 0.0 0.0 0.0 0.0 0.0
6025.112 -0.3527446235783671 -1.8721694061323095 -1.6035221024492134 0.33422717271415786 1.9237026850968149 0.0001647403121838309 0.0 0.0 0.0 0.0 0.0 0.0 0.0 0.0 0.0 0.0 0.0 0.0 -2.042413869045912e-17 0.7198734422690869 0.6485245092712706 0.06011522847260531 -2.842599262969041e-06 0.0 -2.681689410057282e-16 9.451938296993111 6.039189935235926 0.2732237134079911 -1.291961365019429e-05 0.0 -0.3527444044696253 -1.872169319783346 -1.6035221258746546 0.33422717452049255 1.9237027168273926 0.00016474031144753098 0.0 0.0 0.0 0.0 0.0 0.0 -2.042413818895097e-17 0.7198734283447266 0.6485245227813721 0.060115229338407516 -2.842599315044936e-06 0.0 -2.042413818895097e-17 0.7198734283447266 0.6485245227813721 0.060115229338407516 -2.842599315044936e-06 0.0 0.3000000239117409 -0.1999999243390919 0.4000000238953417 -1.2090988127156799 1.2090484906990822 -1.2090485909104884 0.0 0.0 0.0 0.0 0.0 0.0 -1.0890554845333376e-06 9.987661807391644e-07 -1.3043892167158444e-07 -9.23571660963833e-12 1.1786325497188171e-07 -8.181886359624684e-08 0.30000000000000016 -0.20000000000000007 0.4 -1.2090987223823242 1.2090487307044393 -1.2090487304564579 0.0 0.0 0.0 0.0 0.0 0.0
6025.12 -0.3527446235783671 -1.8721694061323095 -1.6035221024492134 0.33422717271415786 1.9237026850968149 0.0001647403121838309 0.0 0.0 0.0 0.0 0.0 0.0 0.0 0.0 0.0 0.0 0.0 0.0 -2.042413869045912e-17 0.7198734422690869 0.6485245092712706 0.06011522847260531 -2.842599262969041e-06 0.0 -2.681689410057282e-16 9.451938296993111 6.039189935235926 0.2732237134079911 -1.291961365019429e-05 0.0 -0.3527444044696253 -1.872169319783346 -1.6035221258746546 0.33422717452049255 1.9237027168273926 0.00016474031144753098 0.0 0.0 0.0 0.0 0.0 0.0 -2.042413818895097e-17 0.7198734283447266 0.6485245227813721 0.060115229338407516 -2.842599315044936e-06 0.0 -2.042413818895097e-17 0.7198734283447266 0.6485245227813721 0.060115229338407516 -2.842599315044936e-06 0.0 0.3000000239117409 -0.1999999243390919 0.4000000238953417 -1.2090988127156799 1.2090484906990822 -1.2090485909104884 0.0 0.0 0.0 0.0 0.0 0.0 -1.0890554845333376e-06 9.987661807391644e-07 -1.3043892167158444e-07 -9.23571660963833e-12 1.1786325497188171e-07 -8.181886359624684e-08 0.30000000000000016 -0.20000000000000007 0.4 -1.2090987223823242 1.2090487307044393 -1.2090487304564579 0.0 0.0 0.0 0.0 0.0 0.0
6025.128 -0.3527446235783671 -1.8721694061323095 -1.6035221024492134 0.33422717271415786 1.9237026850968149 0.0001647403121838309 0.0 0.0 0.0 0.0 0.0 0.0 0.0 0.0 0.0 0.0 0.0 0.0 -2.042413869045912e-17 0.7198734422690869 0.6485245092712706 0.06011522847260531 -2.842599262969041e-06 0.0 -2.681689410057282e-16 9.451938296993111 6.039189935235926 0.2732237134079911 -1.291961365019429e-05 0.0 -0.3527444044696253 -1.872169319783346 -1.6035221258746546 0.33422717452049255 1.9237027168273926 0.00016474031144753098 0.0 0.0 0.0 0.0 0.0 0.0 -2.042413818895097e-17 0.7198734283447266 0.6485245227813721 0.060115229338407516 -2.842599315044936e-06 0.0 -2.042413818895097e-17 0.7198734283447266 0.6485245227813721 0.060115229338407516 -2.842599315044936e-06 0.0 0.3000000239117409 -0.1999999243390919 0.4000000238953417 -1.2090988127156799 1.2090484906990822 -1.2090485909104884 0.0 0.0 0.0 0.0 0.0 0.0 -1.0890554845333376e-06 9.987661807391644e-07 -1.3043892167158444e-07 -9.23571660963833e-12 1.1786325497188171e-07 -8.181886359624684e-08 0.30000000000000016 -0.20000000000000007 0.4 -1.2090987223823242 1.2090487307044393 -1.2090487304564579 0.0 0.0 0.0 0.0 0.0 0.0
6025.1359999999995 -0.3527446235783671 -1.8721694061323095 -1.6035221024492134 0.33422717271415786 1.9237026850968149 0.0001647403121838309 0.0 0.0 0.0 0.0 0.0 0.0 0.0 0.0 0.0 0.0 0.0 0.0 -2.042413869045912e-17 0.7198734422690869 0.6485245092712706 0.06011522847260531 -2.842599262969041e-06 0.0 -2.681689410057282e-16 9.451938296993111 6.039189935235926 0.2732237134079911 -1.291961365019429e-05 0.0 -0.3527444044696253 -1.872169319783346 -1.6035221258746546 0.33422717452049255 1.9237027168273926 0.00016474031144753098 0.0 0.0 0.0 0.0 0.0 0.0 -2.042413818895097e-17 0.7198734283447266 0.6485245227813721 0.060115229338407516 -2.842599315044936e-06 0.0 -2.042413818895097e-17 0.7198734283447266 0.6485245227813721 0.060115229338407516 -2.842599315044936e-06 0.0 0.3000000239117409 -0.1999999243390919 0.4000000238953417 -1.2090988127156799 1.2090484906990822 -1.2090485909104884 0.0 0.0 0.0 0.0 0.0 0.0 -1.0890554845333376e-06 9.987661807391644e-07 -1.3043892167158444e-07 -9.23571660963833e-12 1.1786325497188171e-07 -8.181886359624684e-08 0.30000000000000016 -0.20000000000000007 0.4 -1.2090987223823242 1.2090487307044393 -1.2090487304564579 0.0 0.0 0.0 0.0 0.0 0.0
6025.143999999999 -0.3527446235783671 -1.8721694061323095 -1.6035221024492134 0.33422717271415786 1.9237026850968149 0.0001647403121838309 0.0 0.0 0.0 0.0 0.0 0.0 0.0 0.0 0.0 0.0 0.0 0.0 -2.042413869045912e-17 0.7198734422690869 0.6485245092712706 0.06011522847260531 -2.842599262969041e-06 0.0 -2.681689410057282e-16 9.451938296993111 6.039189935235926 0.2732237134079911 -1.291961365019429e-05 0.0 -0.3527444044696253 -1.872169319783346 -1.6035221258746546 0.33422717452049255 1.9237027168273926 0.00016474031144753098 0.0 0.0 0.0 0.0 0.0 0.0 -2.042413818895097e-17 0.7198734283447266 0.6485245227813721 0.060115229338407516 -2.842599315044936e-06 0.0 -2.042413818895097e-17 0.7198734283447266 0.6485245227813721 0.060115229338407516 -2.842599315044936e-06 0.0 0.3000000239117409 -0.1999999243390919 0.4000000238953417 -1.2090988127156799 1.2090484906990822 -1.2090485909104884 0.0 0.0 0.0 0.0 0.0 0.0 -1.0890554845333376e-06 9.987661807391644e-07 -1.3043892167158444e-07 -9.23571660963833e-12 1.1786325497188171e-07 -8.181886359624684e-08 0.30000000000000016 -0.20000000000000007 0.4 -1.2090987223823242 1.2090487307044393 -1.2090487304564579 0.0 0.0 0.0 0.0 0.0 0.0
6025.152 -0.3527446235783671 -1.8721694061323095 -1.6035221024492134 0.33422717271415786 1.9237026850968149 0.0001647403121838309 0.0 0.0 0.0 0.0 0.0 0.0 0.0 0.0 0.0 0.0 0.0 0.0 -2.042413869045912e-17 0.7198734422690869 0.6485245092712706 0.06011522847260531 -2.842599262969041e-06 0.0 -2.681689410057282e-16 9.451938296993111 6.039189935235926 0.2732237134079911 -1.291961365019429e-05 0.0 -0.3527444044696253 -1.872169319783346 -1.6035221258746546 0.33422717452049255 1.9237027168273926 0.00016474031144753098 0.0 0.0 0.0 0.0 0.0 0.0 -2.042413818895097e-17 0.7198734283447266 0.6485245227813721 0.060115229338407516 -2.842599315044936e-06 0.0 -2.042413818895097e-17 0.7198734283447266 0.6485245227813721 0.060115229338407516 -2.842599315044936e-06 0.0 0.3000000239117409 -0.1999999243390919 0.4000000238953417 -1.2090988127156799 1.2090484906990822 -1.2090485909104884 0.0 0.0 0.0 0.0 0.0 0.0 -1.0890554845333376e-06 9.987661807391644e-07 -1.3043892167158444e-07 -9.23571660963833e-12 1.1786325497188171e-07 -8.181886359624684e-08 0.30000000000000016 -0.20000000000000007 0.4 -1.2090987223823242 1.2090487307044393 -1.2090487304564579 0.0 0.0 0.0 0.0 0.0 0.0
6025.16 -0.3527446235783671 -1.8721694061323095 -1.6035221024492134 0.33422717271415786 1.9237026850968149 0.0001647403121838309 0.0 0.0 0.0 0.0 0.0 0.0 0.0 0.0 0.0 0.0 0.0 0.0 -2.042413869045912e-17 0.7198734422690869 0.6485245092712706 0.06011522847260531 -2.842599262969041e-06 0.0 -2.681689410057282e-16 9.451938296993111 6.039189935235926 0.2732237134079911 -1.291961365019429e-05 0.0 -0.3527444044696253 -1.872169319783346 -1.6035221258746546 0.33422717452049255 1.9237027168273926 0.00016474031144753098 0.0 0.0 0.0 0.0 0.0 0.0 -2.042413818895097e-17 0.7198734283447266 0.6485245227813721 0.060115229338407516 -2.842599315044936e-06 0.0 -2.042413818895097e-17 0.7198734283447266 0.6485245227813721 0.060115229338407516 -2.842599315044936e-06 0.0 0.3000000239117409 -0.1999999243390919 0.4000000238953417 -1.2090988127156799 1.2090484906990822 -1.2090485909104884 0.0 0.0 0.0 0.0 0.0 0.0 -1.0890554845333376e-06 9.987661807391644e-07 -1.3043892167158444e-07 -9.23571660963833e-12 1.1786325497188171e-07 -8.181886359624684e-08 0.30000000000000016 -0.20000000000000007 0.4 -1.2090987223823242 1.2090487307044393 -1.2090487304564579 0.0 0.0 0.0 0.0 0.0 0.0
6025.168 -0.3527446235783671 -1.8721694061323095 -1.6035221024492134 0.33422717271415786 1.9237026850968149 0.0001647403121838309 0.0 0.0 0.0 0.0 0.0 0.0 0.0 0.0 0.0 0.0 0.0 0.0 -2.042413869045912e-17 0.7198734422690869 0.6485245092712706 0.06011522847260531 -2.842599262969041e-06 0.0 -2.681689410057282e-16 9.451938296993111 6.039189935235926 0.2732237134079911 -1.291961365019429e-05 0.0 -0.3527444044696253 -1.872169319783346 -1.6035221258746546 0.33422717452049255 1.9237027168273926 0.00016474031144753098 0.0 0.0 0.0 0.0 0.0 0.0 -2.042413818895097e-17 0.7198734283447266 0.6485245227813721 0.060115229338407516 -2.842599315044936e-06 0.0 -2.042413818895097e-17 0.7198734283447266 0.6485245227813721 0.060115229338407516 -2.842599315044936e-06 0.0 0.3000000239117409 -0.1999999243390919 0.4000000238953417 -1.2090988127156799 1.2090484906990822 -1.2090485909104884 0.0 0.0 0.0 0.0 0.0 0.0 -1.0890554845333376e-06 9.987661807391644e-07 -1.3043892167158444e-07 -9.23571660963833e-12 1.1786325497188171e-07 -8.181886359624684e-08 0.30000000000000016 -0.20000000000000007 0.4 -1.2090987223823242 1.2090487307044393 -1.2090487304564579 0.0 0.0 0.0 0.0 0.0 0.0
6025.1759999999995 -0.3527446235783671 -1.8721694061323095 -1.6035221024492134 0.33422717271415786 1.9237026850968149 0.0001647403121838309 0.0 0.0 0.0 0.0 0.0 0.0 0.0 0.0 0.0 0.0 0.0 0.0 -2.042413869045912e-17 0.7198734422690869 0.6485245092712706 0.06011522847260531 -2.842599262969041e-06 0.0 -2.681689410057282e-16 9.451938296993111 6.039189935235926 0.2732237134079911 -1.291961365019429e-05 0.0 -0.3527444044696253 -1.872169319783346 -1.6035221258746546 0.33422717452049255 1.9237027168273926 0.00016474031144753098 0.0 0.0 0.0 0.0 0.0 0.0 -2.042413818895097e-17 0.7198734283447266 0.6485245227813721 0.060115229338407516 -2.842599315044936e-06 0.0 -2.042413818895097e-17 0.7198734283447266 0.6485245227813721 0.060115229338407516 -2.842599315044936e-06 0.0 0.3000000239117409 -0.1999999243390919 0.4000000238953417 -1.2090988127156799 1.2090484906990822 -1.2090485909104884 0.0 0.0 0.0 0.0 0.0 0.0 -1.0890554845333376e-06 9.987661807391644e-07 -1.3043892167158444e-07 -9.23571660963833e-12 1.1786325497188171e-07 -8.181886359624684e-08 0.30000000000000016 -0.20000000000000007 0.4 -1.2090987223823242 1.2090487307044393 -1.2090487304564579 0.0 0.0 0.0 0.0 0.0 0.0
6025.183999999999 -0.3527446235783671 -1.8721694061323095 -1.6035221024492134 0.33422717271415786 1.9237026850968149 0.0001647403121838309 0.0 0.0 0.0 0.0 0.0 0.0 0.0 0.0 0.0 0.0 0.0 0.0 -2.042413869045912e-17 0.7198734422690869 0.6485245092712706 0.06011522847260531 -2.842599262969041e-06 0.0 -2.681689410057282e-16 9.451938296993111 6.039189935235926 0.2732237134079911 -1.291961365019429e-05 0.0 -0.3527444044696253 -1.872169319783346 -1.6035221258746546 0.33422717452049255 1.9237027168273926 0.00016474031144753098 0.0 0.0 0.0 0.0 0.0 0.0 -2.042413818895097e-17 0.7198734283447266 0.6485245227813721 0.060115229338407516 -2.842599315044936e-06 0.0 -2.042413818895097e-17 0.7198734283447266 0.6485245227813721 0.060115229338407516 -2.842599315044936e-06 0.0 0.3000000239117409 -0.1999999243390919 0.4000000238953417 -1.2090988127156799 1.2090484906990822 -1.2090485909104884 0.0 0.0 0.0 0.0 0.0 0.0 -1.0890554845333376e-06 9.987661807391644e-07 -1.3043892167158444e-07 -9.23571660963833e-12 1.1786325497188171e-07 -8.181886359624684e-08 0.30000000000000016 -0.20000000000000007 0.4 -1.2090987223823242 1.2090487307044393 -1.2090487304564579 0.0 0.0 0.0 0.0 0.0 0.0
6025.192 -0.3527446235783671 -1.8721694061323095 -1.6035221024492134 0.33422717271415786 1.9237026850968149 0.0001647403121838309 0.0 0.0 0.0 0.0 0.0 0.0 0.0 0.0 0.0 0.0 0.0 0.0 -2.042413869045912e-17 0.7198734422690869 0.6485245092712706 0.06011522847260531 -2.842599262969041e-06 0.0 -2.681689410057282e-16 9.451938296993111 6.039189935235926 0.2732237134079911 -1.291961365019429e-05 0.0 -0.3527444044696253 -1.872169319783346 -1.6035221258746546 0.33422717452049255 1.9237027168273926 0.00016474031144753098 0.0 0.0 0.0 0.0 0.0 0.0 -2.042413818895097e-17 0.7198734283447266 0.6485245227813721 0.060115229338407516 -2.842599315044936e-06 0.0 -2.042413818895097e-17 0.7198734283447266 0.6485245227813721 0.060115229338407516 -2.842599315044936e-06 0.0 0.3000000239117409 -0.1999999243390919 0.4000000238953417 -1.2090988127156799 1.2090484906990822 -1.2090485909104884 0.0 0.0 0.0 0.0 0.0 0.0 -1.0890554845333376e-06 9.987661807391644e-07 -1.3043892167158444e-07 -9.23571660963833e-12 1.1786325497188171e-07 -8.181886359624684e-08 0.30000000000000016 -0.20000000000000007 0.4 -1.2090987223823242 1.2090487307044393 -1.2090487304564579 0.0 0.0 0.0 0.0 0.0 0.0
6025.2 -0.3527446235783671 -1.8721694061323095 -1.6035221024492134 0.33422717271415786 1.9237026850968149 0.0001647403121838309 0.0 0.0 0.0 0.0 0.0 0.0 0.0 0.0 0.0 0.0 0.0 0.0 -2.042413869045912e-17 0.7198734422690869 0.6485245092712706 0.06011522847260531 -2.842599262969041e-06 0.0 -2.681689410057282e-16 9.451938296993111 6.039189935235926 0.2732237134079911 -1.291961365019429e-05 0.0 -0.3527444044696253 -1.872169319783346 -1.6035221258746546 0.33422717452049255 1.9237027168273926 0.00016474031144753098 0.0 0.0 0.0 0.0 0.0 0.0 -2.042413818895097e-17 0.7198734283447266 0.6485245227813721 0.060115229338407516 -2.842599315044936e-06 0.0 -2.042413818895097e-17 0.7198734283447266 0.6485245227813721 0.060115229338407516 -2.842599315044936e-06 0.0 0.3000000239117409 -0.1999999243390919 0.4000000238953417 -1.2090988127156799 1.2090484906990822 -1.2090485909104884 0.0 0.0 0.0 0.0 0.0 0.0 -1.0890554845333376e-06 9.987661807391644e-07 -1.3043892167158444e-07 -9.23571660963833e-12 1.1786325497188171e-07 -8.181886359624684e-08 0.30000000000000016 -0.20000000000000007 0.4 -1.2090987223823242 1.2090487307044393 -1.2090487304564579 0.0 0.0 0.0 0.0 0.0 0.0
6025.208 -0.3527446235783671 -1.8721694061323095 -1.6035221024492134 0.33422717271415786 1.9237026850968149 0.0001647403121838309 0.0 0.0 0.0 0.0 0.0 0.0 0.0 0.0 0.0 0.0 0.0 0.0 -2.042413869045912e-17 0.7198734422690869 0.6485245092712706 0.06011522847260531 -2.842599262969041e-06 0.0 -2.681689410057282e-16 9.451938296993111 6.039189935235926 0.2732237134079911 -1.291961365019429e-05 0.0 -0.3527444044696253 -1.872169319783346 -1.6035221258746546 0.33422717452049255 1.9237027168273926 0.00016474031144753098 0.0 0.0 0.0 0.0 0.0 0.0 -2.042413818895097e-17 0.7198734283447266 0.6485245227813721 0.060115229338407516 -2.842599315044936e-06 0.0 -2.042413818895097e-17 0.7198734283447266 0.6485245227813721 0.060115229338407516 -2.842599315044936e-06 0.0 0.3000000239117409 -0.1999999243390919 0.4000000238953417 -1.2090988127156799 1.2090484906990822 -1.2090485909104884 0.0 0.0 0.0 0.0 0.0 0.0 -1.0890554845333376e-06 9.987661807391644e-07 -1.3043892167158444e-07 -9.23571660963833e-12 1.1786325497188171e-07 -8.181886359624684e-08 0.30000000000000016 -0.20000000000000007 0.4 -1.2090987223823242 1.2090487307044393 -1.2090487304564579 0.0 0.0 0.0 0.0 0.0 0.0
6025.215999999999 -0.3527446235783671 -1.8721694061323095 -1.6035221024492134 0.33422717271415786 1.9237026850968149 0.0001647403121838309 0.0 0.0 0.0 0.0 0.0 0.0 0.0 0.0 0.0 0.0 0.0 0.0 -2.042413869045912e-17 0.7198734422690869 0.6485245092712706 0.06011522847260531 -2.842599262969041e-06 0.0 -2.681689410057282e-16 9.451938296993111 6.039189935235926 0.2732237134079911 -1.291961365019429e-05 0.0 -0.3527444044696253 -1.872169319783346 -1.6035221258746546 0.33422717452049255 1.9237027168273926 0.00016474031144753098 0.0 0.0 0.0 0.0 0.0 0.0 -2.042413818895097e-17 0.7198734283447266 0.6485245227813721 0.060115229338407516 -2.842599315044936e-06 0.0 -2.042413818895097e-17 0.7198734283447266 0.6485245227813721 0.060115229338407516 -2.842599315044936e-06 0.0 0.3000000239117409 -0.1999999243390919 0.4000000238953417 -1.2090988127156799 1.2090484906990822 -1.2090485909104884 0.0 0.0 0.0 0.0 0.0 0.0 -1.0890554845333376e-06 9.987661807391644e-07 -1.3043892167158444e-07 -9.23571660963833e-12 1.1786325497188171e-07 -8.181886359624684e-08 0.30000000000000016 -0.20000000000000007 0.4 -1.2090987223823242 1.2090487307044393 -1.2090487304564579 0.0 0.0 0.0 0.0 0.0 0.0
6025.224 -0.3527446235783671 -1.8721694061323095 -1.6035221024492134 0.33422717271415786 1.9237026850968149 0.0001647403121838309 0.0 0.0 0.0 0.0 0.0 0.0 0.0 0.0 0.0 0.0 0.0 0.0 -2.042413869045912e-17 0.7198734422690869 0.6485245092712706 0.06011522847260531 -2.842599262969041e-06 0.0 -2.681689410057282e-16 9.451938296993111 6.039189935235926 0.2732237134079911 -1.291961365019429e-05 0.0 -0.3527444044696253 -1.872169319783346 -1.6035221258746546 0.33422717452049255 1.9237027168273926 0.00016474031144753098 0.0 0.0 0.0 0.0 0.0 0.0 -2.042413818895097e-17 0.7198734283447266 0.6485245227813721 0.060115229338407516 -2.842599315044936e-06 0.0 -2.042413818895097e-17 0.7198734283447266 0.6485245227813721 0.060115229338407516 -2.842599315044936e-06 0.0 0.3000000239117409 -0.1999999243390919 0.4000000238953417 -1.2090988127156799 1.2090484906990822 -1.2090485909104884 0.0 0.0 0.0 0.0 0.0 0.0 -1.0890554845333376e-06 9.987661807391644e-07 -1.3043892167158444e-07 -9.23571660963833e-12 1.1786325497188171e-07 -8.181886359624684e-08 0.30000000000000016 -0.20000000000000007 0.4 -1.2090987223823242 1.2090487307044393 -1.2090487304564579 0.0 0.0 0.0 0.0 0.0 0.0
6025.232 -0.3527446235783671 -1.8721694061323095 -1.6035221024492134 0.33422717271415786 1.9237026850968149 0.0001647403121838309 0.0 0.0 0.0 0.0 0.0 0.0 0.0 0.0 0.0 0.0 0.0 0.0 -2.042413869045912e-17 0.7198734422690869 0.6485245092712706 0.06011522847260531 -2.842599262969041e-06 0.0 -2.681689410057282e-16 9.451938296993111 6.039189935235926 0.2732237134079911 -1.291961365019429e-05 0.0 -0.3527444044696253 -1.872169319783346 -1.6035221258746546 0.33422717452049255 1.9237027168273926 0.00016474031144753098 0.0 0.0 0.0 0.0 0.0 0.0 -2.042413818895097e-17 0.7198734283447266 0.6485245227813721 0.060115229338407516 -2.842599315044936e-06 0.0 -2.042413818895097e-17 0.7198734283447266 0.6485245227813721 0.060115229338407516 -2.842599315044936e-06 0.0 0.3000000239117409 -0.1999999243390919 0.4000000238953417 -1.2090988127156799 1.2090484906990822 -1.2090485909104884 0.0 0.0 0.0 0.0 0.0 0.0 -1.0890554845333376e-06 9.987661807391644e-07 -1.3043892167158444e-07 -9.23571660963833e-12 1.1786325497188171e-07 -8.181886359624684e-08 0.30000000000000016 -0.20000000000000007 0.4 -1.2090987223823242 1.2090487307044393 -1.2090487304564579 0.0 0.0 0.0 0.0 0.0 0.0
6025.24 -0.3527446235783671 -1.8721694061323095 -1.6035221024492134 0.33422717271415786 1.9237026850968149 0.0001647403121838309 0.0 0.0 0.0 0.0 0.0 0.0 0.0 0.0 0.0 0.0 0.0 0.0 -2.042413869045912e-17 0.7198734422690869 0.6485245092712706 0.06011522847260531 -2.842599262969041e-06 0.0 -2.681689410057282e-16 9.451938296993111 6.039189935235926 0.2732237134079911 -1.291961365019429e-05 0.0 -0.3527444044696253 -1.872169319783346 -1.6035221258746546 0.33422717452049255 1.9237027168273926 0.00016474031144753098 0.0 0.0 0.0 0.0 0.0 0.0 -2.042413818895097e-17 0.7198734283447266 0.6485245227813721 0.060115229338407516 -2.842599315044936e-06 0.0 -2.042413818895097e-17 0.7198734283447266 0.6485245227813721 0.060115229338407516 -2.842599315044936e-06 0.0 0.3000000239117409 -0.1999999243390919 0.4000000238953417 -1.2090988127156799 1.2090484906990822 -1.2090485909104884 0.0 0.0 0.0 0.0 0.0 0.0 -1.0890554845333376e-06 9.987661807391644e-07 -1.3043892167158444e-07 -9.23571660963833e-12 1.1786325497188171e-07 -8.181886359624684e-08 0.30000000000000016 -0.20000000000000007 0.4 -1.2090987223823242 1.2090487307044393 -1.2090487304564579 0.0 0.0 0.0 0.0 0.0 0.0
6025.248 -0.3527446235783671 -1.8721694061323095 -1.6035221024492134 0.33422717271415786 1.9237026850968149 0.0001647403121838309 0.0 0.0 0.0 0.0 0.0 0.0 0.0 0.0 0.0 0.0 0.0 0.0 -2.042413869045912e-17 0.7198734422690869 0.6485245092712706 0.06011522847260531 -2.842599262969041e-06 0.0 -2.681689410057282e-16 9.451938296993111 6.039189935235926 0.2732237134079911 -1.291961365019429e-05 0.0 -0.3527444044696253 -1.872169319783346 -1.6035221258746546 0.33422717452049255 1.9237027168273926 0.00016474031144753098 0.0 0.0 0.0 0.0 0.0 0.0 -2.042413818895097e-17 0.7198734283447266 0.6485245227813721 0.060115229338407516 -2.842599315044936e-06 0.0 -2.042413818895097e-17 0.7198734283447266 0.6485245227813721 0.060115229338407516 -2.842599315044936e-06 0.0 0.3000000239117409 -0.1999999243390919 0.4000000238953417 -1.2090988127156799 1.2090484906990822 -1.2090485909104884 0.0 0.0 0.0 0.0 0.0 0.0 -1.0890554845333376e-06 9.987661807391644e-07 -1.3043892167158444e-07 -9.23571660963833e-12 1.1786325497188171e-07 -8.181886359624684e-08 0.30000000000000016 -0.20000000000000007 0.4 -1.2090987223823242 1.2090487307044393 -1.2090487304564579 0.0 0.0 0.0 0.0 0.0 0.0
6025.255999999999 -0.3527446235783671 -1.8721694061323095 -1.6035221024492134 0.33422717271415786 1.9237026850968149 0.0001647403121838309 0.0 0.0 0.0 0.0 0.0 0.0 0.0 0.0 0.0 0.0 0.0 0.0 -2.042413869045912e-17 0.7198734422690869 0.6485245092712706 0.06011522847260531 -2.842599262969041e-06 0.0 -2.681689410057282e-16 9.451938296993111 6.039189935235926 0.2732237134079911 -1.291961365019429e-05 0.0 -0.3527444044696253 -1.872169319783346 -1.6035221258746546 0.33422717452049255 1.9237027168273926 0.00016474031144753098 0.0 0.0 0.0 0.0 0.0 0.0 -2.042413818895097e-17 0.7198734283447266 0.6485245227813721 0.060115229338407516 -2.842599315044936e-06 0.0 -2.042413818895097e-17 0.7198734283447266 0.6485245227813721 0.060115229338407516 -2.842599315044936e-06 0.0 0.3000000239117409 -0.1999999243390919 0.4000000238953417 -1.2090988127156799 1.2090484906990822 -1.2090485909104884 0.0 0.0 0.0 0.0 0.0 0.0 -1.0890554845333376e-06 9.987661807391644e-07 -1.3043892167158444e-07 -9.23571660963833e-12 1.1786325497188171e-07 -8.181886359624684e-08 0.30000000000000016 -0.20000000000000007 0.4 -1.2090987223823242 1.2090487307044393 -1.2090487304564579 0.0 0.0 0.0 0.0 0.0 0.0
6025.264 -0.3527446235783671 -1.8721694061323095 -1.6035221024492134 0.33422717271415786 1.9237026850968149 0.0001647403121838309 0.0 0.0 0.0 0.0 0.0 0.0 0.0 0.0 0.0 0.0 0.0 0.0 -2.042413869045912e-17 0.7198734422690869 0.6485245092712706 0.06011522847260531 -2.842599262969041e-06 0.0 -2.681689410057282e-16 9.451938296993111 6.039189935235926 0.2732237134079911 -1.291961365019429e-05 0.0 -0.3527444044696253 -1.872169319783346 -1.6035221258746546 0.33422717452049255 1.9237027168273926 0.00016474031144753098 0.0 0.0 0.0 0.0 0.0 0.0 -2.042413818895097e-17 0.7198734283447266 0.6485245227813721 0.060115229338407516 -2.842599315044936e-06 0.0 -2.042413818895097e-17 0.7198734283447266 0.6485245227813721 0.060115229338407516 -2.842599315044936e-06 0.0 0.3000000239117409 -0.1999999243390919 0.4000000238953417 -1.2090988127156799 1.2090484906990822 -1.2090485909104884 0.0 0.0 0.0 0.0 0.0 0.0 -1.0890554845333376e-06 9.987661807391644e-07 -1.3043892167158444e-07 -9.23571660963833e-12 1.1786325497188171e-07 -8.181886359624684e-08 0.30000000000000016 -0.20000000000000007 0.4 -1.2090987223823242 1.2090487307044393 -1.2090487304564579 0.0 0.0 0.0 0.0 0.0 0.0
6025.272 -0.3527446235783671 -1.8721694061323095 -1.6035221024492134 0.33422717271415786 1.9237026850968149 0.0001647403121838309 0.0 0.0 0.0 0.0 0.0 0.0 0.0 0.0 0.0 0.0 0.0 0.0 -2.042413869045912e-17 0.7198734422690869 0.6485245092712706 0.06011522847260531 -2.842599262969041e-06 0.0 -2.681689410057282e-16 9.451938296993111 6.039189935235926 0.2732237134079911 -1.291961365019429e-05 0.0 -0.3527444044696253 -1.872169319783346 -1.6035221258746546 0.33422717452049255 1.9237027168273926 0.00016474031144753098 0.0 0.0 0.0 0.0 0.0 0.0 -2.042413818895097e-17 0.7198734283447266 0.6485245227813721 0.060115229338407516 -2.842599315044936e-06 0.0 -2.042413818895097e-17 0.7198734283447266 0.6485245227813721 0.060115229338407516 -2.842599315044936e-06 0.0 0.3000000239117409 -0.1999999243390919 0.4000000238953417 -1.2090988127156799 1.2090484906990822 -1.2090485909104884 0.0 0.0 0.0 0.0 0.0 0.0 -1.0890554845333376e-06 9.987661807391644e-07 -1.3043892167158444e-07 -9.23571660963833e-12 1.1786325497188171e-07 -8.181886359624684e-08 0.30000000000000016 -0.20000000000000007 0.4 -1.2090987223823242 1.2090487307044393 -1.2090487304564579 0.0 0.0 0.0 0.0 0.0 0.0
6025.28 -0.3527446235783671 -1.8721694061323095 -1.6035221024492134 0.33422717271415786 1.9237026850968149 0.0001647403121838309 0.0 0.0 0.0 0.0 0.0 0.0 0.0 0.0 0.0 0.0 0.0 0.0 -2.042413869045912e-17 0.7198734422690869 0.6485245092712706 0.06011522847260531 -2.842599262969041e-06 0.0 -2.681689410057282e-16 9.451938296993111 6.039189935235926 0.2732237134079911 -1.291961365019429e-05 0.0 -0.3527444044696253 -1.872169319783346 -1.6035221258746546 0.33422717452049255 1.9237027168273926 0.00016474031144753098 0.0 0.0 0.0 0.0 0.0 0.0 -2.042413818895097e-17 0.7198734283447266 0.6485245227813721 0.060115229338407516 -2.842599315044936e-06 0.0 -2.042413818895097e-17 0.7198734283447266 0.6485245227813721 0.060115229338407516 -2.842599315044936e-06 0.0 0.3000000239117409 -0.1999999243390919 0.4000000238953417 -1.2090988127156799 1.2090484906990822 -1.2090485909104884 0.0 0.0 0.0 0.0 0.0 0.0 -1.0890554845333376e-06 9.987661807391644e-07 -1.3043892167158444e-07 -9.23571660963833e-12 1.1786325497188171e-07 -8.181886359624684e-08 0.30000000000000016 -0.20000000000000007 0.4 -1.2090987223823242 1.2090487307044393 -1.2090487304564579 0.0 0.0 0.0 0.0 0.0 0.0
6025.288 -0.3527446235783671 -1.8721694061323095 -1.6035221024492134 0.33422717271415786 1.9237026850968149 0.0001647403121838309 0.0 0.0 0.0 0.0 0.0 0.0 0.0 0.0 0.0 0.0 0.0 0.0 -2.042413869045912e-17 0.7198734422690869 0.6485245092712706 0.06011522847260531 -2.842599262969041e-06 0.0 -2.681689410057282e-16 9.451938296993111 6.039189935235926 0.2732237134079911 -1.291961365019429e-05 0.0 -0.3527444044696253 -1.872169319783346 -1.6035221258746546 0.33422717452049255 1.9237027168273926 0.00016474031144753098 0.0 0.0 0.0 0.0 0.0 0.0 -2.042413818895097e-17 0.7198734283447266 0.6485245227813721 0.060115229338407516 -2.842599315044936e-06 0.0 -2.042413818895097e-17 0.7198734283447266 0.6485245227813721 0.060115229338407516 -2.842599315044936e-06 0.0 0.3000000239117409 -0.1999999243390919 0.4000000238953417 -1.2090988127156799 1.2090484906990822 -1.2090485909104884 0.0 0.0 0.0 0.0 0.0 0.0 -1.0890554845333376e-06 9.987661807391644e-07 -1.3043892167158444e-07 -9.23571660963833e-12 1.1786325497188171e-07 -8.181886359624684e-08 0.30000000000000016 -0.20000000000000007 0.4 -1.2090987223823242 1.2090487307044393 -1.2090487304564579 0.0 0.0 0.0 0.0 0.0 0.0
6025.295999999999 -0.3527446235783671 -1.8721694061323095 -1.6035221024492134 0.33422717271415786 1.9237026850968149 0.0001647403121838309 0.0 0.0 0.0 0.0 0.0 0.0 0.0 0.0 0.0 0.0 0.0 0.0 -2.042413869045912e-17 0.7198734422690869 0.6485245092712706 0.06011522847260531 -2.842599262969041e-06 0.0 -2.681689410057282e-16 9.451938296993111 6.039189935235926 0.2732237134079911 -1.291961365019429e-05 0.0 -0.3527444044696253 -1.872169319783346 -1.6035221258746546 0.33422717452049255 1.9237027168273926 0.00016474031144753098 0.0 0.0 0.0 0.0 0.0 0.0 -2.042413818895097e-17 0.7198734283447266 0.6485245227813721 0.060115229338407516 -2.842599315044936e-06 0.0 -2.042413818895097e-17 0.7198734283447266 0.6485245227813721 0.060115229338407516 -2.842599315044936e-06 0.0 0.3000000239117409 -0.1999999243390919 0.4000000238953417 -1.2090988127156799 1.2090484906990822 -1.2090485909104884 0.0 0.0 0.0 0.0 0.0 0.0 -1.0890554845333376e-06 9.987661807391644e-07 -1.3043892167158444e-07 -9.23571660963833e-12 1.1786325497188171e-07 -8.181886359624684e-08 0.30000000000000016 -0.20000000000000007 0.4 -1.2090987223823242 1.2090487307044393 -1.2090487304564579 0.0 0.0 0.0 0.0 0.0 0.0
6025.304 -0.3527446235783671 -1.8721694061323095 -1.6035221024492134 0.33422717271415786 1.9237026850968149 0.0001647403121838309 0.0 0.0 0.0 0.0 0.0 0.0 0.0 0.0 0.0 0.0 0.0 0.0 -2.042413869045912e-17 0.7198734422690869 0.6485245092712706 0.06011522847260531 -2.842599262969041e-06 0.0 -2.681689410057282e-16 9.451938296993111 6.039189935235926 0.2732237134079911 -1.291961365019429e-05 0.0 -0.3527444044696253 -1.872169319783346 -1.6035221258746546 0.33422717452049255 1.9237027168273926 0.00016474031144753098 0.0 0.0 0.0 0.0 0.0 0.0 -2.042413818895097e-17 0.7198734283447266 0.6485245227813721 0.060115229338407516 -2.842599315044936e-06 0.0 -2.042413818895097e-17 0.7198734283447266 0.6485245227813721 0.060115229338407516 -2.842599315044936e-06 0.0 0.3000000239117409 -0.1999999243390919 0.4000000238953417 -1.2090988127156799 1.2090484906990822 -1.2090485909104884 0.0 0.0 0.0 0.0 0.0 0.0 -1.0890554845333376e-06 9.987661807391644e-07 -1.3043892167158444e-07 -9.23571660963833e-12 1.1786325497188171e-07 -8.181886359624684e-08 0.30000000000000016 -0.20000000000000007 0.4 -1.2090987223823242 1.2090487307044393 -1.2090487304564579 0.0 0.0 0.0 0.0 0.0 0.0
6025.312 -0.3527446235783671 -1.8721694061323095 -1.6035221024492134 0.33422717271415786 1.9237026850968149 0.0001647403121838309 0.0 0.0 0.0 0.0 0.0 0.0 0.0 0.0 0.0 0.0 0.0 0.0 -2.042413869045912e-17 0.7198734422690869 0.6485245092712706 0.06011522847260531 -2.842599262969041e-06 0.0 -2.681689410057282e-16 9.451938296993111 6.039189935235926 0.2732237134079911 -1.291961365019429e-05 0.0 -0.3527444044696253 -1.872169319783346 -1.6035221258746546 0.33422717452049255 1.9237027168273926 0.00016474031144753098 0.0 0.0 0.0 0.0 0.0 0.0 -2.042413818895097e-17 0.7198734283447266 0.6485245227813721 0.060115229338407516 -2.842599315044936e-06 0.0 -2.042413818895097e-17 0.7198734283447266 0.6485245227813721 0.060115229338407516 -2.842599315044936e-06 0.0 0.3000000239117409 -0.1999999243390919 0.4000000238953417 -1.2090988127156799 1.2090484906990822 -1.2090485909104884 0.0 0.0 0.0 0.0 0.0 0.0 -1.0890554845333376e-06 9.987661807391644e-07 -1.3043892167158444e-07 -9.23571660963833e-12 1.1786325497188171e-07 -8.181886359624684e-08 0.30000000000000016 -0.20000000000000007 0.4 -1.2090987223823242 1.2090487307044393 -1.2090487304564579 0.0 0.0 0.0 0.0 0.0 0.0
6025.32 -0.3527446235783671 -1.8721694061323095 -1.6035221024492134 0.33422717271415786 1.9237026850968149 0.0001647403121838309 0.0 0.0 0.0 0.0 0.0 0.0 0.0 0.0 0.0 0.0 0.0 0.0 -2.042413869045912e-17 0.7198734422690869 0.6485245092712706 0.06011522847260531 -2.842599262969041e-06 0.0 -2.681689410057282e-16 9.451938296993111 6.039189935235926 0.2732237134079911 -1.291961365019429e-05 0.0 -0.3527444044696253 -1.872169319783346 -1.6035221258746546 0.33422717452049255 1.9237027168273926 0.00016474031144753098 0.0 0.0 0.0 0.0 0.0 0.0 -2.042413818895097e-17 0.7198734283447266 0.6485245227813721 0.060115229338407516 -2.842599315044936e-06 0.0 -2.042413818895097e-17 0.7198734283447266 0.6485245227813721 0.060115229338407516 -2.842599315044936e-06 0.0 0.3000000239117409 -0.1999999243390919 0.4000000238953417 -1.2090988127156799 1.2090484906990822 -1.2090485909104884 0.0 0.0 0.0 0.0 0.0 0.0 -1.0890554845333376e-06 9.987661807391644e-07 -1.3043892167158444e-07 -9.23571660963833e-12 1.1786325497188171e-07 -8.181886359624684e-08 0.30000000000000016 -0.20000000000000007 0.4 -1.2090987223823242 1.2090487307044393 -1.2090487304564579 0.0 0.0 0.0 0.0 0.0 0.0
6025.3279999999995 -0.3527446235783671 -1.8721694061323095 -1.6035221024492134 0.33422717271415786 1.9237026850968149 0.0001647403121838309 0.0 0.0 0.0 0.0 0.0 0.0 0.0 0.0 0.0 0.0 0.0 0.0 -2.042413869045912e-17 0.7198734422690869 0.6485245092712706 0.06011522847260531 -2.842599262969041e-06 0.0 -2.681689410057282e-16 9.451938296993111 6.039189935235926 0.2732237134079911 -1.291961365019429e-05 0.0 -0.3527444044696253 -1.872169319783346 -1.6035221258746546 0.33422717452049255 1.9237027168273926 0.00016474031144753098 0.0 0.0 0.0 0.0 0.0 0.0 -2.042413818895097e-17 0.7198734283447266 0.6485245227813721 0.060115229338407516 -2.842599315044936e-06 0.0 -2.042413818895097e-17 0.7198734283447266 0.6485245227813721 0.060115229338407516 -2.842599315044936e-06 0.0 0.3000000239117409 -0.1999999243390919 0.4000000238953417 -1.2090988127156799 1.2090484906990822 -1.2090485909104884 0.0 0.0 0.0 0.0 0.0 0.0 -1.0890554845333376e-06 9.987661807391644e-07 -1.3043892167158444e-07 -9.23571660963833e-12 1.1786325497188171e-07 -8.181886359624684e-08 0.30000000000000016 -0.20000000000000007 0.4 -1.2090987223823242 1.2090487307044393 -1.2090487304564579 0.0 0.0 0.0 0.0 0.0 0.0
6025.335999999999 -0.3527446235783671 -1.8721694061323095 -1.6035221024492134 0.33422717271415786 1.9237026850968149 0.0001647403121838309 0.0 0.0 0.0 0.0 0.0 0.0 0.0 0.0 0.0 0.0 0.0 0.0 -2.042413869045912e-17 0.7198734422690869 0.6485245092712706 0.06011522847260531 -2.842599262969041e-06 0.0 -2.681689410057282e-16 9.451938296993111 6.039189935235926 0.2732237134079911 -1.291961365019429e-05 0.0 -0.3527444044696253 -1.872169319783346 -1.6035221258746546 0.33422717452049255 1.9237027168273926 0.00016474031144753098 0.0 0.0 0.0 0.0 0.0 0.0 -2.042413818895097e-17 0.7198734283447266 0.6485245227813721 0.060115229338407516 -2.842599315044936e-06 0.0 -2.042413818895097e-17 0.7198734283447266 0.6485245227813721 0.060115229338407516 -2.842599315044936e-06 0.0 0.3000000239117409 -0.1999999243390919 0.4000000238953417 -1.2090988127156799 1.2090484906990822 -1.2090485909104884 0.0 0.0 0.0 0.0 0.0 0.0 -1.0890554845333376e-06 9.987661807391644e-07 -1.3043892167158444e-07 -9.23571660963833e-12 1.1786325497188171e-07 -8.181886359624684e-08 0.30000000000000016 -0.20000000000000007 0.4 -1.2090987223823242 1.2090487307044393 -1.2090487304564579 0.0 0.0 0.0 0.0 0.0 0.0
6025.344 -0.3527446235783671 -1.8721694061323095 -1.6035221024492134 0.33422717271415786 1.9237026850968149 0.0001647403121838309 0.0 0.0 0.0 0.0 0.0 0.0 0.0 0.0 0.0 0.0 0.0 0.0 -2.042413869045912e-17 0.7198734422690869 0.6485245092712706 0.06011522847260531 -2.842599262969041e-06 0.0 -2.681689410057282e-16 9.451938296993111 6.039189935235926 0.2732237134079911 -1.291961365019429e-05 0.0 -0.3527444044696253 -1.872169319783346 -1.6035221258746546 0.33422717452049255 1.9237027168273926 0.00016474031144753098 0.0 0.0 0.0 0.0 0.0 0.0 -2.042413818895097e-17 0.7198734283447266 0.6485245227813721 0.060115229338407516 -2.842599315044936e-06 0.0 -2.042413818895097e-17 0.7198734283447266 0.6485245227813721 0.060115229338407516 -2.842599315044936e-06 0.0 0.3000000239117409 -0.1999999243390919 0.4000000238953417 -1.2090988127156799 1.2090484906990822 -1.2090485909104884 0.0 0.0 0.0 0.0 0.0 0.0 -1.0890554845333376e-06 9.987661807391644e-07 -1.3043892167158444e-07 -9.23571660963833e-12 1.1786325497188171e-07 -8.181886359624684e-08 0.30000000000000016 -0.20000000000000007 0.4 -1.2090987223823242 1.2090487307044393 -1.2090487304564579 0.0 0.0 0.0 0.0 0.0 0.0
6025.352 -0.3527446235783671 -1.8721694061323095 -1.6035221024492134 0.33422717271415786 1.9237026850968149 0.0001647403121838309 0.0 0.0 0.0 0.0 0.0 0.0 0.0 0.0 0.0 0.0 0.0 0.0 -2.042413869045912e-17 0.7198734422690869 0.6485245092712706 0.06011522847260531 -2.842599262969041e-06 0.0 -2.681689410057282e-16 9.451938296993111 6.039189935235926 0.2732237134079911 -1.291961365019429e-05 0.0 -0.3527444044696253 -1.872169319783346 -1.6035221258746546 0.33422717452049255 1.9237027168273926 0.00016474031144753098 0.0 0.0 0.0 0.0 0.0 0.0 -2.042413818895097e-17 0.7198734283447266 0.6485245227813721 0.060115229338407516 -2.842599315044936e-06 0.0 -2.042413818895097e-17 0.7198734283447266 0.6485245227813721 0.060115229338407516 -2.842599315044936e-06 0.0 0.3000000239117409 -0.1999999243390919 0.4000000238953417 -1.2090988127156799 1.2090484906990822 -1.2090485909104884 0.0 0.0 0.0 0.0 0.0 0.0 -1.0890554845333376e-06 9.987661807391644e-07 -1.3043892167158444e-07 -9.23571660963833e-12 1.1786325497188171e-07 -8.181886359624684e-08 0.30000000000000016 -0.20000000000000007 0.4 -1.2090987223823242 1.2090487307044393 -1.2090487304564579 0.0 0.0 0.0 0.0 0.0 0.0
6025.36 -0.3527446235783671 -1.8721694061323095 -1.6035221024492134 0.33422717271415786 1.9237026850968149 0.0001647403121838309 0.0 0.0 0.0 0.0 0.0 0.0 0.0 0.0 0.0 0.0 0.0 0.0 -2.042413869045912e-17 0.7198734422690869 0.6485245092712706 0.06011522847260531 -2.842599262969041e-06 0.0 -2.681689410057282e-16 9.451938296993111 6.039189935235926 0.2732237134079911 -1.291961365019429e-05 0.0 -0.3527444044696253 -1.872169319783346 -1.6035221258746546 0.33422717452049255 1.9237027168273926 0.00016474031144753098 0.0 0.0 0.0 0.0 0.0 0.0 -2.042413818895097e-17 0.7198734283447266 0.6485245227813721 0.060115229338407516 -2.842599315044936e-06 0.0 -2.042413818895097e-17 0.7198734283447266 0.6485245227813721 0.060115229338407516 -2.842599315044936e-06 0.0 0.3000000239117409 -0.1999999243390919 0.4000000238953417 -1.2090988127156799 1.2090484906990822 -1.2090485909104884 0.0 0.0 0.0 0.0 0.0 0.0 -1.0890554845333376e-06 9.987661807391644e-07 -1.3043892167158444e-07 -9.23571660963833e-12 1.1786325497188171e-07 -8.181886359624684e-08 0.30000000000000016 -0.20000000000000007 0.4 -1.2090987223823242 1.2090487307044393 -1.2090487304564579 0.0 0.0 0.0 0.0 0.0 0.0
6025.3679999999995 -0.3527446235783671 -1.8721694061323095 -1.6035221024492134 0.33422717271415786 1.9237026850968149 0.0001647403121838309 0.0 0.0 0.0 0.0 0.0 0.0 0.0 0.0 0.0 0.0 0.0 0.0 -2.042413869045912e-17 0.7198734422690869 0.6485245092712706 0.06011522847260531 -2.842599262969041e-06 0.0 -2.681689410057282e-16 9.451938296993111 6.039189935235926 0.2732237134079911 -1.291961365019429e-05 0.0 -0.3527444044696253 -1.872169319783346 -1.6035221258746546 0.33422717452049255 1.9237027168273926 0.00016474031144753098 0.0 0.0 0.0 0.0 0.0 0.0 -2.042413818895097e-17 0.7198734283447266 0.6485245227813721 0.060115229338407516 -2.842599315044936e-06 0.0 -2.042413818895097e-17 0.7198734283447266 0.6485245227813721 0.060115229338407516 -2.842599315044936e-06 0.0 0.3000000239117409 -0.1999999243390919 0.4000000238953417 -1.2090988127156799 1.2090484906990822 -1.2090485909104884 0.0 0.0 0.0 0.0 0.0 0.0 -1.0890554845333376e-06 9.987661807391644e-07 -1.3043892167158444e-07 -9.23571660963833e-12 1.1786325497188171e-07 -8.181886359624684e-08 0.30000000000000016 -0.20000000000000007 0.4 -1.2090987223823242 1.2090487307044393 -1.2090487304564579 0.0 0.0 0.0 0.0 0.0 0.0
6025.375999999999 -0.3527446235783671 -1.8721694061323095 -1.6035221024492134 0.33422717271415786 1.9237026850968149 0.0001647403121838309 0.0 0.0 0.0 0.0 0.0 0.0 0.0 0.0 0.0 0.0 0.0 0.0 -2.042413869045912e-17 0.7198734422690869 0.6485245092712706 0.06011522847260531 -2.842599262969041e-06 0.0 -2.681689410057282e-16 9.451938296993111 6.039189935235926 0.2732237134079911 -1.291961365019429e-05 0.0 -0.3527444044696253 -1.872169319783346 -1.6035221258746546 0.33422717452049255 1.9237027168273926 0.00016474031144753098 0.0 0.0 0.0 0.0 0.0 0.0 -2.042413818895097e-17 0.7198734283447266 0.6485245227813721 0.060115229338407516 -2.842599315044936e-06 0.0 -2.042413818895097e-17 0.7198734283447266 0.6485245227813721 0.060115229338407516 -2.842599315044936e-06 0.0 0.3000000239117409 -0.1999999243390919 0.4000000238953417 -1.2090988127156799 1.2090484906990822 -1.2090485909104884 0.0 0.0 0.0 0.0 0.0 0.0 -1.0890554845333376e-06 9.987661807391644e-07 -1.3043892167158444e-07 -9.23571660963833e-12 1.1786325497188171e-07 -8.181886359624684e-08 0.30000000000000016 -0.20000000000000007 0.4 -1.2090987223823242 1.2090487307044393 -1.2090487304564579 0.0 0.0 0.0 0.0 0.0 0.0
6025.384 -0.3527446235783671 -1.8721694061323095 -1.6035221024492134 0.33422717271415786 1.9237026850968149 0.0001647403121838309 0.0 0.0 0.0 0.0 0.0 0.0 0.0 0.0 0.0 0.0 0.0 0.0 -2.042413869045912e-17 0.7198734422690869 0.6485245092712706 0.06011522847260531 -2.842599262969041e-06 0.0 -2.681689410057282e-16 9.451938296993111 6.039189935235926 0.2732237134079911 -1.291961365019429e-05 0.0 -0.3527444044696253 -1.872169319783346 -1.6035221258746546 0.33422717452049255 1.9237027168273926 0.00016474031144753098 0.0 0.0 0.0 0.0 0.0 0.0 -2.042413818895097e-17 0.7198734283447266 0.6485245227813721 0.060115229338407516 -2.842599315044936e-06 0.0 -2.042413818895097e-17 0.7198734283447266 0.6485245227813721 0.060115229338407516 -2.842599315044936e-06 0.0 0.3000000239117409 -0.1999999243390919 0.4000000238953417 -1.2090988127156799 1.2090484906990822 -1.2090485909104884 0.0 0.0 0.0 0.0 0.0 0.0 -1.0890554845333376e-06 9.987661807391644e-07 -1.3043892167158444e-07 -9.23571660963833e-12 1.1786325497188171e-07 -8.181886359624684e-08 0.30000000000000016 -0.20000000000000007 0.4 -1.2090987223823242 1.2090487307044393 -1.2090487304564579 0.0 0.0 0.0 0.0 0.0 0.0
6025.392 -0.3527445563237226 -1.872169350522526 -1.6035221780227422 0.33422719267472506 1.9237026178421706 0.00016474030298709323 3.36273237433009e-05 2.7804890899618495e-05 -3.778676270073671e-05 9.980282483218892e-06 -3.362732346645788e-05 -4.598368897540854e-09 0.004203415467912613 0.003475611362452312 -0.004723345337592088 0.0012475353104023615 -0.004203415433307235 -5.747961121926068e-07 0.0002619024617289842 0.7200616311769458 0.6484112929109547 0.06014472515448958 -6.087908129394452e-05 -9.030685584892733e-09 0.0034387793225015622 9.454409217353298 6.038135641845392 0.27335777582715515 -0.00027669542448097785 -4.104446598333747e-08 -0.3527444044696253 -1.872169319783346 -1.6035221258746546 0.33422720432281494 1.923702597618103 0.00016474029689561576 3.3627322409301996e-05 2.7804890123661608e-05 -3.778676182264462e-05 9.980282811739016e-06 -3.3627322409301996e-05 -4.5983687968487175e-09 0.0002619024598971009 0.7200616598129272 0.6484112739562988 0.06014472618699074 -6.087907968321815e-05 -9.030685532707139e-09 0.0002619024598971009 0.7200616598129272 0.6484112739562988 0.06014472618699074 -6.087907968321815e-05 -9.030685532707139e-09 0.3000000215260336 -0.1999999332234722 0.40000002618583674 -1.2090987433457068 1.2090485530063093 -1.2090486995093412 -1.6259930823960175e-12 9.810207633910835e-06 -1.691819058866156e-13 2.834428702058706e-12 -1.5022526940617998e-12 -2.7684287180993743e-13 1.908582426266454e-06 -1.750204930167927e-06 6.7871299172035e-08 1.6289755637883163e-11 -2.0736355367338756e-07 1.433692115480036e-07 0.3 -0.19999998037958347 0.4000000000000002 -1.2090987223823237 1.2090487307044393 -1.2090487304564583 -8.296414892135357e-21 9.810208333333335e-06 7.286290824133519e-22 -2.1990277506263297e-21 2.817056728146987e-21 -6.723354255968114e-22
6025.4 -0.35274401828637636 -1.8721689056443616 -1.603522782610714 0.3342273523591029 1.9237020798048292 0.00016474022941318232 0.00015132305020356586 0.000125121958804892 -0.00017004030207592985 4.4911191349360474e-05 -0.000151323048957672 -2.0692664703700355e-08 0.014711965807533119 0.012164633488159188 -0.01653169242189914 0.004366363608267697 -0.014711965686401766 -2.0117869757699375e-06 0.0009166586648623374 0.7205318334588028 0.6481282325458235 0.060218474967378574 -0.0002059704857140232 -3.1607408708207686e-08 0.01203572826964249 9.46058297331408 6.035499727113217 0.2736929687267356 -0.0009361358575702355 -1.4365567257880392e-07 -0.3527439276324671 -1.8721688429461878 -1.6035226027118128 0.3342273533344269 1.9237021207809448 0.00016474022413603961 0.00015132305270526558 0.00012512196553871036 -0.00017004030814860016 4.491119034355506e-05 -0.00015132305270526558 -2.0692665358978957e-08 0.0009166586678475142 0.7205318212509155 0.6481282114982605 0.06021847575902939 -0.00020597048569470644 -3.160741002261602e-08 0.0009166586678475142 0.7205318212509155 0.6481282114982605 0.06021847575902939 -0.00020597048569470644 -3.160741002261602e-08 0.30000000084929435 -0.19999978650231195 0.4000000721241563 -1.2090986782936315 1.209048425662172 -1.2090488035474471 -4.335760734310194e-12 4.414593528136601e-05 -9.50121751395571e-13 3.4707468238150825e-11 -1.2411102912994491e-11 -1.2457894043126161e-12 3.3176028574280425e-07 -3.044337674724283e-07 8.461859911041117e-07 -8.706919056994294e-12 3.524024684029648e-08 2.4938948810707862e-08 0.30000000000000016 -0.19999982341625006 0.4000000000000001 -1.2090987223823242 1.2090487307044393 -1.2090487304564579 1.248617930182385e-16 4.4145937500062483e-05 -1.2487620100678828e-16 -9.994494347191697e-17 9.281986215784995e-21 9.996812970528696e-17
6025.407999999999 -0.35274220240788345 -1.872167404181873 -1.6035248230917052 0.3342278912917826 1.9237002639263512 0.0001647399811011145 0.0004035289741011576 0.0003336581046270911 -0.00045343963483970514 0.00011976245850130075 -0.00040352897077903805 -5.518048002698035e-08 0.031525740487198965 0.026067018227774887 -0.03542491659547191 0.009356408393992535 -0.031525740227670754 -4.31097691541e-06 0.0019642707395703314 0.7212834579322576 0.6476752872103747 0.06033649476565151 -0.00043811829180342375 -6.773023731544155e-08 0.025790874810558456 9.470451802650542 6.0312818095604515 0.2742293687098861 -0.001991247636246561 -3.0783392859868186e-07 -0.3527420202838343 -1.8721674124347132 -1.6035249868976038 0.33422788977622986 1.923700213432312 0.00016473997675348073 0.0004035289748571813 0.00033365809940733016 -0.0004534396284725517 0.00011976245878031477 -0.0004035289748571813 -5.518047885288979e-08 0.0019642708357423544 0.7212834358215332 0.6476752758026123 0.06033649295568466 -0.0004381182952784002 -6.773023386585919e-08 0.0019642708357423544 0.7212834358215332 0.6476752758026123 0.06033649295568466 -0.0004381182952784002 -6.773023386585919e-08 0.3000000408402931 -0.19999924478855804 0.3999999514028527 -1.2090988603783959 1.2090487820911409 -1.2090485123535168 -2.3241669398919695e-11 0.00011772250263472526 6.191735315080165e-14 -6.622080045015213e-11 2.28616835967234e-11 -3.3221133489911008e-12 -4.617876624914925e-07 4.1763729409852804e-07 6.869823956615434e-07 -1.2095873721166217e-11 1.00032996874872e-07 -3.41967601974814e-08 0.30000000000000016 -0.19999929366500005 0.4 -1.2090987223823242 1.2090487307044393 -1.2090487304564579 6.266081347811351e-20 0.00011772250000000006 -5.545727008359481e-17 -5.838988134007408e-20 5.553331405698515e-20 9.151193566201466e-20
6025.416 -0.3527378980882041 -1.8721638451678064 -1.6035296597663438 0.3342291687489243 1.9236959596067074 0.00016473939250880815 0.0008406895119818297 0.0006951188182841687 -0.0009446601247141126 0.0002495015740922478 -0.0008406895050607355 -1.1495953627367236e-07 0.05464506723508401 0.0451825892071347 -0.06140256123430093 0.016217389448868382 -0.05464506678521217 -7.472382030836501e-06 0.003404749258780533 0.7223156112910036 0.6470524005511675 0.06049880708169927 -0.0007573278281983356 -1.1739942435114236e-07 0.044704357767788395 9.484003976250879 6.025481364412583 0.27496707818632316 -0.003442054979161435 -5.33580383675942e-07 -0.35273772874941045 -1.8721640745746058 -1.6035297552691858 0.33422917127609253 1.9236959218978882 0.0001647393946768716 0.0008406895212829113 0.0006951187970116735 -0.0009446601034142077 0.0002495015796739608 -0.0008406895212829113 -1.1495953344820009e-07 0.0034047493245452642 0.7223156094551086 0.6470524072647095 0.060498807579278946 -0.0007573278271593153 -1.1739942351596255e-07 0.0034047493245452642 0.7223156094551086 0.6470524072647095 0.060498807579278946 -0.0007573278271593153 -1.1739942351596255e-07 0.3000000884599781 -0.19999801034224335 0.3999998931807474 -1.2090989253356499 1.2090489092411159 -1.2090484084756423 -2.308363545959926e-11 0.0002452552558035006 3.399730187843974e-11 -2.5626976083545583e-10 8.83698879600931e-11 -6.921050495044293e-12 -3.3564626953453855e-07 3.038791209422261e-07 -1.5332633544471808e-07 -1.5545772022779288e-12 2.8055321551769625e-08 -2.489866800052341e-08 0.30000000000000004 -0.19999803795833332 0.40000000000000013 -1.2090987223823242 1.209048730704439 -1.209048730456458 -1.0158229791369951e-19 0.0002452552083332989 1.9672915851184034e-19 8.140068565693257e-20 2.3352697593382773e-19 -2.56699499087062e-19
6025.424 -0.352729491152564 -1.8721568940014306 -1.6035391063111337 0.3342316637300191 1.9236875526711363 0.00016473824291146391 0.0015132557089036563 0.0012512060224387674 -0.0017003679000490962 0.00044909036078827444 -0.001513255696445543 -2.0692787860415736e-07 0.08407077461522833 0.06951090051932483 -0.09446347191687295 0.024948598337003327 -0.08407077392310093 -1.1496042791310624e-05 0.005238124431180376 0.723627089131449 0.6462595082603194 0.060705436190807115 -0.0011636124471881846 -1.8061560563236915e-07 0.06877657378139834 9.501223680295926 6.018097792821747 0.27590620748721834 -0.005288618572470299 -8.208979275991177e-07 -0.352729622517721 -1.8721569220172327 -1.60353929201235 0.3342316746711731 1.9236875772476196 0.00016473824507556856 0.0015132557600736618 0.0012512060347944498 -0.0017003678949549794 0.0004490903520490974 -0.00151325564365834 -2.0692787927600875e-07 0.005238124635070562 0.7236270904541016 0.6462594866752625 0.060705434530973434 -0.001163612469099462 -1.806156006978199e-07 0.005238124635070562 0.7236270904541016 0.6462594866752625 0.060705434530973434 -0.001163612469099462 -1.806156006978199e-07 0.2999999820626018 -0.19999562587144296 0.3999999393370065 -1.2090987604190349 1.2090489825939066 -1.2090486675568966 5.484948774410464e-11 0.00044145941392113565 1.126016278618374e-11 -2.909760595681217e-10 9.782821532070332e-11 1.0395733956819066e-10 8.860127045416507e-07 -8.252724682024385e-07 5.727229937755322e-07 1.9731450560918293e-12 -6.270556511080902e-08 6.770598214065502e-08 0.30000000000000004 -0.19999558540625004 0.4000000000000002 -1.209098722382324 1.209048730704439 -1.2090487304564583 1.662840973602843e-16 0.0004414593749998754 -1.6634887632813604e-16 2.2326537895934753e-19 9.940843631612691e-17 1.0049470795378802e-16
6025.432 -0.3527149637767648 -1.8721448824887306 -1.6035554296743966 0.33423597489403134 1.9236730252954566 0.00016473625639791239 0.0024716921627871186 0.0020436143461316837 -0.0027772102069048036 0.0007334790538754944 -0.0024716921424386765 -3.3798421501960855e-07 0.11980455673543279 0.09905104046161453 -0.13460528835696342 0.0355485866359025 -0.11980455574914169 -1.63820420519314e-05 0.007464462148406443 0.7252163634531974 0.6452965486223476 0.06095640255953731 -0.001656999303649054 -2.5738008290478887e-07 0.0980083880085766 9.522090852140483 6.009130520081026 0.27704684963309706 -0.00753106183508495 -1.1697924768022654e-06 -0.3527148405658167 -1.8721450010882776 -1.6035555044757288 0.3342359662055969 1.9236730337142944 0.00016473625146318227 0.0024716921616345644 0.0020436143968254328 -0.0027772102039307356 0.0007334790425375104 -0.0024716921616345644 -3.3798420417952e-07 0.007464461959898472 0.7252163887023926 0.645296573638916 0.060956403613090515 -0.001656999345868826 -2.573800941263471e-07 0.007464461959898472 0.7252163887023926 0.645296573638916 0.060956403613090515 -0.001656999345868826 -2.573800941263471e-07 0.30000005403321595 -0.19999132056297153 0.3999999369319522 -1.2090988728387209 1.2090488064528921 -1.2090484924562543 -8.364076945311856e-11 0.0007210503910756146 6.9904701647757e-11 -4.833620385491864e-10 1.328240443510978e-10 -2.034815692166068e-11 5.435827774639234e-08 -3.937971149593856e-08 -1.1550273942362705e-06 1.507562585381466e-11 -9.535806732606086e-08 3.417841490854114e-09 0.30000000000000004 -0.1999913473962501 0.39999999999999997 -1.209098722382324 1.2090487307044395 -1.2090487304564579 1.9395938415286265e-16 0.0007210503124999515 -2.91535948957818e-16 -1.1662496190311649e-16 1.1656480639691448e-16 2.3342539965109744e-16
6025.44 -0.3526918943448081 -1.8721258089190291 -1.60358134987791 0.33424282043767445 1.9236499558636895 0.00016473310186365366 0.003766487683739504 0.003114025388657108 -0.004231800560207281 0.0011175971895531706 -0.003766487652732416 -5.150284372493414e-07 0.16184944011904817 0.13380138031567806 -0.18182379416280964 0.04801476695970952 -0.16184943878671745 -2.2130527778716604e-05 0.010083884888403323 0.7270815666433854 0.6441634761767454 0.06125171567770602 -0.002237536739172334 -3.4769518087894757e-07 0.13240140858473562 9.546580970027652 5.998579122853089 0.27838904775517387 -0.010169604479538259 -1.5802745970948164e-06 -0.35269195238222295 -1.8721259276019495 -1.6035812536822718 0.3342428207397461 1.9236499071121216 0.00016473310824949294 0.0037664875853806734 0.00311402534134686 -0.00423180079087615 0.0011175972176715732 -0.0037664875853806734 -5.150284323462984e-07 0.010083884932100773 0.7270815372467041 0.6441634893417358 0.06125171482563019 -0.0022375367116183043 -3.476951917491533e-07 0.010083884932100773 0.7270815372467041 0.6441634893417358 0.06125171482563019 -0.0022375367116183043 -3.476951917491533e-07 0.3000000146098527 -0.1999846486468782 0.39999998518285507 -1.209098681572326 1.2090488282945626 -1.2090487936085617 1.1287313095040845e-10 0.001098743396146104 6.759267240289676e-12 7.887999658362355e-12 2.633726620615565e-10 -3.1007087756665556e-11 -1.7126718189922523e-06 1.568503835139097e-06 1.1823356010572652e-07 -1.6960118841194473e-11 2.0103585464415122e-07 -1.2861684900952473e-07 0.30000000000000004 -0.19998461759333355 0.3999999999999999 -1.209098722382324 1.2090487307044397 -1.209048730456458 2.2217905322879163e-16 0.0010987433333333886 1.1117731132099396e-16 -1.3378967525406864e-16 -1.32060588260945e-16 -3.6250693677048333e-19
6025.447999999999 -0.35265745720614383 -1.872097338195621 -1.6036200396787406 0.33425303788789784 1.9236155187253097 0.00016472839299898264 0.005448170506227602 0.0045040995340158065 -0.006120697556620332 0.0016163406047977815 -0.005448170461377281 -7.449623657684486e-07 0.21021035281101225 0.1737592681698373 -0.23611212455163139 0.06234292690557636 -0.21021035108060807 -2.8741741064888407e-05 0.013096597479202325 0.7292204719572999 0.6428602784984794 0.061591365274772825 -0.0029053032725500677 -4.5156468739724676e-07 0.17195832490192653 9.574664796799349 5.98644348543354 0.2799327551738425 -0.013204603373740055 -2.0523615042204866e-06 -0.3526576201068323 -1.8720973173724573 -1.6036198774920862 0.3342530429363251 1.923615574836731 0.00016472839342895895 0.005448170471936464 0.004504099488258362 -0.006120697595179081 0.001616340596228838 -0.005448170471936464 -7.449623922184401e-07 0.013096597045660019 0.729220449924469 0.6428602933883667 0.061591364443302155 -0.002905303379520774 -4.515646878644475e-07 0.013096597045660019 0.729220449924469 0.6428602933883667 0.061591364443302155 -0.002905303379520774 -4.515646878644475e-07 0.2999999598226123 -0.19997461341731274 0.40000005282519524 -1.2090985897956654 1.2090486486525078 -1.2090489403705014 2.9826088026779507e-10 0.0015892536748157197 -4.0941420549105046e-11 9.935757622637286e-10 -2.6675433108253255e-10 -4.485007617907068e-11 -1.4740946366316022e-06 1.3755828838534412e-06 -6.187622800115783e-08 -1.2321647289195446e-11 1.5995505134276896e-07 -1.1220089430707407e-07 0.3000000000000002 -0.19997457193999993 0.4000000000000001 -1.2090987223823242 1.2090487307044389 -1.2090487304564574 2.4857086428251233e-16 0.0015892537500003122 2.491451017268678e-16 -1.490103838587253e-16 -3.0030030647000573e-16 1.5000594635349223e-16
6025.456 -0.3526084222933248 -1.8720568020415183 -1.603675124036668 0.33426758377509386 1.9235664838128936 0.00016472168827028663 0.007567328872929131 0.006255464876210527 -0.008500376214499245 0.002244553853978798 -0.007567328810636308 -1.0346907565216913e-06 0.2648947958376911 0.2189206677743401 -0.29745983223486416 0.07852665614762708 -0.26489479365737845 -3.621604884415534e-05 0.016502917730213753 0.7316304705096578 0.6413869960982506 0.0619753109225116 -0.003660418198614728 -5.689943673959517e-07 0.21668330979770659 9.606308077791807 5.972723985066129 0.28167778814281524 -0.01663660071270394 -2.5860793998146e-06 -0.3526085058795374 -1.87205678621401 -1.6036751906024378 0.33426758646965027 1.923566460609436 0.00016472168499603868 0.007567328866571188 0.006255465094000101 -0.008500375784933567 0.0022445537615567446 -0.007567328866571188 -1.0346907401981298e-06 0.01650291681289673 0.7316304445266724 0.6413869857788086 0.06197531148791313 -0.0036604180932044983 -5.689943805009534e-07 0.01650291681289673 0.7316304445266724 0.6413869857788086 0.06197531148791313 -0.0036604180932044983 -5.689943805009534e-07 0.2999999803488127 -0.1999602945514869 0.39999998723090113 -1.2090986928752356 1.2090488503833714 -1.2090487755703407 9.727334854535304e-11 0.002207296874901954 1.6344128153442492e-10 -5.328158190938753e-10 -3.952138789930222e-10 -6.229314692424348e-11 -6.321907612775288e-07 6.37085245010768e-07 7.721134024510651e-07 -1.6220124006236028e-11 1.3994292777911078e-07 -5.2668137615283025e-08 0.3 -0.19996026865625005 0.40000000000000024 -1.209098722382324 1.209048730704439 -1.2090487304564583 -1.4084056736117622e-16 0.002207296874999653 -1.3917012304488511e-16 1.9475264419040367e-19 3.3454011915743984e-16 -3.357175283713315e-16
6025.464 -0.35254115455425694 -1.8720011993049361 -1.603750679323535 0.33428753314798615 1.9234992160743796 0.0001647124908922688 0.010174637810691693 0.0084097028155712 -0.011427190709220752 0.003017007350413881 -0.010174637726939328 -1.3911226119822271e-06 0.32591361722032025 0.2692797424200842 -0.36585181184018833 0.09655668705438536 -0.32591361453787754 -4.4553981932566967e-05 0.020303311942731907 0.7343085447930133 0.6397437454426154 0.06240347002774085 -0.004503053798662279 -6.999925605849966e-07 0.26658248580807 9.641471193132265 5.957421706310723 0.2836237712760821 -0.020466379514920054 -3.1814661878588095e-06 -0.35254127184023076 -1.8720009962665003 -1.6037505308734339 0.33428752422332764 1.9234992265701294 0.00016471248818561435 0.010174637660384178 0.008409703150391579 -0.011427191086113453 0.0030170073732733727 -0.010174637660384178 -1.3911226233176421e-06 0.020303312689065933 0.7343085408210754 0.6397437453269958 0.062403470277786255 -0.004503053613007069 -6.999925403761154e-07 0.020303312689065933 0.7343085408210754 0.6397437453269958 0.062403470277786255 -0.004503053613007069 -6.999925403761154e-07 0.29999992784060076 -0.19994066464518337 0.4000001118104428 -1.2090985222956283 1.2090485166472777 -1.2090490481942502 1.4602140886154287e-10 0.0029675874817860198 -3.586085173866822e-10 3.277715740309826e-09 -1.1854546367052183e-09 -8.375140348617719e-11 -1.667119450294183e-07 1.1178354498141052e-07 7.870494661478475e-08 -2.9893556378653004e-12 2.5397719259262505e-08 -1.0001924093873412e-08 0.3 -0.19994064823958335 0.39999999999999997 -1.2090987223823242 1.2090487307044393 -1.2090487304564579 4.554544610732563e-16 0.0029675880208332563 -6.133415057271275e-16 -1.815669898339756e-16 1.8971536678139968e-16 3.6457164623554947e-16
6025.472 -0.35245161314672213 -1.87192719639265 -1.6038512322018192 0.33431407888564096 1.923409674667582 0.0001647002487885267 0.013320892921307644 0.011008329886143106 -0.014957327376462128 0.0039483685454725385 -0.013320892811664632 -1.8211728370869933e-06 0.3932818888269939 0.32482838382148815 -0.44126708340517207 0.11642014938233218 -0.39328188559066296 -5.375627813809578e-05 0.024498435316032324 0.7372512387415305 0.6379307450925428 0.06287570422108912 -0.005433449167189627 -8.445708587474159e-07 0.3216644556995044 9.680108764676296 5.940538684450777 0.28577007568485 -0.02469502646487685 -3.838574553007005e-06 -0.3524516264544886 -1.8719270865069788 -1.6038511435138147 0.3343140780925751 1.9234097003936768 0.0001647002500249073 0.013320893049240112 0.011008329689502716 -0.014957327395677567 0.003948368597775698 -0.013320893049240112 -1.8211728729511378e-06 0.024498434737324715 0.7372512221336365 0.6379307508468628 0.06287570297718048 -0.0054334490559995174 -8.445708772342186e-07 0.024498434737324715 0.7372512221336365 0.6379307508468628 0.06287570297718048 -0.0054334490559995174 -8.445708772342186e-07 0.29999997053300176 -0.19991452549077815 0.40000006314358827 -1.2090986418638923 1.2090485525801042 -1.2090488593409752 5.403212224298101e-11 0.0038848421220815275 -3.3205053590340945e-10 2.5291137024453966e-09 -7.560266739993067e-10 -1.0964274800412257e-10 -8.951695127625397e-07 8.577596480321544e-07 1.0045324649750577e-07 -8.453356567699199e-12 1.0554662421559075e-07 -7.07720498421194e-08 0.30000000000000004 -0.1999145334649999 0.4000000000000001 -1.209098722382324 1.209048730704439 -1.209048730456458 5.010506898593159e-16 0.0038848424999998353 1.6857768110438423e-16 -2.25627263951522e-19 9.036905618416867e-18 4.9228713747309046e-18
6025.48 -0.3523353503361948 -1.8718311278628947 -1.603981758090737 0.3343485307565661 1.9232934118580114 0.0001646843545375722 0.017057052013357433 0.014092775373928126 -0.01914674686224508 0.005053166464350487 -0.017057051872974245 -2.331764283492542e-06 0.4670198865062236 0.38555568597312756 -0.523677435722869 0.1380997398597436 -0.4670198826637016 -6.382393080069359e-05 0.029089177274716067 0.7404546243594023 0.6359483449557841 0.06339180415111274 -0.006451925662009948 -1.0027448683575638e-06 0.381940897617022 9.722169217838953 5.922078177897252 0.2881157498668074 -0.029324002133835212 -4.557475426685127e-06 -0.352335278187887 -1.87183124223818 -1.6039817968951624 0.33434852957725525 1.9232934713363647 0.00016468435933347791 0.01705705188214779 0.01409277506172657 -0.019146746024489403 0.005053166300058365 -0.01705705188214779 -2.331764335394837e-06 0.029089177027344704 0.7404546141624451 0.6359483599662781 0.0633918046951294 -0.006451925728470087 -1.0027448524851934e-06 0.029089177027344704 0.7404546141624451 0.6359483599662781 0.0633918046951294 -0.006451925728470087 -1.0027448524851934e-06 0.30000004170918965 -0.19988061290274714 0.39999994901574654 -1.2090988520547374 1.2090487656651001 -1.2090485258029413 -1.7726662236770432e-10 0.004973776036872518 4.658615592389294e-10 -2.595887701605578e-09 5.693840302443569e-10 -1.4038276481202033e-10 -9.945252824336366e-07 9.25036903072489e-07 -2.466187670582866e-07 -6.5938575361512555e-12 9.636750269909933e-08 -7.547680050828656e-08 0.3 -0.1998806293849998 0.39999999999999986 -1.2090987223823242 1.2090487307044393 -1.2090487304564579 3.586515082666575e-16 0.004973775624999461 -1.8304507638839188e-16 -2.16703439739182e-16 2.3113760598414705e-16 2.190507678724896e-16
6025.487999999999 -0.3521875100313867 -1.8717089972129788 -1.6041476791292153 0.3343923141694453 1.9231455715544203 0.00016466414530108298 0.02143428540591077 0.017704354285449076 -0.024051114307063914 0.006345748926437546 -0.021434285229521472 -2.9298302182173597e-06 0.5471541740691672 0.4514473639401187 -0.6130459306023542 0.1615728077608823 -0.5471541695684033 -7.475824184060221e-05 0.03407671174945412 0.743914264934967 0.6337970586451745 0.06395147269683073 -0.007558903987065454 -1.174535044029017e-06 0.44742722527033263 9.767594298596117 5.902044969515595 0.29065944340709565 -0.034355218621212484 -5.338261775111882e-06 -0.35218745866884404 -1.87170917192568 -1.604147736226217 0.3343923091888428 1.9231455326080322 0.0001646641467232257 0.02143428474664688 0.017704354599118233 -0.024051114916801453 0.0063457489013671875 -0.02143428474664688 -2.92983031613403e-06 0.034076713025569916 0.7439142465591431 0.6337970495223999 0.06395146995782852 -0.007558904122561216 -1.1745351002900861e-06 0.034076713025569916 0.7439142465591431 0.6337970495223999 0.06395146995782852 -0.007558904122561216 -1.1745351002900861e-06 0.3000000521745861 -0.19983752651281403 0.3999999224866131 -1.209098831736534 1.209048923861751 -1.2090485560879873 -2.533276114981988e-10 0.006249103496458893 6.175635651351968e-10 -4.653281595021531e-09 2.052341980366826e-09 -1.76388715844788e-10 -4.248419439637688e-07 3.0965241289914743e-07 5.355039201580874e-07 -9.154280404000327e-12 7.65678658654549e-08 -2.4751777191414197e-08 0.2999999999999998 -0.19983752332958268 0.4000000000000001 -1.209098722382324 1.2090487307044384 -1.209048730456458 5.826613507307331e-16 0.0062491027083323636 5.858064311643425e-16 3.748599315584641e-18 1.1626872989287747e-17 1.3855389941453735e-18
6025.496 -0.35200282588528164 -1.871556477900337 -1.6043548615362502 0.33444696855472134 1.9229608874098345 0.00016463890273075662 0.026504035741216826 0.021884235225429968 -0.02972571646292684 0.007840231790397181 -0.026504035523136373 -3.622317273420926e-06 0.6337187919132569 0.5224851174976115 -0.7093252694828655 0.18681035799495446 -0.6337187867018627 -8.65608819004458e-05 0.0394625524564795 0.7476251748600161 0.6314775989292792 0.06455430661725763 -0.008754922920592895 -1.3599676334136707e-06 0.5181433137535758 9.816318545912011 5.880445696749235 0.2933993235754359 -0.03979112467409471 -6.181052893865133e-06 -0.35200292268861944 -1.871556584035055 -1.6043546835528772 0.3344469666481018 1.922960877418518 0.0001646388991503045 0.026504036039114 0.021884234622120857 -0.02972571738064289 0.007840231992304325 -0.026504036039114 -3.622317308327183e-06 0.03946255147457123 0.7476251721382141 0.6314775943756104 0.06455430388450623 -0.00875492300838232 -1.359967654934735e-06 0.03946255147457123 0.7476251721382141 0.6314775943756104 0.06455430388450623 -0.00875492300838232 -1.359967654934735e-06 0.3000000029599025 -0.19978372295614366 0.4000000121885447 -1.209098641315462 1.2090487495860238 -1.2090488579037104 1.4259516771711255e-09 0.00772553955316858 1.0213014430995431e-10 2.1949126473947333e-09 5.991173384271346e-10 -2.1808015121654679e-10 6.958029487933451e-08 -6.461882474142733e-09 1.2538635002314764e-07 1.4577555193678592e-12 -9.1070961424445e-09 9.300099906989347e-10 0.2999999999999998 -0.19978368490624918 0.3999999999999994 -1.2090987223823242 1.2090487307044397 -1.2090487304564574 1.2421461233589806e-15 0.007725539062497295 -2.0524383353993103e-16 -2.4628824214782037e-16 1.0060165280968348e-15 2.406238181259304e-16
6025.504 -0.35177561888267217 -1.871368914639243 -1.604609612260373 0.33451414531101575 1.922733680409095 0.0001646078528498846 0.032318088151629946 0.026673402741605744 -0.03622536465669884 0.009550439579438477 -0.03231808788575554 -4.416188904078563e-06 0.72675655130164 0.598645939521972 -0.8124560242214999 0.213775973630162 -0.7267565453273959 -9.923395383220459e-05 0.0452486132334502 0.7515817760755188 0.6289909162578955 0.06519977666170605 -0.010040659705047566 -1.5590756746526366e-06 0.5941142917552011 9.868268719871562 5.857289210376775 0.29633298492745397 -0.04563479835944119 -7.085998941296233e-06 -0.35177547136415654 -1.871368710194723 -1.604609791432516 0.33451414108276367 1.9227336645126343 0.0001646078599151224 0.03231808915734291 0.02667340263724327 -0.03622536361217499 0.009550439193844795 -0.03231808915734291 -4.416188858158421e-06 0.0452486127614975 0.7515817880630493 0.628990888595581 0.06519977748394012 -0.010040659457445145 -1.5590757129757549e-06 0.0452486127614975 0.7515817880630493 0.628990888595581 0.06519977748394012 -0.010040659457445145 -1.5590757129757549e-06 0.2999999847703285 -0.19971740664256296 0.40000002145649227 -1.2090987753944549 1.2090486158159393 -1.2090486481948326 -2.0020711987233537e-09 0.009417798857269842 -1.0423155161741874e-09 4.475722383226841e-10 -7.549345993697112e-10 -2.6587493108574065e-10 1.5820728129160089e-06 -1.4152871959297352e-06 6.11906811284945e-07 6.62986042764465e-12 -1.2530392479357382e-07 1.1481539684902839e-07 0.2999999999999996 -0.19971746599999823 0.3999999999999993 -1.2090987223823242 1.209048730704439 -1.2090487304564574 1.3281708223478213e-15 0.00941779999999645 2.434357953035798e-15 -1.8476551362862218e-18 -5.332789152385697e-16 -5.388264217891712e-16
6025.512 -0.3514997943284577 -1.8711413250189928 -1.6049186748013486 0.33459560524528736 1.9224578558571495 0.0001645701659052526 0.0389286516361643 0.03211261369306717 -0.0436042825318642 0.01148983686254993 -0.038928651315970876 -5.318429426837357e-06 0.8263204355667946 0.6799013689326784 -0.9223647343956703 0.24242466038893168 -0.8263204287769169 -0.00011278006534484924 0.05143727350379768 0.7557778511596022 0.626338240336301 0.06588720617275842 -0.011416952119098996 -1.7719001377512982e-06 0.6753714011048636 9.923363185725577 5.832586961659702 0.29945735205518703 -0.051890047381304934 -8.05328612607965e-06 -0.35149985948671514 -1.87114125887026 -1.6049187819110315 0.33459559082984924 1.9224578142166138 0.00016457017045468092 0.03892865031957626 0.03211261332035065 -0.043604280799627304 0.011489836499094963 -0.03892865031957626 -5.318429430190008e-06 0.05143727362155914 0.7557778358459473 0.6263382434844971 0.0658872053027153 -0.01141695212572813 -1.7719000879878877e-06 0.05143727362155914 0.7557778358459473 0.6263382434844971 0.0658872053027153 -0.01141695212572813 -1.7719000879878877e-06 0.2999999742840724 -0.19963711907060022 0.3999999922603556 -1.2090986961228203 1.209048856647729 -1.209048770484447 1.5284466474669676e-10 0.011340600077235639 -1.9872669610490131e-10 -2.366996178664366e-09 -1.9266674040948842e-10 -3.201939479584121e-10 -7.51450195965615e-07 6.806720124283019e-07 1.614538557914482e-07 -8.786729296644983e-12 9.446315769521306e-08 -5.573044195057498e-08 0.2999999999999991 -0.19963710077333044 0.3999999999999988 -1.2090987223823242 1.209048730704439 -1.2090487304564574 2.3601242899935457e-15 0.01134060083332555 3.061534116120244e-15 -1.9767143369985828e-18 2.685935137029171e-16 -5.617892629721716e-16
6025.5199999999995 -0.35116883814401856 -1.8708684014928751 -1.605289224078735 0.33469321543072333 1.9221268996754317 0.00016452495618475197 0.046388452514941274 0.03824234719675556 -0.05191597752360256 0.013671449792127659 -0.046388452133482486 -6.3360486585218546e-06 0.9324751098471212 0.7662166879610485 -1.038961873967295 0.27270161619721606 -0.9324751021889511 -0.00012720240396056222 0.05803144896118803 0.7602064930750888 0.6235211247171483 0.06661574822110837 -0.012884822257498298 -1.998491102224833e-06 0.7619529248603989 9.981511254075915 5.806353417591029 0.30276857566493753 -0.058561517160329764 -9.083142059611866e-06 -0.35116893449892217 -1.8708685080157679 -1.6052892843829554 0.33469322323799133 1.9221268892288208 0.00016452495765406638 0.046388451009988785 0.03824234753847122 -0.0519159771502018 0.0136714493855834 -0.046388451009988785 -6.336048500088509e-06 0.05803144723176956 0.7602065205574036 0.6235211491584778 0.0666157454252243 -0.01288482267409563 -1.998491143240244e-06 0.05803144723176956 0.7602065205574036 0.6235211491584778 0.0666157454252243 -0.01288482267409563 -1.998491143240244e-06 0.30000000583155867 -0.19954074460843996 0.3999999464984728 -1.20909874154247 1.2090489451700306 -1.2090486982389246 1.218815288708288e-09 0.013508657754254739 1.0923598350693656e-09 -7.0326188336897926e-09 2.2479229597758917e-09 -3.814587708403285e-10 1.7258147777208738e-07 -6.247969937104622e-08 -1.2568483035183325e-06 2.086261303814108e-11 -1.3314138459006838e-07 7.014138100495845e-09 0.2999999999999986 -0.19954070566624565 0.39999999999999775 -1.2090987223823242 1.2090487307044397 -1.2090487304564574 4.755111599781369e-15 0.013508656874986645 5.488055638880538e-15 3.5901408751312265e-18 3.324071972524976e-16 -5.719926231452977e-16
6025.527999999999 -0.35077581237203503 -1.8705445137908487 -1.6057288602137083 0.3348089454016712 1.92173387390668 0.00016447128179551993 0.05475084084488243 0.04510274770305327 -0.061213095049691205 0.016107777229607437 -0.05475084039478813 -7.4760872388252515e-06 1.0452985412426445 0.8575500632872135 -1.1621396907610806 0.3045409296849723 -1.0452985326632052 -0.0001425048225379246 0.06503466758178722 0.7648600515805902 0.6205414943690079 0.06738436132204176 -0.014445502048982681 -2.2389091007625044e-06 0.8539051853488663 10.042612477253149 5.778606503863076 0.30626192220867976 -0.06565480681262628 -1.0175841862965582e-05 -0.3507760206805628 -1.870544735585348 -1.6057289282428187 0.33480894565582275 1.9217338562011719 0.00016447127563878894 0.05475084111094475 0.04510274901986122 -0.06121309474110603 0.016107777133584023 -0.05475084111094475 -7.47608737583505e-06 0.0650346651673317 0.7648600339889526 0.620541512966156 0.06738436222076416 -0.014445502310991287 -2.238909019069979e-06 0.0650346651673317 0.7648600339889526 0.620541512966156 0.06738436222076416 -0.014445502310991287 -2.238909019069979e-06 0.30000001109241936 -0.1994263625982308 0.3999999034003052 -1.2090987424794006 1.2090491444303824 -1.2090486950785078 3.916436978881085e-09 0.015936686527346304 2.749020724657231e-09 -1.5414335930932347e-08 4.01177564900831e-09 -4.500926626633485e-10 -1.3993791729631302e-06 1.4195779809273553e-06 -2.1286706914255788e-07 -1.0885476076636062e-11 1.5071291252151539e-07 -1.1509851062960355e-07 0.299999999999998 -0.19942627939624316 0.3999999999999964 -1.2090987223823244 1.2090487307044397 -1.2090487304564572 7.381455907072074e-15 0.015936683437479046 1.0824826161475882e-14 -9.597823796747696e-18 -6.312227976296689e-16 -6.394980311212693e-16
6025.536 -0.35031334978295803 -1.8701637118124594 -1.60624560108249 0.3349448626005014 1.9212714113214038 0.00016440814439706573 0.0640699106985028 0.052733560746976264 -0.07154725443229881 0.018810690927812505 -0.06406991017197694 -8.745622674782297e-06 1.1648837317025469 0.9538516304903747 -1.291769922825951 0.33786421227563346 -1.1648837221486015 -0.0001586919294946307 0.0724511510971448 0.7697300763069524 0.6174016961745462 0.0681917837933438 -0.016100460549149022 -2.4932265367267537e-06 0.9512836139055113 10.106555901910287 5.749368075116609 0.30993165734074757 -0.07317659319588231 -1.1331714609423094e-05 -0.35031348863710576 -1.8701637426959437 -1.6062458197223108 0.33494487404823303 1.9212714433670044 0.00016440814943052828 0.06406991183757782 0.05273355916142464 -0.0715472549200058 0.018810691311955452 -0.06406991183757782 -8.745622835704125e-06 0.072451151907444 0.7697300910949707 0.6174017190933228 0.0681917816400528 -0.016100460663437843 -2.493226475053234e-06 0.072451151907444 0.7697300910949707 0.6174017190933228 0.0681917816400528 -0.016100460663437843 -2.493226475053234e-06 0.29999998174538534 -0.19929174543132328 0.39999992921415983 -1.2090987763617824 1.2090490126616136 -1.209048643233395 2.6032090774498268e-09 0.018639396800056263 -3.8224002941201535e-10 -1.3747332094384941e-08 6.821050170593871e-09 -5.265250123145576e-10 -3.201723232518195e-07 2.4142295481369174e-07 -9.747967890178435e-07 1.098598894080084e-11 -5.5383731433189416e-08 -1.9258409429289745e-08 0.29999999999999666 -0.19929170295832307 0.3999999999999946 -1.2090987223823244 1.2090487307044402 -1.2090487304564572 1.0842068540501448e-14 0.018639395833298784 1.8041109788097635e-14 3.50429703896179e-16 -6.423825553466905e-16 -9.713507290445153e-16
6025.544 -0.3497736474690445 -1.869719729060158 -1.6068478734920024 0.3351031269871987 1.9207317090119254 0.0001643344888833537 0.07085774783696883 0.05826101039458467 -0.07901796724148763 0.02075364217493205 -0.07085774725489005 -9.668358263078481e-06 0.8484796423082527 0.690931205951051 -0.9338391011486021 0.24286890588994317 -0.848479635364139 -0.00011534194853702301 0.05273020507801223 0.7551016365298948 0.6259529447615755 0.06596443027483948 -0.0117334067600986 -1.812150169237228e-06 0.6923475926743007 9.91448448763752 5.828999012208743 0.2998083355991454 -0.05332833372464814 -8.236222519183201e-06 -0.3497737089740198 -1.8697198073016565 -1.6068480650531214 0.3351031243801117 1.9207316637039185 0.0001643344876356423 0.07085774838924408 0.05826101079583168 -0.07901796698570251 0.020753642544150352 -0.07085774838924408 -9.668357961345464e-06 0.05273020640015602 0.7551016211509705 0.625952959060669 0.06596443057060242 -0.011733407154679298 -1.8121501170753618e-06 0.05273020640015602 0.7551016211509705 0.625952959060669 0.06596443057060242 -0.011733407154679298 -1.8121501170753618e-06 0.3000000089435161 -0.19913476951697767 0.39999991909334365 -1.209098791560469 1.2090490419561855 -1.2090486193912182 1.0457069300716629e-09 0.020601439394926636 1.1520159681053574e-09 -1.848482962211946e-08 5.6509019018436265e-09 -5.820771299069812e-10 -1.207237655344392e-06 1.014542923827557e-06 -1.3867881627212364e-07 -1.062455434154415e-11 1.2471856396739357e-07 -8.131964193904547e-08 0.29999999999999494 -0.19913473962498457 0.39999999999999253 -1.2090987223823244 1.2090487307044384 -1.2090487304564574 1.7478933651246116e-14 0.020601437499948378 2.7183883913054546e-14 3.2306153666607807e-16 -1.3626375242326096e-15 -1.0001463328043936e-15
6025.552 -0.34917959086318273 -1.8692315544115425 -1.607509840179695 0.3352768912653887 1.9201376524109424 0.00016425344894080036 0.07765869292235932 0.06378142299496997 -0.08647053814432776 0.022685489819130576 -0.07765869228468836 -1.0591740383287523e-05 0.8501181356738111 0.6900515750481624 -0.931571362855016 0.2414809555248156 -0.8501181287247882 -0.00011542276502613021 0.052806056483321574 0.7546164623491565 0.6259705401316734 0.06595295564865183 -0.01175922423362847 -1.8134198860772013e-06 0.6933435216260123 9.908114150644426 5.82916286381417 0.2997561834231226 -0.053445674141841384 -8.241993382220879e-06 -0.34917956987489873 -1.8692315260516565 -1.6075099150287073 0.33527690172195435 1.920137643814087 0.00016425344801973552 0.07765869051218033 0.06378142535686493 -0.08647053688764572 0.022685490548610687 -0.07765869051218033 -1.0591740647214465e-05 0.052806057035923004 0.7546164393424988 0.6259705424308777 0.06595295667648315 -0.011759224347770214 -1.8134198853658745e-06 0.052806057035923004 0.7546164393424988 0.6259705424308777 0.06595295667648315 -0.011759224347770214 -1.8134198853658745e-06 0.29999999779623276 -0.19896207204305028 0.39999998989706037 -1.2090987440906207 1.2090487523433564 -1.2090486962463334 -2.0819626859359875e-09 0.022563478438598916 8.067929057897336e-10 -4.117442845913003e-09 -3.128144026712946e-09 -6.376716418035767e-10 -1.0304787028150265e-06 9.044965882329929e-07 3.619033247684625e-07 -1.5519253149858816e-11 1.5068384463769417e-07 -7.357845334277921e-08 0.29999999999999316 -0.1989620799583127 0.3999999999999897 -1.2090987223823246 1.2090487307044393 -1.2090487304564574 2.6073772955202932e-14 0.02256347916658924 3.7474974212649515e-14 3.153679206897356e-16 1.3055930376123084e-15 -6.801663256780678e-16
6025.5599999999995 -0.3485310700774171 -1.868699246847351 -1.6082313491552158 0.33546606243599886 1.9194891316305003 0.00016416501914463333 0.08447400239162037 0.06929412740104643 -0.09390325398363361 0.02460519197312217 -0.0844740016983148 -1.1515832238197632e-05 0.8519136836576315 0.6890880507595571 -0.9290894799132317 0.2399627692489495 -0.8519136767033055 -0.00011551148186376357 0.05288938338330995 0.7540870960054433 0.6259900561516177 0.06594031359787099 -0.011787509087389252 -1.8148137261706856e-06 0.6944376038228597 9.901163570551471 5.829344600895094 0.2996987253023236 -0.05357422880218415 -8.248328385445765e-06 -0.3485310713397425 -1.8686993757831019 -1.6082313696490687 0.33546605706214905 1.9194891452789307 0.00016416501603089273 0.08447400480508804 0.06929412484169006 -0.09390325099229813 0.024605192244052887 -0.08447400480508804 -1.1515831829456147e-05 0.052889384329319 0.7540870904922485 0.6259900331497192 0.06594031304121017 -0.01178750954568386 -1.8148136859963415e-06 0.052889384329319 0.7540870904922485 0.6259900331497192 0.06594031304121017 -0.01178750954568386 -1.8148136859963415e-06 0.3000000305380835 -0.19877373440690418 0.3999999487744362 -1.2090987964339261 1.2090488537280837 -1.2090486136230623 1.8927660630679807e-09 0.024525523744947937 1.9312224304147845e-09 -1.252989876821066e-08 3.805039325308375e-09 -6.933051515890108e-10 6.544501848317505e-07 -6.630154187284353e-07 7.578572024074272e-07 -4.205130543672408e-12 -1.7062652120204087e-08 5.639603983173388e-08 0.2999999999999911 -0.1987737239583073 0.3999999999999871 -1.209098722382324 1.2090487307044393 -1.2090487304564579 3.4982441024342716e-14 0.024525520833229824 5.16531259109276e-14 6.546737145975525e-16 -3.878444734202646e-17 -6.667741739559454e-16
6025.567999999999 -0.34782796516387293 -1.8681228707189668 -1.609012234738164 0.3356705391815369 1.918786026722725 0.00016406919356264473 0.09130493481431254 0.07479845208576906 -0.10131440545074281 0.026511710978961593 -0.09130493406532508 -1.2440697485931316e-05 0.8538665528365214 0.6880405855903288 -0.9263939333886504 0.23831487572992768 -0.8538665458762851 -0.00011560815596671049 0.052980200506416865 0.7535135797924075 0.6260114991182081 0.06592650786573015 -0.011818265536748397 -1.8163325837436515e-06 0.6956300326492535 9.893633302674312 5.829544282088578 0.29963597824974353 -0.05371401686452147 -8.255231593114896e-06 -0.3478277365313929 -1.8681228796588343 -1.6090124289142054 0.335670530796051 1.9187860488891602 0.00016406919166911393 0.09130493551492691 0.07479844987392426 -0.10131440311670303 0.02651171013712883 -0.09130493551492691 -1.244069790118374e-05 0.052980199456214905 0.7535135746002197 0.6260114908218384 0.06592650711536407 -0.011818265542387962 -1.8163325421483023e-06 0.052980199456214905 0.7535135746002197 0.6260114908218384 0.06592650711536407 -0.011818265542387962 -1.8163325421483023e-06 0.3000000509211199 -0.1985696032218767 0.39999994218149315 -1.2090989342608933 1.209048726552307 -1.2090483986689238 -6.158358679760795e-09 0.026487563249396766 -1.9402839115031716e-10 -1.790962961515474e-08 7.2585233688074196e-09 -7.489853743932236e-10 1.265642529613193e-07 -5.2135120201733895e-08 3.1905532380725414e-07 -2.3387955214674767e-12 1.0081560188678856e-08 4.297876959042313e-09 0.2999999999999891 -0.1985696716249683 0.39999999999998387 -1.2090987223823244 1.20904873070444 -1.2090487304564577 4.525108209980252e-14 0.02648756249986957 6.464216574610998e-14 -3.026874735098692e-16 -3.366889861568777e-17 6.083586677760218e-17
