Fleaurent/UniversalRobot/csv/robolib_movel_x400_Singular_Zeit.csv
timestamp target_q_0 target_q_1 target_q_2 target_q_3 target_q_4 target_q_5 target_qd_0 target_qd_1 target_qd_2 target_qd_3 target_qd_4 target_qd_5 target_qdd_0 target_qdd_1 target_qdd_2 target_qdd_3 target_qdd_4 target_qdd_5 target_current_0 target_current_1 target_current_2 target_current_3 target_current_4 target_current_5 target_moment_0 target_moment_1 target_moment_2 target_moment_3 target_moment_4 target_moment_5 actual_q_0 actual_q_1 actual_q_2 actual_q_3 actual_q_4 actual_q_5 actual_qd_0 actual_qd_1 actual_qd_2 actual_qd_3 actual_qd_4 actual_qd_5 actual_current_0 actual_current_1 actual_current_2 actual_current_3 actual_current_4 actual_current_5 joint_control_output_0 joint_control_output_1 joint_control_output_2 joint_control_output_3 joint_control_output_4 joint_control_output_5 actual_TCP_pose_0 actual_TCP_pose_1 actual_TCP_pose_2 actual_TCP_pose_3 actual_TCP_pose_4 actual_TCP_pose_5 actual_TCP_speed_0 actual_TCP_speed_1 actual_TCP_speed_2 actual_TCP_speed_3 actual_TCP_speed_4 actual_TCP_speed_5 actual_TCP_force_0 actual_TCP_force_1 actual_TCP_force_2 actual_TCP_force_3 actual_TCP_force_4 actual_TCP_force_5 target_TCP_pose_0 target_TCP_pose_1 target_TCP_pose_2 target_TCP_pose_3 target_TCP_pose_4 target_TCP_pose_5 target_TCP_speed_0 target_TCP_speed_1 target_TCP_speed_2 target_TCP_speed_3 target_TCP_speed_4 target_TCP_speed_5
6168.0 -0.5325564460622898 -1.5953254434050104 -1.9350577238206403 0.38893029262324835 2.1035145059768503 0.0001913808015903128 0.0 0.0 0.0 0.0 0.0 0.0 0.0 0.0 0.0 0.0 0.0 0.0 9.126492051137239e-18 0.4707330261765891 0.6334416680007949 0.055181001037467085 -4.550112770478445e-06 0.0 1.1983084063143194e-16 6.180724633698615 5.898735500757002 0.2507976497152879 -2.0680262541824532e-05 0.0 -0.5325563589679163 -1.5953252951251429 -1.9350579420672815 0.3889302909374237 2.1035144329071045 0.00019138080824632198 0.0 0.0 0.0 0.0 0.0 0.0 9.126492147811918e-18 0.47073301672935486 0.633441686630249 0.055181000381708145 -4.550112862489186e-06 0.0 9.126492147811918e-18 0.47073301672935486 0.633441686630249 0.055181000381708145 -4.550112862489186e-06 0.0 0.19999998670079064 -0.1999999704610756 0.3999999820253386 -1.2090987476551505 1.2090487830418655 -1.2090486641472589 0.0 0.0 0.0 0.0 0.0 0.0 -7.151161839831541e-07 1.2111828474217765e-06 -3.8993763433588525e-07 -2.065595931891045e-12 8.658785775758427e-08 -9.921333770371297e-08 0.19999999999999996 -0.20000000000000004 0.3999999999999999 -1.2090987223823195 1.2090487307044444 -1.2090487304564634 0.0 0.0 0.0 0.0 0.0 0.0
6168.008 -0.5325564460622898 -1.5953254434050104 -1.9350577238206403 0.38893029262324835 2.1035145059768503 0.0001913808015903128 0.0 0.0 0.0 0.0 0.0 0.0 0.0 0.0 0.0 0.0 0.0 0.0 9.126492051137239e-18 0.4707330261765891 0.6334416680007949 0.055181001037467085 -4.550112770478445e-06 0.0 1.1983084063143194e-16 6.180724633698615 5.898735500757002 0.2507976497152879 -2.0680262541824532e-05 0.0 -0.5325563589679163 -1.5953252951251429 -1.9350579420672815 0.3889302909374237 2.1035144329071045 0.00019138080824632198 0.0 0.0 0.0 0.0 0.0 0.0 9.126492147811918e-18 0.47073301672935486 0.633441686630249 0.055181000381708145 -4.550112862489186e-06 0.0 9.126492147811918e-18 0.47073301672935486 0.633441686630249 0.055181000381708145 -4.550112862489186e-06 0.0 0.19999998670079064 -0.1999999704610756 0.3999999820253386 -1.2090987476551505 1.2090487830418655 -1.2090486641472589 0.0 0.0 0.0 0.0 0.0 0.0 -7.151161839831541e-07 1.2111828474217765e-06 -3.8993763433588525e-07 -2.065595931891045e-12 8.658785775758427e-08 -9.921333770371297e-08 0.19999999999999996 -0.20000000000000004 0.3999999999999999 -1.2090987223823195 1.2090487307044444 -1.2090487304564634 0.0 0.0 0.0 0.0 0.0 0.0
6168.016 -0.5325564460622898 -1.5953254434050104 -1.9350577238206403 0.38893029262324835 2.1035145059768503 0.0001913808015903128 0.0 0.0 0.0 0.0 0.0 0.0 0.0 0.0 0.0 0.0 0.0 0.0 9.126492051137239e-18 0.4707330261765891 0.6334416680007949 0.055181001037467085 -4.550112770478445e-06 0.0 1.1983084063143194e-16 6.180724633698615 5.898735500757002 0.2507976497152879 -2.0680262541824532e-05 0.0 -0.5325563589679163 -1.5953252951251429 -1.9350579420672815 0.3889302909374237 2.1035144329071045 0.00019138080824632198 0.0 0.0 0.0 0.0 0.0 0.0 9.126492147811918e-18 0.47073301672935486 0.633441686630249 0.055181000381708145 -4.550112862489186e-06 0.0 9.126492147811918e-18 0.47073301672935486 0.633441686630249 0.055181000381708145 -4.550112862489186e-06 0.0 0.19999998670079064 -0.1999999704610756 0.3999999820253386 -1.2090987476551505 1.2090487830418655 -1.2090486641472589 0.0 0.0 0.0 0.0 0.0 0.0 -7.151161839831541e-07 1.2111828474217765e-06 -3.8993763433588525e-07 -2.065595931891045e-12 8.658785775758427e-08 -9.921333770371297e-08 0.19999999999999996 -0.20000000000000004 0.3999999999999999 -1.2090987223823195 1.2090487307044444 -1.2090487304564634 0.0 0.0 0.0 0.0 0.0 0.0
6168.023999999999 -0.5325564460622898 -1.5953254434050104 -1.9350577238206403 0.38893029262324835 2.1035145059768503 0.0001913808015903128 0.0 0.0 0.0 0.0 0.0 0.0 0.0 0.0 0.0 0.0 0.0 0.0 9.126492051137239e-18 0.4707330261765891 0.6334416680007949 0.055181001037467085 -4.550112770478445e-06 0.0 1.1983084063143194e-16 6.180724633698615 5.898735500757002 0.2507976497152879 -2.0680262541824532e-05 0.0 -0.5325563589679163 -1.5953252951251429 -1.9350579420672815 0.3889302909374237 2.1035144329071045 0.00019138080824632198 0.0 0.0 0.0 0.0 0.0 0.0 9.126492147811918e-18 0.47073301672935486 0.633441686630249 0.055181000381708145 -4.550112862489186e-06 0.0 9.126492147811918e-18 0.47073301672935486 0.633441686630249 0.055181000381708145 -4.550112862489186e-06 0.0 0.19999998670079064 -0.1999999704610756 0.3999999820253386 -1.2090987476551505 1.2090487830418655 -1.2090486641472589 0.0 0.0 0.0 0.0 0.0 0.0 -7.151161839831541e-07 1.2111828474217765e-06 -3.8993763433588525e-07 -2.065595931891045e-12 8.658785775758427e-08 -9.921333770371297e-08 0.19999999999999996 -0.20000000000000004 0.3999999999999999 -1.2090987223823195 1.2090487307044444 -1.2090487304564634 0.0 0.0 0.0 0.0 0.0 0.0
6168.032 -0.5325564460622898 -1.5953254434050104 -1.9350577238206403 0.38893029262324835 2.1035145059768503 0.0001913808015903128 0.0 0.0 0.0 0.0 0.0 0.0 0.0 0.0 0.0 0.0 0.0 0.0 9.126492051137239e-18 0.4707330261765891 0.6334416680007949 0.055181001037467085 -4.550112770478445e-06 0.0 1.1983084063143194e-16 6.180724633698615 5.898735500757002 0.2507976497152879 -2.0680262541824532e-05 0.0 -0.5325563589679163 -1.5953252951251429 -1.9350579420672815 0.3889302909374237 2.1035144329071045 0.00019138080824632198 0.0 0.0 0.0 0.0 0.0 0.0 9.126492147811918e-18 0.47073301672935486 0.633441686630249 0.055181000381708145 -4.550112862489186e-06 0.0 9.126492147811918e-18 0.47073301672935486 0.633441686630249 0.055181000381708145 -4.550112862489186e-06 0.0 0.19999998670079064 -0.1999999704610756 0.3999999820253386 -1.2090987476551505 1.2090487830418655 -1.2090486641472589 0.0 0.0 0.0 0.0 0.0 0.0 -7.151161839831541e-07 1.2111828474217765e-06 -3.8993763433588525e-07 -2.065595931891045e-12 8.658785775758427e-08 -9.921333770371297e-08 0.19999999999999996 -0.20000000000000004 0.3999999999999999 -1.2090987223823195 1.2090487307044444 -1.2090487304564634 0.0 0.0 0.0 0.0 0.0 0.0
6168.04 -0.5325564460622898 -1.5953254434050104 -1.9350577238206403 0.38893029262324835 2.1035145059768503 0.0001913808015903128 0.0 0.0 0.0 0.0 0.0 0.0 0.0 0.0 0.0 0.0 0.0 0.0 9.126492051137239e-18 0.4707330261765891 0.6334416680007949 0.055181001037467085 -4.550112770478445e-06 0.0 1.1983084063143194e-16 6.180724633698615 5.898735500757002 0.2507976497152879 -2.0680262541824532e-05 0.0 -0.5325563589679163 -1.5953252951251429 -1.9350579420672815 0.3889302909374237 2.1035144329071045 0.00019138080824632198 0.0 0.0 0.0 0.0 0.0 0.0 9.126492147811918e-18 0.47073301672935486 0.633441686630249 0.055181000381708145 -4.550112862489186e-06 0.0 9.126492147811918e-18 0.47073301672935486 0.633441686630249 0.055181000381708145 -4.550112862489186e-06 0.0 0.19999998670079064 -0.1999999704610756 0.3999999820253386 -1.2090987476551505 1.2090487830418655 -1.2090486641472589 0.0 0.0 0.0 0.0 0.0 0.0 -7.151161839831541e-07 1.2111828474217765e-06 -3.8993763433588525e-07 -2.065595931891045e-12 8.658785775758427e-08 -9.921333770371297e-08 0.19999999999999996 -0.20000000000000004 0.3999999999999999 -1.2090987223823195 1.2090487307044444 -1.2090487304564634 0.0 0.0 0.0 0.0 0.0 0.0
6168.048 -0.5325564460622898 -1.5953254434050104 -1.9350577238206403 0.38893029262324835 2.1035145059768503 0.0001913808015903128 0.0 0.0 0.0 0.0 0.0 0.0 0.0 0.0 0.0 0.0 0.0 0.0 9.126492051137239e-18 0.4707330261765891 0.6334416680007949 0.055181001037467085 -4.550112770478445e-06 0.0 1.1983084063143194e-16 6.180724633698615 5.898735500757002 0.2507976497152879 -2.0680262541824532e-05 0.0 -0.5325563589679163 -1.5953252951251429 -1.9350579420672815 0.3889302909374237 2.1035144329071045 0.00019138080824632198 0.0 0.0 0.0 0.0 0.0 0.0 9.126492147811918e-18 0.47073301672935486 0.633441686630249 0.055181000381708145 -4.550112862489186e-06 0.0 9.126492147811918e-18 0.47073301672935486 0.633441686630249 0.055181000381708145 -4.550112862489186e-06 0.0 0.19999998670079064 -0.1999999704610756 0.3999999820253386 -1.2090987476551505 1.2090487830418655 -1.2090486641472589 0.0 0.0 0.0 0.0 0.0 0.0 -7.151161839831541e-07 1.2111828474217765e-06 -3.8993763433588525e-07 -2.065595931891045e-12 8.658785775758427e-08 -9.921333770371297e-08 0.19999999999999996 -0.20000000000000004 0.3999999999999999 -1.2090987223823195 1.2090487307044444 -1.2090487304564634 0.0 0.0 0.0 0.0 0.0 0.0
6168.056 -0.5325564460622898 -1.5953254434050104 -1.9350577238206403 0.38893029262324835 2.1035145059768503 0.0001913808015903128 0.0 0.0 0.0 0.0 0.0 0.0 0.0 0.0 0.0 0.0 0.0 0.0 9.126492051137239e-18 0.4707330261765891 0.6334416680007949 0.055181001037467085 -4.550112770478445e-06 0.0 1.1983084063143194e-16 6.180724633698615 5.898735500757002 0.2507976497152879 -2.0680262541824532e-05 0.0 -0.5325563589679163 -1.5953252951251429 -1.9350579420672815 0.3889302909374237 2.1035144329071045 0.00019138080824632198 0.0 0.0 0.0 0.0 0.0 0.0 9.126492147811918e-18 0.47073301672935486 0.633441686630249 0.055181000381708145 -4.550112862489186e-06 0.0 9.126492147811918e-18 0.47073301672935486 0.633441686630249 0.055181000381708145 -4.550112862489186e-06 0.0 0.19999998670079064 -0.1999999704610756 0.3999999820253386 -1.2090987476551505 1.2090487830418655 -1.2090486641472589 0.0 0.0 0.0 0.0 0.0 0.0 -7.151161839831541e-07 1.2111828474217765e-06 -3.8993763433588525e-07 -2.065595931891045e-12 8.658785775758427e-08 -9.921333770371297e-08 0.19999999999999996 -0.20000000000000004 0.3999999999999999 -1.2090987223823195 1.2090487307044444 -1.2090487304564634 0.0 0.0 0.0 0.0 0.0 0.0
6168.063999999999 -0.5325564460622898 -1.5953254434050104 -1.9350577238206403 0.38893029262324835 2.1035145059768503 0.0001913808015903128 0.0 0.0 0.0 0.0 0.0 0.0 0.0 0.0 0.0 0.0 0.0 0.0 9.126492051137239e-18 0.4707330261765891 0.6334416680007949 0.055181001037467085 -4.550112770478445e-06 0.0 1.1983084063143194e-16 6.180724633698615 5.898735500757002 0.2507976497152879 -2.0680262541824532e-05 0.0 -0.5325563589679163 -1.5953252951251429 -1.9350579420672815 0.3889302909374237 2.1035144329071045 0.00019138080824632198 0.0 0.0 0.0 0.0 0.0 0.0 9.126492147811918e-18 0.47073301672935486 0.633441686630249 0.055181000381708145 -4.550112862489186e-06 0.0 9.126492147811918e-18 0.47073301672935486 0.633441686630249 0.055181000381708145 -4.550112862489186e-06 0.0 0.19999998670079064 -0.1999999704610756 0.3999999820253386 -1.2090987476551505 1.2090487830418655 -1.2090486641472589 0.0 0.0 0.0 0.0 0.0 0.0 -7.151161839831541e-07 1.2111828474217765e-06 -3.8993763433588525e-07 -2.065595931891045e-12 8.658785775758427e-08 -9.921333770371297e-08 0.19999999999999996 -0.20000000000000004 0.3999999999999999 -1.2090987223823195 1.2090487307044444 -1.2090487304564634 0.0 0.0 0.0 0.0 0.0 0.0
6168.072 -0.5325564460622898 -1.5953254434050104 -1.9350577238206403 0.38893029262324835 2.1035145059768503 0.0001913808015903128 0.0 0.0 0.0 0.0 0.0 0.0 0.0 0.0 0.0 0.0 0.0 0.0 9.126492051137239e-18 0.4707330261765891 0.6334416680007949 0.055181001037467085 -4.550112770478445e-06 0.0 1.1983084063143194e-16 6.180724633698615 5.898735500757002 0.2507976497152879 -2.0680262541824532e-05 0.0 -0.5325563589679163 -1.5953252951251429 -1.9350579420672815 0.3889302909374237 2.1035144329071045 0.00019138080824632198 0.0 0.0 0.0 0.0 0.0 0.0 9.126492147811918e-18 0.47073301672935486 0.633441686630249 0.055181000381708145 -4.550112862489186e-06 0.0 9.126492147811918e-18 0.47073301672935486 0.633441686630249 0.055181000381708145 -4.550112862489186e-06 0.0 0.19999998670079064 -0.1999999704610756 0.3999999820253386 -1.2090987476551505 1.2090487830418655 -1.2090486641472589 0.0 0.0 0.0 0.0 0.0 0.0 -7.151161839831541e-07 1.2111828474217765e-06 -3.8993763433588525e-07 -2.065595931891045e-12 8.658785775758427e-08 -9.921333770371297e-08 0.19999999999999996 -0.20000000000000004 0.3999999999999999 -1.2090987223823195 1.2090487307044444 -1.2090487304564634 0.0 0.0 0.0 0.0 0.0 0.0
6168.08 -0.5325564460622898 -1.5953254434050104 -1.9350577238206403 0.38893029262324835 2.1035145059768503 0.0001913808015903128 0.0 0.0 0.0 0.0 0.0 0.0 0.0 0.0 0.0 0.0 0.0 0.0 9.126492051137239e-18 0.4707330261765891 0.6334416680007949 0.055181001037467085 -4.550112770478445e-06 0.0 1.1983084063143194e-16 6.180724633698615 5.898735500757002 0.2507976497152879 -2.0680262541824532e-05 0.0 -0.5325563589679163 -1.5953252951251429 -1.9350579420672815 0.3889302909374237 2.1035144329071045 0.00019138080824632198 0.0 0.0 0.0 0.0 0.0 0.0 9.126492147811918e-18 0.47073301672935486 0.633441686630249 0.055181000381708145 -4.550112862489186e-06 0.0 9.126492147811918e-18 0.47073301672935486 0.633441686630249 0.055181000381708145 -4.550112862489186e-06 0.0 0.19999998670079064 -0.1999999704610756 0.3999999820253386 -1.2090987476551505 1.2090487830418655 -1.2090486641472589 0.0 0.0 0.0 0.0 0.0 0.0 -7.151161839831541e-07 1.2111828474217765e-06 -3.8993763433588525e-07 -2.065595931891045e-12 8.658785775758427e-08 -9.921333770371297e-08 0.19999999999999996 -0.20000000000000004 0.3999999999999999 -1.2090987223823195 1.2090487307044444 -1.2090487304564634 0.0 0.0 0.0 0.0 0.0 0.0
6168.088 -0.5325564460622898 -1.5953254434050104 -1.9350577238206403 0.38893029262324835 2.1035145059768503 0.0001913808015903128 0.0 0.0 0.0 0.0 0.0 0.0 0.0 0.0 0.0 0.0 0.0 0.0 9.126492051137239e-18 0.4707330261765891 0.6334416680007949 0.055181001037467085 -4.550112770478445e-06 0.0 1.1983084063143194e-16 6.180724633698615 5.898735500757002 0.2507976497152879 -2.0680262541824532e-05 0.0 -0.5325563589679163 -1.5953252951251429 -1.9350579420672815 0.3889302909374237 2.1035144329071045 0.00019138080824632198 0.0 0.0 0.0 0.0 0.0 0.0 9.126492147811918e-18 0.47073301672935486 0.633441686630249 0.055181000381708145 -4.550112862489186e-06 0.0 9.126492147811918e-18 0.47073301672935486 0.633441686630249 0.055181000381708145 -4.550112862489186e-06 0.0 0.19999998670079064 -0.1999999704610756 0.3999999820253386 -1.2090987476551505 1.2090487830418655 -1.2090486641472589 0.0 0.0 0.0 0.0 0.0 0.0 -7.151161839831541e-07 1.2111828474217765e-06 -3.8993763433588525e-07 -2.065595931891045e-12 8.658785775758427e-08 -9.921333770371297e-08 0.19999999999999996 -0.20000000000000004 0.3999999999999999 -1.2090987223823195 1.2090487307044444 -1.2090487304564634 0.0 0.0 0.0 0.0 0.0 0.0
6168.096 -0.5325564460622898 -1.5953254434050104 -1.9350577238206403 0.38893029262324835 2.1035145059768503 0.0001913808015903128 0.0 0.0 0.0 0.0 0.0 0.0 0.0 0.0 0.0 0.0 0.0 0.0 9.126492051137239e-18 0.4707330261765891 0.6334416680007949 0.055181001037467085 -4.550112770478445e-06 0.0 1.1983084063143194e-16 6.180724633698615 5.898735500757002 0.2507976497152879 -2.0680262541824532e-05 0.0 -0.5325563589679163 -1.5953252951251429 -1.9350579420672815 0.3889302909374237 2.1035144329071045 0.00019138080824632198 0.0 0.0 0.0 0.0 0.0 0.0 9.126492147811918e-18 0.47073301672935486 0.633441686630249 0.055181000381708145 -4.550112862489186e-06 0.0 9.126492147811918e-18 0.47073301672935486 0.633441686630249 0.055181000381708145 -4.550112862489186e-06 0.0 0.19999998670079064 -0.1999999704610756 0.3999999820253386 -1.2090987476551505 1.2090487830418655 -1.2090486641472589 0.0 0.0 0.0 0.0 0.0 0.0 -7.151161839831541e-07 1.2111828474217765e-06 -3.8993763433588525e-07 -2.065595931891045e-12 8.658785775758427e-08 -9.921333770371297e-08 0.19999999999999996 -0.20000000000000004 0.3999999999999999 -1.2090987223823195 1.2090487307044444 -1.2090487304564634 0.0 0.0 0.0 0.0 0.0 0.0
6168.103999999999 -0.5325564460622898 -1.5953254434050104 -1.9350577238206403 0.38893029262324835 2.1035145059768503 0.0001913808015903128 0.0 0.0 0.0 0.0 0.0 0.0 0.0 0.0 0.0 0.0 0.0 0.0 9.126492051137239e-18 0.4707330261765891 0.6334416680007949 0.055181001037467085 -4.550112770478445e-06 0.0 1.1983084063143194e-16 6.180724633698615 5.898735500757002 0.2507976497152879 -2.0680262541824532e-05 0.0 -0.5325563589679163 -1.5953252951251429 -1.9350579420672815 0.3889302909374237 2.1035144329071045 0.00019138080824632198 0.0 0.0 0.0 0.0 0.0 0.0 9.126492147811918e-18 0.47073301672935486 0.633441686630249 0.055181000381708145 -4.550112862489186e-06 0.0 9.126492147811918e-18 0.47073301672935486 0.633441686630249 0.055181000381708145 -4.550112862489186e-06 0.0 0.19999998670079064 -0.1999999704610756 0.3999999820253386 -1.2090987476551505 1.2090487830418655 -1.2090486641472589 0.0 0.0 0.0 0.0 0.0 0.0 -7.151161839831541e-07 1.2111828474217765e-06 -3.8993763433588525e-07 -2.065595931891045e-12 8.658785775758427e-08 -9.921333770371297e-08 0.19999999999999996 -0.20000000000000004 0.3999999999999999 -1.2090987223823195 1.2090487307044444 -1.2090487304564634 0.0 0.0 0.0 0.0 0.0 0.0
6168.112 -0.5325564460622898 -1.5953254434050104 -1.9350577238206403 0.38893029262324835 2.1035145059768503 0.0001913808015903128 0.0 0.0 0.0 0.0 0.0 0.0 0.0 0.0 0.0 0.0 0.0 0.0 9.126492051137239e-18 0.4707330261765891 0.6334416680007949 0.055181001037467085 -4.550112770478445e-06 0.0 1.1983084063143194e-16 6.180724633698615 5.898735500757002 0.2507976497152879 -2.0680262541824532e-05 0.0 -0.5325563589679163 -1.5953252951251429 -1.9350579420672815 0.3889302909374237 2.1035144329071045 0.00019138080824632198 0.0 0.0 0.0 0.0 0.0 0.0 9.126492147811918e-18 0.47073301672935486 0.633441686630249 0.055181000381708145 -4.550112862489186e-06 0.0 9.126492147811918e-18 0.47073301672935486 0.633441686630249 0.055181000381708145 -4.550112862489186e-06 0.0 0.19999998670079064 -0.1999999704610756 0.3999999820253386 -1.2090987476551505 1.2090487830418655 -1.2090486641472589 0.0 0.0 0.0 0.0 0.0 0.0 -7.151161839831541e-07 1.2111828474217765e-06 -3.8993763433588525e-07 -2.065595931891045e-12 8.658785775758427e-08 -9.921333770371297e-08 0.19999999999999996 -0.20000000000000004 0.3999999999999999 -1.2090987223823195 1.2090487307044444 -1.2090487304564634 0.0 0.0 0.0 0.0 0.0 0.0
6168.12 -0.5325564460622898 -1.5953254434050104 -1.9350577238206403 0.38893029262324835 2.1035145059768503 0.0001913808015903128 0.0 0.0 0.0 0.0 0.0 0.0 0.0 0.0 0.0 0.0 0.0 0.0 9.126492051137239e-18 0.4707330261765891 0.6334416680007949 0.055181001037467085 -4.550112770478445e-06 0.0 1.1983084063143194e-16 6.180724633698615 5.898735500757002 0.2507976497152879 -2.0680262541824532e-05 0.0 -0.5325563589679163 -1.5953252951251429 -1.9350579420672815 0.3889302909374237 2.1035144329071045 0.00019138080824632198 0.0 0.0 0.0 0.0 0.0 0.0 9.126492147811918e-18 0.47073301672935486 0.633441686630249 0.055181000381708145 -4.550112862489186e-06 0.0 9.126492147811918e-18 0.47073301672935486 0.633441686630249 0.055181000381708145 -4.550112862489186e-06 0.0 0.19999998670079064 -0.1999999704610756 0.3999999820253386 -1.2090987476551505 1.2090487830418655 -1.2090486641472589 0.0 0.0 0.0 0.0 0.0 0.0 -7.151161839831541e-07 1.2111828474217765e-06 -3.8993763433588525e-07 -2.065595931891045e-12 8.658785775758427e-08 -9.921333770371297e-08 0.19999999999999996 -0.20000000000000004 0.3999999999999999 -1.2090987223823195 1.2090487307044444 -1.2090487304564634 0.0 0.0 0.0 0.0 0.0 0.0
6168.128 -0.5325564460622898 -1.5953254434050104 -1.9350577238206403 0.38893029262324835 2.1035145059768503 0.0001913808015903128 0.0 0.0 0.0 0.0 0.0 0.0 0.0 0.0 0.0 0.0 0.0 0.0 9.126492051137239e-18 0.4707330261765891 0.6334416680007949 0.055181001037467085 -4.550112770478445e-06 0.0 1.1983084063143194e-16 6.180724633698615 5.898735500757002 0.2507976497152879 -2.0680262541824532e-05 0.0 -0.5325563589679163 -1.5953252951251429 -1.9350579420672815 0.3889302909374237 2.1035144329071045 0.00019138080824632198 0.0 0.0 0.0 0.0 0.0 0.0 9.126492147811918e-18 0.47073301672935486 0.633441686630249 0.055181000381708145 -4.550112862489186e-06 0.0 9.126492147811918e-18 0.47073301672935486 0.633441686630249 0.055181000381708145 -4.550112862489186e-06 0.0 0.19999998670079064 -0.1999999704610756 0.3999999820253386 -1.2090987476551505 1.2090487830418655 -1.2090486641472589 0.0 0.0 0.0 0.0 0.0 0.0 -7.151161839831541e-07 1.2111828474217765e-06 -3.8993763433588525e-07 -2.065595931891045e-12 8.658785775758427e-08 -9.921333770371297e-08 0.19999999999999996 -0.20000000000000004 0.3999999999999999 -1.2090987223823195 1.2090487307044444 -1.2090487304564634 0.0 0.0 0.0 0.0 0.0 0.0
6168.1359999999995 -0.5325564460622898 -1.5953254434050104 -1.9350577238206403 0.38893029262324835 2.1035145059768503 0.0001913808015903128 0.0 0.0 0.0 0.0 0.0 0.0 0.0 0.0 0.0 0.0 0.0 0.0 9.126492051137239e-18 0.4707330261765891 0.6334416680007949 0.055181001037467085 -4.550112770478445e-06 0.0 1.1983084063143194e-16 6.180724633698615 5.898735500757002 0.2507976497152879 -2.0680262541824532e-05 0.0 -0.5325563589679163 -1.5953252951251429 -1.9350579420672815 0.3889302909374237 2.1035144329071045 0.00019138080824632198 0.0 0.0 0.0 0.0 0.0 0.0 9.126492147811918e-18 0.47073301672935486 0.633441686630249 0.055181000381708145 -4.550112862489186e-06 0.0 9.126492147811918e-18 0.47073301672935486 0.633441686630249 0.055181000381708145 -4.550112862489186e-06 0.0 0.19999998670079064 -0.1999999704610756 0.3999999820253386 -1.2090987476551505 1.2090487830418655 -1.2090486641472589 0.0 0.0 0.0 0.0 0.0 0.0 -7.151161839831541e-07 1.2111828474217765e-06 -3.8993763433588525e-07 -2.065595931891045e-12 8.658785775758427e-08 -9.921333770371297e-08 0.19999999999999996 -0.20000000000000004 0.3999999999999999 -1.2090987223823195 1.2090487307044444 -1.2090487304564634 0.0 0.0 0.0 0.0 0.0 0.0
6168.143999999999 -0.5325564460622898 -1.5953254434050104 -1.9350577238206403 0.38893029262324835 2.1035145059768503 0.0001913808015903128 0.0 0.0 0.0 0.0 0.0 0.0 0.0 0.0 0.0 0.0 0.0 0.0 9.126492051137239e-18 0.4707330261765891 0.6334416680007949 0.055181001037467085 -4.550112770478445e-06 0.0 1.1983084063143194e-16 6.180724633698615 5.898735500757002 0.2507976497152879 -2.0680262541824532e-05 0.0 -0.5325563589679163 -1.5953252951251429 -1.9350579420672815 0.3889302909374237 2.1035144329071045 0.00019138080824632198 0.0 0.0 0.0 0.0 0.0 0.0 9.126492147811918e-18 0.47073301672935486 0.633441686630249 0.055181000381708145 -4.550112862489186e-06 0.0 9.126492147811918e-18 0.47073301672935486 0.633441686630249 0.055181000381708145 -4.550112862489186e-06 0.0 0.19999998670079064 -0.1999999704610756 0.3999999820253386 -1.2090987476551505 1.2090487830418655 -1.2090486641472589 0.0 0.0 0.0 0.0 0.0 0.0 -7.151161839831541e-07 1.2111828474217765e-06 -3.8993763433588525e-07 -2.065595931891045e-12 8.658785775758427e-08 -9.921333770371297e-08 0.19999999999999996 -0.20000000000000004 0.3999999999999999 -1.2090987223823195 1.2090487307044444 -1.2090487304564634 0.0 0.0 0.0 0.0 0.0 0.0
6168.152 -0.5325564460622898 -1.5953254434050104 -1.9350577238206403 0.38893029262324835 2.1035145059768503 0.0001913808015903128 0.0 0.0 0.0 0.0 0.0 0.0 0.0 0.0 0.0 0.0 0.0 0.0 9.126492051137239e-18 0.4707330261765891 0.6334416680007949 0.055181001037467085 -4.550112770478445e-06 0.0 1.1983084063143194e-16 6.180724633698615 5.898735500757002 0.2507976497152879 -2.0680262541824532e-05 0.0 -0.5325563589679163 -1.5953252951251429 -1.9350579420672815 0.3889302909374237 2.1035144329071045 0.00019138080824632198 0.0 0.0 0.0 0.0 0.0 0.0 9.126492147811918e-18 0.47073301672935486 0.633441686630249 0.055181000381708145 -4.550112862489186e-06 0.0 9.126492147811918e-18 0.47073301672935486 0.633441686630249 0.055181000381708145 -4.550112862489186e-06 0.0 0.19999998670079064 -0.1999999704610756 0.3999999820253386 -1.2090987476551505 1.2090487830418655 -1.2090486641472589 0.0 0.0 0.0 0.0 0.0 0.0 -7.151161839831541e-07 1.2111828474217765e-06 -3.8993763433588525e-07 -2.065595931891045e-12 8.658785775758427e-08 -9.921333770371297e-08 0.19999999999999996 -0.20000000000000004 0.3999999999999999 -1.2090987223823195 1.2090487307044444 -1.2090487304564634 0.0 0.0 0.0 0.0 0.0 0.0
6168.16 -0.5325564460622898 -1.5953254434050104 -1.9350577238206403 0.38893029262324835 2.1035145059768503 0.0001913808015903128 0.0 0.0 0.0 0.0 0.0 0.0 0.0 0.0 0.0 0.0 0.0 0.0 9.126492051137239e-18 0.4707330261765891 0.6334416680007949 0.055181001037467085 -4.550112770478445e-06 0.0 1.1983084063143194e-16 6.180724633698615 5.898735500757002 0.2507976497152879 -2.0680262541824532e-05 0.0 -0.5325563589679163 -1.5953252951251429 -1.9350579420672815 0.3889302909374237 2.1035144329071045 0.00019138080824632198 0.0 0.0 0.0 0.0 0.0 0.0 9.126492147811918e-18 0.47073301672935486 0.633441686630249 0.055181000381708145 -4.550112862489186e-06 0.0 9.126492147811918e-18 0.47073301672935486 0.633441686630249 0.055181000381708145 -4.550112862489186e-06 0.0 0.19999998670079064 -0.1999999704610756 0.3999999820253386 -1.2090987476551505 1.2090487830418655 -1.2090486641472589 0.0 0.0 0.0 0.0 0.0 0.0 -7.151161839831541e-07 1.2111828474217765e-06 -3.8993763433588525e-07 -2.065595931891045e-12 8.658785775758427e-08 -9.921333770371297e-08 0.19999999999999996 -0.20000000000000004 0.3999999999999999 -1.2090987223823195 1.2090487307044444 -1.2090487304564634 0.0 0.0 0.0 0.0 0.0 0.0
6168.168 -0.5325564460622898 -1.5953254434050104 -1.9350577238206403 0.38893029262324835 2.1035145059768503 0.0001913808015903128 0.0 0.0 0.0 0.0 0.0 0.0 0.0 0.0 0.0 0.0 0.0 0.0 9.126492051137239e-18 0.4707330261765891 0.6334416680007949 0.055181001037467085 -4.550112770478445e-06 0.0 1.1983084063143194e-16 6.180724633698615 5.898735500757002 0.2507976497152879 -2.0680262541824532e-05 0.0 -0.5325563589679163 -1.5953252951251429 -1.9350579420672815 0.3889302909374237 2.1035144329071045 0.00019138080824632198 0.0 0.0 0.0 0.0 0.0 0.0 9.126492147811918e-18 0.47073301672935486 0.633441686630249 0.055181000381708145 -4.550112862489186e-06 0.0 9.126492147811918e-18 0.47073301672935486 0.633441686630249 0.055181000381708145 -4.550112862489186e-06 0.0 0.19999998670079064 -0.1999999704610756 0.3999999820253386 -1.2090987476551505 1.2090487830418655 -1.2090486641472589 0.0 0.0 0.0 0.0 0.0 0.0 -7.151161839831541e-07 1.2111828474217765e-06 -3.8993763433588525e-07 -2.065595931891045e-12 8.658785775758427e-08 -9.921333770371297e-08 0.19999999999999996 -0.20000000000000004 0.3999999999999999 -1.2090987223823195 1.2090487307044444 -1.2090487304564634 0.0 0.0 0.0 0.0 0.0 0.0
6168.1759999999995 -0.5325564460622898 -1.5953254434050104 -1.9350577238206403 0.38893029262324835 2.1035145059768503 0.0001913808015903128 0.0 0.0 0.0 0.0 0.0 0.0 0.0 0.0 0.0 0.0 0.0 0.0 9.126492051137239e-18 0.4707330261765891 0.6334416680007949 0.055181001037467085 -4.550112770478445e-06 0.0 1.1983084063143194e-16 6.180724633698615 5.898735500757002 0.2507976497152879 -2.0680262541824532e-05 0.0 -0.5325563589679163 -1.5953252951251429 -1.9350579420672815 0.3889302909374237 2.1035144329071045 0.00019138080824632198 0.0 0.0 0.0 0.0 0.0 0.0 9.126492147811918e-18 0.47073301672935486 0.633441686630249 0.055181000381708145 -4.550112862489186e-06 0.0 9.126492147811918e-18 0.47073301672935486 0.633441686630249 0.055181000381708145 -4.550112862489186e-06 0.0 0.19999998670079064 -0.1999999704610756 0.3999999820253386 -1.2090987476551505 1.2090487830418655 -1.2090486641472589 0.0 0.0 0.0 0.0 0.0 0.0 -7.151161839831541e-07 1.2111828474217765e-06 -3.8993763433588525e-07 -2.065595931891045e-12 8.658785775758427e-08 -9.921333770371297e-08 0.19999999999999996 -0.20000000000000004 0.3999999999999999 -1.2090987223823195 1.2090487307044444 -1.2090487304564634 0.0 0.0 0.0 0.0 0.0 0.0
6168.183999999999 -0.5325564460622898 -1.5953254434050104 -1.9350577238206403 0.38893029262324835 2.1035145059768503 0.0001913808015903128 0.0 0.0 0.0 0.0 0.0 0.0 0.0 0.0 0.0 0.0 0.0 0.0 9.126492051137239e-18 0.4707330261765891 0.6334416680007949 0.055181001037467085 -4.550112770478445e-06 0.0 1.1983084063143194e-16 6.180724633698615 5.898735500757002 0.2507976497152879 -2.0680262541824532e-05 0.0 -0.5325563589679163 -1.5953252951251429 -1.9350579420672815 0.3889302909374237 2.1035144329071045 0.00019138080824632198 0.0 0.0 0.0 0.0 0.0 0.0 9.126492147811918e-18 0.47073301672935486 0.633441686630249 0.055181000381708145 -4.550112862489186e-06 0.0 9.126492147811918e-18 0.47073301672935486 0.633441686630249 0.055181000381708145 -4.550112862489186e-06 0.0 0.19999998670079064 -0.1999999704610756 0.3999999820253386 -1.2090987476551505 1.2090487830418655 -1.2090486641472589 0.0 0.0 0.0 0.0 0.0 0.0 -7.151161839831541e-07 1.2111828474217765e-06 -3.8993763433588525e-07 -2.065595931891045e-12 8.658785775758427e-08 -9.921333770371297e-08 0.19999999999999996 -0.20000000000000004 0.3999999999999999 -1.2090987223823195 1.2090487307044444 -1.2090487304564634 0.0 0.0 0.0 0.0 0.0 0.0
6168.192 -0.5325564460622898 -1.5953254434050104 -1.9350577238206403 0.38893029262324835 2.1035145059768503 0.0001913808015903128 0.0 0.0 0.0 0.0 0.0 0.0 0.0 0.0 0.0 0.0 0.0 0.0 9.126492051137239e-18 0.4707330261765891 0.6334416680007949 0.055181001037467085 -4.550112770478445e-06 0.0 1.1983084063143194e-16 6.180724633698615 5.898735500757002 0.2507976497152879 -2.0680262541824532e-05 0.0 -0.5325563589679163 -1.5953252951251429 -1.9350579420672815 0.3889302909374237 2.1035144329071045 0.00019138080824632198 0.0 0.0 0.0 0.0 0.0 0.0 9.126492147811918e-18 0.47073301672935486 0.633441686630249 0.055181000381708145 -4.550112862489186e-06 0.0 9.126492147811918e-18 0.47073301672935486 0.633441686630249 0.055181000381708145 -4.550112862489186e-06 0.0 0.19999998670079064 -0.1999999704610756 0.3999999820253386 -1.2090987476551505 1.2090487830418655 -1.2090486641472589 0.0 0.0 0.0 0.0 0.0 0.0 -7.151161839831541e-07 1.2111828474217765e-06 -3.8993763433588525e-07 -2.065595931891045e-12 8.658785775758427e-08 -9.921333770371297e-08 0.19999999999999996 -0.20000000000000004 0.3999999999999999 -1.2090987223823195 1.2090487307044444 -1.2090487304564634 0.0 0.0 0.0 0.0 0.0 0.0
6168.2 -0.5325564460622898 -1.5953254434050104 -1.9350577238206403 0.38893029262324835 2.1035145059768503 0.0001913808015903128 0.0 0.0 0.0 0.0 0.0 0.0 0.0 0.0 0.0 0.0 0.0 0.0 9.126492051137239e-18 0.4707330261765891 0.6334416680007949 0.055181001037467085 -4.550112770478445e-06 0.0 1.1983084063143194e-16 6.180724633698615 5.898735500757002 0.2507976497152879 -2.0680262541824532e-05 0.0 -0.5325563589679163 -1.5953252951251429 -1.9350579420672815 0.3889302909374237 2.1035144329071045 0.00019138080824632198 0.0 0.0 0.0 0.0 0.0 0.0 9.126492147811918e-18 0.47073301672935486 0.633441686630249 0.055181000381708145 -4.550112862489186e-06 0.0 9.126492147811918e-18 0.47073301672935486 0.633441686630249 0.055181000381708145 -4.550112862489186e-06 0.0 0.19999998670079064 -0.1999999704610756 0.3999999820253386 -1.2090987476551505 1.2090487830418655 -1.2090486641472589 0.0 0.0 0.0 0.0 0.0 0.0 -7.151161839831541e-07 1.2111828474217765e-06 -3.8993763433588525e-07 -2.065595931891045e-12 8.658785775758427e-08 -9.921333770371297e-08 0.19999999999999996 -0.20000000000000004 0.3999999999999999 -1.2090987223823195 1.2090487307044444 -1.2090487304564634 0.0 0.0 0.0 0.0 0.0 0.0
6168.208 -0.5325564460622898 -1.5953254434050104 -1.9350577238206403 0.38893029262324835 2.1035145059768503 0.0001913808015903128 0.0 0.0 0.0 0.0 0.0 0.0 0.0 0.0 0.0 0.0 0.0 0.0 9.126492051137239e-18 0.4707330261765891 0.6334416680007949 0.055181001037467085 -4.550112770478445e-06 0.0 1.1983084063143194e-16 6.180724633698615 5.898735500757002 0.2507976497152879 -2.0680262541824532e-05 0.0 -0.5325563589679163 -1.5953252951251429 -1.9350579420672815 0.3889302909374237 2.1035144329071045 0.00019138080824632198 0.0 0.0 0.0 0.0 0.0 0.0 9.126492147811918e-18 0.47073301672935486 0.633441686630249 0.055181000381708145 -4.550112862489186e-06 0.0 9.126492147811918e-18 0.47073301672935486 0.633441686630249 0.055181000381708145 -4.550112862489186e-06 0.0 0.19999998670079064 -0.1999999704610756 0.3999999820253386 -1.2090987476551505 1.2090487830418655 -1.2090486641472589 0.0 0.0 0.0 0.0 0.0 0.0 -7.151161839831541e-07 1.2111828474217765e-06 -3.8993763433588525e-07 -2.065595931891045e-12 8.658785775758427e-08 -9.921333770371297e-08 0.19999999999999996 -0.20000000000000004 0.3999999999999999 -1.2090987223823195 1.2090487307044444 -1.2090487304564634 0.0 0.0 0.0 0.0 0.0 0.0
6168.215999999999 -0.5325564460622898 -1.5953254434050104 -1.9350577238206403 0.38893029262324835 2.1035145059768503 0.0001913808015903128 0.0 0.0 0.0 0.0 0.0 0.0 0.0 0.0 0.0 0.0 0.0 0.0 9.126492051137239e-18 0.4707330261765891 0.6334416680007949 0.055181001037467085 -4.550112770478445e-06 0.0 1.1983084063143194e-16 6.180724633698615 5.898735500757002 0.2507976497152879 -2.0680262541824532e-05 0.0 -0.5325563589679163 -1.5953252951251429 -1.9350579420672815 0.3889302909374237 2.1035144329071045 0.00019138080824632198 0.0 0.0 0.0 0.0 0.0 0.0 9.126492147811918e-18 0.47073301672935486 0.633441686630249 0.055181000381708145 -4.550112862489186e-06 0.0 9.126492147811918e-18 0.47073301672935486 0.633441686630249 0.055181000381708145 -4.550112862489186e-06 0.0 0.19999998670079064 -0.1999999704610756 0.3999999820253386 -1.2090987476551505 1.2090487830418655 -1.2090486641472589 0.0 0.0 0.0 0.0 0.0 0.0 -7.151161839831541e-07 1.2111828474217765e-06 -3.8993763433588525e-07 -2.065595931891045e-12 8.658785775758427e-08 -9.921333770371297e-08 0.19999999999999996 -0.20000000000000004 0.3999999999999999 -1.2090987223823195 1.2090487307044444 -1.2090487304564634 0.0 0.0 0.0 0.0 0.0 0.0
6168.224 -0.5325564460622898 -1.5953254434050104 -1.9350577238206403 0.38893029262324835 2.1035145059768503 0.0001913808015903128 0.0 0.0 0.0 0.0 0.0 0.0 0.0 0.0 0.0 0.0 0.0 0.0 9.126492051137239e-18 0.4707330261765891 0.6334416680007949 0.055181001037467085 -4.550112770478445e-06 0.0 1.1983084063143194e-16 6.180724633698615 5.898735500757002 0.2507976497152879 -2.0680262541824532e-05 0.0 -0.5325563589679163 -1.5953252951251429 -1.9350579420672815 0.3889302909374237 2.1035144329071045 0.00019138080824632198 0.0 0.0 0.0 0.0 0.0 0.0 9.126492147811918e-18 0.47073301672935486 0.633441686630249 0.055181000381708145 -4.550112862489186e-06 0.0 9.126492147811918e-18 0.47073301672935486 0.633441686630249 0.055181000381708145 -4.550112862489186e-06 0.0 0.19999998670079064 -0.1999999704610756 0.3999999820253386 -1.2090987476551505 1.2090487830418655 -1.2090486641472589 0.0 0.0 0.0 0.0 0.0 0.0 -7.151161839831541e-07 1.2111828474217765e-06 -3.8993763433588525e-07 -2.065595931891045e-12 8.658785775758427e-08 -9.921333770371297e-08 0.19999999999999996 -0.20000000000000004 0.3999999999999999 -1.2090987223823195 1.2090487307044444 -1.2090487304564634 0.0 0.0 0.0 0.0 0.0 0.0
6168.232 -0.5325564460622898 -1.5953254434050104 -1.9350577238206403 0.38893029262324835 2.1035145059768503 0.0001913808015903128 0.0 0.0 0.0 0.0 0.0 0.0 0.0 0.0 0.0 0.0 0.0 0.0 9.126492051137239e-18 0.4707330261765891 0.6334416680007949 0.055181001037467085 -4.550112770478445e-06 0.0 1.1983084063143194e-16 6.180724633698615 5.898735500757002 0.2507976497152879 -2.0680262541824532e-05 0.0 -0.5325563589679163 -1.5953252951251429 -1.9350579420672815 0.3889302909374237 2.1035144329071045 0.00019138080824632198 0.0 0.0 0.0 0.0 0.0 0.0 9.126492147811918e-18 0.47073301672935486 0.633441686630249 0.055181000381708145 -4.550112862489186e-06 0.0 9.126492147811918e-18 0.47073301672935486 0.633441686630249 0.055181000381708145 -4.550112862489186e-06 0.0 0.19999998670079064 -0.1999999704610756 0.3999999820253386 -1.2090987476551505 1.2090487830418655 -1.2090486641472589 0.0 0.0 0.0 0.0 0.0 0.0 -7.151161839831541e-07 1.2111828474217765e-06 -3.8993763433588525e-07 -2.065595931891045e-12 8.658785775758427e-08 -9.921333770371297e-08 0.19999999999999996 -0.20000000000000004 0.3999999999999999 -1.2090987223823195 1.2090487307044444 -1.2090487304564634 0.0 0.0 0.0 0.0 0.0 0.0
6168.24 -0.5325564460622898 -1.5953254434050104 -1.9350577238206403 0.38893029262324835 2.1035145059768503 0.0001913808015903128 0.0 0.0 0.0 0.0 0.0 0.0 0.0 0.0 0.0 0.0 0.0 0.0 9.126492051137239e-18 0.4707330261765891 0.6334416680007949 0.055181001037467085 -4.550112770478445e-06 0.0 1.1983084063143194e-16 6.180724633698615 5.898735500757002 0.2507976497152879 -2.0680262541824532e-05 0.0 -0.5325563589679163 -1.5953252951251429 -1.9350579420672815 0.3889302909374237 2.1035144329071045 0.00019138080824632198 0.0 0.0 0.0 0.0 0.0 0.0 9.126492147811918e-18 0.47073301672935486 0.633441686630249 0.055181000381708145 -4.550112862489186e-06 0.0 9.126492147811918e-18 0.47073301672935486 0.633441686630249 0.055181000381708145 -4.550112862489186e-06 0.0 0.19999998670079064 -0.1999999704610756 0.3999999820253386 -1.2090987476551505 1.2090487830418655 -1.2090486641472589 0.0 0.0 0.0 0.0 0.0 0.0 -7.151161839831541e-07 1.2111828474217765e-06 -3.8993763433588525e-07 -2.065595931891045e-12 8.658785775758427e-08 -9.921333770371297e-08 0.19999999999999996 -0.20000000000000004 0.3999999999999999 -1.2090987223823195 1.2090487307044444 -1.2090487304564634 0.0 0.0 0.0 0.0 0.0 0.0
6168.248 -0.5325564460622898 -1.5953254434050104 -1.9350577238206403 0.38893029262324835 2.1035145059768503 0.0001913808015903128 0.0 0.0 0.0 0.0 0.0 0.0 0.0 0.0 0.0 0.0 0.0 0.0 9.126492051137239e-18 0.4707330261765891 0.6334416680007949 0.055181001037467085 -4.550112770478445e-06 0.0 1.1983084063143194e-16 6.180724633698615 5.898735500757002 0.2507976497152879 -2.0680262541824532e-05 0.0 -0.5325563589679163 -1.5953252951251429 -1.9350579420672815 0.3889302909374237 2.1035144329071045 0.00019138080824632198 0.0 0.0 0.0 0.0 0.0 0.0 9.126492147811918e-18 0.47073301672935486 0.633441686630249 0.055181000381708145 -4.550112862489186e-06 0.0 9.126492147811918e-18 0.47073301672935486 0.633441686630249 0.055181000381708145 -4.550112862489186e-06 0.0 0.19999998670079064 -0.1999999704610756 0.3999999820253386 -1.2090987476551505 1.2090487830418655 -1.2090486641472589 0.0 0.0 0.0 0.0 0.0 0.0 -7.151161839831541e-07 1.2111828474217765e-06 -3.8993763433588525e-07 -2.065595931891045e-12 8.658785775758427e-08 -9.921333770371297e-08 0.19999999999999996 -0.20000000000000004 0.3999999999999999 -1.2090987223823195 1.2090487307044444 -1.2090487304564634 0.0 0.0 0.0 0.0 0.0 0.0
6168.255999999999 -0.5325564460622898 -1.5953254434050104 -1.9350577238206403 0.38893029262324835 2.1035145059768503 0.0001913808015903128 0.0 0.0 0.0 0.0 0.0 0.0 0.0 0.0 0.0 0.0 0.0 0.0 9.126492051137239e-18 0.4707330261765891 0.6334416680007949 0.055181001037467085 -4.550112770478445e-06 0.0 1.1983084063143194e-16 6.180724633698615 5.898735500757002 0.2507976497152879 -2.0680262541824532e-05 0.0 -0.5325563589679163 -1.5953252951251429 -1.9350579420672815 0.3889302909374237 2.1035144329071045 0.00019138080824632198 0.0 0.0 0.0 0.0 0.0 0.0 9.126492147811918e-18 0.47073301672935486 0.633441686630249 0.055181000381708145 -4.550112862489186e-06 0.0 9.126492147811918e-18 0.47073301672935486 0.633441686630249 0.055181000381708145 -4.550112862489186e-06 0.0 0.19999998670079064 -0.1999999704610756 0.3999999820253386 -1.2090987476551505 1.2090487830418655 -1.2090486641472589 0.0 0.0 0.0 0.0 0.0 0.0 -7.151161839831541e-07 1.2111828474217765e-06 -3.8993763433588525e-07 -2.065595931891045e-12 8.658785775758427e-08 -9.921333770371297e-08 0.19999999999999996 -0.20000000000000004 0.3999999999999999 -1.2090987223823195 1.2090487307044444 -1.2090487304564634 0.0 0.0 0.0 0.0 0.0 0.0
6168.264 -0.5325564460622898 -1.5953254434050104 -1.9350577238206403 0.38893029262324835 2.1035145059768503 0.0001913808015903128 0.0 0.0 0.0 0.0 0.0 0.0 0.0 0.0 0.0 0.0 0.0 0.0 9.126492051137239e-18 0.4707330261765891 0.6334416680007949 0.055181001037467085 -4.550112770478445e-06 0.0 1.1983084063143194e-16 6.180724633698615 5.898735500757002 0.2507976497152879 -2.0680262541824532e-05 0.0 -0.5325563589679163 -1.5953252951251429 -1.9350579420672815 0.3889302909374237 2.1035144329071045 0.00019138080824632198 0.0 0.0 0.0 0.0 0.0 0.0 9.126492147811918e-18 0.47073301672935486 0.633441686630249 0.055181000381708145 -4.550112862489186e-06 0.0 9.126492147811918e-18 0.47073301672935486 0.633441686630249 0.055181000381708145 -4.550112862489186e-06 0.0 0.19999998670079064 -0.1999999704610756 0.3999999820253386 -1.2090987476551505 1.2090487830418655 -1.2090486641472589 0.0 0.0 0.0 0.0 0.0 0.0 -7.151161839831541e-07 1.2111828474217765e-06 -3.8993763433588525e-07 -2.065595931891045e-12 8.658785775758427e-08 -9.921333770371297e-08 0.19999999999999996 -0.20000000000000004 0.3999999999999999 -1.2090987223823195 1.2090487307044444 -1.2090487304564634 0.0 0.0 0.0 0.0 0.0 0.0
6168.272 -0.5325564460622898 -1.5953254434050104 -1.9350577238206403 0.38893029262324835 2.1035145059768503 0.0001913808015903128 0.0 0.0 0.0 0.0 0.0 0.0 0.0 0.0 0.0 0.0 0.0 0.0 9.126492051137239e-18 0.4707330261765891 0.6334416680007949 0.055181001037467085 -4.550112770478445e-06 0.0 1.1983084063143194e-16 6.180724633698615 5.898735500757002 0.2507976497152879 -2.0680262541824532e-05 0.0 -0.5325563589679163 -1.5953252951251429 -1.9350579420672815 0.3889302909374237 2.1035144329071045 0.00019138080824632198 0.0 0.0 0.0 0.0 0.0 0.0 9.126492147811918e-18 0.47073301672935486 0.633441686630249 0.055181000381708145 -4.550112862489186e-06 0.0 9.126492147811918e-18 0.47073301672935486 0.633441686630249 0.055181000381708145 -4.550112862489186e-06 0.0 0.19999998670079064 -0.1999999704610756 0.3999999820253386 -1.2090987476551505 1.2090487830418655 -1.2090486641472589 0.0 0.0 0.0 0.0 0.0 0.0 -7.151161839831541e-07 1.2111828474217765e-06 -3.8993763433588525e-07 -2.065595931891045e-12 8.658785775758427e-08 -9.921333770371297e-08 0.19999999999999996 -0.20000000000000004 0.3999999999999999 -1.2090987223823195 1.2090487307044444 -1.2090487304564634 0.0 0.0 0.0 0.0 0.0 0.0
6168.28 -0.5325564460622898 -1.5953254434050104 -1.9350577238206403 0.38893029262324835 2.1035145059768503 0.0001913808015903128 0.0 0.0 0.0 0.0 0.0 0.0 0.0 0.0 0.0 0.0 0.0 0.0 9.126492051137239e-18 0.4707330261765891 0.6334416680007949 0.055181001037467085 -4.550112770478445e-06 0.0 1.1983084063143194e-16 6.180724633698615 5.898735500757002 0.2507976497152879 -2.0680262541824532e-05 0.0 -0.5325563589679163 -1.5953252951251429 -1.9350579420672815 0.3889302909374237 2.1035144329071045 0.00019138080824632198 0.0 0.0 0.0 0.0 0.0 0.0 9.126492147811918e-18 0.47073301672935486 0.633441686630249 0.055181000381708145 -4.550112862489186e-06 0.0 9.126492147811918e-18 0.47073301672935486 0.633441686630249 0.055181000381708145 -4.550112862489186e-06 0.0 0.19999998670079064 -0.1999999704610756 0.3999999820253386 -1.2090987476551505 1.2090487830418655 -1.2090486641472589 0.0 0.0 0.0 0.0 0.0 0.0 -7.151161839831541e-07 1.2111828474217765e-06 -3.8993763433588525e-07 -2.065595931891045e-12 8.658785775758427e-08 -9.921333770371297e-08 0.19999999999999996 -0.20000000000000004 0.3999999999999999 -1.2090987223823195 1.2090487307044444 -1.2090487304564634 0.0 0.0 0.0 0.0 0.0 0.0
6168.288 -0.5325564460622898 -1.5953254434050104 -1.9350577238206403 0.38893029262324835 2.1035145059768503 0.0001913808015903128 0.0 0.0 0.0 0.0 0.0 0.0 0.0 0.0 0.0 0.0 0.0 0.0 9.126492051137239e-18 0.4707330261765891 0.6334416680007949 0.055181001037467085 -4.550112770478445e-06 0.0 1.1983084063143194e-16 6.180724633698615 5.898735500757002 0.2507976497152879 -2.0680262541824532e-05 0.0 -0.5325563589679163 -1.5953252951251429 -1.9350579420672815 0.3889302909374237 2.1035144329071045 0.00019138080824632198 0.0 0.0 0.0 0.0 0.0 0.0 9.126492147811918e-18 0.47073301672935486 0.633441686630249 0.055181000381708145 -4.550112862489186e-06 0.0 9.126492147811918e-18 0.47073301672935486 0.633441686630249 0.055181000381708145 -4.550112862489186e-06 0.0 0.19999998670079064 -0.1999999704610756 0.3999999820253386 -1.2090987476551505 1.2090487830418655 -1.2090486641472589 0.0 0.0 0.0 0.0 0.0 0.0 -7.151161839831541e-07 1.2111828474217765e-06 -3.8993763433588525e-07 -2.065595931891045e-12 8.658785775758427e-08 -9.921333770371297e-08 0.19999999999999996 -0.20000000000000004 0.3999999999999999 -1.2090987223823195 1.2090487307044444 -1.2090487304564634 0.0 0.0 0.0 0.0 0.0 0.0
6168.295999999999 -0.5325564460622898 -1.5953254434050104 -1.9350577238206403 0.38893029262324835 2.1035145059768503 0.0001913808015903128 0.0 0.0 0.0 0.0 0.0 0.0 0.0 0.0 0.0 0.0 0.0 0.0 9.126492051137239e-18 0.4707330261765891 0.6334416680007949 0.055181001037467085 -4.550112770478445e-06 0.0 1.1983084063143194e-16 6.180724633698615 5.898735500757002 0.2507976497152879 -2.0680262541824532e-05 0.0 -0.5325563589679163 -1.5953252951251429 -1.9350579420672815 0.3889302909374237 2.1035144329071045 0.00019138080824632198 0.0 0.0 0.0 0.0 0.0 0.0 9.126492147811918e-18 0.47073301672935486 0.633441686630249 0.055181000381708145 -4.550112862489186e-06 0.0 9.126492147811918e-18 0.47073301672935486 0.633441686630249 0.055181000381708145 -4.550112862489186e-06 0.0 0.19999998670079064 -0.1999999704610756 0.3999999820253386 -1.2090987476551505 1.2090487830418655 -1.2090486641472589 0.0 0.0 0.0 0.0 0.0 0.0 -7.151161839831541e-07 1.2111828474217765e-06 -3.8993763433588525e-07 -2.065595931891045e-12 8.658785775758427e-08 -9.921333770371297e-08 0.19999999999999996 -0.20000000000000004 0.3999999999999999 -1.2090987223823195 1.2090487307044444 -1.2090487304564634 0.0 0.0 0.0 0.0 0.0 0.0
6168.304 -0.5325564460622898 -1.5953254434050104 -1.9350577238206403 0.38893029262324835 2.1035145059768503 0.0001913808015903128 0.0 0.0 0.0 0.0 0.0 0.0 0.0 0.0 0.0 0.0 0.0 0.0 9.126492051137239e-18 0.4707330261765891 0.6334416680007949 0.055181001037467085 -4.550112770478445e-06 0.0 1.1983084063143194e-16 6.180724633698615 5.898735500757002 0.2507976497152879 -2.0680262541824532e-05 0.0 -0.5325563589679163 -1.5953252951251429 -1.9350579420672815 0.3889302909374237 2.1035144329071045 0.00019138080824632198 0.0 0.0 0.0 0.0 0.0 0.0 9.126492147811918e-18 0.47073301672935486 0.633441686630249 0.055181000381708145 -4.550112862489186e-06 0.0 9.126492147811918e-18 0.47073301672935486 0.633441686630249 0.055181000381708145 -4.550112862489186e-06 0.0 0.19999998670079064 -0.1999999704610756 0.3999999820253386 -1.2090987476551505 1.2090487830418655 -1.2090486641472589 0.0 0.0 0.0 0.0 0.0 0.0 -7.151161839831541e-07 1.2111828474217765e-06 -3.8993763433588525e-07 -2.065595931891045e-12 8.658785775758427e-08 -9.921333770371297e-08 0.19999999999999996 -0.20000000000000004 0.3999999999999999 -1.2090987223823195 1.2090487307044444 -1.2090487304564634 0.0 0.0 0.0 0.0 0.0 0.0
6168.312 -0.5325564460622898 -1.5953254434050104 -1.9350577238206403 0.38893029262324835 2.1035145059768503 0.0001913808015903128 0.0 0.0 0.0 0.0 0.0 0.0 0.0 0.0 0.0 0.0 0.0 0.0 9.126492051137239e-18 0.4707330261765891 0.6334416680007949 0.055181001037467085 -4.550112770478445e-06 0.0 1.1983084063143194e-16 6.180724633698615 5.898735500757002 0.2507976497152879 -2.0680262541824532e-05 0.0 -0.5325563589679163 -1.5953252951251429 -1.9350579420672815 0.3889302909374237 2.1035144329071045 0.00019138080824632198 0.0 0.0 0.0 0.0 0.0 0.0 9.126492147811918e-18 0.47073301672935486 0.633441686630249 0.055181000381708145 -4.550112862489186e-06 0.0 9.126492147811918e-18 0.47073301672935486 0.633441686630249 0.055181000381708145 -4.550112862489186e-06 0.0 0.19999998670079064 -0.1999999704610756 0.3999999820253386 -1.2090987476551505 1.2090487830418655 -1.2090486641472589 0.0 0.0 0.0 0.0 0.0 0.0 -7.151161839831541e-07 1.2111828474217765e-06 -3.8993763433588525e-07 -2.065595931891045e-12 8.658785775758427e-08 -9.921333770371297e-08 0.19999999999999996 -0.20000000000000004 0.3999999999999999 -1.2090987223823195 1.2090487307044444 -1.2090487304564634 0.0 0.0 0.0 0.0 0.0 0.0
6168.32 -0.5325564460622898 -1.5953254434050104 -1.9350577238206403 0.38893029262324835 2.1035145059768503 0.0001913808015903128 0.0 0.0 0.0 0.0 0.0 0.0 0.0 0.0 0.0 0.0 0.0 0.0 9.126492051137239e-18 0.4707330261765891 0.6334416680007949 0.055181001037467085 -4.550112770478445e-06 0.0 1.1983084063143194e-16 6.180724633698615 5.898735500757002 0.2507976497152879 -2.0680262541824532e-05 0.0 -0.5325563589679163 -1.5953252951251429 -1.9350579420672815 0.3889302909374237 2.1035144329071045 0.00019138080824632198 0.0 0.0 0.0 0.0 0.0 0.0 9.126492147811918e-18 0.47073301672935486 0.633441686630249 0.055181000381708145 -4.550112862489186e-06 0.0 9.126492147811918e-18 0.47073301672935486 0.633441686630249 0.055181000381708145 -4.550112862489186e-06 0.0 0.19999998670079064 -0.1999999704610756 0.3999999820253386 -1.2090987476551505 1.2090487830418655 -1.2090486641472589 0.0 0.0 0.0 0.0 0.0 0.0 -7.151161839831541e-07 1.2111828474217765e-06 -3.8993763433588525e-07 -2.065595931891045e-12 8.658785775758427e-08 -9.921333770371297e-08 0.19999999999999996 -0.20000000000000004 0.3999999999999999 -1.2090987223823195 1.2090487307044444 -1.2090487304564634 0.0 0.0 0.0 0.0 0.0 0.0
6168.3279999999995 -0.5325564460622898 -1.5953254434050104 -1.9350577238206403 0.38893029262324835 2.1035145059768503 0.0001913808015903128 0.0 0.0 0.0 0.0 0.0 0.0 0.0 0.0 0.0 0.0 0.0 0.0 9.126492051137239e-18 0.4707330261765891 0.6334416680007949 0.055181001037467085 -4.550112770478445e-06 0.0 1.1983084063143194e-16 6.180724633698615 5.898735500757002 0.2507976497152879 -2.0680262541824532e-05 0.0 -0.5325563589679163 -1.5953252951251429 -1.9350579420672815 0.3889302909374237 2.1035144329071045 0.00019138080824632198 0.0 0.0 0.0 0.0 0.0 0.0 9.126492147811918e-18 0.47073301672935486 0.633441686630249 0.055181000381708145 -4.550112862489186e-06 0.0 9.126492147811918e-18 0.47073301672935486 0.633441686630249 0.055181000381708145 -4.550112862489186e-06 0.0 0.19999998670079064 -0.1999999704610756 0.3999999820253386 -1.2090987476551505 1.2090487830418655 -1.2090486641472589 0.0 0.0 0.0 0.0 0.0 0.0 -7.151161839831541e-07 1.2111828474217765e-06 -3.8993763433588525e-07 -2.065595931891045e-12 8.658785775758427e-08 -9.921333770371297e-08 0.19999999999999996 -0.20000000000000004 0.3999999999999999 -1.2090987223823195 1.2090487307044444 -1.2090487304564634 0.0 0.0 0.0 0.0 0.0 0.0
6168.335999999999 -0.5325564460622898 -1.5953254434050104 -1.9350577238206403 0.38893029262324835 2.1035145059768503 0.0001913808015903128 0.0 0.0 0.0 0.0 0.0 0.0 0.0 0.0 0.0 0.0 0.0 0.0 9.126492051137239e-18 0.4707330261765891 0.6334416680007949 0.055181001037467085 -4.550112770478445e-06 0.0 1.1983084063143194e-16 6.180724633698615 5.898735500757002 0.2507976497152879 -2.0680262541824532e-05 0.0 -0.5325563589679163 -1.5953252951251429 -1.9350579420672815 0.3889302909374237 2.1035144329071045 0.00019138080824632198 0.0 0.0 0.0 0.0 0.0 0.0 9.126492147811918e-18 0.47073301672935486 0.633441686630249 0.055181000381708145 -4.550112862489186e-06 0.0 9.126492147811918e-18 0.47073301672935486 0.633441686630249 0.055181000381708145 -4.550112862489186e-06 0.0 0.19999998670079064 -0.1999999704610756 0.3999999820253386 -1.2090987476551505 1.2090487830418655 -1.2090486641472589 0.0 0.0 0.0 0.0 0.0 0.0 -7.151161839831541e-07 1.2111828474217765e-06 -3.8993763433588525e-07 -2.065595931891045e-12 8.658785775758427e-08 -9.921333770371297e-08 0.19999999999999996 -0.20000000000000004 0.3999999999999999 -1.2090987223823195 1.2090487307044444 -1.2090487304564634 0.0 0.0 0.0 0.0 0.0 0.0
6168.344 -0.5325564460622898 -1.5953254434050104 -1.9350577238206403 0.38893029262324835 2.1035145059768503 0.0001913808015903128 0.0 0.0 0.0 0.0 0.0 0.0 0.0 0.0 0.0 0.0 0.0 0.0 9.126492051137239e-18 0.4707330261765891 0.6334416680007949 0.055181001037467085 -4.550112770478445e-06 0.0 1.1983084063143194e-16 6.180724633698615 5.898735500757002 0.2507976497152879 -2.0680262541824532e-05 0.0 -0.5325563589679163 -1.5953252951251429 -1.9350579420672815 0.3889302909374237 2.1035144329071045 0.00019138080824632198 0.0 0.0 0.0 0.0 0.0 0.0 9.126492147811918e-18 0.47073301672935486 0.633441686630249 0.055181000381708145 -4.550112862489186e-06 0.0 9.126492147811918e-18 0.47073301672935486 0.633441686630249 0.055181000381708145 -4.550112862489186e-06 0.0 0.19999998670079064 -0.1999999704610756 0.3999999820253386 -1.2090987476551505 1.2090487830418655 -1.2090486641472589 0.0 0.0 0.0 0.0 0.0 0.0 -7.151161839831541e-07 1.2111828474217765e-06 -3.8993763433588525e-07 -2.065595931891045e-12 8.658785775758427e-08 -9.921333770371297e-08 0.19999999999999996 -0.20000000000000004 0.3999999999999999 -1.2090987223823195 1.2090487307044444 -1.2090487304564634 0.0 0.0 0.0 0.0 0.0 0.0
6168.352 -0.5325564460622898 -1.5953254434050104 -1.9350577238206403 0.38893029262324835 2.1035145059768503 0.0001913808015903128 0.0 0.0 0.0 0.0 0.0 0.0 0.0 0.0 0.0 0.0 0.0 0.0 9.126492051137239e-18 0.4707330261765891 0.6334416680007949 0.055181001037467085 -4.550112770478445e-06 0.0 1.1983084063143194e-16 6.180724633698615 5.898735500757002 0.2507976497152879 -2.0680262541824532e-05 0.0 -0.5325563589679163 -1.5953252951251429 -1.9350579420672815 0.3889302909374237 2.1035144329071045 0.00019138080824632198 0.0 0.0 0.0 0.0 0.0 0.0 9.126492147811918e-18 0.47073301672935486 0.633441686630249 0.055181000381708145 -4.550112862489186e-06 0.0 9.126492147811918e-18 0.47073301672935486 0.633441686630249 0.055181000381708145 -4.550112862489186e-06 0.0 0.19999998670079064 -0.1999999704610756 0.3999999820253386 -1.2090987476551505 1.2090487830418655 -1.2090486641472589 0.0 0.0 0.0 0.0 0.0 0.0 -7.151161839831541e-07 1.2111828474217765e-06 -3.8993763433588525e-07 -2.065595931891045e-12 8.658785775758427e-08 -9.921333770371297e-08 0.19999999999999996 -0.20000000000000004 0.3999999999999999 -1.2090987223823195 1.2090487307044444 -1.2090487304564634 0.0 0.0 0.0 0.0 0.0 0.0
6168.36 -0.5325564460622898 -1.5953254434050104 -1.9350577238206403 0.38893029262324835 2.1035145059768503 0.0001913808015903128 0.0 0.0 0.0 0.0 0.0 0.0 0.0 0.0 0.0 0.0 0.0 0.0 9.126492051137239e-18 0.4707330261765891 0.6334416680007949 0.055181001037467085 -4.550112770478445e-06 0.0 1.1983084063143194e-16 6.180724633698615 5.898735500757002 0.2507976497152879 -2.0680262541824532e-05 0.0 -0.5325563589679163 -1.5953252951251429 -1.9350579420672815 0.3889302909374237 2.1035144329071045 0.00019138080824632198 0.0 0.0 0.0 0.0 0.0 0.0 9.126492147811918e-18 0.47073301672935486 0.633441686630249 0.055181000381708145 -4.550112862489186e-06 0.0 9.126492147811918e-18 0.47073301672935486 0.633441686630249 0.055181000381708145 -4.550112862489186e-06 0.0 0.19999998670079064 -0.1999999704610756 0.3999999820253386 -1.2090987476551505 1.2090487830418655 -1.2090486641472589 0.0 0.0 0.0 0.0 0.0 0.0 -7.151161839831541e-07 1.2111828474217765e-06 -3.8993763433588525e-07 -2.065595931891045e-12 8.658785775758427e-08 -9.921333770371297e-08 0.19999999999999996 -0.20000000000000004 0.3999999999999999 -1.2090987223823195 1.2090487307044444 -1.2090487304564634 0.0 0.0 0.0 0.0 0.0 0.0
6168.3679999999995 -0.5325564460622898 -1.5953254434050104 -1.9350577238206403 0.38893029262324835 2.1035145059768503 0.0001913808015903128 0.0 0.0 0.0 0.0 0.0 0.0 0.0 0.0 0.0 0.0 0.0 0.0 9.126492051137239e-18 0.4707330261765891 0.6334416680007949 0.055181001037467085 -4.550112770478445e-06 0.0 1.1983084063143194e-16 6.180724633698615 5.898735500757002 0.2507976497152879 -2.0680262541824532e-05 0.0 -0.5325563589679163 -1.5953252951251429 -1.9350579420672815 0.3889302909374237 2.1035144329071045 0.00019138080824632198 0.0 0.0 0.0 0.0 0.0 0.0 9.126492147811918e-18 0.47073301672935486 0.633441686630249 0.055181000381708145 -4.550112862489186e-06 0.0 9.126492147811918e-18 0.47073301672935486 0.633441686630249 0.055181000381708145 -4.550112862489186e-06 0.0 0.19999998670079064 -0.1999999704610756 0.3999999820253386 -1.2090987476551505 1.2090487830418655 -1.2090486641472589 0.0 0.0 0.0 0.0 0.0 0.0 -7.151161839831541e-07 1.2111828474217765e-06 -3.8993763433588525e-07 -2.065595931891045e-12 8.658785775758427e-08 -9.921333770371297e-08 0.19999999999999996 -0.20000000000000004 0.3999999999999999 -1.2090987223823195 1.2090487307044444 -1.2090487304564634 0.0 0.0 0.0 0.0 0.0 0.0
6168.375999999999 -0.5325564460622898 -1.5953254434050104 -1.9350577238206403 0.38893029262324835 2.1035145059768503 0.0001913808015903128 0.0 0.0 0.0 0.0 0.0 0.0 0.0 0.0 0.0 0.0 0.0 0.0 9.126492051137239e-18 0.4707330261765891 0.6334416680007949 0.055181001037467085 -4.550112770478445e-06 0.0 1.1983084063143194e-16 6.180724633698615 5.898735500757002 0.2507976497152879 -2.0680262541824532e-05 0.0 -0.5325563589679163 -1.5953252951251429 -1.9350579420672815 0.3889302909374237 2.1035144329071045 0.00019138080824632198 0.0 0.0 0.0 0.0 0.0 0.0 9.126492147811918e-18 0.47073301672935486 0.633441686630249 0.055181000381708145 -4.550112862489186e-06 0.0 9.126492147811918e-18 0.47073301672935486 0.633441686630249 0.055181000381708145 -4.550112862489186e-06 0.0 0.19999998670079064 -0.1999999704610756 0.3999999820253386 -1.2090987476551505 1.2090487830418655 -1.2090486641472589 0.0 0.0 0.0 0.0 0.0 0.0 -7.151161839831541e-07 1.2111828474217765e-06 -3.8993763433588525e-07 -2.065595931891045e-12 8.658785775758427e-08 -9.921333770371297e-08 0.19999999999999996 -0.20000000000000004 0.3999999999999999 -1.2090987223823195 1.2090487307044444 -1.2090487304564634 0.0 0.0 0.0 0.0 0.0 0.0
6168.384 -0.5325564460622898 -1.5953254434050104 -1.9350577238206403 0.38893029262324835 2.1035145059768503 0.0001913808015903128 0.0 0.0 0.0 0.0 0.0 0.0 0.0 0.0 0.0 0.0 0.0 0.0 9.126492051137239e-18 0.4707330261765891 0.6334416680007949 0.055181001037467085 -4.550112770478445e-06 0.0 1.1983084063143194e-16 6.180724633698615 5.898735500757002 0.2507976497152879 -2.0680262541824532e-05 0.0 -0.5325563589679163 -1.5953252951251429 -1.9350579420672815 0.3889302909374237 2.1035144329071045 0.00019138080824632198 0.0 0.0 0.0 0.0 0.0 0.0 9.126492147811918e-18 0.47073301672935486 0.633441686630249 0.055181000381708145 -4.550112862489186e-06 0.0 9.126492147811918e-18 0.47073301672935486 0.633441686630249 0.055181000381708145 -4.550112862489186e-06 0.0 0.19999998670079064 -0.1999999704610756 0.3999999820253386 -1.2090987476551505 1.2090487830418655 -1.2090486641472589 0.0 0.0 0.0 0.0 0.0 0.0 -7.151161839831541e-07 1.2111828474217765e-06 -3.8993763433588525e-07 -2.065595931891045e-12 8.658785775758427e-08 -9.921333770371297e-08 0.19999999999999996 -0.20000000000000004 0.3999999999999999 -1.2090987223823195 1.2090487307044444 -1.2090487304564634 0.0 0.0 0.0 0.0 0.0 0.0
6168.392 -0.5325564460622898 -1.5953254434050104 -1.9350577238206403 0.38893029262324835 2.1035145059768503 0.0001913808015903128 0.0 0.0 0.0 0.0 0.0 0.0 0.0 0.0 0.0 0.0 0.0 0.0 9.126492051137239e-18 0.4707330261765891 0.6334416680007949 0.055181001037467085 -4.550112770478445e-06 0.0 1.1983084063143194e-16 6.180724633698615 5.898735500757002 0.2507976497152879 -2.0680262541824532e-05 0.0 -0.5325563589679163 -1.5953252951251429 -1.9350579420672815 0.3889302909374237 2.1035144329071045 0.00019138080824632198 0.0 0.0 0.0 0.0 0.0 0.0 9.126492147811918e-18 0.47073301672935486 0.633441686630249 0.055181000381708145 -4.550112862489186e-06 0.0 9.126492147811918e-18 0.47073301672935486 0.633441686630249 0.055181000381708145 -4.550112862489186e-06 0.0 0.19999998670079064 -0.1999999704610756 0.3999999820253386 -1.2090987476551505 1.2090487830418655 -1.2090486641472589 0.0 0.0 0.0 0.0 0.0 0.0 -7.151161839831541e-07 1.2111828474217765e-06 -3.8993763433588525e-07 -2.065595931891045e-12 8.658785775758427e-08 -9.921333770371297e-08 0.19999999999999996 -0.20000000000000004 0.3999999999999999 -1.2090987223823195 1.2090487307044444 -1.2090487304564634 0.0 0.0 0.0 0.0 0.0 0.0
6168.4 -0.5325564460622898 -1.5953254434050104 -1.9350577238206403 0.38893029262324835 2.1035145059768503 0.0001913808015903128 0.0 0.0 0.0 0.0 0.0 0.0 0.0 0.0 0.0 0.0 0.0 0.0 9.126492051137239e-18 0.4707330261765891 0.6334416680007949 0.055181001037467085 -4.550112770478445e-06 0.0 1.1983084063143194e-16 6.180724633698615 5.898735500757002 0.2507976497152879 -2.0680262541824532e-05 0.0 -0.5325563589679163 -1.5953252951251429 -1.9350579420672815 0.3889302909374237 2.1035144329071045 0.00019138080824632198 0.0 0.0 0.0 0.0 0.0 0.0 9.126492147811918e-18 0.47073301672935486 0.633441686630249 0.055181000381708145 -4.550112862489186e-06 0.0 9.126492147811918e-18 0.47073301672935486 0.633441686630249 0.055181000381708145 -4.550112862489186e-06 0.0 0.19999998670079064 -0.1999999704610756 0.3999999820253386 -1.2090987476551505 1.2090487830418655 -1.2090486641472589 0.0 0.0 0.0 0.0 0.0 0.0 -7.151161839831541e-07 1.2111828474217765e-06 -3.8993763433588525e-07 -2.065595931891045e-12 8.658785775758427e-08 -9.921333770371297e-08 0.19999999999999996 -0.20000000000000004 0.3999999999999999 -1.2090987223823195 1.2090487307044444 -1.2090487304564634 0.0 0.0 0.0 0.0 0.0 0.0
6168.407999999999 -0.5325564460622898 -1.5953254434050104 -1.9350577238206403 0.38893029262324835 2.1035145059768503 0.0001913808015903128 0.0 0.0 0.0 0.0 0.0 0.0 0.0 0.0 0.0 0.0 0.0 0.0 9.126492051137239e-18 0.4707330261765891 0.6334416680007949 0.055181001037467085 -4.550112770478445e-06 0.0 1.1983084063143194e-16 6.180724633698615 5.898735500757002 0.2507976497152879 -2.0680262541824532e-05 0.0 -0.5325563589679163 -1.5953252951251429 -1.9350579420672815 0.3889302909374237 2.1035144329071045 0.00019138080824632198 0.0 0.0 0.0 0.0 0.0 0.0 9.126492147811918e-18 0.47073301672935486 0.633441686630249 0.055181000381708145 -4.550112862489186e-06 0.0 9.126492147811918e-18 0.47073301672935486 0.633441686630249 0.055181000381708145 -4.550112862489186e-06 0.0 0.19999998670079064 -0.1999999704610756 0.3999999820253386 -1.2090987476551505 1.2090487830418655 -1.2090486641472589 0.0 0.0 0.0 0.0 0.0 0.0 -7.151161839831541e-07 1.2111828474217765e-06 -3.8993763433588525e-07 -2.065595931891045e-12 8.658785775758427e-08 -9.921333770371297e-08 0.19999999999999996 -0.20000000000000004 0.3999999999999999 -1.2090987223823195 1.2090487307044444 -1.2090487304564634 0.0 0.0 0.0 0.0 0.0 0.0
6168.416 -0.5325564460622898 -1.5953254434050104 -1.9350577238206403 0.38893029262324835 2.1035145059768503 0.0001913808015903128 0.0 0.0 0.0 0.0 0.0 0.0 0.0 0.0 0.0 0.0 0.0 0.0 9.126492051137239e-18 0.4707330261765891 0.6334416680007949 0.055181001037467085 -4.550112770478445e-06 0.0 1.1983084063143194e-16 6.180724633698615 5.898735500757002 0.2507976497152879 -2.0680262541824532e-05 0.0 -0.5325563589679163 -1.5953252951251429 -1.9350579420672815 0.3889302909374237 2.1035144329071045 0.00019138080824632198 0.0 0.0 0.0 0.0 0.0 0.0 9.126492147811918e-18 0.47073301672935486 0.633441686630249 0.055181000381708145 -4.550112862489186e-06 0.0 9.126492147811918e-18 0.47073301672935486 0.633441686630249 0.055181000381708145 -4.550112862489186e-06 0.0 0.19999998670079064 -0.1999999704610756 0.3999999820253386 -1.2090987476551505 1.2090487830418655 -1.2090486641472589 0.0 0.0 0.0 0.0 0.0 0.0 -7.151161839831541e-07 1.2111828474217765e-06 -3.8993763433588525e-07 -2.065595931891045e-12 8.658785775758427e-08 -9.921333770371297e-08 0.19999999999999996 -0.20000000000000004 0.3999999999999999 -1.2090987223823195 1.2090487307044444 -1.2090487304564634 0.0 0.0 0.0 0.0 0.0 0.0
6168.424 -0.5325564460622898 -1.5953254434050104 -1.9350577238206403 0.38893029262324835 2.1035145059768503 0.0001913808015903128 0.0 0.0 0.0 0.0 0.0 0.0 0.0 0.0 0.0 0.0 0.0 0.0 9.126492051137239e-18 0.4707330261765891 0.6334416680007949 0.055181001037467085 -4.550112770478445e-06 0.0 1.1983084063143194e-16 6.180724633698615 5.898735500757002 0.2507976497152879 -2.0680262541824532e-05 0.0 -0.5325563589679163 -1.5953252951251429 -1.9350579420672815 0.3889302909374237 2.1035144329071045 0.00019138080824632198 0.0 0.0 0.0 0.0 0.0 0.0 9.126492147811918e-18 0.47073301672935486 0.633441686630249 0.055181000381708145 -4.550112862489186e-06 0.0 9.126492147811918e-18 0.47073301672935486 0.633441686630249 0.055181000381708145 -4.550112862489186e-06 0.0 0.19999998670079064 -0.1999999704610756 0.3999999820253386 -1.2090987476551505 1.2090487830418655 -1.2090486641472589 0.0 0.0 0.0 0.0 0.0 0.0 -7.151161839831541e-07 1.2111828474217765e-06 -3.8993763433588525e-07 -2.065595931891045e-12 8.658785775758427e-08 -9.921333770371297e-08 0.19999999999999996 -0.20000000000000004 0.3999999999999999 -1.2090987223823195 1.2090487307044444 -1.2090487304564634 0.0 0.0 0.0 0.0 0.0 0.0
6168.432 -0.5325564460622898 -1.5953254434050104 -1.9350577238206403 0.38893029262324835 2.1035145059768503 0.0001913808015903128 0.0 0.0 0.0 0.0 0.0 0.0 0.0 0.0 0.0 0.0 0.0 0.0 9.126492051137239e-18 0.4707330261765891 0.6334416680007949 0.055181001037467085 -4.550112770478445e-06 0.0 1.1983084063143194e-16 6.180724633698615 5.898735500757002 0.2507976497152879 -2.0680262541824532e-05 0.0 -0.5325563589679163 -1.5953252951251429 -1.9350579420672815 0.3889302909374237 2.1035144329071045 0.00019138080824632198 0.0 0.0 0.0 0.0 0.0 0.0 9.126492147811918e-18 0.47073301672935486 0.633441686630249 0.055181000381708145 -4.550112862489186e-06 0.0 9.126492147811918e-18 0.47073301672935486 0.633441686630249 0.055181000381708145 -4.550112862489186e-06 0.0 0.19999998670079064 -0.1999999704610756 0.3999999820253386 -1.2090987476551505 1.2090487830418655 -1.2090486641472589 0.0 0.0 0.0 0.0 0.0 0.0 -7.151161839831541e-07 1.2111828474217765e-06 -3.8993763433588525e-07 -2.065595931891045e-12 8.658785775758427e-08 -9.921333770371297e-08 0.19999999999999996 -0.20000000000000004 0.3999999999999999 -1.2090987223823195 1.2090487307044444 -1.2090487304564634 0.0 0.0 0.0 0.0 0.0 0.0
6168.44 -0.5325564460622898 -1.5953254434050104 -1.9350577238206403 0.38893029262324835 2.1035145059768503 0.0001913808015903128 0.0 0.0 0.0 0.0 0.0 0.0 0.0 0.0 0.0 0.0 0.0 0.0 9.126492051137239e-18 0.4707330261765891 0.6334416680007949 0.055181001037467085 -4.550112770478445e-06 0.0 1.1983084063143194e-16 6.180724633698615 5.898735500757002 0.2507976497152879 -2.0680262541824532e-05 0.0 -0.5325563589679163 -1.5953252951251429 -1.9350579420672815 0.3889302909374237 2.1035144329071045 0.00019138080824632198 0.0 0.0 0.0 0.0 0.0 0.0 9.126492147811918e-18 0.47073301672935486 0.633441686630249 0.055181000381708145 -4.550112862489186e-06 0.0 9.126492147811918e-18 0.47073301672935486 0.633441686630249 0.055181000381708145 -4.550112862489186e-06 0.0 0.19999998670079064 -0.1999999704610756 0.3999999820253386 -1.2090987476551505 1.2090487830418655 -1.2090486641472589 0.0 0.0 0.0 0.0 0.0 0.0 -7.151161839831541e-07 1.2111828474217765e-06 -3.8993763433588525e-07 -2.065595931891045e-12 8.658785775758427e-08 -9.921333770371297e-08 0.19999999999999996 -0.20000000000000004 0.3999999999999999 -1.2090987223823195 1.2090487307044444 -1.2090487304564634 0.0 0.0 0.0 0.0 0.0 0.0
6168.447999999999 -0.5325564460622898 -1.5953254434050104 -1.9350577238206403 0.38893029262324835 2.1035145059768503 0.0001913808015903128 0.0 0.0 0.0 0.0 0.0 0.0 0.0 0.0 0.0 0.0 0.0 0.0 9.126492051137239e-18 0.4707330261765891 0.6334416680007949 0.055181001037467085 -4.550112770478445e-06 0.0 1.1983084063143194e-16 6.180724633698615 5.898735500757002 0.2507976497152879 -2.0680262541824532e-05 0.0 -0.5325563589679163 -1.5953252951251429 -1.9350579420672815 0.3889302909374237 2.1035144329071045 0.00019138080824632198 0.0 0.0 0.0 0.0 0.0 0.0 9.126492147811918e-18 0.47073301672935486 0.633441686630249 0.055181000381708145 -4.550112862489186e-06 0.0 9.126492147811918e-18 0.47073301672935486 0.633441686630249 0.055181000381708145 -4.550112862489186e-06 0.0 0.19999998670079064 -0.1999999704610756 0.3999999820253386 -1.2090987476551505 1.2090487830418655 -1.2090486641472589 0.0 0.0 0.0 0.0 0.0 0.0 -7.151161839831541e-07 1.2111828474217765e-06 -3.8993763433588525e-07 -2.065595931891045e-12 8.658785775758427e-08 -9.921333770371297e-08 0.19999999999999996 -0.20000000000000004 0.3999999999999999 -1.2090987223823195 1.2090487307044444 -1.2090487304564634 0.0 0.0 0.0 0.0 0.0 0.0
6168.456 -0.5325564460622898 -1.5953254434050104 -1.9350577238206403 0.38893029262324835 2.1035145059768503 0.0001913808015903128 0.0 0.0 0.0 0.0 0.0 0.0 0.0 0.0 0.0 0.0 0.0 0.0 9.126492051137239e-18 0.4707330261765891 0.6334416680007949 0.055181001037467085 -4.550112770478445e-06 0.0 1.1983084063143194e-16 6.180724633698615 5.898735500757002 0.2507976497152879 -2.0680262541824532e-05 0.0 -0.5325563589679163 -1.5953252951251429 -1.9350579420672815 0.3889302909374237 2.1035144329071045 0.00019138080824632198 0.0 0.0 0.0 0.0 0.0 0.0 9.126492147811918e-18 0.47073301672935486 0.633441686630249 0.055181000381708145 -4.550112862489186e-06 0.0 9.126492147811918e-18 0.47073301672935486 0.633441686630249 0.055181000381708145 -4.550112862489186e-06 0.0 0.19999998670079064 -0.1999999704610756 0.3999999820253386 -1.2090987476551505 1.2090487830418655 -1.2090486641472589 0.0 0.0 0.0 0.0 0.0 0.0 -7.151161839831541e-07 1.2111828474217765e-06 -3.8993763433588525e-07 -2.065595931891045e-12 8.658785775758427e-08 -9.921333770371297e-08 0.19999999999999996 -0.20000000000000004 0.3999999999999999 -1.2090987223823195 1.2090487307044444 -1.2090487304564634 0.0 0.0 0.0 0.0 0.0 0.0
6168.464 -0.5325564460622898 -1.5953254434050104 -1.9350577238206403 0.38893029262324835 2.1035145059768503 0.0001913808015903128 0.0 0.0 0.0 0.0 0.0 0.0 0.0 0.0 0.0 0.0 0.0 0.0 9.126492051137239e-18 0.4707330261765891 0.6334416680007949 0.055181001037467085 -4.550112770478445e-06 0.0 1.1983084063143194e-16 6.180724633698615 5.898735500757002 0.2507976497152879 -2.0680262541824532e-05 0.0 -0.5325563589679163 -1.5953252951251429 -1.9350579420672815 0.3889302909374237 2.1035144329071045 0.00019138080824632198 0.0 0.0 0.0 0.0 0.0 0.0 9.126492147811918e-18 0.47073301672935486 0.633441686630249 0.055181000381708145 -4.550112862489186e-06 0.0 9.126492147811918e-18 0.47073301672935486 0.633441686630249 0.055181000381708145 -4.550112862489186e-06 0.0 0.19999998670079064 -0.1999999704610756 0.3999999820253386 -1.2090987476551505 1.2090487830418655 -1.2090486641472589 0.0 0.0 0.0 0.0 0.0 0.0 -7.151161839831541e-07 1.2111828474217765e-06 -3.8993763433588525e-07 -2.065595931891045e-12 8.658785775758427e-08 -9.921333770371297e-08 0.19999999999999996 -0.20000000000000004 0.3999999999999999 -1.2090987223823195 1.2090487307044444 -1.2090487304564634 0.0 0.0 0.0 0.0 0.0 0.0
6168.472 -0.5325564460622898 -1.5953254434050104 -1.9350577238206403 0.38893029262324835 2.1035145059768503 0.0001913808015903128 0.0 0.0 0.0 0.0 0.0 0.0 0.0 0.0 0.0 0.0 0.0 0.0 9.126492051137239e-18 0.4707330261765891 0.6334416680007949 0.055181001037467085 -4.550112770478445e-06 0.0 1.1983084063143194e-16 6.180724633698615 5.898735500757002 0.2507976497152879 -2.0680262541824532e-05 0.0 -0.5325563589679163 -1.5953252951251429 -1.9350579420672815 0.3889302909374237 2.1035144329071045 0.00019138080824632198 0.0 0.0 0.0 0.0 0.0 0.0 9.126492147811918e-18 0.47073301672935486 0.633441686630249 0.055181000381708145 -4.550112862489186e-06 0.0 9.126492147811918e-18 0.47073301672935486 0.633441686630249 0.055181000381708145 -4.550112862489186e-06 0.0 0.19999998670079064 -0.1999999704610756 0.3999999820253386 -1.2090987476551505 1.2090487830418655 -1.2090486641472589 0.0 0.0 0.0 0.0 0.0 0.0 -7.151161839831541e-07 1.2111828474217765e-06 -3.8993763433588525e-07 -2.065595931891045e-12 8.658785775758427e-08 -9.921333770371297e-08 0.19999999999999996 -0.20000000000000004 0.3999999999999999 -1.2090987223823195 1.2090487307044444 -1.2090487304564634 0.0 0.0 0.0 0.0 0.0 0.0
6168.48 -0.5325564460622898 -1.5953254434050104 -1.9350577238206403 0.38893029262324835 2.1035145059768503 0.0001913808015903128 0.0 0.0 0.0 0.0 0.0 0.0 0.0 0.0 0.0 0.0 0.0 0.0 9.126492051137239e-18 0.4707330261765891 0.6334416680007949 0.055181001037467085 -4.550112770478445e-06 0.0 1.1983084063143194e-16 6.180724633698615 5.898735500757002 0.2507976497152879 -2.0680262541824532e-05 0.0 -0.5325563589679163 -1.5953252951251429 -1.9350579420672815 0.3889302909374237 2.1035144329071045 0.00019138080824632198 0.0 0.0 0.0 0.0 0.0 0.0 9.126492147811918e-18 0.47073301672935486 0.633441686630249 0.055181000381708145 -4.550112862489186e-06 0.0 9.126492147811918e-18 0.47073301672935486 0.633441686630249 0.055181000381708145 -4.550112862489186e-06 0.0 0.19999998670079064 -0.1999999704610756 0.3999999820253386 -1.2090987476551505 1.2090487830418655 -1.2090486641472589 0.0 0.0 0.0 0.0 0.0 0.0 -7.151161839831541e-07 1.2111828474217765e-06 -3.8993763433588525e-07 -2.065595931891045e-12 8.658785775758427e-08 -9.921333770371297e-08 0.19999999999999996 -0.20000000000000004 0.3999999999999999 -1.2090987223823195 1.2090487307044444 -1.2090487304564634 0.0 0.0 0.0 0.0 0.0 0.0
6168.487999999999 -0.5325564460622898 -1.5953254434050104 -1.9350577238206403 0.38893029262324835 2.1035145059768503 0.0001913808015903128 0.0 0.0 0.0 0.0 0.0 0.0 0.0 0.0 0.0 0.0 0.0 0.0 9.126492051137239e-18 0.4707330261765891 0.6334416680007949 0.055181001037467085 -4.550112770478445e-06 0.0 1.1983084063143194e-16 6.180724633698615 5.898735500757002 0.2507976497152879 -2.0680262541824532e-05 0.0 -0.5325563589679163 -1.5953252951251429 -1.9350579420672815 0.3889302909374237 2.1035144329071045 0.00019138080824632198 0.0 0.0 0.0 0.0 0.0 0.0 9.126492147811918e-18 0.47073301672935486 0.633441686630249 0.055181000381708145 -4.550112862489186e-06 0.0 9.126492147811918e-18 0.47073301672935486 0.633441686630249 0.055181000381708145 -4.550112862489186e-06 0.0 0.19999998670079064 -0.1999999704610756 0.3999999820253386 -1.2090987476551505 1.2090487830418655 -1.2090486641472589 0.0 0.0 0.0 0.0 0.0 0.0 -7.151161839831541e-07 1.2111828474217765e-06 -3.8993763433588525e-07 -2.065595931891045e-12 8.658785775758427e-08 -9.921333770371297e-08 0.19999999999999996 -0.20000000000000004 0.3999999999999999 -1.2090987223823195 1.2090487307044444 -1.2090487304564634 0.0 0.0 0.0 0.0 0.0 0.0
6168.496 -0.5325564460622898 -1.5953254434050104 -1.9350577238206403 0.38893029262324835 2.1035145059768503 0.0001913808015903128 0.0 0.0 0.0 0.0 0.0 0.0 0.0 0.0 0.0 0.0 0.0 0.0 9.126492051137239e-18 0.4707330261765891 0.6334416680007949 0.055181001037467085 -4.550112770478445e-06 0.0 1.1983084063143194e-16 6.180724633698615 5.898735500757002 0.2507976497152879 -2.0680262541824532e-05 0.0 -0.5325563589679163 -1.5953252951251429 -1.9350579420672815 0.3889302909374237 2.1035144329071045 0.00019138080824632198 0.0 0.0 0.0 0.0 0.0 0.0 9.126492147811918e-18 0.47073301672935486 0.633441686630249 0.055181000381708145 -4.550112862489186e-06 0.0 9.126492147811918e-18 0.47073301672935486 0.633441686630249 0.055181000381708145 -4.550112862489186e-06 0.0 0.19999998670079064 -0.1999999704610756 0.3999999820253386 -1.2090987476551505 1.2090487830418655 -1.2090486641472589 0.0 0.0 0.0 0.0 0.0 0.0 -7.151161839831541e-07 1.2111828474217765e-06 -3.8993763433588525e-07 -2.065595931891045e-12 8.658785775758427e-08 -9.921333770371297e-08 0.19999999999999996 -0.20000000000000004 0.3999999999999999 -1.2090987223823195 1.2090487307044444 -1.2090487304564634 0.0 0.0 0.0 0.0 0.0 0.0
6168.504 -0.5325564460622898 -1.5953254434050104 -1.9350577238206403 0.38893029262324835 2.1035145059768503 0.0001913808015903128 0.0 0.0 0.0 0.0 0.0 0.0 0.0 0.0 0.0 0.0 0.0 0.0 9.126492051137239e-18 0.4707330261765891 0.6334416680007949 0.055181001037467085 -4.550112770478445e-06 0.0 1.1983084063143194e-16 6.180724633698615 5.898735500757002 0.2507976497152879 -2.0680262541824532e-05 0.0 -0.5325563589679163 -1.5953252951251429 -1.9350579420672815 0.3889302909374237 2.1035144329071045 0.00019138080824632198 0.0 0.0 0.0 0.0 0.0 0.0 9.126492147811918e-18 0.47073301672935486 0.633441686630249 0.055181000381708145 -4.550112862489186e-06 0.0 9.126492147811918e-18 0.47073301672935486 0.633441686630249 0.055181000381708145 -4.550112862489186e-06 0.0 0.19999998670079064 -0.1999999704610756 0.3999999820253386 -1.2090987476551505 1.2090487830418655 -1.2090486641472589 0.0 0.0 0.0 0.0 0.0 0.0 -7.151161839831541e-07 1.2111828474217765e-06 -3.8993763433588525e-07 -2.065595931891045e-12 8.658785775758427e-08 -9.921333770371297e-08 0.19999999999999996 -0.20000000000000004 0.3999999999999999 -1.2090987223823195 1.2090487307044444 -1.2090487304564634 0.0 0.0 0.0 0.0 0.0 0.0
6168.512 -0.5325564460622898 -1.5953254434050104 -1.9350577238206403 0.38893029262324835 2.1035145059768503 0.0001913808015903128 0.0 0.0 0.0 0.0 0.0 0.0 0.0 0.0 0.0 0.0 0.0 0.0 9.126492051137239e-18 0.4707330261765891 0.6334416680007949 0.055181001037467085 -4.550112770478445e-06 0.0 1.1983084063143194e-16 6.180724633698615 5.898735500757002 0.2507976497152879 -2.0680262541824532e-05 0.0 -0.5325563589679163 -1.5953252951251429 -1.9350579420672815 0.3889302909374237 2.1035144329071045 0.00019138080824632198 0.0 0.0 0.0 0.0 0.0 0.0 9.126492147811918e-18 0.47073301672935486 0.633441686630249 0.055181000381708145 -4.550112862489186e-06 0.0 9.126492147811918e-18 0.47073301672935486 0.633441686630249 0.055181000381708145 -4.550112862489186e-06 0.0 0.19999998670079064 -0.1999999704610756 0.3999999820253386 -1.2090987476551505 1.2090487830418655 -1.2090486641472589 0.0 0.0 0.0 0.0 0.0 0.0 -7.151161839831541e-07 1.2111828474217765e-06 -3.8993763433588525e-07 -2.065595931891045e-12 8.658785775758427e-08 -9.921333770371297e-08 0.19999999999999996 -0.20000000000000004 0.3999999999999999 -1.2090987223823195 1.2090487307044444 -1.2090487304564634 0.0 0.0 0.0 0.0 0.0 0.0
6168.5199999999995 -0.5325564460622898 -1.5953254434050104 -1.9350577238206403 0.38893029262324835 2.1035145059768503 0.0001913808015903128 0.0 0.0 0.0 0.0 0.0 0.0 0.0 0.0 0.0 0.0 0.0 0.0 9.126492051137239e-18 0.4707330261765891 0.6334416680007949 0.055181001037467085 -4.550112770478445e-06 0.0 1.1983084063143194e-16 6.180724633698615 5.898735500757002 0.2507976497152879 -2.0680262541824532e-05 0.0 -0.5325563589679163 -1.5953252951251429 -1.9350579420672815 0.3889302909374237 2.1035144329071045 0.00019138080824632198 0.0 0.0 0.0 0.0 0.0 0.0 9.126492147811918e-18 0.47073301672935486 0.633441686630249 0.055181000381708145 -4.550112862489186e-06 0.0 9.126492147811918e-18 0.47073301672935486 0.633441686630249 0.055181000381708145 -4.550112862489186e-06 0.0 0.19999998670079064 -0.1999999704610756 0.3999999820253386 -1.2090987476551505 1.2090487830418655 -1.2090486641472589 0.0 0.0 0.0 0.0 0.0 0.0 -7.151161839831541e-07 1.2111828474217765e-06 -3.8993763433588525e-07 -2.065595931891045e-12 8.658785775758427e-08 -9.921333770371297e-08 0.19999999999999996 -0.20000000000000004 0.3999999999999999 -1.2090987223823195 1.2090487307044444 -1.2090487304564634 0.0 0.0 0.0 0.0 0.0 0.0
6168.527999999999 -0.5325564460622898 -1.5953254434050104 -1.9350577238206403 0.38893029262324835 2.1035145059768503 0.0001913808015903128 0.0 0.0 0.0 0.0 0.0 0.0 0.0 0.0 0.0 0.0 0.0 0.0 9.126492051137239e-18 0.4707330261765891 0.6334416680007949 0.055181001037467085 -4.550112770478445e-06 0.0 1.1983084063143194e-16 6.180724633698615 5.898735500757002 0.2507976497152879 -2.0680262541824532e-05 0.0 -0.5325563589679163 -1.5953252951251429 -1.9350579420672815 0.3889302909374237 2.1035144329071045 0.00019138080824632198 0.0 0.0 0.0 0.0 0.0 0.0 9.126492147811918e-18 0.47073301672935486 0.633441686630249 0.055181000381708145 -4.550112862489186e-06 0.0 9.126492147811918e-18 0.47073301672935486 0.633441686630249 0.055181000381708145 -4.550112862489186e-06 0.0 0.19999998670079064 -0.1999999704610756 0.3999999820253386 -1.2090987476551505 1.2090487830418655 -1.2090486641472589 0.0 0.0 0.0 0.0 0.0 0.0 -7.151161839831541e-07 1.2111828474217765e-06 -3.8993763433588525e-07 -2.065595931891045e-12 8.658785775758427e-08 -9.921333770371297e-08 0.19999999999999996 -0.20000000000000004 0.3999999999999999 -1.2090987223823195 1.2090487307044444 -1.2090487304564634 0.0 0.0 0.0 0.0 0.0 0.0
6168.536 -0.5325564460622898 -1.5953254434050104 -1.9350577238206403 0.38893029262324835 2.1035145059768503 0.0001913808015903128 0.0 0.0 0.0 0.0 0.0 0.0 0.0 0.0 0.0 0.0 0.0 0.0 9.126492051137239e-18 0.4707330261765891 0.6334416680007949 0.055181001037467085 -4.550112770478445e-06 0.0 1.1983084063143194e-16 6.180724633698615 5.898735500757002 0.2507976497152879 -2.0680262541824532e-05 0.0 -0.5325563589679163 -1.5953252951251429 -1.9350579420672815 0.3889302909374237 2.1035144329071045 0.00019138080824632198 0.0 0.0 0.0 0.0 0.0 0.0 9.126492147811918e-18 0.47073301672935486 0.633441686630249 0.055181000381708145 -4.550112862489186e-06 0.0 9.126492147811918e-18 0.47073301672935486 0.633441686630249 0.055181000381708145 -4.550112862489186e-06 0.0 0.19999998670079064 -0.1999999704610756 0.3999999820253386 -1.2090987476551505 1.2090487830418655 -1.2090486641472589 0.0 0.0 0.0 0.0 0.0 0.0 -7.151161839831541e-07 1.2111828474217765e-06 -3.8993763433588525e-07 -2.065595931891045e-12 8.658785775758427e-08 -9.921333770371297e-08 0.19999999999999996 -0.20000000000000004 0.3999999999999999 -1.2090987223823195 1.2090487307044444 -1.2090487304564634 0.0 0.0 0.0 0.0 0.0 0.0
6168.544 -0.5325564460622898 -1.5953254434050104 -1.9350577238206403 0.38893029262324835 2.1035145059768503 0.0001913808015903128 0.0 0.0 0.0 0.0 0.0 0.0 0.0 0.0 0.0 0.0 0.0 0.0 9.126492051137239e-18 0.4707330261765891 0.6334416680007949 0.055181001037467085 -4.550112770478445e-06 0.0 1.1983084063143194e-16 6.180724633698615 5.898735500757002 0.2507976497152879 -2.0680262541824532e-05 0.0 -0.5325563589679163 -1.5953252951251429 -1.9350579420672815 0.3889302909374237 2.1035144329071045 0.00019138080824632198 0.0 0.0 0.0 0.0 0.0 0.0 9.126492147811918e-18 0.47073301672935486 0.633441686630249 0.055181000381708145 -4.550112862489186e-06 0.0 9.126492147811918e-18 0.47073301672935486 0.633441686630249 0.055181000381708145 -4.550112862489186e-06 0.0 0.19999998670079064 -0.1999999704610756 0.3999999820253386 -1.2090987476551505 1.2090487830418655 -1.2090486641472589 0.0 0.0 0.0 0.0 0.0 0.0 -7.151161839831541e-07 1.2111828474217765e-06 -3.8993763433588525e-07 -2.065595931891045e-12 8.658785775758427e-08 -9.921333770371297e-08 0.19999999999999996 -0.20000000000000004 0.3999999999999999 -1.2090987223823195 1.2090487307044444 -1.2090487304564634 0.0 0.0 0.0 0.0 0.0 0.0
6168.552 -0.5325564460622898 -1.5953254434050104 -1.9350577238206403 0.38893029262324835 2.1035145059768503 0.0001913808015903128 0.0 0.0 0.0 0.0 0.0 0.0 0.0 0.0 0.0 0.0 0.0 0.0 9.126492051137239e-18 0.4707330261765891 0.6334416680007949 0.055181001037467085 -4.550112770478445e-06 0.0 1.1983084063143194e-16 6.180724633698615 5.898735500757002 0.2507976497152879 -2.0680262541824532e-05 0.0 -0.5325563589679163 -1.5953252951251429 -1.9350579420672815 0.3889302909374237 2.1035144329071045 0.00019138080824632198 0.0 0.0 0.0 0.0 0.0 0.0 9.126492147811918e-18 0.47073301672935486 0.633441686630249 0.055181000381708145 -4.550112862489186e-06 0.0 9.126492147811918e-18 0.47073301672935486 0.633441686630249 0.055181000381708145 -4.550112862489186e-06 0.0 0.19999998670079064 -0.1999999704610756 0.3999999820253386 -1.2090987476551505 1.2090487830418655 -1.2090486641472589 0.0 0.0 0.0 0.0 0.0 0.0 -7.151161839831541e-07 1.2111828474217765e-06 -3.8993763433588525e-07 -2.065595931891045e-12 8.658785775758427e-08 -9.921333770371297e-08 0.19999999999999996 -0.20000000000000004 0.3999999999999999 -1.2090987223823195 1.2090487307044444 -1.2090487304564634 0.0 0.0 0.0 0.0 0.0 0.0
6168.5599999999995 -0.5325564460622898 -1.5953254434050104 -1.9350577238206403 0.38893029262324835 2.1035145059768503 0.0001913808015903128 0.0 0.0 0.0 0.0 0.0 0.0 0.0 0.0 0.0 0.0 0.0 0.0 9.126492051137239e-18 0.4707330261765891 0.6334416680007949 0.055181001037467085 -4.550112770478445e-06 0.0 1.1983084063143194e-16 6.180724633698615 5.898735500757002 0.2507976497152879 -2.0680262541824532e-05 0.0 -0.5325563589679163 -1.5953252951251429 -1.9350579420672815 0.3889302909374237 2.1035144329071045 0.00019138080824632198 0.0 0.0 0.0 0.0 0.0 0.0 9.126492147811918e-18 0.47073301672935486 0.633441686630249 0.055181000381708145 -4.550112862489186e-06 0.0 9.126492147811918e-18 0.47073301672935486 0.633441686630249 0.055181000381708145 -4.550112862489186e-06 0.0 0.19999998670079064 -0.1999999704610756 0.3999999820253386 -1.2090987476551505 1.2090487830418655 -1.2090486641472589 0.0 0.0 0.0 0.0 0.0 0.0 -7.151161839831541e-07 1.2111828474217765e-06 -3.8993763433588525e-07 -2.065595931891045e-12 8.658785775758427e-08 -9.921333770371297e-08 0.19999999999999996 -0.20000000000000004 0.3999999999999999 -1.2090987223823195 1.2090487307044444 -1.2090487304564634 0.0 0.0 0.0 0.0 0.0 0.0
6168.567999999999 -0.5325564460622898 -1.5953254434050104 -1.9350577238206403 0.38893029262324835 2.1035145059768503 0.0001913808015903128 0.0 0.0 0.0 0.0 0.0 0.0 0.0 0.0 0.0 0.0 0.0 0.0 9.126492051137239e-18 0.4707330261765891 0.6334416680007949 0.055181001037467085 -4.550112770478445e-06 0.0 1.1983084063143194e-16 6.180724633698615 5.898735500757002 0.2507976497152879 -2.0680262541824532e-05 0.0 -0.5325563589679163 -1.5953252951251429 -1.9350579420672815 0.3889302909374237 2.1035144329071045 0.00019138080824632198 0.0 0.0 0.0 0.0 0.0 0.0 9.126492147811918e-18 0.47073301672935486 0.633441686630249 0.055181000381708145 -4.550112862489186e-06 0.0 9.126492147811918e-18 0.47073301672935486 0.633441686630249 0.055181000381708145 -4.550112862489186e-06 0.0 0.19999998670079064 -0.1999999704610756 0.3999999820253386 -1.2090987476551505 1.2090487830418655 -1.2090486641472589 0.0 0.0 0.0 0.0 0.0 0.0 -7.151161839831541e-07 1.2111828474217765e-06 -3.8993763433588525e-07 -2.065595931891045e-12 8.658785775758427e-08 -9.921333770371297e-08 0.19999999999999996 -0.20000000000000004 0.3999999999999999 -1.2090987223823195 1.2090487307044444 -1.2090487304564634 0.0 0.0 0.0 0.0 0.0 0.0
6168.576 -0.5325564460622898 -1.5953254434050104 -1.9350577238206403 0.38893029262324835 2.1035145059768503 0.0001913808015903128 0.0 0.0 0.0 0.0 0.0 0.0 0.0 0.0 0.0 0.0 0.0 0.0 9.126492051137239e-18 0.4707330261765891 0.6334416680007949 0.055181001037467085 -4.550112770478445e-06 0.0 1.1983084063143194e-16 6.180724633698615 5.898735500757002 0.2507976497152879 -2.0680262541824532e-05 0.0 -0.5325563589679163 -1.5953252951251429 -1.9350579420672815 0.3889302909374237 2.1035144329071045 0.00019138080824632198 0.0 0.0 0.0 0.0 0.0 0.0 9.126492147811918e-18 0.47073301672935486 0.633441686630249 0.055181000381708145 -4.550112862489186e-06 0.0 9.126492147811918e-18 0.47073301672935486 0.633441686630249 0.055181000381708145 -4.550112862489186e-06 0.0 0.19999998670079064 -0.1999999704610756 0.3999999820253386 -1.2090987476551505 1.2090487830418655 -1.2090486641472589 0.0 0.0 0.0 0.0 0.0 0.0 -7.151161839831541e-07 1.2111828474217765e-06 -3.8993763433588525e-07 -2.065595931891045e-12 8.658785775758427e-08 -9.921333770371297e-08 0.19999999999999996 -0.20000000000000004 0.3999999999999999 -1.2090987223823195 1.2090487307044444 -1.2090487304564634 0.0 0.0 0.0 0.0 0.0 0.0
6168.584 -0.5325564460622898 -1.5953254434050104 -1.9350577238206403 0.38893029262324835 2.1035145059768503 0.0001913808015903128 0.0 0.0 0.0 0.0 0.0 0.0 0.0 0.0 0.0 0.0 0.0 0.0 9.126492051137239e-18 0.4707330261765891 0.6334416680007949 0.055181001037467085 -4.550112770478445e-06 0.0 1.1983084063143194e-16 6.180724633698615 5.898735500757002 0.2507976497152879 -2.0680262541824532e-05 0.0 -0.5325563589679163 -1.5953252951251429 -1.9350579420672815 0.3889302909374237 2.1035144329071045 0.00019138080824632198 0.0 0.0 0.0 0.0 0.0 0.0 9.126492147811918e-18 0.47073301672935486 0.633441686630249 0.055181000381708145 -4.550112862489186e-06 0.0 9.126492147811918e-18 0.47073301672935486 0.633441686630249 0.055181000381708145 -4.550112862489186e-06 0.0 0.19999998670079064 -0.1999999704610756 0.3999999820253386 -1.2090987476551505 1.2090487830418655 -1.2090486641472589 0.0 0.0 0.0 0.0 0.0 0.0 -7.151161839831541e-07 1.2111828474217765e-06 -3.8993763433588525e-07 -2.065595931891045e-12 8.658785775758427e-08 -9.921333770371297e-08 0.19999999999999996 -0.20000000000000004 0.3999999999999999 -1.2090987223823195 1.2090487307044444 -1.2090487304564634 0.0 0.0 0.0 0.0 0.0 0.0
6168.592 -0.5325564460622898 -1.5953254434050104 -1.9350577238206403 0.38893029262324835 2.1035145059768503 0.0001913808015903128 0.0 0.0 0.0 0.0 0.0 0.0 0.0 0.0 0.0 0.0 0.0 0.0 9.126492051137239e-18 0.4707330261765891 0.6334416680007949 0.055181001037467085 -4.550112770478445e-06 0.0 1.1983084063143194e-16 6.180724633698615 5.898735500757002 0.2507976497152879 -2.0680262541824532e-05 0.0 -0.5325563589679163 -1.5953252951251429 -1.9350579420672815 0.3889302909374237 2.1035144329071045 0.00019138080824632198 0.0 0.0 0.0 0.0 0.0 0.0 9.126492147811918e-18 0.47073301672935486 0.633441686630249 0.055181000381708145 -4.550112862489186e-06 0.0 9.126492147811918e-18 0.47073301672935486 0.633441686630249 0.055181000381708145 -4.550112862489186e-06 0.0 0.19999998670079064 -0.1999999704610756 0.3999999820253386 -1.2090987476551505 1.2090487830418655 -1.2090486641472589 0.0 0.0 0.0 0.0 0.0 0.0 -7.151161839831541e-07 1.2111828474217765e-06 -3.8993763433588525e-07 -2.065595931891045e-12 8.658785775758427e-08 -9.921333770371297e-08 0.19999999999999996 -0.20000000000000004 0.3999999999999999 -1.2090987223823195 1.2090487307044444 -1.2090487304564634 0.0 0.0 0.0 0.0 0.0 0.0
6168.599999999999 -0.5325564460622898 -1.5953254434050104 -1.9350577238206403 0.38893029262324835 2.1035145059768503 0.0001913808015903128 0.0 0.0 0.0 0.0 0.0 0.0 0.0 0.0 0.0 0.0 0.0 0.0 9.126492051137239e-18 0.4707330261765891 0.6334416680007949 0.055181001037467085 -4.550112770478445e-06 0.0 1.1983084063143194e-16 6.180724633698615 5.898735500757002 0.2507976497152879 -2.0680262541824532e-05 0.0 -0.5325563589679163 -1.5953252951251429 -1.9350579420672815 0.3889302909374237 2.1035144329071045 0.00019138080824632198 0.0 0.0 0.0 0.0 0.0 0.0 9.126492147811918e-18 0.47073301672935486 0.633441686630249 0.055181000381708145 -4.550112862489186e-06 0.0 9.126492147811918e-18 0.47073301672935486 0.633441686630249 0.055181000381708145 -4.550112862489186e-06 0.0 0.19999998670079064 -0.1999999704610756 0.3999999820253386 -1.2090987476551505 1.2090487830418655 -1.2090486641472589 0.0 0.0 0.0 0.0 0.0 0.0 -7.151161839831541e-07 1.2111828474217765e-06 -3.8993763433588525e-07 -2.065595931891045e-12 8.658785775758427e-08 -9.921333770371297e-08 0.19999999999999996 -0.20000000000000004 0.3999999999999999 -1.2090987223823195 1.2090487307044444 -1.2090487304564634 0.0 0.0 0.0 0.0 0.0 0.0
6168.608 -0.5325564460622898 -1.5953254434050104 -1.9350577238206403 0.38893029262324835 2.1035145059768503 0.0001913808015903128 0.0 0.0 0.0 0.0 0.0 0.0 0.0 0.0 0.0 0.0 0.0 0.0 9.126492051137239e-18 0.4707330261765891 0.6334416680007949 0.055181001037467085 -4.550112770478445e-06 0.0 1.1983084063143194e-16 6.180724633698615 5.898735500757002 0.2507976497152879 -2.0680262541824532e-05 0.0 -0.5325563589679163 -1.5953252951251429 -1.9350579420672815 0.3889302909374237 2.1035144329071045 0.00019138080824632198 0.0 0.0 0.0 0.0 0.0 0.0 9.126492147811918e-18 0.47073301672935486 0.633441686630249 0.055181000381708145 -4.550112862489186e-06 0.0 9.126492147811918e-18 0.47073301672935486 0.633441686630249 0.055181000381708145 -4.550112862489186e-06 0.0 0.19999998670079064 -0.1999999704610756 0.3999999820253386 -1.2090987476551505 1.2090487830418655 -1.2090486641472589 0.0 0.0 0.0 0.0 0.0 0.0 -7.151161839831541e-07 1.2111828474217765e-06 -3.8993763433588525e-07 -2.065595931891045e-12 8.658785775758427e-08 -9.921333770371297e-08 0.19999999999999996 -0.20000000000000004 0.3999999999999999 -1.2090987223823195 1.2090487307044444 -1.2090487304564634 0.0 0.0 0.0 0.0 0.0 0.0
6168.616 -0.5325564460622898 -1.5953254434050104 -1.9350577238206403 0.38893029262324835 2.1035145059768503 0.0001913808015903128 0.0 0.0 0.0 0.0 0.0 0.0 0.0 0.0 0.0 0.0 0.0 0.0 9.126492051137239e-18 0.4707330261765891 0.6334416680007949 0.055181001037467085 -4.550112770478445e-06 0.0 1.1983084063143194e-16 6.180724633698615 5.898735500757002 0.2507976497152879 -2.0680262541824532e-05 0.0 -0.5325563589679163 -1.5953252951251429 -1.9350579420672815 0.3889302909374237 2.1035144329071045 0.00019138080824632198 0.0 0.0 0.0 0.0 0.0 0.0 9.126492147811918e-18 0.47073301672935486 0.633441686630249 0.055181000381708145 -4.550112862489186e-06 0.0 9.126492147811918e-18 0.47073301672935486 0.633441686630249 0.055181000381708145 -4.550112862489186e-06 0.0 0.19999998670079064 -0.1999999704610756 0.3999999820253386 -1.2090987476551505 1.2090487830418655 -1.2090486641472589 0.0 0.0 0.0 0.0 0.0 0.0 -7.151161839831541e-07 1.2111828474217765e-06 -3.8993763433588525e-07 -2.065595931891045e-12 8.658785775758427e-08 -9.921333770371297e-08 0.19999999999999996 -0.20000000000000004 0.3999999999999999 -1.2090987223823195 1.2090487307044444 -1.2090487304564634 0.0 0.0 0.0 0.0 0.0 0.0
6168.624 -0.5325564460622898 -1.5953254434050104 -1.9350577238206403 0.38893029262324835 2.1035145059768503 0.0001913808015903128 0.0 0.0 0.0 0.0 0.0 0.0 0.0 0.0 0.0 0.0 0.0 0.0 9.126492051137239e-18 0.4707330261765891 0.6334416680007949 0.055181001037467085 -4.550112770478445e-06 0.0 1.1983084063143194e-16 6.180724633698615 5.898735500757002 0.2507976497152879 -2.0680262541824532e-05 0.0 -0.5325563589679163 -1.5953252951251429 -1.9350579420672815 0.3889302909374237 2.1035144329071045 0.00019138080824632198 0.0 0.0 0.0 0.0 0.0 0.0 9.126492147811918e-18 0.47073301672935486 0.633441686630249 0.055181000381708145 -4.550112862489186e-06 0.0 9.126492147811918e-18 0.47073301672935486 0.633441686630249 0.055181000381708145 -4.550112862489186e-06 0.0 0.19999998670079064 -0.1999999704610756 0.3999999820253386 -1.2090987476551505 1.2090487830418655 -1.2090486641472589 0.0 0.0 0.0 0.0 0.0 0.0 -7.151161839831541e-07 1.2111828474217765e-06 -3.8993763433588525e-07 -2.065595931891045e-12 8.658785775758427e-08 -9.921333770371297e-08 0.19999999999999996 -0.20000000000000004 0.3999999999999999 -1.2090987223823195 1.2090487307044444 -1.2090487304564634 0.0 0.0 0.0 0.0 0.0 0.0
6168.632 -0.5325564460622898 -1.5953254434050104 -1.9350577238206403 0.38893029262324835 2.1035145059768503 0.0001913808015903128 0.0 0.0 0.0 0.0 0.0 0.0 0.0 0.0 0.0 0.0 0.0 0.0 9.126492051137239e-18 0.4707330261765891 0.6334416680007949 0.055181001037467085 -4.550112770478445e-06 0.0 1.1983084063143194e-16 6.180724633698615 5.898735500757002 0.2507976497152879 -2.0680262541824532e-05 0.0 -0.5325563589679163 -1.5953252951251429 -1.9350579420672815 0.3889302909374237 2.1035144329071045 0.00019138080824632198 0.0 0.0 0.0 0.0 0.0 0.0 9.126492147811918e-18 0.47073301672935486 0.633441686630249 0.055181000381708145 -4.550112862489186e-06 0.0 9.126492147811918e-18 0.47073301672935486 0.633441686630249 0.055181000381708145 -4.550112862489186e-06 0.0 0.19999998670079064 -0.1999999704610756 0.3999999820253386 -1.2090987476551505 1.2090487830418655 -1.2090486641472589 0.0 0.0 0.0 0.0 0.0 0.0 -7.151161839831541e-07 1.2111828474217765e-06 -3.8993763433588525e-07 -2.065595931891045e-12 8.658785775758427e-08 -9.921333770371297e-08 0.19999999999999996 -0.20000000000000004 0.3999999999999999 -1.2090987223823195 1.2090487307044444 -1.2090487304564634 0.0 0.0 0.0 0.0 0.0 0.0
6168.639999999999 -0.5325564460622898 -1.5953254434050104 -1.9350577238206403 0.38893029262324835 2.1035145059768503 0.0001913808015903128 0.0 0.0 0.0 0.0 0.0 0.0 0.0 0.0 0.0 0.0 0.0 0.0 9.126492051137239e-18 0.4707330261765891 0.6334416680007949 0.055181001037467085 -4.550112770478445e-06 0.0 1.1983084063143194e-16 6.180724633698615 5.898735500757002 0.2507976497152879 -2.0680262541824532e-05 0.0 -0.5325563589679163 -1.5953252951251429 -1.9350579420672815 0.3889302909374237 2.1035144329071045 0.00019138080824632198 0.0 0.0 0.0 0.0 0.0 0.0 9.126492147811918e-18 0.47073301672935486 0.633441686630249 0.055181000381708145 -4.550112862489186e-06 0.0 9.126492147811918e-18 0.47073301672935486 0.633441686630249 0.055181000381708145 -4.550112862489186e-06 0.0 0.19999998670079064 -0.1999999704610756 0.3999999820253386 -1.2090987476551505 1.2090487830418655 -1.2090486641472589 0.0 0.0 0.0 0.0 0.0 0.0 -7.151161839831541e-07 1.2111828474217765e-06 -3.8993763433588525e-07 -2.065595931891045e-12 8.658785775758427e-08 -9.921333770371297e-08 0.19999999999999996 -0.20000000000000004 0.3999999999999999 -1.2090987223823195 1.2090487307044444 -1.2090487304564634 0.0 0.0 0.0 0.0 0.0 0.0
6168.648 -0.5325564460622898 -1.5953254434050104 -1.9350577238206403 0.38893029262324835 2.1035145059768503 0.0001913808015903128 0.0 0.0 0.0 0.0 0.0 0.0 0.0 0.0 0.0 0.0 0.0 0.0 9.126492051137239e-18 0.4707330261765891 0.6334416680007949 0.055181001037467085 -4.550112770478445e-06 0.0 1.1983084063143194e-16 6.180724633698615 5.898735500757002 0.2507976497152879 -2.0680262541824532e-05 0.0 -0.5325563589679163 -1.5953252951251429 -1.9350579420672815 0.3889302909374237 2.1035144329071045 0.00019138080824632198 0.0 0.0 0.0 0.0 0.0 0.0 9.126492147811918e-18 0.47073301672935486 0.633441686630249 0.055181000381708145 -4.550112862489186e-06 0.0 9.126492147811918e-18 0.47073301672935486 0.633441686630249 0.055181000381708145 -4.550112862489186e-06 0.0 0.19999998670079064 -0.1999999704610756 0.3999999820253386 -1.2090987476551505 1.2090487830418655 -1.2090486641472589 0.0 0.0 0.0 0.0 0.0 0.0 -7.151161839831541e-07 1.2111828474217765e-06 -3.8993763433588525e-07 -2.065595931891045e-12 8.658785775758427e-08 -9.921333770371297e-08 0.19999999999999996 -0.20000000000000004 0.3999999999999999 -1.2090987223823195 1.2090487307044444 -1.2090487304564634 0.0 0.0 0.0 0.0 0.0 0.0
6168.656 -0.5325564460622898 -1.5953254434050104 -1.9350577238206403 0.38893029262324835 2.1035145059768503 0.0001913808015903128 0.0 0.0 0.0 0.0 0.0 0.0 0.0 0.0 0.0 0.0 0.0 0.0 9.126492051137239e-18 0.4707330261765891 0.6334416680007949 0.055181001037467085 -4.550112770478445e-06 0.0 1.1983084063143194e-16 6.180724633698615 5.898735500757002 0.2507976497152879 -2.0680262541824532e-05 0.0 -0.5325563589679163 -1.5953252951251429 -1.9350579420672815 0.3889302909374237 2.1035144329071045 0.00019138080824632198 0.0 0.0 0.0 0.0 0.0 0.0 9.126492147811918e-18 0.47073301672935486 0.633441686630249 0.055181000381708145 -4.550112862489186e-06 0.0 9.126492147811918e-18 0.47073301672935486 0.633441686630249 0.055181000381708145 -4.550112862489186e-06 0.0 0.19999998670079064 -0.1999999704610756 0.3999999820253386 -1.2090987476551505 1.2090487830418655 -1.2090486641472589 0.0 0.0 0.0 0.0 0.0 0.0 -7.151161839831541e-07 1.2111828474217765e-06 -3.8993763433588525e-07 -2.065595931891045e-12 8.658785775758427e-08 -9.921333770371297e-08 0.19999999999999996 -0.20000000000000004 0.3999999999999999 -1.2090987223823195 1.2090487307044444 -1.2090487304564634 0.0 0.0 0.0 0.0 0.0 0.0
