Fleaurent/UniversalRobot/csv/robolib_movej_Synchron.csv
timestamp target_q_0 target_q_1 target_q_2 target_q_3 target_q_4 target_q_5 target_qd_0 target_qd_1 target_qd_2 target_qd_3 target_qd_4 target_qd_5 target_qdd_0 target_qdd_1 target_qdd_2 target_qdd_3 target_qdd_4 target_qdd_5 actual_TCP_pose_0 actual_TCP_pose_1 actual_TCP_pose_2 actual_TCP_pose_3 actual_TCP_pose_4 actual_TCP_pose_5
0.0 0.0 -1.5707963267948966 -1.5707963267948966 0.0 1.5707963267948966 0.0 0.0 0.0 0.0 0.0 0.0 0.0 1.0 0.6666666666666664 0.3333333333333332 0.0 0.0 0.0 295.15 -112.34999999999998 480.9 -1.2091995761561454 1.2091995761561456 -1.2091995761561458 
0.008 3.2e-05 -1.5707749934615631 -1.57078566012823 0.0 1.5707963267948966 0.0 0.008 0.005333333333333331 0.0026666666666666657 0.0 0.0 0.0 1.0 0.6666666666666664 0.3333333333333332 0.0 0.0 0.0 295.14566583110394 -112.34055539621338 480.9094447008554 -1.2091911404039255 1.2091524469065253 -1.2091911404039257 
0.016 0.000128 -1.5707109934615633 -1.57075366012823 0.0 1.5707963267948966 0.0 0.016 0.010666666666666663 0.005333333333333331 0.0 0.0 0.0 1.0 0.6666666666666664 0.3333333333333332 0.0 0.0 0.0 295.13265969787136 -112.31222393972357 480.93777761360707 -1.209165826575134 1.2090110632539737 -1.2091658265751342 
0.024 0.000288 -1.5706043267948966 -1.5707003267948965 0.0 1.5707963267948966 0.0 0.024 0.015999999999999993 0.007999999999999997 0.0 0.0 0.0 1.0 0.6666666666666664 0.3333333333333332 0.0 0.0 0.0 295.1109707222185 -112.26501269746149 480.98499516823307 -1.2091236149552054 1.2087754374892468 -1.2091236149552056 
0.032 0.000512 -1.5704549934615633 -1.5706256601282298 0.0 1.5707963267948966 0.0 0.032 0.021333333333333326 0.010666666666666663 0.0 0.0 0.0 1.0 0.6666666666666664 0.3333333333333332 0.0 0.0 0.0 295.08058077917786 -112.19893345538017 481.0510914127616 -1.2090644726926643 1.2084455901030688 -1.2090644726926645 
0.04 0.0008 -1.5702629934615633 -1.57052966012823 0.0 1.5707963267948966 0.0 0.04 0.026666666666666658 0.013333333333333329 0.0 0.0 0.0 1.0 0.6666666666666664 0.3333333333333332 0.0 0.0 0.0 295.0414645046626 -112.11400273005208 481.13605801037176 -1.2089883538083168 1.2080215497953124 -1.2089883538083168 
0.048 0.001152 -1.5700283267948965 -1.5704123267948966 0.0 1.5707963267948966 0.0 0.048 0.03199999999999999 0.015999999999999993 0.0 0.0 0.0 1.0 0.6666666666666664 0.3333333333333332 0.0 0.0 0.0 294.9935893063514 -112.01024178489634 481.2398842353324 -1.2088951992081247 1.2075033534878448 -1.2088951992081247 
0.056 0.0015680000000000002 -1.5697509934615632 -1.5702736601282299 0.0 1.5707963267948966 0.0 0.056 0.03733333333333332 0.01866666666666666 0.0 0.0 0.0 1.0 0.6666666666666664 0.3333333333333332 0.0 0.0 0.0 294.93691537770894 -111.88767665102608 481.36255696778403 -1.208784936699754 1.2068910463410198 -1.2087849366997543 
0.064 0.002048 -1.5694309934615631 -1.57011366012823 0.0 1.5707963267948966 0.0 0.064 0.04266666666666665 0.021333333333333326 0.0 0.0 0.0 1.0 0.6666666666666664 0.3333333333333332 0.0 0.0 0.0 294.87139571515917 -111.74633815270423 481.50406068736163 -1.208657481012803 1.2061846817738038 -1.2086574810128035 
0.072 0.0025920000000000006 -1.5690683267948966 -1.5699323267948966 0.0 1.5707963267948966 0.0 0.07200000000000001 0.04799999999999999 0.023999999999999994 0.0 0.0 0.0 1.0 0.6666666666666664 0.3333333333333332 0.0 0.0 0.0 294.7969761384359 -111.58626193739266 481.66437746566294 -1.2085127338227057 1.205384321487513 -1.208512733822706 
0.08 0.0032 -1.5686629934615632 -1.5697296601282298 0.0 1.5707963267948966 0.0 0.08 0.053333333333333316 0.026666666666666658 0.0 0.0 0.0 1.0 0.6666666666666664 0.3333333333333332 0.0 0.0 0.0 294.7135953141356 -111.40748851037755 481.84348695756046 -1.208350583778309 1.2044900354931398 -1.2083505837783097 
0.088 0.0038719999999999996 -1.5682149934615632 -1.5695056601282298 0.0 1.5707963267948966 0.0 0.088 0.05866666666666664 0.02933333333333332 0.0 0.0 0.0 1.0 0.6666666666666664 0.3333333333333332 0.0 0.0 0.0 294.62118478250574 -111.21006327395015 482.04136639136124 -1.208170906533132 1.2035019021422428 -1.2081709065331323 
0.096 0.004608 -1.5677243267948966 -1.5692603267948966 0.0 1.5707963267948966 0.0 0.096 0.06399999999999997 0.03199999999999999 0.0 0.0 0.0 1.0 0.6666666666666664 0.3333333333333332 0.0 0.0 0.0 294.5196689875014 -110.99403657112056 482.2579905578156 -1.2079735647802876 1.2024200081613639 -1.2079735647802878 
0.104 0.005408000000000001 -1.5671909934615633 -1.56899366012823 0.0 1.5707963267948966 0.0 0.10400000000000001 0.06933333333333332 0.03466666666666666 0.0 0.0 0.0 1.0 0.6666666666666664 0.3333333333333332 0.0 0.0 0.0 294.4089653101512 -110.75946373383792 482.49333179797816 -1.207758408291092 1.2012444486899503 -1.207758408291092 
0.112 0.006272000000000001 -1.5666149934615632 -1.5687056601282299 0.0 1.5707963267948966 0.0 0.112 0.07466666666666665 0.03733333333333332 0.0 0.0 0.0 1.0 0.6666666666666664 0.3333333333333332 0.0 0.0 0.0 294.28898410527404 -110.50640513568857 482.7473599899205 -1.2075252739573312 1.1999753273217304 -1.2075252739573314 
0.12 0.0072 -1.5659963267948966 -1.5683963267948966 0.0 1.5707963267948966 0.0 0.12 0.07999999999999996 0.03999999999999998 0.0 0.0 0.0 1.0 0.6666666666666664 0.3333333333333332 0.0 0.0 0.0 294.1596287415951 -110.23492624904016 483.02004253430255 -1.207273985837213 1.1986127561495161 -1.207273985837213 
0.128 0.008192 -1.5653349934615632 -1.56806566012823 0.0 1.5707963267948966 0.0 0.128 0.0853333333333333 0.04266666666666665 0.0 0.0 0.0 1.0 0.6666666666666664 0.3333333333333332 0.0 0.0 0.0 294.02079564531124 -109.94509770659708 483.31134433880345 -1.207004355204973 1.1971568558133723 -1.2070043552049732 
0.136 0.009248000000000001 -1.5646309934615632 -1.56771366012823 0.0 1.5707963267948966 0.0 0.136 0.09066666666666663 0.045333333333333316 0.0 0.0 0.0 1.0 0.6666666666666664 0.3333333333333332 0.0 0.0 0.0 293.87237434716087 -109.63699536732928 483.62122780141414 -1.206716180604162 1.195607755552125 -1.2067161806041622 
0.144 0.010368000000000002 -1.5638843267948965 -1.5673403267948967 0.0 1.5707963267948966 0.0 0.14400000000000002 0.09599999999999997 0.04799999999999999 0.0 0.0 0.0 1.0 0.6666666666666664 0.3333333333333332 0.0 0.0 0.0 293.7142475330576 -109.31070038673347 483.9496527925981 -1.2064092479045825 1.1939655932581346 -1.2064092479045831 
0.152 0.011552 -1.5630949934615632 -1.56694566012823 0.0 1.5707963267948966 0.0 0.152 0.10133333333333329 0.050666666666666645 0.0 0.0 0.0 1.0 0.6666666666666664 0.3333333333333332 0.0 0.0 0.0 293.5462910983499 -108.9662992913826 484.2965766363214 -1.2060833303629055 1.192230515535306 -1.2060833303629057 
0.16 0.0128 -1.5622629934615633 -1.56652966012823 0.0 1.5707963267948966 0.0 0.16 0.10666666666666663 0.053333333333333316 0.0 0.0 0.0 1.0 0.6666666666666664 0.3333333333333332 0.0 0.0 0.0 293.36837420577285 -108.60388405771616 484.66195408995765 -1.20573818868693 1.1904026777602537 -1.20573818868693 
0.168 0.014112000000000001 -1.5613883267948965 -1.5660923267948965 0.0 1.5707963267948966 0.0 0.168 0.11199999999999996 0.05599999999999998 0.0 0.0 0.0 1.0 0.6666666666666664 0.3333333333333332 0.0 0.0 0.0 293.1803593471629 -108.2235521950205 485.045737323072 -1.20537357110351 1.1884822441465774 -1.2053735711035105 
0.176 0.015487999999999998 -1.5604709934615633 -1.56563366012823 0.0 1.5707963267948966 0.0 0.176 0.11733333333333328 0.05866666666666664 0.0 0.0 0.0 1.0 0.6666666666666664 0.3333333333333332 0.0 0.0 0.0 292.98210240900914 -107.825406832545 485.44787589508815 -1.2049892134301303 1.1864693878121801 -1.2049892134301305 
0.184 0.016928 -1.5595109934615632 -1.5651536601282299 0.0 1.5707963267948966 0.0 0.184 0.12266666666666662 0.06133333333333331 0.0 0.0 0.0 1.0 0.6666666666666664 0.3333333333333332 0.0 0.0 0.0 292.7734527419175 -107.40955681069649 485.86831673184514 -1.2045848391501284 1.1843642908495564 -1.2045848391501286 
0.192 0.018432 -1.5585083267948965 -1.5646523267948966 0.0 1.5707963267948966 0.0 0.192 0.12799999999999995 0.06399999999999997 0.0 0.0 0.0 1.0 0.6666666666666664 0.3333333333333332 0.0 0.0 0.0 292.5542532340711 -106.97611677625049 486.30700410104555 -1.2041601594915656 1.1821671443989943 -1.2041601594915663 
0.2 0.020000000000000004 -1.5574629934615631 -1.56412966012823 0.0 1.5707963267948966 0.0 0.2 0.13333333333333328 0.06666666666666664 0.0 0.0 0.0 1.0 0.6666666666666664 0.3333333333333332 0.0 0.0 0.0 292.3243403887683 -106.52520728151428 486.76387958660604 -1.2037148735097367 1.1798781487246035 -1.2037148735097374 
0.208 0.021632000000000005 -1.5563749934615632 -1.5635856601282299 0.0 1.5707963267948966 0.0 0.20800000000000002 0.13866666666666663 0.06933333333333332 0.0 0.0 0.0 1.0 0.6666666666666664 0.3333333333333332 0.0 0.0 0.0 292.08354440612874 -106.0569548873734 487.23888206191043 -1.203248668173308 1.1774975132931034 -1.2032486681733086 
0.216 0.023327999999999998 -1.5552443267948965 -1.5630203267948966 0.0 1.5707963267948966 0.0 0.216 0.14399999999999993 0.07199999999999997 0.0 0.0 0.0 1.0 0.6666666666666664 0.3333333333333332 0.0 0.0 0.0 291.83168926905705 -105.57149227014833 487.73194766197554 -1.20276121845409 1.1750254568552914 -1.2027612184540901 
0.224 0.025088000000000003 -1.5540709934615633 -1.5624336601282298 0.0 1.5707963267948966 0.0 0.224 0.1493333333333333 0.07466666666666665 0.0 0.0 0.0 1.0 0.6666666666666664 0.3333333333333332 0.0 0.0 0.0 291.568592833559 -105.06895833218537 488.24300975453457 -1.2022521874204275 1.1724622075301077 -1.2022521874204277 
0.232 0.026912000000000002 -1.5528549934615632 -1.5618256601282299 0.0 1.5707963267948966 0.0 0.232 0.15466666666666662 0.07733333333333331 0.0 0.0 0.0 1.0 0.6666666666666664 0.3333333333333332 0.0 0.0 0.0 291.2940669235077 -104.54949831610064 488.77199891004506 -1.2017212263342034 1.1698080028912137 -1.2017212263342039 
0.24 0.0288 -1.5515963267948967 -1.5611963267948965 0.0 1.5707963267948966 0.0 0.24 0.15999999999999992 0.07999999999999996 0.0 0.0 0.0 1.0 0.6666666666666664 0.3333333333333332 0.0 0.0 0.0 291.0079174299609 -104.01326392259242 489.31884287062854 -1.2011679747514505 1.1670630900560046 -1.2011679747514508 
0.248 0.030751999999999998 -1.5502949934615633 -1.56054566012823 0.0 1.5707963267948966 0.0 0.248 0.16533333333333328 0.08266666666666664 0.0 0.0 0.0 1.0 0.6666666666666664 0.3333333333333332 0.0 0.0 0.0 290.7099444151317 -103.46041343173235 489.8834665179496 -1.2005920606265559 1.1642277257769518 -1.200592060626556 
0.256 0.032768 -1.5489509934615633 -1.55987366012823 0.0 1.5707963267948966 0.0 0.256 0.1706666666666666 0.0853333333333333 0.0 0.0 0.0 1.0 0.6666666666666664 0.3333333333333332 0.0 0.0 0.0 290.3999422211201 -102.89111182764246 490.46579184004247 -1.1999931004200586 1.1613021765352016 -1.1999931004200586 
0.264 0.034848000000000004 -1.5475643267948966 -1.5591803267948965 0.0 1.5707963267948966 0.0 0.264 0.17599999999999993 0.08799999999999997 0.0 0.0 0.0 1.0 0.6666666666666664 0.3333333333333332 0.0 0.0 0.0 290.07769958351537 -102.30553092645903 491.06573789709194 -1.199370699210018 1.1582867186363235 -1.199370699210018 
0.272 0.036992000000000004 -1.5461349934615631 -1.5584656601282298 0.0 1.5707963267948966 0.0 0.272 0.18133333333333326 0.09066666666666663 0.0 0.0 0.0 1.0 0.6666666666666664 0.3333333333333332 0.0 0.0 0.0 289.74299974997814 -101.70384950748083 491.68322078617973 -1.1987244508069534 1.1551816383081204 -1.198724450806954 
0.28 0.0391840016747206 -1.5446736590117496 -1.557734992903323 0.0 1.5707963267948966 0.0 0.2743434418098265 0.1828956278732176 0.0914478139366088 0.0 0.0 0.0 0.0 0.0 0.0 0.0 0.0 0.0 289.398147369169 -101.0907208175604 492.31355671667995 -1.1980588142801853 1.152010364956628 -1.1980588142801856 
0.288 0.04137874920919921 -1.5432104939887639 -1.5570034103918302 0.0 1.5707963267948966 0.0 0.2743434418098265 0.1828956278732176 0.0914478139366088 0.0 0.0 0.0 0.0 0.0 0.0 0.0 0.0 0.0 289.05017868904474 -100.47888574036509 492.9436949255341 -1.197387370517708 1.1488384973147914 -1.197387370517708 
0.296 0.04357349674367781 -1.5417473289657782 -1.5562718278803374 0.0 1.5707963267948966 0.0 0.2743434418098265 0.1828956278732176 0.0914478139366088 0.0 0.0 0.0 0.0 0.0 0.0 0.0 0.0 0.0 288.69953332917623 -99.86912540947341 493.5728421307165 -1.1967109600796229 1.145670019101077 -1.1967109600796229 
0.304 0.04576824427815643 -1.5402841639427922 -1.5555402453688445 0.0 1.5707963267948966 0.0 0.2743434418098265 0.1828956278732176 0.0914478139366088 0.0 0.0 0.0 0.0 0.0 0.0 0.0 0.0 0.0 288.34622065810555 -99.2614515841547 494.20099527466726 -1.1960295928159124 1.142504939312167 -1.1960295928159126 
0.312 0.04796299181263504 -1.5388209989198065 -1.5548086628573516 0.0 1.5707963267948966 0.0 0.2743434418098265 0.1828956278732176 0.0914478139366088 0.0 0.0 0.0 0.0 0.0 0.0 0.0 0.0 0.0 287.99025009610574 -98.65587598401322 494.8281513032191 -1.195343278573598 1.139343266900195 -1.1953432785735987 
0.32 0.05015773934711366 -1.5373578338968208 -1.5540770803458588 0.0 1.5707963267948966 0.0 0.2743434418098265 0.1828956278732176 0.0914478139366088 0.0 0.0 0.0 0.0 0.0 0.0 0.0 0.0 0.0 287.6316311150155 -98.05241028876085 495.45430716561265 -1.1946520271966505 1.136185010772895 -1.1946520271966508 
0.328 0.05235248688159227 -1.535894668873835 -1.553345497834366 0.0 1.5707963267948966 0.0 0.2743434418098265 0.1828956278732176 0.0914478139366088 0.0 0.0 0.0 0.0 0.0 0.0 0.0 0.0 0.0 287.2703732380745 -97.45106613798968 496.0794598145111 -1.193955848525899 1.133030179793751 -1.1939558485258992 
0.336 0.054547234416070886 -1.5344315038508494 -1.5526139153228729 0.0 1.5707963267948966 0.0 0.2743434418098265 0.1828956278732176 0.0914478139366088 0.0 0.0 0.0 0.0 0.0 0.0 0.0 0.0 0.0 286.9064860397563 -96.8518551309462 496.7036062060149 -1.1932547523989454 1.1298787827821506 -1.1932547523989456 
0.344 0.0567419819505495 -1.5329683388278637 -1.55188233281138 0.0 1.5707963267948966 0.0 0.2743434418098265 0.1828956278732176 0.0914478139366088 0.0 0.0 0.0 0.0 0.0 0.0 0.0 0.0 0.0 286.5399791456013 -96.25478882630537 497.32674329967654 -1.192548748650076 1.1267308285135338 -1.1925487486500768 
0.352 0.058936729485028094 -1.531505173804878 -1.5511507502998871 0.0 1.5707963267948966 0.0 0.2743434418098265 0.1828956278732176 0.0914478139366088 0.0 0.0 0.0 0.0 0.0 0.0 0.0 0.0 0.0 286.17086223204757 -95.65987874194583 497.9488680585153 -1.191837847110179 1.123586325719545 -1.191837847110179 
0.36 0.061131477019506705 -1.5300420087818922 -1.5504191677883943 0.0 1.5707963267948966 0.0 0.2743434418098265 0.1828956278732176 0.0914478139366088 0.0 0.0 0.0 0.0 0.0 0.0 0.0 0.0 0.0 285.7991450262619 -95.06713635472573 498.5699774490317 -1.191122057606652 1.120445283088184 -1.1911220576066521 
0.368 0.06332622455398532 -1.5285788437589063 -1.5496875852769014 0.0 1.5707963267948966 0.0 0.2743434418098265 0.1828956278732176 0.0914478139366088 0.0 0.0 0.0 0.0 0.0 0.0 0.0 0.0 0.0 285.4248373059688 -94.47657310025923 499.1900684412226 -1.190401389963323 1.117307709263953 -1.1904013899633235 
0.376 0.06552097208846394 -1.5271156787359206 -1.5489560027654086 0.0 1.5707963267948966 0.0 0.2743434418098265 0.1828956278732176 0.0914478139366088 0.0 0.0 0.0 0.0 0.0 0.0 0.0 0.0 0.0 285.04794889927996 -93.8882003726936 499.80913800859577 -1.1896758540003636 1.1141736128480129 -1.1896758540003638 
0.384 0.06771571962294255 -1.5256525137129349 -1.5482244202539157 0.0 1.5707963267948966 0.0 0.2743434418098265 0.1828956278732176 0.0914478139366088 0.0 0.0 0.0 0.0 0.0 0.0 0.0 0.0 0.0 284.66848968452024 -93.30202952448732 500.4271831281841 -1.1889454595342053 1.1110430023983289 -1.188945459534206 
0.392 0.06991046715742116 -1.5241893486899492 -1.5474928377424229 0.0 1.5707963267948966 0.0 0.2743434418098265 0.1828956278732176 0.0914478139366088 0.0 0.0 0.0 0.0 0.0 0.0 0.0 0.0 0.0 284.2864695900555 -92.71807186618848 501.04420078056097 -1.1882102163774586 1.1079158864298215 -1.1882102163774586 
0.4 0.07210521469189979 -1.5227261836669634 -1.54676125523093 0.0 1.5707963267948966 0.0 0.2743434418098265 0.1828956278732176 0.0914478139366088 0.0 0.0 0.0 0.0 0.0 0.0 0.0 0.0 0.0 283.9018985941178 -92.13633866621434 501.6601879498543 -1.1874701343388276 1.1047922734145195 -1.1874701343388279 
0.408 0.07429996222637839 -1.5212630186439777 -1.5460296727194371 0.0 1.5707963267948966 0.0 0.2743434418098265 0.1828956278732176 0.0914478139366088 0.0 0.0 0.0 0.0 0.0 0.0 0.0 0.0 0.0 283.5147867246298 -91.55684115063123 502.27514162376144 -1.1867252232230312 1.101672171781706 -1.1867252232230314 
0.416 0.07649470976085701 -1.519799853620992 -1.5452980902079443 0.0 1.5707963267948966 0.0 0.2743434418098265 0.1828956278732176 0.0914478139366088 0.0 0.0 0.0 0.0 0.0 0.0 0.0 0.0 0.0 283.12514405902874 -90.97959050293547 502.88905879356366 -1.1859754928307218 1.0985555899180708 -1.1859754928307218 
0.424 0.07868945729533561 -1.5183366885980063 -1.5445665076964514 0.0 1.5707963267948966 0.0 0.2743434418098265 0.1828956278732176 0.0914478139366088 0.0 0.0 0.0 0.0 0.0 0.0 0.0 0.0 0.0 282.7329807240886 -90.40459786383481 503.50193645414106 -1.185220952958403 1.0954425361678581 -1.185220952958403 
0.432 0.08088420482981422 -1.5168735235750204 -1.5438349251849586 0.0 1.5707963267948966 0.0 0.2743434418098265 0.1828956278732176 0.0914478139366088 0.0 0.0 0.0 0.0 0.0 0.0 0.0 0.0 0.0 282.33830689574205 -89.83187433103072 504.1137716039867 -1.1844616133983525 1.092333018833018 -1.1844616133983528 
0.44 0.08307895236429283 -1.5154103585520347 -1.5431033426734657 0.0 1.5707963267948966 0.0 0.2743434418098265 0.1828956278732176 0.0914478139366088 0.0 0.0 0.0 0.0 0.0 0.0 0.0 0.0 0.0 281.94113279890183 -89.26143095900139 504.7245612452213 -1.1836974839385448 1.0892270461733566 -1.1836974839385448 
0.448 0.08527369989877145 -1.513947193529049 -1.5423717601619729 0.0 1.5707963267948966 0.0 0.2743434418098265 0.1828956278732176 0.0914478139366088 0.0 0.0 0.0 0.0 0.0 0.0 0.0 0.0 0.0 281.5414687072793 -88.6932787587855 505.33430238360796 -1.182928574362568 1.0861246264066813 -1.1829285743625682 
0.456 0.08746844743325007 -1.5124840285060632 -1.5416401776504798 0.0 1.5707963267948966 0.0 0.2743434418098265 0.1828956278732176 0.0914478139366088 0.0 0.0 0.0 0.0 0.0 0.0 0.0 0.0 0.0 281.13932494320426 -88.12742869776663 505.9429920285666 -1.1821548944495506 1.0830257677089539 -1.1821548944495508 
0.464 0.08966319496772868 -1.5110208634830775 -1.540908595138987 0.0 1.5707963267948966 0.0 0.2743434418098265 0.1828956278732176 0.0914478139366088 0.0 0.0 0.0 0.0 0.0 0.0 0.0 0.0 0.0 280.7347118774423 -87.56389169945867 506.5506271931884 -1.181376453974083 1.0799304782144377 -1.1813764539740836 
0.472 0.09185794250220729 -1.5095576984600918 -1.540177012627494 0.0 1.5707963267948966 0.0 0.2743434418098265 0.1828956278732176 0.0914478139366088 0.0 0.0 0.0 0.0 0.0 0.0 0.0 0.0 0.0 280.327639929012 -87.00267864329157 507.1572048942504 -1.180593262706143 1.0768387660158474 -1.1805932627061435 
0.48 0.0940526900366859 -1.508094533437106 -1.5394454301160012 0.0 1.5707963267948966 0.0 0.2743434418098265 0.1828956278732176 0.0914478139366088 0.0 0.0 0.0 0.0 0.0 0.0 0.0 0.0 0.0 279.9181195650008 -86.44380036439836 507.76272215223 -1.1798053304110172 1.0737506391644962 -1.1798053304110174 
0.488 0.0962474375711645 -1.5066313684141204 -1.5387138476045084 0.0 1.5707963267948966 0.0 0.2743434418098265 0.1828956278732176 0.0914478139366088 0.0 0.0 0.0 0.0 0.0 0.0 0.0 0.0 0.0 279.50616130038 -85.8872676534025 508.3671759913193 -1.1790126668492291 1.0706661056704463 -1.1790126668492291 
0.496 0.09844218510564312 -1.5051682033911344 -1.5379822650930155 0.0 1.5707963267948966 0.0 0.2743434418098265 0.1828956278732176 0.0914478139366088 0.0 0.0 0.0 0.0 0.0 0.0 0.0 0.0 0.0 279.0917756978187 -85.33309125620623 508.9705634394399 -1.1782152817764624 1.0675851735026545 -1.1782152817764626 
0.504 0.10063693264012173 -1.5037050383681487 -1.5372506825815226 0.0 1.5707963267948966 0.0 0.2743434418098265 0.1828956278732176 0.0914478139366088 0.0 0.0 0.0 0.0 0.0 0.0 0.0 0.0 0.0 278.67497336749796 -84.78128187377963 509.5728815282566 -1.1774131849434917 1.0645078505891248 -1.1774131849434921 
0.512 0.10283168017460034 -1.502241873345163 -1.5365191000700298 0.0 1.5707963267948966 0.0 0.2743434418098265 0.1828956278732176 0.0914478139366088 0.0 0.0 0.0 0.0 0.0 0.0 0.0 0.0 0.0 278.25576496692133 -84.23185016195056 510.1741272931928 -1.176606386096105 1.0614341448170521 -1.1766063860961051 
0.52 0.10502642770907895 -1.5007787083221773 -1.535787517558537 0.0 1.5707963267948966 0.0 0.2743434418098265 0.1828956278732176 0.0914478139366088 0.0 0.0 0.0 0.0 0.0 0.0 0.0 0.0 0.0 277.8341612007275 -83.68480673119507 510.7742977734444 -1.1757948949750328 1.0583640640329712 -1.175794894975033 
0.528 0.10722117524355758 -1.4993155432991916 -1.535055935047044 0.0 1.5707963267948966 0.0 0.2743434418098265 0.1828956278732176 0.0914478139366088 0.0 0.0 0.0 0.0 0.0 0.0 0.0 0.0 0.0 277.4101728205004 -83.14016214642899 511.37339001199405 -1.1749787213158787 1.0552976160429064 -1.1749787213158789 
0.536 0.10941592277803619 -1.4978523782762059 -1.5343243525355512 0.0 1.5707963267948966 0.0 0.2743434418098265 0.1828956278732176 0.0914478139366088 0.0 0.0 0.0 0.0 0.0 0.0 0.0 0.0 0.0 276.98381062457804 -82.59792692680017 511.9714010556258 -1.174157874849046 1.052234808612518 -1.1741578748490462 
0.544 0.1116106703125148 -1.4963892132532202 -1.5335927700240584 0.0 1.5707963267948966 0.0 0.2743434418098265 0.1828956278732176 0.0914478139366088 0.0 0.0 0.0 0.0 0.0 0.0 0.0 0.0 0.0 276.55508545786216 -82.05811154548122 512.5683279549396 -1.173332365299668 1.0491756494672477 -1.173332365299668 
0.552 0.11380541784699341 -1.4949260482302342 -1.5328611875125655 0.0 1.5707963267948966 0.0 0.2743434418098265 0.1828956278732176 0.0914478139366088 0.0 0.0 0.0 0.0 0.0 0.0 0.0 0.0 0.0 276.1240082116245 -81.52072642946364 513.1641677643652 -1.172502202387538 1.0461201462924683 -1.1725022023875382 
0.56 0.11600016538147202 -1.4934628832072485 -1.5321296050010726 0.0 1.5707963267948966 0.0 0.2743434418098265 0.1828956278732176 0.0914478139366088 0.0 0.0 0.0 0.0 0.0 0.0 0.0 0.0 0.0 275.69058982331507 -80.98578195935207 513.7589175421768 -1.1716673958270423 1.0430683067336306 -1.1716673958270425 
0.568 0.11819491291595065 -1.4919997181842628 -1.5313980224895798 0.0 1.5707963267948966 0.0 0.2743434418098265 0.1828956278732176 0.0914478139366088 0.0 0.0 0.0 0.0 0.0 0.0 0.0 0.0 0.0 275.2548412763663 -80.45328846915996 514.3525743505074 -1.1708279553270882 1.0400201383964076 -1.1708279553270884 
0.576 0.12038966045042926 -1.490536553161277 -1.530666439978087 0.0 1.5707963267948966 0.0 0.2743434418098265 0.1828956278732176 0.0914478139366088 0.0 0.0 0.0 0.0 0.0 0.0 0.0 0.0 0.0 274.8167735999991 -79.92325624610568 514.9451352553631 -1.1699838905910398 1.0369756488468445 -1.16998389059104 
0.584 0.12258440798490784 -1.4890733881382914 -1.529934857466594 0.0 1.5707963267948966 0.0 0.2743434418098265 0.1828956278732176 0.0914478139366088 0.0 0.0 0.0 0.0 0.0 0.0 0.0 0.0 0.0 274.37639786902656 -79.39569553040951 515.5365973266371 -1.1691352113166482 1.0339348456115027 -1.1691352113166482 
0.592 0.12477915551938645 -1.4876102231153057 -1.529203274955101 0.0 1.5707963267948966 0.0 0.2743434418098265 0.1828956278732176 0.0914478139366088 0.0 0.0 0.0 0.0 0.0 0.0 0.0 0.0 0.0 273.93372520365676 -78.87061651509153 516.1269576381243 -1.1682819271959861 1.0308977361776077 -1.1682819271959863 
0.6 0.12697390305386508 -1.48614705809232 -1.5284716924436081 0.0 1.5707963267948966 0.0 0.2743434418098265 0.1828956278732176 0.0914478139366088 0.0 0.0 0.0 0.0 0.0 0.0 0.0 0.0 0.0 273.48876676929535 -78.34802934577019 516.7162132675355 -1.1674240479153815 1.027864327993193 -1.1674240479153817 
0.608 0.1291686505883437 -1.4846838930693342 -1.5277401099321153 0.0 1.5707963267948966 0.0 0.2743434418098265 0.1828956278732176 0.0914478139366088 0.0 0.0 0.0 0.0 0.0 0.0 0.0 0.0 0.0 273.04153377634657 -77.82794412046194 517.3043612965116 -1.1665615831553533 1.0248346284672483 -1.1665615831553533 
0.616 0.1313633981228223 -1.4832207280463483 -1.5270085274206224 0.0 1.5707963267948966 0.0 0.2743434418098265 0.1828956278732176 0.0914478139366088 0.0 0.0 0.0 0.0 0.0 0.0 0.0 0.0 0.0 272.5920374800138 -77.31037088938147 517.8913988106378 -1.1656945425905434 1.0218086449698633 -1.1656945425905436 
0.624 0.1335581456573009 -1.4817575630233626 -1.5262769449091296 0.0 1.5707963267948966 0.0 0.2743434418098265 0.1828956278732176 0.0914478139366088 0.0 0.0 0.0 0.0 0.0 0.0 0.0 0.0 0.0 272.14028918009905 -76.79531965474287 518.4773228994579 -1.1648229358896576 1.0187863848323753 -1.164822935889658 
0.632 0.13575289319177952 -1.4802943980003769 -1.5255453623976367 0.0 1.5707963267948966 0.0 0.2743434418098265 0.1828956278732176 0.0914478139366088 0.0 0.0 0.0 0.0 0.0 0.0 0.0 0.0 0.0 271.68630022080185 -76.28280037056152 519.0621306564883 -1.1639467727153976 1.0157678553475114 -1.1639467727153978 
0.64 0.13794764072625815 -1.4788312329773912 -1.5248137798861439 0.0 1.5707963267948966 0.0 0.2743434418098265 0.1828956278732176 0.0914478139366088 0.0 0.0 0.0 0.0 0.0 0.0 0.0 0.0 0.0 271.23008199051634 -75.77282294245714 519.6458191792323 -1.1630660627244 1.0127530637695357 -1.1630660627244003 
0.648 0.14014238826073677 -1.4773680679544055 -1.524082197374651 0.0 1.5707963267948966 0.0 0.2743434418098265 0.1828956278732176 0.0914478139366088 0.0 0.0 0.0 0.0 0.0 0.0 0.0 0.0 0.0 270.771645921629 -75.26539722745729 520.2283855691948 -1.1621808155671742 1.0097420173143936 -1.1621808155671745 
0.656 0.14233713579521537 -1.4759049029314197 -1.5233506148631581 0.0 1.5707963267948966 0.0 0.2743434418098265 0.1828956278732176 0.0914478139366088 0.0 0.0 0.0 0.0 0.0 0.0 0.0 0.0 0.0 270.3110034903141 -74.76053303380188 520.8098269318949 -1.1612910408880397 1.0067347231598573 -1.1612910408880397 
0.664 0.14453188332969397 -1.474441737908434 -1.5226190323516653 0.0 1.5707963267948966 0.0 0.2743434418098265 0.1828956278732176 0.0914478139366088 0.0 0.0 0.0 0.0 0.0 0.0 0.0 0.0 0.0 269.8481662163291 -74.25824012074867 521.3901403768823 -1.1603967483250648 1.0037311884456668 -1.1603967483250648 
0.672 0.1467266308641726 -1.4729785728854483 -1.5218874498401724 0.0 1.5707963267948966 0.0 0.2743434418098265 0.1828956278732176 0.0914478139366088 0.0 0.0 0.0 0.0 0.0 0.0 0.0 0.0 0.0 269.3831456628089 -73.75852819837941 521.9693230177493 -1.159497947510007 1.0007314202736788 -1.159497947510007 
0.68 0.14892137839865122 -1.4715154078624624 -1.5211558673286796 0.0 1.5707963267948966 0.0 0.2743434418098265 0.1828956278732176 0.0914478139366088 0.0 0.0 0.0 0.0 0.0 0.0 0.0 0.0 0.0 268.91595343605917 -73.26140692740697 522.5473719721462 -1.1585946480682534 0.9977354257080072 -1.1585946480682536 
0.688 0.15111612593312984 -1.4700522428394767 -1.5204242848171867 0.0 1.5707963267948966 0.0 0.2743434418098265 0.1828956278732176 0.0914478139366088 0.0 0.0 0.0 0.0 0.0 0.0 0.0 0.0 0.0 268.4466011853493 -72.7668859189833 523.1242843617944 -1.157686859618759 0.9947432117751682 -1.1576868596187593 
0.696 0.15331087346760844 -1.468589077816491 -1.5196927023056939 0.0 1.5707963267948966 0.0 0.2743434418098265 0.1828956278732176 0.0914478139366088 0.0 0.0 0.0 0.0 0.0 0.0 0.0 0.0 0.0 267.9751006027035 -72.27497473450825 523.7000573125018 -1.1567745917739907 0.9917547854642236 -1.1567745917739907 
0.704 0.15550562100208704 -1.4671259127935052 -1.518961119794201 0.0 1.5707963267948966 0.0 0.2743434418098265 0.1828956278732176 0.0914478139366088 0.0 0.0 0.0 0.0 0.0 0.0 0.0 0.0 0.0 267.5014634226921 -71.78568288543924 524.2746879541758 -1.1558578541398665 0.9887701537269236 -1.1558578541398667 
0.712 0.15770036853656563 -1.4656627477705195 -1.5182295372827082 0.0 1.5707963267948966 0.0 0.2743434418098265 0.1828956278732176 0.0914478139366088 0.0 0.0 0.0 0.0 0.0 0.0 0.0 0.0 0.0 267.0257014222217 -71.29901983310184 524.848173420837 -1.1549366563156989 0.9857893234778504 -1.154936656315699 
0.72 0.15989511607104423 -1.4641995827475338 -1.517497954771215 0.0 1.5707963267948966 0.0 0.2743434418098265 0.1828956278732176 0.0914478139366088 0.0 0.0 0.0 0.0 0.0 0.0 0.0 0.0 0.0 266.5478264203236 -70.81499498850131 525.4205108506351 -1.154011007894139 0.9828123015945609 -1.1540110078941392 
0.728 0.16208986360552285 -1.462736417724548 -1.5167663722597222 0.0 1.5707963267948966 0.0 0.2743434418098265 0.1828956278732176 0.0914478139366088 0.0 0.0 0.0 0.0 0.0 0.0 0.0 0.0 0.0 266.0678502779433 -70.33361771213478 525.9916973858603 -1.153080918461117 0.9798390949177287 -1.1530809184611173 
0.736 0.16428461114000148 -1.4612732527015624 -1.5160347897482294 0.0 1.5707963267948966 0.0 0.2743434418098265 0.1828956278732176 0.0914478139366088 0.0 0.0 0.0 0.0 0.0 0.0 0.0 0.0 0.0 265.58578489772697 -69.85489731380471 526.5617301729591 -1.15214639759579 0.9768697102512877 -1.1521463975957904 
0.744 0.1664793586744801 -1.4598100876785765 -1.5153032072367365 0.0 1.5707963267948966 0.0 0.2743434418098265 0.1828956278732176 0.0914478139366088 0.0 0.0 0.0 0.0 0.0 0.0 0.0 0.0 0.0 265.1016422238086 -69.3788430524327 527.1306063625481 -1.1512074548704827 0.9739041543625724 -1.1512074548704831 
0.752 0.16867410620895873 -1.4583469226555907 -1.5145716247252436 0.0 1.5707963267948966 0.0 0.2743434418098265 0.1828956278732176 0.0914478139366088 0.0 0.0 0.0 0.0 0.0 0.0 0.0 0.0 0.0 264.6154342415962 -68.90546413587472 527.6983231094274 -1.1502640998506357 0.9709424339824625 -1.150264099850636 
0.76 0.1708688537434373 -1.456883757632605 -1.5138400422137508 0.0 1.5707963267948966 0.0 0.2743434418098265 0.1828956278732176 0.0914478139366088 0.0 0.0 0.0 0.0 0.0 0.0 0.0 0.0 0.0 264.1271729775557 -68.434769720737 528.2648775725943 -1.1493163420947479 0.96798455580552 -1.1493163420947483 
0.768 0.17306360127791592 -1.4554205926096193 -1.513108459702258 0.0 1.5707963267948966 0.0 0.2743434418098265 0.1828956278732176 0.0914478139366088 0.0 0.0 0.0 0.0 0.0 0.0 0.0 0.0 0.0 263.63687049899653 -67.9667689121927 528.8302669152581 -1.1483641911543272 0.965030526490136 -1.1483641911543274 
0.776 0.17525834881239455 -1.4539574275866336 -1.512376877190765 0.0 1.5707963267948966 0.0 0.2743434418098265 0.1828956278732176 0.0914478139366088 0.0 0.0 0.0 0.0 0.0 0.0 0.0 0.0 0.0 263.1445389138539 -67.50147076379983 529.3944883048538 -1.1474076565738327 0.9620803526586673 -1.147407656573833 
0.784 0.17745309634687317 -1.4524942625636479 -1.5116452946792722 0.0 1.5707963267948966 0.0 0.2743434418098265 0.1828956278732176 0.0914478139366088 0.0 0.0 0.0 0.0 0.0 0.0 0.0 0.0 0.0 262.6501903704721 -67.0388842773197 529.9575389130551 -1.146446747890625 0.9591340408975801 -1.146446747890625 
0.792 0.1796478438813518 -1.4510310975406622 -1.5109137121677794 0.0 1.5707963267948966 0.0 0.2743434418098265 0.1828956278732176 0.0914478139366088 0.0 0.0 0.0 0.0 0.0 0.0 0.0 0.0 0.0 262.15383705738594 -66.57901840253648 530.5194159157893 -1.1454814746349133 0.9561915977575898 -1.1454814746349133 
0.8 0.18184259141583037 -1.4495679325176765 -1.5101821296562865 0.0 1.5707963267948966 0.0 0.2743434418098265 0.1828956278732176 0.0914478139366088 0.0 0.0 0.0 0.0 0.0 0.0 0.0 0.0 0.0 261.6554912031017 -66.1218820370778 531.0801164932507 -1.1445118463297024 0.9532530297538001 -1.1445118463297024 
0.808 0.184037338950309 -1.4481047674946905 -1.5094505471447937 0.0 1.5707963267948966 0.0 0.2743434418098265 0.1828956278732176 0.0914478139366088 0.0 0.0 0.0 0.0 0.0 0.0 0.0 0.0 0.0 261.1551650758774 -65.66748402623597 531.6396378299141 -1.1435378724907441 0.9503183433658452 -1.1435378724907441 
0.816 0.18623208648478762 -1.4466416024717048 -1.5087189646333008 0.0 1.5707963267948966 0.0 0.2743434418098265 0.1828956278732176 0.0914478139366088 0.0 0.0 0.0 0.0 0.0 0.0 0.0 0.0 0.0 260.6528709835022 -65.21583316279023 532.1979771145496 -1.1425595626264853 0.9473875450380287 -1.1425595626264853 
0.824 0.18842683401926624 -1.445178437448719 -1.507987382121808 0.0 1.5707963267948966 0.0 0.2743434418098265 0.1828956278732176 0.0914478139366088 0.0 0.0 0.0 0.0 0.0 0.0 0.0 0.0 0.0 260.1486212730749 -64.7669381868302 532.7551315402352 -1.1415769262380173 0.9444606411794625 -1.1415769262380173 
0.832 0.19062158155374487 -1.4437152724257334 -1.507255799610315 0.0 1.5707963267948966 0.0 0.2743434418098265 0.1828956278732176 0.0914478139366088 0.0 0.0 0.0 0.0 0.0 0.0 0.0 0.0 0.0 259.6424283307818 -64.32080778557982 533.3110983043712 -1.1405899728190285 0.9415376381642075 -1.1405899728190285 
0.84 0.19281632908822344 -1.4422521074027477 -1.5065242170988222 0.0 1.5707963267948966 0.0 0.2743434418098265 0.1828956278732176 0.0914478139366088 0.0 0.0 0.0 0.0 0.0 0.0 0.0 0.0 0.0 259.13430458167335 -63.87745059322255 533.8658746086941 -1.139598711855754 0.9386185423314124 -1.139598711855754 
0.848 0.19501107662270206 -1.440788942379762 -1.5057926345873291 0.0 1.5707963267948966 0.0 0.2743434418098265 0.1828956278732176 0.0914478139366088 0.0 0.0 0.0 0.0 0.0 0.0 0.0 0.0 0.0 258.62426248944075 -63.4368751907273 534.4194576592902 -1.1386031528269256 0.9357033599854506 -1.1386031528269258 
0.856 0.19720582415718063 -1.4393257773567762 -1.5050610520758363 0.0 1.5707963267948966 0.0 0.2743434418098265 0.1828956278732176 0.0914478139366088 0.0 0.0 0.0 0.0 0.0 0.0 0.0 0.0 0.0 258.11231455619173 -62.99909010567558 534.9718446666086 -1.1376033052037289 0.9327920973960624 -1.1376033052037289 
0.864 0.19940057169165926 -1.4378626123337905 -1.5043294695643434 0.0 1.5707963267948966 0.0 0.2743434418098265 0.1828956278732176 0.0914478139366088 0.0 0.0 0.0 0.0 0.0 0.0 0.0 0.0 0.0 257.5984733222241 -62.56410381208908 535.5230328454763 -1.1365991784497496 0.9298847607984897 -1.1365991784497498 
0.872 0.20159531922613788 -1.4363994473108046 -1.5035978870528506 0.0 1.5707963267948966 0.0 0.2743434418098265 0.1828956278732176 0.0914478139366088 0.0 0.0 0.0 0.0 0.0 0.0 0.0 0.0 0.0 257.08275136580073 -62.13192473025896 536.0730194151108 -1.135590782020932 0.9269813563936162 -1.1355907820209323 
0.88 0.2037900667606165 -1.4349362822878189 -1.5028663045413577 0.0 1.5707963267948966 0.0 0.2743434418098265 0.1828956278732176 0.0914478139366088 0.0 0.0 0.0 0.0 0.0 0.0 0.0 0.0 0.0 256.5651613029222 -61.70256122657525 536.621801599134 -1.1345781253655303 0.924081890348105 -1.1345781253655305 
0.888 0.20598481429509513 -1.4334731172648332 -1.5021347220298649 0.0 1.5707963267948966 0.0 0.2743434418098265 0.1828956278732176 0.0914478139366088 0.0 0.0 0.0 0.0 0.0 0.0 0.0 0.0 0.0 256.04571578709937 -61.276021613357905 537.169376625586 -1.1335612179240613 0.9211863687945343 -1.1335612179240615 
0.896 0.2081795618295737 -1.4320099522418475 -1.501403139518372 0.0 1.5707963267948966 0.0 0.2743434418098265 0.1828956278732176 0.0914478139366088 0.0 0.0 0.0 0.0 0.0 0.0 0.0 0.0 0.0 255.52442750912448 -60.85231414868839 537.7157417269386 -1.1325400691292622 0.9182947978315368 -1.1325400691292624 
0.904 0.21037430936405233 -1.4305467872188617 -1.5006715570068792 0.0 1.5707963267948966 0.0 0.2743434418098265 0.1828956278732176 0.0914478139366088 0.0 0.0 0.0 0.0 0.0 0.0 0.0 0.0 0.0 255.00130919684284 -60.431447036242396 538.2608941401091 -1.1315146884060447 0.915407183523936 -1.131514688406045 
0.912 0.21256905689853095 -1.429083622195876 -1.4999399744953863 0.0 1.5707963267948966 0.0 0.2743434418098265 0.1828956278732176 0.0914478139366088 0.0 0.0 0.0 0.0 0.0 0.0 0.0 0.0 0.0 254.47637361492218 -60.013428425123465 538.8048311064737 -1.1304850851714496 0.9125235319028825 -1.1304850851714496 
0.92 0.21476380443300958 -1.4276204571728903 -1.4992083919838934 0.0 1.5707963267948966 0.0 0.2743434418098265 0.1828956278732176 0.0914478139366088 0.0 0.0 0.0 0.0 0.0 0.0 0.0 0.0 0.0 253.9496335646225 -59.59826640969761 539.3475498718809 -1.1294512688346032 0.90964384896599 -1.1294512688346032 
0.928 0.2169585519674882 -1.4261572921499046 -1.4984768094724006 0.0 1.5707963267948966 0.0 0.2743434418098265 0.1828956278732176 0.0914478139366088 0.0 0.0 0.0 0.0 0.0 0.0 0.0 0.0 0.0 253.4211018835644 -59.18596902942899 539.8890476866658 -1.128413248796676 0.9067681406774724 -1.1284132487966758 
0.936 0.21915329950196677 -1.4246941271269187 -1.4977452269609077 0.0 1.5707963267948966 0.0 0.2743434418098265 0.1828956278732176 0.0914478139366088 0.0 0.0 0.0 0.0 0.0 0.0 0.0 0.0 0.0 252.8907914454971 -58.77654426871641 540.4293218056625 -1.127371034450837 0.903896412968279 -1.1273710344508372 
0.944 0.2213480470364454 -1.423230962103933 -1.4970136444494149 0.0 1.5707963267948966 0.0 0.2743434418098265 0.1828956278732176 0.0914478139366088 0.0 0.0 0.0 0.0 0.0 0.0 0.0 0.0 0.0 252.35871516006586 -58.37000005673069 540.9683694882189 -1.1263246351822143 0.9010286717362312 -1.1263246351822143 
0.952 0.22354279457092402 -1.4217677970809472 -1.496282061937922 0.0 1.5707963267948966 0.0 0.2743434418098265 0.1828956278732176 0.0914478139366088 0.0 0.0 0.0 0.0 0.0 0.0 0.0 0.0 0.0 251.82488597257776 -57.96634426725355 541.5061879982086 -1.1252740603678504 0.8981649228461556 -1.1252740603678506 
0.96 0.2257375421054026 -1.4203046320579615 -1.4955504794264292 0.0 1.5707963267948966 0.0 0.2743434418098265 0.1828956278732176 0.0914478139366088 0.0 0.0 0.0 0.0 0.0 0.0 0.0 0.0 0.0 251.2893168637679 -57.565584718516845 542.042774604046 -1.124219319376663 0.8953051721300205 -1.124219319376663 
0.968 0.2279322896398812 -1.4188414670349758 -1.494818896914936 0.0 1.5707963267948966 0.0 0.2743434418098265 0.1828956278732176 0.0914478139366088 0.0 0.0 0.0 0.0 0.0 0.0 0.0 0.0 0.0 250.7520208495643 -57.16772917304313 542.5781265786995 -1.1231604215694029 0.8924494253870704 -1.1231604215694029 
0.976 0.23012703717435984 -1.41737830201199 -1.4940873144034432 0.0 1.5707963267948966 0.0 0.2743434418098265 0.1828956278732176 0.0914478139366088 0.0 0.0 0.0 0.0 0.0 0.0 0.0 0.0 0.0 250.213010980852 -56.77278533748714 543.1122411997032 -1.122097376298615 0.8895976883839611 -1.122097376298615 
0.984 0.23232178470883846 -1.4159151369890044 -1.4933557318919504 0.0 1.5707963267948966 0.0 0.2743434418098265 0.1828956278732176 0.0914478139366088 0.0 0.0 0.0 0.0 0.0 0.0 0.0 0.0 0.0 249.67230034323677 -56.380760862478375 543.6451157491728 -1.1210301929085966 0.886749966854892 -1.1210301929085968 
0.992 0.2345165322433171 -1.4144519719660187 -1.4926241493804575 0.0 1.5707963267948966 0.0 0.2743434418098265 0.1828956278732176 0.0914478139366088 0.0 0.0 0.0 0.0 0.0 0.0 0.0 0.0 0.0 249.12990205680796 -55.99166334246435 544.1767475138171 -1.1199588807353587 0.8839062665017416 -1.1199588807353589 
1.0 0.23671127977779566 -1.4129888069430327 -1.4918925668689647 0.0 1.5707963267948966 0.0 0.2743434418098265 0.1828956278732176 0.0914478139366088 0.0 0.0 0.0 0.0 0.0 0.0 0.0 0.0 0.0 248.58582927590032 -55.60550031555536 544.7071337849526 -1.118883449106588 0.8810665929942 -1.1188834491065882 
1.008 0.23890602731227428 -1.411525641920047 -1.4911609843574718 0.0 1.5707963267948966 0.0 0.2743434418098265 0.1828956278732176 0.0914478139366088 0.0 0.0 0.0 0.0 0.0 0.0 0.0 0.0 0.0 248.04009518885613 -55.222279263369664 545.236271858516 -1.1178039073416073 0.8782309519699029 -1.1178039073416075 
1.016 0.2411007748467529 -1.4100624768970613 -1.490429401845979 0.0 1.5707963267948966 0.0 0.2743434418098265 0.1828956278732176 0.0914478139366088 0.0 0.0 0.0 0.0 0.0 0.0 0.0 0.0 0.0 247.4927130177851 -54.84200761088027 545.7641590350783 -1.116720264751338 0.8753993490345648 -1.1167202647513381 
1.024 0.24329552238123153 -1.4085993118740756 -1.489697819334486 0.0 1.5707963267948966 0.0 0.2743434418098265 0.1828956278732176 0.0914478139366088 0.0 0.0 0.0 0.0 0.0 0.0 0.0 0.0 0.0 246.9436960183251 -54.46469272626219 546.2907926198574 -1.1156325306382613 0.87257178976211 -1.1156325306382615 
1.032 0.24549026991571016 -1.40713614685109 -1.4889662368229932 0.0 1.5707963267948966 0.0 0.2743434418098265 0.1828956278732176 0.0914478139366088 0.0 0.0 0.0 0.0 0.0 0.0 0.0 0.0 0.0 246.393057479401 -54.09034192074114 546.8161699227319 -1.114540714296384 0.8697482796948077 -1.1145407142963841 
1.04 0.24768501745018873 -1.4056729818281042 -1.4882346543115004 0.0 1.5707963267948966 0.0 0.2743434418098265 0.1828956278732176 0.0914478139366088 0.0 0.0 0.0 0.0 0.0 0.0 0.0 0.0 0.0 245.84081072298386 -53.71896244844295 547.3402882582542 -1.1134448250111981 0.8669288243434009 -1.1134448250111983 
1.048 0.24987976498466735 -1.4042098168051185 -1.4875030718000075 0.0 1.5707963267948966 0.0 0.2743434418098265 0.1828956278732176 0.0914478139366088 0.0 0.0 0.0 0.0 0.0 0.0 0.0 0.0 0.0 245.28696910384838 -53.35056150624412 547.863144945664 -1.1123448720596485 0.8641134291872405 -1.1123448720596485 
1.056 0.252074512519146 -1.4027466517821328 -1.4867714892885147 0.0 1.5707963267948966 0.0 0.2743434418098265 0.1828956278732176 0.0914478139366088 0.0 0.0 0.0 0.0 0.0 0.0 0.0 0.0 0.0 244.731546009331 -52.98514623362348 548.3847373089012 -1.111240864710093 0.8613020996744162 -1.1112408647100933 
1.064 0.2542692600536246 -1.401283486759147 -1.4860399067770218 0.0 1.5707963267948966 0.0 0.2743434418098265 0.1828956278732176 0.0914478139366088 0.0 0.0 0.0 0.0 0.0 0.0 0.0 0.0 0.0 244.1745548590856 -52.6227237125147 548.9050626766192 -1.1101328122222724 0.8584948412218879 -1.1101328122222724 
1.072 0.2564640075881032 -1.399820321736161 -1.485308324265529 0.0 1.5707963267948966 0.0 0.2743434418098265 0.1828956278732176 0.0914478139366088 0.0 0.0 0.0 0.0 0.0 0.0 0.0 0.0 0.0 243.6160091048401 -52.26330096715995 549.4241183821982 -1.1090207238472698 0.8556916592156152 -1.1090207238472698 
1.08 0.2586587551225818 -1.3983571567131754 -1.484576741754036 0.0 1.5707963267948966 0.0 0.2743434418098265 0.1828956278732176 0.0914478139366088 0.0 0.0 0.0 0.0 0.0 0.0 0.0 0.0 0.0 243.05592223015196 -51.9068849639646 549.9419017637586 -1.107904608827481 0.8528925590106905 -1.1079046088274813 
1.088 0.2608535026570604 -1.3968939916901897 -1.4838451592425432 0.0 1.5707963267948966 0.0 0.2743434418098265 0.1828956278732176 0.0914478139366088 0.0 0.0 0.0 0.0 0.0 0.0 0.0 0.0 0.0 242.49430775016253 -51.5534826113527 550.4584101641736 -1.106784476396578 0.8500975459314665 -1.106784476396578 
1.096 0.26304825019153905 -1.395430826667204 -1.4831135767310504 0.0 1.5707963267948966 0.0 0.2743434418098265 0.1828956278732176 0.0914478139366088 0.0 0.0 0.0 0.0 0.0 0.0 0.0 0.0 0.0 241.93117921135075 -51.20310075962412 550.973640931083 -1.1056603357794756 0.847306625271688 -1.1056603357794756 
1.104 0.26524299772601767 -1.3939676616442183 -1.4823819942195573 0.0 1.5707963267948966 0.0 0.2743434418098265 0.1828956278732176 0.0914478139366088 0.0 0.0 0.0 0.0 0.0 0.0 0.0 0.0 0.0 241.3665501912872 -50.85574620081195 551.4875914169062 -1.1045321961923 0.8445198022946213 -1.1045321961923005 
1.112 0.2674377452604963 -1.3925044966212325 -1.4816504117080644 0.0 1.5707963267948966 0.0 0.2743434418098265 0.1828956278732176 0.0914478139366088 0.0 0.0 0.0 0.0 0.0 0.0 0.0 0.0 0.0 240.8004342983865 -50.51142566854139 552.0002589788542 -1.1034000668423556 0.8417370822331831 -1.1034000668423556 
1.12 0.26963249279497487 -1.3910413315982466 -1.4809188291965716 0.0 1.5707963267948966 0.0 0.2743434418098265 0.1828956278732176 0.0914478139366088 0.0 0.0 0.0 0.0 0.0 0.0 0.0 0.0 0.0 240.23284517165942 -50.17014583788978 552.5116409789448 -1.10226395692809 0.8389584702900698 -1.1022639569280905 
1.128 0.2718272403294535 -1.389578166575261 -1.4801872466850787 0.0 1.5707963267948966 0.0 0.2743434418098265 0.1828956278732176 0.0914478139366088 0.0 0.0 0.0 0.0 0.0 0.0 0.0 0.0 0.0 239.66379648046444 -49.831913325247214 553.0217347840137 -1.101123875639068 0.8361839716378863 -1.1011238756390682 
1.136 0.2740219878639321 -1.3881150015522752 -1.4794556641735859 0.0 1.5707963267948966 0.0 0.2743434418098265 0.1828956278732176 0.0914478139366088 0.0 0.0 0.0 0.0 0.0 0.0 0.0 0.0 0.0 239.0933019242584 -49.49673468817886 553.5305377657286 -1.0999798321559342 0.8334135914192743 -1.0999798321559344 
1.144 0.27621673539841074 -1.3866518365292895 -1.478724081662093 0.0 1.5707963267948966 0.0 0.2743434418098265 0.1828956278732176 0.0914478139366088 0.0 0.0 0.0 0.0 0.0 0.0 0.0 0.0 0.0 238.52137523234686 -49.16461642528763 554.038047300602 -1.0988318356503861 0.8306473347470406 -1.0988318356503861 
1.152 0.27841148293288936 -1.3851886715063038 -1.4779924991506002 0.0 1.5707963267948966 0.0 0.2743434418098265 0.1828956278732176 0.0914478139366088 0.0 0.0 0.0 0.0 0.0 0.0 0.0 0.0 0.0 237.94803016363372 -48.83556497607852 554.544260770004 -1.0976798952851423 0.8278852067042853 -1.0976798952851423 
1.16 0.2806062304673679 -1.383725506483318 -1.4772609166391073 0.0 1.5707963267948966 0.0 0.2743434418098265 0.1828956278732176 0.0914478139366088 0.0 0.0 0.0 0.0 0.0 0.0 0.0 0.0 0.0 237.3732805063699 -48.509586720823606 555.0491755601756 -1.0965240202139126 0.825127212344528 -1.0965240202139126 
1.168 0.2828009780018465 -1.3822623414603323 -1.4765293341276144 0.0 1.5707963267948966 0.0 0.2743434418098265 0.1828956278732176 0.0914478139366088 0.0 0.0 0.0 0.0 0.0 0.0 0.0 0.0 0.0 236.79714007790204 -48.186687980428204 555.5527890622415 -1.0953642195813682 0.8223733566918363 -1.0953642195813684 
1.176 0.28499572553632513 -1.3807991764373466 -1.4757977516161216 0.0 1.5707963267948966 0.0 0.2743434418098265 0.1828956278732176 0.0914478139366088 0.0 0.0 0.0 0.0 0.0 0.0 0.0 0.0 0.0 236.21962272442025 -47.86687501629822 556.0550986722232 -1.094200502523113 0.8196236447409525 -1.094200502523113 
1.184 0.28719047307080375 -1.379336011414361 -1.4750661691046287 0.0 1.5707963267948966 0.0 0.2743434418098265 0.1828956278732176 0.0914478139366088 0.0 0.0 0.0 0.0 0.0 0.0 0.0 0.0 0.0 235.64074232070482 -47.5501540302085 556.5561017910513 -1.0930328781656544 0.8168780814574197 -1.0930328781656544 
1.192 0.2893852206052824 -1.3778728463913752 -1.4743345865931359 0.0 1.5707963267948966 0.0 0.2743434418098265 0.1828956278732176 0.0914478139366088 0.0 0.0 0.0 0.0 0.0 0.0 0.0 0.0 0.0 235.06051276987313 -47.23653116417213 557.0557958245793 -1.0918613556263743 0.8141366717777077 -1.091861355626374 
1.2 0.291579968139761 -1.3764096813683893 -1.473603004081643 0.0 1.5707963267948966 0.0 0.2743434418098265 0.1828956278732176 0.0914478139366088 0.0 0.0 0.0 0.0 0.0 0.0 0.0 0.0 0.0 234.47894800312574 -46.92601250031102 557.5541781835962 -1.090685944013503 0.8113994206093409 -1.0906859440135033 
1.208 0.2937747156742396 -1.3749465163454035 -1.4728714215701502 0.0 1.5707963267948966 0.0 0.2743434418098265 0.1828956278732176 0.0914478139366088 0.0 0.0 0.0 0.0 0.0 0.0 0.0 0.0 0.0 233.89606197949144 -46.618604060727264 558.0512462838387 -1.08950665242609 0.8086663328310211 -1.08950665242609 
1.216 0.2959694632087182 -1.3734833513224178 -1.4721398390586573 0.0 1.5707963267948966 0.0 0.2743434418098265 0.1828956278732176 0.0914478139366088 0.0 0.0 0.0 0.0 0.0 0.0 0.0 0.0 0.0 233.31186868557205 -46.31431180737607 558.5469975460053 -1.0883234899539778 0.8059374132927557 -1.0883234899539778 
1.224 0.2981642107431968 -1.3720201862994321 -1.4714082565471642 0.0 1.5707963267948966 0.0 0.2743434418098265 0.1828956278732176 0.0914478139366088 0.0 0.0 0.0 0.0 0.0 0.0 0.0 0.0 0.0 232.7263821352867 -46.013141641939264 559.0414293957676 -1.0871364656777736 0.8032126668159798 -1.087136465677774 
1.232 0.30035895827767545 -1.3705570212764464 -1.4706766740356714 0.0 1.5707963267948966 0.0 0.2743434418098265 0.1828956278732176 0.0914478139366088 0.0 0.0 0.0 0.0 0.0 0.0 0.0 0.0 0.0 232.13961636961568 -45.715099405700066 559.5345392637847 -1.085945588668826 0.8004920981936835 -1.085945588668826 
1.24 0.3025537058121541 -1.3690938562534607 -1.4699450915241785 0.0 1.5707963267948966 0.0 0.2743434418098265 0.1828956278732176 0.0914478139366088 0.0 0.0 0.0 0.0 0.0 0.0 0.0 0.0 0.0 231.55158545634293 -45.42019087941918 560.0263245857144 -1.084750867989195 0.7977757121905346 -1.084750867989195 
1.248 0.30474845334663264 -1.367630691230475 -1.4692135090126857 0.0 1.5707963267948966 0.0 0.2743434418098265 0.1828956278732176 0.0914478139366088 0.0 0.0 0.0 0.0 0.0 0.0 0.0 0.0 0.0 230.96230348979915 -45.12842178321149 560.5167828022273 -1.08355231269163 0.7950635135430034 -1.0835523126916302 
1.256 0.30694320088111127 -1.366167526207489 -1.4684819265011928 0.0 1.5707963267948966 0.0 0.2743434418098265 0.1828956278732176 0.0914478139366088 0.0 0.0 0.0 0.0 0.0 0.0 0.0 0.0 0.0 230.37178459060306 -44.8397977764244 561.0059113590188 -1.082349931819543 0.7923555069594852 -1.0823499318195433 
1.264 0.3091379484155899 -1.3647043611845033 -1.4677503439897 0.0 1.5707963267948966 0.0 0.2743434418098265 0.1828956278732176 0.0914478139366088 0.0 0.0 0.0 0.0 0.0 0.0 0.0 0.0 0.0 229.78004290540377 -44.554324457516785 561.493707706822 -1.081143734406984 0.7896516971204267 -1.0811437344069843 
1.272 0.3113326959500685 -1.3632411961615176 -1.467018761478207 0.0 1.5707963267948966 0.0 0.2743434418098265 0.1828956278732176 0.0914478139366088 0.0 0.0 0.0 0.0 0.0 0.0 0.0 0.0 0.0 229.1870926066203 -44.27200736393936 561.9801693014201 -1.0799337294786169 0.786952088678445 -1.079933729478617 
1.28 0.31352744348454714 -1.361778031138532 -1.4662871789667142 0.0 1.5707963267948966 0.0 0.2743434418098265 0.1828956278732176 0.0914478139366088 0.0 0.0 0.0 0.0 0.0 0.0 0.0 0.0 0.0 228.59294789218274 -43.99285197201607 562.4652936036597 -1.0787199260496942 0.7842566862584531 -1.0787199260496945 
1.288 0.3157221910190257 -1.3603148661155462 -1.4655555964552214 0.0 1.5707963267948966 0.0 0.2743434418098265 0.1828956278732176 0.0914478139366088 0.0 0.0 0.0 0.0 0.0 0.0 0.0 0.0 0.0 227.99762298527196 -43.71686369682645 562.9490780794632 -1.0775023331260367 0.7815654944577823 -1.0775023331260367 
1.296 0.31791693855350434 -1.3588517010925605 -1.4648240139437285 0.0 1.5707963267948966 0.0 0.2743434418098265 0.1828956278732176 0.0914478139366088 0.0 0.0 0.0 0.0 0.0 0.0 0.0 0.0 0.0 227.40113213405823 -43.44404789208928 563.4315201998409 -1.0762809597040062 0.7788785178463029 -1.0762809597040062 
1.304 0.32011168608798296 -1.3573885360695748 -1.4640924314322357 0.0 1.5707963267948966 0.0 0.2743434418098265 0.1828956278732176 0.0914478139366088 0.0 0.0 0.0 0.0 0.0 0.0 0.0 0.0 0.0 226.80348961144034 -43.174409850047184 563.9126174409042 -1.0750558147704845 0.7761957609665463 -1.0750558147704845 
1.312 0.3223064336224616 -1.355925371046589 -1.4633608489207428 0.0 1.5707963267948966 0.0 0.2743434418098265 0.1828956278732176 0.0914478139366088 0.0 0.0 0.0 0.0 0.0 0.0 0.0 0.0 0.0 226.2047097147837 -42.907954801352545 564.3923672838782 -1.0738269073028528 0.7735172283338283 -1.0738269073028526 
1.32 0.3245011811569402 -1.3544622060236033 -1.46262926640925 0.0 1.5707963267948966 0.0 0.2743434418098265 0.1828956278732176 0.0914478139366088 0.0 0.0 0.0 0.0 0.0 0.0 0.0 0.0 0.0 225.6048067656575 -42.64468791495426 564.8707672151139 -1.0725942462689655 0.7708429244363674 -1.0725942462689653 
1.328 0.3266959286914188 -1.3529990410006174 -1.461897683897757 0.0 1.5707963267948966 0.0 0.2743434418098265 0.1828956278732176 0.0914478139366088 0.0 0.0 0.0 0.0 0.0 0.0 0.0 0.0 0.0 225.00379510957234 -42.38461429798579 565.347814726101 -1.0713578406271327 0.7681728537354081 -1.0713578406271327 
1.336 0.3288906762258974 -1.3515358759776317 -1.4611661013862642 0.0 1.5707963267948966 0.0 0.2743434418098265 0.1828956278732176 0.0914478139366088 0.0 0.0 0.0 0.0 0.0 0.0 0.0 0.0 0.0 224.40168911571675 -42.12773899565434 565.8235073134804 -1.070117699326096 0.7655070206653396 -1.0701176993260957 
1.344 0.33108542376037603 -1.350072710954646 -1.4604345188747714 0.0 1.5707963267948966 0.0 0.2743434418098265 0.1828956278732176 0.0914478139366088 0.0 0.0 0.0 0.0 0.0 0.0 0.0 0.0 0.0 223.79850317669258 -41.874066991131116 566.2978424790563 -1.068873831305008 0.7628454296338171 -1.0688738313050077 
1.352 0.33328017129485465 -1.3486095459316603 -1.4597029363632783 0.0 1.5707963267948966 0.0 0.2743434418098265 0.1828956278732176 0.0914478139366088 0.0 0.0 0.0 0.0 0.0 0.0 0.0 0.0 0.0 223.1942517082513 -41.623603205442606 566.7708177298096 -1.0676262454934125 0.7601880850218812 -1.0676262454934125 
1.36 0.3354749188293333 -1.3471463809086746 -1.4589713538517854 0.0 1.5707963267948966 0.0 0.2743434418098265 0.1828956278732176 0.0914478139366088 0.0 0.0 0.0 0.0 0.0 0.0 0.0 0.0 0.0 222.58894914902874 -41.37635249736316 567.242430577909 -1.0663749508112244 0.7575349911840771 -1.0663749508112244 
1.368 0.33766966636381185 -1.3456832158856888 -1.4582397713402926 0.0 1.5707963267948966 0.0 0.2743434418098265 0.1828956278732176 0.0914478139366088 0.0 0.0 0.0 0.0 0.0 0.0 0.0 0.0 0.0 221.9826099602796 -41.13231966330859 567.7126785407252 -1.065119956168709 0.7548861524485747 -1.065119956168709 
1.376 0.3398644138982905 -1.344220050862703 -1.4575081888287997 0.0 1.5707963267948966 0.0 0.2743434418098265 0.1828956278732176 0.0914478139366088 0.0 0.0 0.0 0.0 0.0 0.0 0.0 0.0 0.0 221.37524862561133 -40.89150943723094 568.1815591408416 -1.0638612704664618 0.7522415731172862 -1.0638612704664623 
1.384 0.3420591614327691 -1.3427568858397172 -1.4567766063173069 0.0 1.5707963267948966 0.0 0.2743434418098265 0.1828956278732176 0.0914478139366088 0.0 0.0 0.0 0.0 0.0 0.0 0.0 0.0 0.0 220.7668796507185 -40.653926490514195 568.6490699060674 -1.0625989025953917 0.7496012574659858 -1.062598902595392 
1.392 0.3442539089672477 -1.3412937208167315 -1.456045023805814 0.0 1.5707963267948966 0.0 0.2743434418098265 0.1828956278732176 0.0914478139366088 0.0 0.0 0.0 0.0 0.0 0.0 0.0 0.0 0.0 220.1575175631147 -40.4195754318716 569.1152083694503 -1.0613328614366997 0.7469652097444274 -1.0613328614366997 
1.4 0.34644865650172635 -1.3398305557937458 -1.4553134412943212 0.0 1.5707963267948966 0.0 0.2743434418098265 0.1828956278732176 0.0914478139366088 0.0 0.0 0.0 0.0 0.0 0.0 0.0 0.0 0.0 219.54717691186625 -40.18846080724364 569.5799720692885 -1.0600631558618616 0.7443334341764622 -1.0600631558618618 
1.408 0.34864340403620486 -1.33836739077076 -1.4545818587828283 0.0 1.5707963267948966 0.0 0.2743434418098265 0.1828956278732176 0.0914478139366088 0.0 0.0 0.0 0.0 0.0 0.0 0.0 0.0 0.0 218.93587226732348 -39.96058709969731 570.0433585491428 -1.05878979473261 0.7417059349601564 -1.05878979473261 
1.416 0.3508381515706835 -1.3369042257477743 -1.4538502762713355 0.0 1.5707963267948966 0.0 0.2743434418098265 0.1828956278732176 0.0914478139366088 0.0 0.0 0.0 0.0 0.0 0.0 0.0 0.0 0.0 218.323618220853 -39.735958729326455 570.5053653578492 -1.057512786900916 0.7390827162679089 -1.057512786900916 
1.424 0.3530328991051621 -1.3354410607247886 -1.4531186937598426 0.0 1.5707963267948966 0.0 0.2743434418098265 0.1828956278732176 0.0914478139366088 0.0 0.0 0.0 0.0 0.0 0.0 0.0 0.0 0.0 217.7104293845686 -39.514580053153665 570.9659900495311 -1.0562321412089724 0.7364637822465677 -1.0562321412089724 
1.432 0.35522764663964074 -1.333977895701803 -1.4523871112483497 0.0 1.5707963267948966 0.0 0.2743434418098265 0.1828956278732176 0.0914478139366088 0.0 0.0 0.0 0.0 0.0 0.0 0.0 0.0 0.0 217.0963203910622 -39.29645536503263 571.4252301836118 -1.0549478664891758 0.7338491370175463 -1.0549478664891756 
1.44 0.35742239417411936 -1.3325147306788172 -1.4516555287368569 0.0 1.5707963267948966 0.0 0.2743434418098265 0.1828956278732176 0.0914478139366088 0.0 0.0 0.0 0.0 0.0 0.0 0.0 0.0 0.0 216.48130589313382 -39.08158889555223 571.8830833248262 -1.0536599715641097 0.7312387846769399 -1.0536599715641097 
1.448 0.35961714170859793 -1.3310515656558315 -1.450923946225364 0.0 1.5707963267948966 0.0 0.2743434418098265 0.1828956278732176 0.0914478139366088 0.0 0.0 0.0 0.0 0.0 0.0 0.0 0.0 0.0 215.865400563522 -38.86998481194134 572.3395470432333 -1.0523684652465313 0.7286327292956432 -1.0523684652465308 
1.456 0.36181188924307656 -1.3295884006328456 -1.4501923637138712 0.0 1.5707963267948966 0.0 0.2743434418098265 0.1828956278732176 0.0914478139366088 0.0 0.0 0.0 0.0 0.0 0.0 0.0 0.0 0.0 215.2486190946325 -38.661647217975315 572.794618914229 -1.051073356339349 0.7260309749194618 -1.051073356339349 
1.464 0.3640066367775552 -1.3281252356098598 -1.4494607812023783 0.0 1.5707963267948966 0.0 0.2743434418098265 0.1828956278732176 0.0914478139366088 0.0 0.0 0.0 0.0 0.0 0.0 0.0 0.0 0.0 214.63097619826812 -38.45658015388283 573.2482965185566 -1.0497746536356136 0.7234335255692321 -1.0497746536356136 
1.472 0.3662013843120338 -1.3266620705868741 -1.4487291986908855 0.0 1.5707963267948966 0.0 0.2743434418098265 0.1828956278732176 0.0914478139366088 0.0 0.0 0.0 0.0 0.0 0.0 0.0 0.0 0.0 214.0124866053562 -38.254787596254815 573.7005774423205 -1.0484723659184985 0.7208403852409332 -1.0484723659184985 
1.48 0.36839613184651243 -1.3251989055638884 -1.4479976161793924 0.0 1.5707963267948966 0.0 0.2743434418098265 0.1828956278732176 0.0914478139366088 0.0 0.0 0.0 0.0 0.0 0.0 0.0 0.0 0.0 213.39316506567778 -38.056273457953736 574.1514592769985 -1.0471665019612861 0.7182515579058018 -1.0471665019612864 
1.488 0.370590879380991 -1.3237357405409027 -1.4472660336678995 0.0 1.5707963267948966 0.0 0.2743434418098265 0.1828956278732176 0.0914478139366088 0.0 0.0 0.0 0.0 0.0 0.0 0.0 0.0 0.0 212.77302634759445 -37.861041588024534 574.6009396194519 -1.0458570705273524 0.7156670475104475 -1.0458570705273524 
1.496 0.3727856269154696 -1.322272575517917 -1.4465344511564067 0.0 1.5707963267948966 0.0 0.2743434418098265 0.1828956278732176 0.0914478139366088 0.0 0.0 0.0 0.0 0.0 0.0 0.0 0.0 0.0 212.15208523777625 -37.66909577160668 575.0490160719398 -1.0445440803701544 0.7130868579769665 -1.0445440803701544 
1.504 0.37498037444994825 -1.3208094104949313 -1.4458028686449138 0.0 1.5707963267948966 0.0 0.2743434418098265 0.1828956278732176 0.0914478139366088 0.0 0.0 0.0 0.0 0.0 0.0 0.0 0.0 0.0 211.53035654092818 -37.480439729846836 575.49568624213 -1.0432275402332134 0.7105109932030542 -1.0432275402332134 
1.512 0.3771751219844269 -1.3193462454719453 -1.445071286133421 0.0 1.5707963267948966 0.0 0.2743434418098265 0.1828956278732176 0.0914478139366088 0.0 0.0 0.0 0.0 0.0 0.0 0.0 0.0 0.0 210.90785507951654 -37.295077119813705 575.940947743111 -1.041907458850102 0.7079394570621188 -1.0419074588501023 
1.52 0.3793698695189055 -1.3178830804489596 -1.444339703621928 0.0 1.5707963267948966 0.0 0.2743434418098265 0.1828956278732176 0.0914478139366088 0.0 0.0 0.0 0.0 0.0 0.0 0.0 0.0 0.0 210.28459569349553 -37.113011534412905 576.3847981934047 -1.040583844944434 0.7053722534033957 -1.040583844944434 
1.528 0.38156461705338407 -1.316419915425974 -1.4436081211104352 0.0 1.5707963267948966 0.0 0.2743434418098265 0.1828956278732176 0.0914478139366088 0.0 0.0 0.0 0.0 0.0 0.0 0.0 0.0 0.0 209.66059324003226 -36.93424650230405 576.8272352169773 -1.039256707229845 0.7028093860520577 -1.039256707229845 
1.536 0.3837593645878627 -1.3149567504029882 -1.4428765385989424 0.0 1.5707963267948966 0.0 0.2743434418098265 0.1828956278732176 0.0914478139366088 0.0 0.0 0.0 0.0 0.0 0.0 0.0 0.0 0.0 209.0358625932323 -36.75878548781819 577.2682564432524 -1.0379260544099853 0.7002508588093284 -1.0379260544099853 
1.544 0.3859541121223413 -1.3134935853800025 -1.4421449560874495 0.0 1.5707963267948966 0.0 0.2743434418098265 0.1828956278732176 0.0914478139366088 0.0 0.0 0.0 0.0 0.0 0.0 0.0 0.0 0.0 208.41041864386463 -36.58663189087683 577.7078595071224 -1.0365918951785038 0.6976966754525945 -1.0365918951785038 
1.552 0.38814885965681994 -1.3120304203570168 -1.4414133735759567 0.0 1.5707963267948966 0.0 0.2743434418098265 0.1828956278732176 0.0914478139366088 0.0 0.0 0.0 0.0 0.0 0.0 0.0 0.0 0.0 207.78427629908606 -36.41778904691219 578.1460420489601 -1.0352542382190382 0.6951468397355169 -1.0352542382190382 
1.56 0.39034360719129857 -1.310567255334031 -1.4406817910644638 0.0 1.5707963267948966 0.0 0.2743434418098265 0.1828956278732176 0.0914478139366088 0.0 0.0 0.0 0.0 0.0 0.0 0.0 0.0 0.0 207.15745048216507 -36.252260226788245 578.582801714631 -1.0339130922052013 0.6926013553881417 -1.0339130922052011 
1.568 0.39253835472577714 -1.3091040903110454 -1.439950208552971 0.0 1.5707963267948966 0.0 0.2743434418098265 0.1828956278732176 0.0914478139366088 0.0 0.0 0.0 0.0 0.0 0.0 0.0 0.0 0.0 206.52995613220608 -36.09004863672346 579.0181361555054 -1.0325684658005705 0.6900602261170117 -1.0325684658005705 
1.576 0.39473310226025576 -1.3076409252880596 -1.439218626041478 0.0 1.5707963267948966 0.0 0.2743434418098265 0.1828956278732176 0.0914478139366088 0.0 0.0 0.0 0.0 0.0 0.0 0.0 0.0 0.0 205.90180820387238 -35.9311574182141 579.4520430284693 -1.0312203676586766 0.6875234556052767 -1.0312203676586762 
1.584 0.3969278497947344 -1.3061777602650737 -1.4384870435299852 0.0 1.5707963267948966 0.0 0.2743434418098265 0.1828956278732176 0.0914478139366088 0.0 0.0 0.0 0.0 0.0 0.0 0.0 0.0 0.0 205.27302166710894 -35.77558964795954 579.8845199959375 -1.0298688064229908 0.684991047512803 -1.029868806422991 
1.592 0.399122597329213 -1.304714595242088 -1.4377554610184924 0.0 1.5707963267948966 0.0 0.2743434418098265 0.1828956278732176 0.0914478139366088 0.0 0.0 0.0 0.0 0.0 0.0 0.0 0.0 0.0 204.64361150686608 -35.623348337787604 580.315564725864 -1.0285137907269186 0.6824630054762851 -1.0285137907269184 
1.6 0.40131734486369164 -1.3032514302191023 -1.4370238785069995 0.0 1.5707963267948966 0.0 0.2743434418098265 0.1828956278732176 0.0914478139366088 0.0 0.0 0.0 0.0 0.0 0.0 0.0 0.0 0.0 204.01359272282045 -35.474436434582444 580.745174891755 -1.027155329193784 0.6799393331093536 -1.027155329193784 
1.608 0.4035120923981702 -1.3017882651961166 -1.4362922959955065 0.0 1.5707963267948966 0.0 0.2743434418098265 0.1828956278732176 0.0914478139366088 0.0 0.0 0.0 0.0 0.0 0.0 0.0 0.0 0.0 203.38298032909785 -35.328856820212444 581.1733481726801 -1.025793430436823 0.6774200340026846 -1.025793430436823 
1.616 0.40570683993264883 -1.3003251001731309 -1.4355607134840136 0.0 1.5707963267948966 0.0 0.2743434418098265 0.1828956278732176 0.0914478139366088 0.0 0.0 0.0 0.0 0.0 0.0 0.0 0.0 0.0 202.7517893539944 -35.186612311460046 581.6000822532833 -1.0244281030591729 0.6749051117241098 -1.024428103059173 
1.624 0.40790158746712746 -1.2988619351501451 -1.4348291309725207 0.0 1.5707963267948966 0.0 0.2743434418098265 0.1828956278732176 0.0914478139366088 0.0 0.0 0.0 0.0 0.0 0.0 0.0 0.0 0.0 202.12003483969812 -35.047705659952264 582.0253748237966 -1.0230593556538625 0.6723945698187243 -1.0230593556538625 
1.632 0.4100963350016061 -1.2973987701271592 -1.4340975484610279 0.0 1.5707963267948966 0.0 0.2743434418098265 0.1828956278732176 0.0914478139366088 0.0 0.0 0.0 0.0 0.0 0.0 0.0 0.0 0.0 201.48773184200957 -34.91213955209287 582.4492235800495 -1.0216871968038035 0.6698884118089938 -1.0216871968038035 
1.64 0.4122910825360847 -1.2959356051041735 -1.433365965949535 0.0 1.5707963267948966 0.0 0.2743434418098265 0.1828956278732176 0.0914478139366088 0.0 0.0 0.0 0.0 0.0 0.0 0.0 0.0 0.0 200.85489543006278 -34.779916608995315 582.8716262234822 -1.0203116350817807 0.667386641194865 -1.0203116350817807 
1.648 0.4144858300705633 -1.2944724400811878 -1.4326343834380422 0.0 1.5707963267948966 0.0 0.2743434418098265 0.1828956278732176 0.0914478139366088 0.0 0.0 0.0 0.0 0.0 0.0 0.0 0.0 0.0 200.22154068604507 -34.65103938641727 583.2925804611564 -1.018932679050445 0.664889261453871 -1.018932679050445 
1.656 0.4166805776050419 -1.293009275058202 -1.4319028009265493 0.0 1.5707963267948966 0.0 0.2743434418098265 0.1828956278732176 0.0914478139366088 0.0 0.0 0.0 0.0 0.0 0.0 0.0 0.0 0.0 199.58768270491748 -34.52551037469594 583.7120840057671 -1.0175503372623027 0.6623962760412389 -1.017550337262303 
1.664 0.4188753251395205 -1.2915461100352164 -1.4311712184150565 0.0 1.5707963267948966 0.0 0.2743434418098265 0.1828956278732176 0.0914478139366088 0.0 0.0 0.0 0.0 0.0 0.0 0.0 0.0 0.0 198.95333659413407 -34.40333199868488 584.1301345756547 -1.0161646182597102 0.6599076883899976 -1.0161646182597102 
1.672 0.4210700726739991 -1.2900829450122306 -1.4304396359035636 0.0 1.5707963267948966 0.0 0.2743434418098265 0.1828956278732176 0.0914478139366088 0.0 0.0 0.0 0.0 0.0 0.0 0.0 0.0 0.0 198.31851747336145 -34.2845066176919 584.5467298948156 -1.0147755305748645 0.657423501911084 -1.0147755305748645 
1.68 0.4232648202084777 -1.288619779989245 -1.4297080533920707 0.0 1.5707963267948966 0.0 0.2743434418098265 0.1828956278732176 0.0914478139366088 0.0 0.0 0.0 0.0 0.0 0.0 0.0 0.0 0.0 197.68324047419776 -34.16903652541828 584.9618676929142 -1.013383082729796 0.6549437199934488 -1.013383082729796 
1.688 0.4254595677429563 -1.2871566149662592 -1.4289764708805779 0.0 1.5707963267948966 0.0 0.2743434418098265 0.1828956278732176 0.0914478139366088 0.0 0.0 0.0 0.0 0.0 0.0 0.0 0.0 0.0 197.04752073989144 -34.056923949898895 585.3755457052948 -1.0119872832363612 0.6524683460041624 -1.011987283236361 
1.696 0.4276543152774349 -1.2856934499432735 -1.428244888369085 0.0 1.5707963267948966 0.0 0.2743434418098265 0.1828956278732176 0.0914478139366088 0.0 0.0 0.0 0.0 0.0 0.0 0.0 0.0 0.0 196.41137342505976 -33.94817105344376 585.7877616729925 -1.0105881405962365 0.6499973832885212 -1.0105881405962363 
1.704 0.42984906281191354 -1.2842302849202878 -1.4275133058575922 0.0 1.5707963267948966 0.0 0.2743434418098265 0.1828956278732176 0.0914478139366088 0.0 0.0 0.0 0.0 0.0 0.0 0.0 0.0 0.0 195.7748136954067 -33.84277993258101 586.1985133427445 -1.009185663300911 0.6475308351701526 -1.0091856633009109 
1.712 0.43204381034639217 -1.282767119897302 -1.4267817233460993 0.0 1.5707963267948966 0.0 0.2743434418098265 0.1828956278732176 0.0914478139366088 0.0 0.0 0.0 0.0 0.0 0.0 0.0 0.0 0.0 195.1378567274412 -33.740752618000414 586.6077984670026 -1.0077798598316807 0.6450687049511195 -1.0077798598316803 
1.72 0.4342385578808708 -1.2813039548743161 -1.4260501408346065 0.0 1.5707963267948966 0.0 0.2743434418098265 0.1828956278732176 0.0914478139366088 0.0 0.0 0.0 0.0 0.0 0.0 0.0 0.0 0.0 194.5005177081943 -33.64209107449894 587.0156148039429 -1.0063707386596403 0.6426109959120243 -1.00637073865964 
1.728 0.43643330541534936 -1.2798407898513304 -1.4253185583231136 0.0 1.5707963267948966 0.0 0.2743434418098265 0.1828956278732176 0.0914478139366088 0.0 0.0 0.0 0.0 0.0 0.0 0.0 0.0 0.0 193.86281183493725 -33.54679720092669 587.421960117479 -1.0049583082456819 0.6401577113121157 -1.0049583082456819 
1.736 0.438628052949828 -1.2783776248283447 -1.4245869758116205 0.0 1.5707963267948966 0.0 0.2743434418098265 0.1828956278732176 0.0914478139366088 0.0 0.0 0.0 0.0 0.0 0.0 0.0 0.0 0.0 193.2247543148976 -33.45487283013476 587.8268321772721 -1.0035425770404842 0.6377088543893891 -1.0035425770404842 
1.744 0.4408228004843066 -1.276914459805359 -1.4238553933001277 0.0 1.5707963267948966 0.0 0.2743434418098265 0.1828956278732176 0.0914478139366088 0.0 0.0 0.0 0.0 0.0 0.0 0.0 0.0 0.0 192.58636036497683 -33.36631972892387 588.2302287587428 -1.0021235534845105 0.6352644283606931 -1.0021235534845105 
1.752 0.44301754801878523 -1.2754512947823733 -1.4231238107886348 0.0 1.5707963267948966 0.0 0.2743434418098265 0.1828956278732176 0.0914478139366088 0.0 0.0 0.0 0.0 0.0 0.0 0.0 0.0 0.0 191.9476452114664 -33.28113959799424 588.6321476430822 -1.0007012460080036 0.632824436421831 -1.0007012460080036 
1.76 0.44521229555326386 -1.2739881297593876 -1.422392228277142 0.0 1.5707963267948966 0.0 0.2743434418098265 0.1828956278732176 0.0914478139366088 0.0 0.0 0.0 0.0 0.0 0.0 0.0 0.0 0.0 191.3086240897643 -33.199334071897056 589.0325866172635 -0.9992756630309784 0.6303888817476648 -0.9992756630309781 
1.768 0.44740704308774243 -1.2725249647364016 -1.421660645765649 0.0 1.5707963267948966 0.0 0.2743434418098265 0.1828956278732176 0.0914478139366088 0.0 0.0 0.0 0.0 0.0 0.0 0.0 0.0 0.0 190.66931224409078 -33.12090471898665 589.4315434740529 -0.9978468129632202 0.6279577674922161 -0.9978468129632202 
1.776 0.44960179062222105 -1.271061799713416 -1.4209290632541562 0.0 1.5707963267948966 0.0 0.2743434418098265 0.1828956278732176 0.0914478139366088 0.0 0.0 0.0 0.0 0.0 0.0 0.0 0.0 0.0 190.029724927205 -33.04585304137394 589.8290160120212 -0.9964147042042806 0.6255310967887713 -0.9964147042042807 
1.784 0.4517965381566997 -1.2695986346904302 -1.4201974807426634 0.0 1.5707963267948966 0.0 0.2743434418098265 0.1828956278732176 0.0914478139366088 0.0 0.0 0.0 0.0 0.0 0.0 0.0 0.0 0.0 189.38987740011936 -32.97418047488174 590.2250020355544 -0.9949793451434706 0.6231088727499802 -0.9949793451434706 
1.792 0.4539912856911783 -1.2681354696674445 -1.4194658982311705 0.0 1.5707963267948966 0.0 0.2743434418098265 0.1828956278732176 0.0914478139366088 0.0 0.0 0.0 0.0 0.0 0.0 0.0 0.0 0.0 188.7497849318159 -32.90588838900039 590.6194993548656 -0.9935407441598599 0.6206910984679601 -0.9935407441598599 
1.8 0.45618603322565693 -1.2666723046444588 -1.4187343157196777 0.0 1.5707963267948966 0.0 0.2743434418098265 0.1828956278732176 0.0914478139366088 0.0 0.0 0.0 0.0 0.0 0.0 0.0 0.0 0.0 188.10946279896098 -32.84097808684533 591.0125057860057 -0.992098909622272 0.6182777770143961 -0.992098909622272 
1.808 0.4583807807601355 -1.265209139621473 -1.4180027332081848 0.0 1.5707963267948966 0.0 0.2743434418098265 0.1828956278732176 0.0914478139366088 0.0 0.0 0.0 0.0 0.0 0.0 0.0 0.0 0.0 187.46892628562017 -32.779450805115154 591.404019150875 -0.9906538498892805 0.6158689114406409 -0.9906538498892805 
1.816 0.4605755282946141 -1.2637459745984874 -1.417271150696692 0.0 1.5707963267948966 0.0 0.2743434418098265 0.1828956278732176 0.0914478139366088 0.0 0.0 0.0 0.0 0.0 0.0 0.0 0.0 0.0 186.82819068297306 -32.72130771405187 591.7940372772331 -0.989205573309208 0.6134645047778179 -0.9892055733092078 
1.824 0.46277027582909275 -1.2622828095755017 -1.416539568185199 0.0 1.5707963267948966 0.0 0.2743434418098265 0.1828956278732176 0.0914478139366088 0.0 0.0 0.0 0.0 0.0 0.0 0.0 0.0 0.0 186.1872712890277 -32.666549917401376 592.1825579987117 -0.987754088220121 0.6110645600369192 -0.9877540882201209 
1.832 0.4649650233635714 -1.260819644552516 -1.4158079856737062 0.0 1.5707963267948966 0.0 0.2743434418098265 0.1828956278732176 0.0914478139366088 0.0 0.0 0.0 0.0 0.0 0.0 0.0 0.0 0.0 185.54618340833488 -32.6151784523759 592.569579154824 -0.9862994029498297 0.6086690802089069 -0.9862994029498294 
1.84 0.46715977089805 -1.25935647952953 -1.4150764031622134 0.0 1.5707963267948966 0.0 0.2743434418098265 0.1828956278732176 0.0914478139366088 0.0 0.0 0.0 0.0 0.0 0.0 0.0 0.0 0.0 184.90494235170226 -32.567194289617156 592.9550985909774 -0.984841525815884 0.606278068264812 -0.984841525815884 
1.848 0.46935451843252857 -1.2578933145065443 -1.4143448206507205 0.0 1.5707963267948966 0.0 0.2743434418098265 0.1828956278732176 0.0914478139366088 0.0 0.0 0.0 0.0 0.0 0.0 0.0 0.0 0.0 184.26356343590825 -32.52259833316107 593.3391141584829 -0.9833804651255723 0.6038915271558339 -0.9833804651255723 
1.856 0.4715492659670072 -1.2564301494835586 -1.4136132381392277 0.0 1.5707963267948966 0.0 0.2743434418098265 0.1828956278732176 0.0914478139366088 0.0 0.0 0.0 0.0 0.0 0.0 0.0 0.0 0.0 183.6220619834156 -32.48139142040354 593.7216237145669 -0.9819162291759209 0.60150945981344 -0.9819162291759206 
1.864 0.4737440135014858 -1.2549669844605729 -1.4128816556277348 0.0 1.5707963267948966 0.0 0.2743434418098265 0.1828956278732176 0.0914478139366088 0.0 0.0 0.0 0.0 0.0 0.0 0.0 0.0 0.0 182.980453322085 -32.44357432206764 594.102625122382 -0.9804488262536886 0.5991318691494621 -0.9804488262536885 
1.872 0.47593876103596444 -1.2535038194375872 -1.4121500731162417 0.0 1.5707963267948966 0.0 0.2743434418098265 0.1828956278732176 0.0914478139366088 0.0 0.0 0.0 0.0 0.0 0.0 0.0 0.0 0.0 182.3387527848884 -32.409147742171726 594.4821162510186 -0.9789782646353707 0.5967587580561983 -0.9789782646353707 
1.88 0.47813350857044307 -1.2520406544146014 -1.4114184906047489 0.0 1.5707963267948966 0.0 0.2743434418098265 0.1828956278732176 0.0914478139366088 0.0 0.0 0.0 0.0 0.0 0.0 0.0 0.0 0.0 181.69697570962228 -32.37811231799898 594.8600949755139 -0.9775045525871934 0.5943901294065068 -0.9775045525871936 
1.888 0.48032825610492164 -1.2505774893916155 -1.410686908093256 0.0 1.5707963267948966 0.0 0.2743434418098265 0.1828956278732176 0.0914478139366088 0.0 0.0 0.0 0.0 0.0 0.0 0.0 0.0 0.0 181.05513743862042 -32.35046862006824 595.2365591768653 -0.9760276983651167 0.5920259860539077 -0.9760276983651168 
1.896 0.48252300363940026 -1.2491143243686298 -1.4099553255817632 0.0 1.5707963267948966 0.0 0.2743434418098265 0.1828956278732176 0.0914478139366088 0.0 0.0 0.0 0.0 0.0 0.0 0.0 0.0 0.0 180.41325331846724 -32.32621715210582 595.6115067420388 -0.9745477102148311 0.5896663308326769 -0.9745477102148313 
1.904 0.4847177511738789 -1.247651159345644 -1.4092237430702703 0.0 1.5707963267948966 0.0 0.2743434418098265 0.1828956278732176 0.0914478139366088 0.0 0.0 0.0 0.0 0.0 0.0 0.0 0.0 0.0 179.77133869970976 -32.30535835101881 595.984935563982 -0.9730645963717578 0.5873111665579448 -0.9730645963717578 
1.912 0.4869124987083575 -1.2461879943226584 -1.4084921605587775 0.0 1.5707963267948966 0.0 0.2743434418098265 0.1828956278732176 0.0914478139366088 0.0 0.0 0.0 0.0 0.0 0.0 0.0 0.0 0.0 179.12940893657054 -32.287892586869596 596.3568435416333 -0.97157836506105 0.5849604960257929 -0.97157836506105 
1.92 0.4891072462428361 -1.2447248292996727 -1.4077605780472846 0.0 1.5707963267948966 0.0 0.2743434418098265 0.1828956278732176 0.0914478139366088 0.0 0.0 0.0 0.0 0.0 0.0 0.0 0.0 0.0 178.48747938666028 -32.273820162851344 596.7272285799334 -0.970089024497592 0.5826143220133494 -0.9700890244975919 
1.928 0.49130199377731465 -1.243261664276687 -1.4070289955357917 0.0 1.5707963267948966 0.0 0.2743434418098265 0.1828956278732176 0.0914478139366088 0.0 0.0 0.0 0.0 0.0 0.0 0.0 0.0 0.0 177.84556541068955 -32.263141315264946 597.0960885898356 -0.968596582885998 0.5802726472788856 -0.968596582885998 
1.936 0.4934967413117933 -1.2417984992537012 -1.406297413024299 0.0 1.5707963267948966 0.0 0.2743434418098265 0.1828956278732176 0.0914478139366088 0.0 0.0 0.0 0.0 0.0 0.0 0.0 0.0 0.0 177.20368237218145 -32.25585621349723 597.4634214883174 -0.9671010484206171 0.5779354745619119 -0.9671010484206171 
1.944 0.4956914888462719 -1.2403353342307155 -1.405565830512806 0.0 1.5707963267948966 0.0 0.2743434418098265 0.1828956278732176 0.0914478139366088 0.0 0.0 0.0 0.0 0.0 0.0 0.0 0.0 0.0 176.561845637183 -32.25196496000027 597.8292251983902 -0.9656024292855288 0.5756028065832726 -0.9656024292855286 
1.952 0.4978862363807505 -1.2388721692077298 -1.4048342480013132 0.0 1.5707963267948966 0.0 0.2743434418098265 0.1828956278732176 0.0914478139366088 0.0 0.0 0.0 0.0 0.0 0.0 0.0 0.0 0.0 175.9200705739776 -32.25146759027203 598.1934976491102 -0.9641007336545476 0.573274646045241 -0.9641007336545473 
1.96 0.5000809839152291 -1.237409004184744 -1.4041026654898203 0.0 1.5707963267948966 0.0 0.2743434418098265 0.1828956278732176 0.0914478139366088 0.0 0.0 0.0 0.0 0.0 0.0 0.0 0.0 0.0 175.27837255279633 -32.25436407283813 598.5562367755895 -0.9625959696912229 0.5709509956316148 -0.9625959696912225 
1.968 0.5022757314497077 -1.2359458391617584 -1.4033710829783275 0.0 1.5707963267948966 0.0 0.2743434418098265 0.1828956278732176 0.0914478139366088 0.0 0.0 0.0 0.0 0.0 0.0 0.0 0.0 0.0 174.63676694552967 -32.26065430923502 598.9174405190062 -0.9610881455488406 0.5686318580078091 -0.9610881455488405 
1.976 0.5044704789841863 -1.2344826741387724 -1.4026395004668346 0.0 1.5707963267948966 0.0 0.2743434418098265 0.1828956278732176 0.0914478139366088 0.0 0.0 0.0 0.0 0.0 0.0 0.0 0.0 0.0 173.9952691254393 -32.27033813399425 599.2771068266155 -0.9595772693704253 0.5663172358209521 -0.9595772693704253 
1.984 0.506665226518665 -1.2330195091157867 -1.4019079179553418 0.0 1.5707963267948966 0.0 0.2743434418098265 0.1828956278732176 0.0914478139366088 0.0 0.0 0.0 0.0 0.0 0.0 0.0 0.0 0.0 173.35389446686915 -32.28341531462788 599.6352336517593 -0.9580633492887413 0.5640071316999772 -0.9580633492887412 
1.992 0.5088599740531435 -1.231556344092801 -1.4011763354438487 0.0 1.5707963267948966 0.0 0.2743434418098265 0.1828956278732176 0.0914478139366088 0.0 0.0 0.0 0.0 0.0 0.0 0.0 0.0 0.0 172.71265834495674 -32.29988555161566 599.9918189538782 -0.9565463934262951 0.5617015482557174 -0.9565463934262953 
2.0 0.5110547215876222 -1.2300931790698153 -1.4004447529323558 0.0 1.5707963267948966 0.0 0.2743434418098265 0.1828956278732176 0.0914478139366088 0.0 0.0 0.0 0.0 0.0 0.0 0.0 0.0 0.0 172.07157613534474 -32.31974847839253 600.3468606985205 -0.9550264098953388 0.5594004880809985 -0.9550264098953386 
2.008 0.5132494691221008 -1.2286300140468296 -1.399713170420863 0.0 1.5707963267948966 0.0 0.2743434418098265 0.1828956278732176 0.0914478139366088 0.0 0.0 0.0 0.0 0.0 0.0 0.0 0.0 0.0 171.43066321389176 -32.343003661338464 600.7003568573538 -0.9535034067978699 0.5571039537507313 -0.9535034067978699 
2.016 0.5154442166565794 -1.2271668490238437 -1.39898158790937 0.0 1.5707963267948966 0.0 0.2743434418098265 0.1828956278732176 0.0914478139366088 0.0 0.0 0.0 0.0 0.0 0.0 0.0 0.0 0.0 170.78993495638332 -32.369650599768555 601.0523054081748 -0.9519773922256368 0.5548119478220036 -0.9519773922256369 
2.024 0.517638964191058 -1.225703684000858 -1.3982500053978772 0.0 1.5707963267948966 0.0 0.2743434418098265 0.1828956278732176 0.0914478139366088 0.0 0.0 0.0 0.0 0.0 0.0 0.0 0.0 0.0 170.14940673824356 -32.39968872592484 601.4027043349197 -0.9504483742601408 0.5525244728341738 -0.950448374260141 
2.032 0.5198337117255366 -1.2242405189778722 -1.3975184228863844 0.0 1.5707963267948966 0.0 0.2743434418098265 0.1828956278732176 0.0914478139366088 0.0 0.0 0.0 0.0 0.0 0.0 0.0 0.0 0.0 169.50909393424504 -32.43311740496952 601.7515516276751 -0.9489163609726383 0.5502415313089611 -0.9489163609726384 
2.04 0.5220284592600153 -1.2227773539548865 -1.3967868403748915 0.0 1.5707963267948966 0.0 0.2743434418098265 0.1828956278732176 0.0914478139366088 0.0 0.0 0.0 0.0 0.0 0.0 0.0 0.0 0.0 168.86901191822048 -32.46993593497893 602.0988452826886 -0.9473813604241463 0.5479631257505384 -0.9473813604241463 
2.048 0.5242232067944939 -1.2213141889319008 -1.3960552578633987 0.0 1.5707963267948966 0.0 0.2743434418098265 0.1828956278732176 0.0914478139366088 0.0 0.0 0.0 0.0 0.0 0.0 0.0 0.0 0.0 168.2291760627731 -32.510143546939254 602.4445833023775 -0.9458433806654432 0.5456892586456218 -0.945843380665443 
2.056 0.5264179543289724 -1.219851023908915 -1.3953236753519058 0.0 1.5707963267948966 0.0 0.2743434418098265 0.1828956278732176 0.0914478139366088 0.0 0.0 0.0 0.0 0.0 0.0 0.0 0.0 0.0 167.58960173898737 -32.55373940474301 602.7887636953413 -0.9443024297370745 0.5434199324635629 -0.9443024297370742 
2.064 0.5286127018634511 -1.2183878588859294 -1.394592092840413 0.0 1.5707963267948966 0.0 0.2743434418098265 0.1828956278732176 0.0914478139366088 0.0 0.0 0.0 0.0 0.0 0.0 0.0 0.0 0.0 166.95030431613998 -32.60072260518718 603.1313844763703 -0.9427585156693565 0.5411551496564386 -0.9427585156693564 
2.072 0.5308074493979297 -1.2169246938629437 -1.39386051032892 0.0 1.5707963267948966 0.0 0.2743434418098265 0.1828956278732176 0.0914478139366088 0.0 0.0 0.0 0.0 0.0 0.0 0.0 0.0 0.0 166.31129916141006 -32.65109217797241 603.4724436664569 -0.9412116464823803 0.5388949126591414 -0.94121164648238 
2.08 0.5330021969324084 -1.215461528839958 -1.3931289278174273 0.0 1.5707963267948966 0.0 0.2743434418098265 0.1828956278732176 0.0914478139366088 0.0 0.0 0.0 0.0 0.0 0.0 0.0 0.0 0.0 165.67260163959003 -32.70484708570341 603.8119392928052 -0.9396618301860151 0.5366392238894688 -0.9396618301860148 
2.088 0.5351969444668869 -1.2139983638169722 -1.3923973453059344 0.0 1.5707963267948966 0.0 0.2743434418098265 0.1828956278732176 0.0914478139366088 0.0 0.0 0.0 0.0 0.0 0.0 0.0 0.0 0.0 165.0342271127961 -32.76198622389072 604.1498693888416 -0.9381090747799152 0.5343880857482145 -0.938109074779915 
2.096 0.5373916920013655 -1.2125351987939863 -1.3916657627944415 0.0 1.5707963267948966 0.0 0.2743434418098265 0.1828956278732176 0.0914478139366088 0.0 0.0 0.0 0.0 0.0 0.0 0.0 0.0 0.0 164.3961909401786 -32.82250842095351 604.4862319942249 -0.9365533882535219 0.532141500619255 -0.9365533882535219 
2.104 0.5395864395358442 -1.2110720337710006 -1.3909341802829487 0.0 1.5707963267948966 0.0 0.2743434418098265 0.1828956278732176 0.0914478139366088 0.0 0.0 0.0 0.0 0.0 0.0 0.0 0.0 0.0 163.7585084776331 -32.88641243822379 604.8210251548562 -0.9349947785860708 0.5298994708696406 -0.9349947785860706 
2.112 0.5417811870703227 -1.2096088687480149 -1.3902025977714558 0.0 1.5707963267948966 0.0 0.2743434418098265 0.1828956278732176 0.0914478139366088 0.0 0.0 0.0 0.0 0.0 0.0 0.0 0.0 0.0 163.1211950775099 -32.95369696995225 605.1542469228893 -0.9334332537465952 0.5276619988496836 -0.9334332537465949 
2.12 0.5439759346048013 -1.2081457037250292 -1.389471015259963 0.0 1.5707963267948966 0.0 0.2743434418098265 0.1828956278732176 0.0914478139366088 0.0 0.0 0.0 0.0 0.0 0.0 0.0 0.0 0.0 162.4842660883255 -33.02436064331421 605.485895356741 -0.9318688216939325 0.5254290868930456 -0.9318688216939324 
2.128 0.54617068213928 -1.2066825387020435 -1.38873943274847 0.0 1.5707963267948966 0.0 0.2743434418098265 0.1828956278732176 0.0914478139366088 0.0 0.0 0.0 0.0 0.0 0.0 0.0 0.0 0.0 161.84773685447237 -33.098402018418234 605.8159685211006 -0.9303014903767288 0.5232007373168265 -0.9303014903767288 
2.136 0.5483654296737586 -1.2052193736790577 -1.388007850236977 0.0 1.5707963267948966 0.0 0.2743434418098265 0.1828956278732176 0.0914478139366088 0.0 0.0 0.0 0.0 0.0 0.0 0.0 0.0 0.0 161.21162271592982 -33.1758195883148 606.1444644869398 -0.928731267733446 0.5209769524216521 -0.928731267733446 
2.144 0.5505601772082372 -1.2037562086560718 -1.3872762677254842 0.0 1.5707963267948966 0.0 0.2743434418098265 0.1828956278732176 0.0914478139366088 0.0 0.0 0.0 0.0 0.0 0.0 0.0 0.0 0.0 160.5759390079741 -33.2566117790071 606.4713813315242 -0.9271581616923659 0.5187577344917601 -0.9271581616923662 
2.152 0.5527549247427158 -1.202293043633086 -1.3865446852139913 0.0 1.5707963267948966 0.0 0.2743434418098265 0.1828956278732176 0.0914478139366088 0.0 0.0 0.0 0.0 0.0 0.0 0.0 0.0 0.0 159.9407010608895 -33.34077694946229 606.7967171384217 -0.9255821801715985 0.5165430857950895 -0.9255821801715988 
2.16 0.5549496722771944 -1.2008298786101004 -1.3858131027024985 0.0 1.5707963267948966 0.0 0.2743434418098265 0.1828956278732176 0.0914478139366088 0.0 0.0 0.0 0.0 0.0 0.0 0.0 0.0 0.0 159.30592419967792 -33.428313391624854 607.1204699975128 -0.9240033310790854 0.5143330085833647 -0.9240033310790855 
2.168 0.5571444198116731 -1.1993667135871147 -1.3850815201910056 0.0 1.5707963267948966 0.0 0.2743434418098265 0.1828956278732176 0.0914478139366088 0.0 0.0 0.0 0.0 0.0 0.0 0.0 0.0 0.0 158.67162374377028 -33.51921933043037 607.4426380050011 -0.9224216223126088 0.5121275050921837 -0.9224216223126088 
2.176 0.5593391673461516 -1.197903548564129 -1.3843499376795128 0.0 1.5707963267948966 0.0 0.2743434418098265 0.1828956278732176 0.0914478139366088 0.0 0.0 0.0 0.0 0.0 0.0 0.0 0.0 0.0 158.03781500673642 -33.61349292382114 607.7632192634227 -0.9208370617597961 0.5099265775411035 -0.9208370617597958 
2.184 0.5615339148806303 -1.1964403835411432 -1.38361835516802 0.0 1.5707963267948966 0.0 0.2743434418098265 0.1828956278732176 0.0914478139366088 0.0 0.0 0.0 0.0 0.0 0.0 0.0 0.0 0.0 157.40451329599614 -33.71113226276279 608.0822118816563 -0.9192496572981286 0.5077302281337257 -0.9192496572981284 
2.192 0.5637286624151089 -1.1949772185181575 -1.382886772656527 0.0 1.5707963267948966 0.0 0.2743434418098265 0.1828956278732176 0.0914478139366088 0.0 0.0 0.0 0.0 0.0 0.0 0.0 0.0 0.0 156.77173391252933 -33.81213537126197 608.399613974933 -0.917659416794947 0.5055384590577822 -0.9176594167949467 
2.2 0.5659234099495875 -1.1935140534951718 -1.3821551901450342 0.0 1.5707963267948966 0.0 0.2743434418098265 0.1828956278732176 0.0914478139366088 0.0 0.0 0.0 0.0 0.0 0.0 0.0 0.0 0.0 156.139492150587 -33.91650020638597 608.7154236648458 -0.9160663481074595 0.5033512724852203 -0.9160663481074595 
2.208 0.5681181574840661 -1.192050888472186 -1.3814236076335413 0.0 1.5707963267948966 0.0 0.2743434418098265 0.1828956278732176 0.0914478139366088 0.0 0.0 0.0 0.0 0.0 0.0 0.0 0.0 0.0 155.50780329740184 -34.02422465828235 609.0296390793603 -0.9144704590827479 0.5011686705722875 -0.9144704590827476 
2.216 0.5703129050185447 -1.1905877234492002 -1.3806920251220485 0.0 1.5707963267948966 0.0 0.2743434418098265 0.1828956278732176 0.0914478139366088 0.0 0.0 0.0 0.0 0.0 0.0 0.0 0.0 0.0 154.87668263289865 -34.13530655020145 609.3422583528236 -0.9128717575577762 0.498990655459616 -0.9128717575577762 
2.224 0.5725076525530234 -1.1891245584262145 -1.3799604426105556 0.0 1.5707963267948966 0.0 0.2743434418098265 0.1828956278732176 0.0914478139366088 0.0 0.0 0.0 0.0 0.0 0.0 0.0 0.0 0.0 154.246145429406 -34.24974363851846 609.6532796259742 -0.9112702513593985 0.4968172292723071 -0.9112702513593984 
2.232 0.574702400087502 -1.1876613934032287 -1.3792288600990625 0.0 1.5707963267948966 0.0 0.2743434418098265 0.1828956278732176 0.0914478139366088 0.0 0.0 0.0 0.0 0.0 0.0 0.0 0.0 0.0 153.61620695136597 -34.36753361275813 609.9627010459516 -0.9096659483043656 0.4946483941200145 -0.9096659483043658 
2.24 0.5768971476219805 -1.186198228380243 -1.3784972775875697 0.0 1.5707963267948966 0.0 0.2743434418098265 0.1828956278732176 0.0914478139366088 0.0 0.0 0.0 0.0 0.0 0.0 0.0 0.0 0.0 152.986882455046 -34.48867409561982 610.270520766307 -0.9080588561993337 0.4924841520970285 -0.9080588561993339 
2.248 0.5790918951564592 -1.1847350633572573 -1.3777656950760768 0.0 1.5707963267948966 0.0 0.2743434418098265 0.1828956278732176 0.0914478139366088 0.0 0.0 0.0 0.0 0.0 0.0 0.0 0.0 0.0 152.3581871882492 -34.61316264300417 610.5767369470115 -0.9064489828408725 0.4903245052823589 -0.9064489828408727 
2.256 0.5812866426909378 -1.1832718983342716 -1.377034112564584 0.0 1.5707963267948966 0.0 0.2743434418098265 0.1828956278732176 0.0914478139366088 0.0 0.0 0.0 0.0 0.0 0.0 0.0 0.0 0.0 151.730136390026 -34.740996744041155 610.8813477544664 -0.9048363360154743 0.48816945573981807 -0.9048363360154743 
2.264 0.5834813902254165 -1.1818087333112857 -1.3763025300530911 0.0 1.5707963267948966 0.0 0.2743434418098265 0.1828956278732176 0.0914478139366088 0.0 0.0 0.0 0.0 0.0 0.0 0.0 0.0 0.0 151.10274529038486 -34.87217382111888 611.1843513615133 -0.9032209234995602 0.48601900551810373 -0.9032209234995605 
2.272 0.585676137759895 -1.1803455682883 -1.3755709475415983 0.0 1.5707963267948966 0.0 0.2743434418098265 0.1828956278732176 0.0914478139366088 0.0 0.0 0.0 0.0 0.0 0.0 0.0 0.0 0.0 150.476029110004 -35.00669122991404 611.485745947443 -0.9016027530594923 0.48387315665088143 -0.9016027530594926 
2.28 0.5878708852943736 -1.1788824032653142 -1.3748393650301054 0.0 1.5707963267948966 0.0 0.2743434418098265 0.1828956278732176 0.0914478139366088 0.0 0.0 0.0 0.0 0.0 0.0 0.0 0.0 0.0 149.85000305994208 -35.14454625942366 611.7855296980046 -0.8999818324515791 0.48173191115686576 -0.8999818324515793 
2.288 0.5900656328288523 -1.1774192382423285 -1.3741077825186125 0.0 1.5707963267948966 0.0 0.2743434418098265 0.1828956278732176 0.0914478139366088 0.0 0.0 0.0 0.0 0.0 0.0 0.0 0.0 0.0 149.22468234135047 -35.28573613199777 612.0837008054164 -0.8983581694220862 0.4795952710399032 -0.8983581694220861 
2.296 0.5922603803633308 -1.1759560732193428 -1.3733762000071197 0.0 1.5707963267948966 0.0 0.2743434418098265 0.1828956278732176 0.0914478139366088 0.0 0.0 0.0 0.0 0.0 0.0 0.0 0.0 0.0 148.60008214518405 -35.43025800337358 612.3802574683745 -0.8967317717072455 0.4774632382890521 -0.8967317717072455 
2.304 0.5944551278978095 -1.174492908196357 -1.3726446174956268 0.0 1.5707963267948966 0.0 0.2743434418098265 0.1828956278732176 0.0914478139366088 0.0 0.0 0.0 0.0 0.0 0.0 0.0 0.0 0.0 147.97621765191326 -35.57810896271065 612.6751978920618 -0.8951026470332643 0.4753358148786664 -0.8951026470332641 
2.312 0.596649875432288 -1.1730297431733714 -1.371913034984134 0.0 1.5707963267948966 0.0 0.2743434418098265 0.1828956278732176 0.0914478139366088 0.0 0.0 0.0 0.0 0.0 0.0 0.0 0.0 0.0 147.353104031236 -35.72928603262776 612.9685202881587 -0.8934708031163339 0.4732130027684729 -0.8934708031163339 
2.32 0.5988446229667665 -1.1715665781503857 -1.3711814524726411 0.0 1.5707963267948966 0.0 0.2743434418098265 0.1828956278732176 0.0914478139366088 0.0 0.0 0.0 0.0 0.0 0.0 0.0 0.0 0.0 146.73075644178897 -35.883786169240366 613.2602228748514 -0.8918362476626414 0.4710948039036548 -0.8918362476626415 
2.328 0.6010393705012452 -1.1701034131274 -1.3704498699611483 0.0 1.5707963267948966 0.0 0.2743434418098265 0.1828956278732176 0.0914478139366088 0.0 0.0 0.0 0.0 0.0 0.0 0.0 0.0 0.0 146.10919003086065 -36.04160626219988 613.550303876842 -0.890198988368377 0.4689812202149306 -0.8901989883683766 
2.336 0.6032341180357238 -1.1686402481044142 -1.3697182874496554 0.0 1.5707963267948966 0.0 0.2743434418098265 0.1828956278732176 0.0914478139366088 0.0 0.0 0.0 0.0 0.0 0.0 0.0 0.0 0.0 145.48841993410224 -36.20274313473396 613.8387615253571 -0.8885590329197447 0.46687225361863355 -0.8885590329197446 
2.344 0.6054288655702024 -1.1671770830814285 -1.3689867049381625 0.0 1.5707963267948966 0.0 0.2743434418098265 0.1828956278732176 0.0914478139366088 0.0 0.0 0.0 0.0 0.0 0.0 0.0 0.0 0.0 144.86846127524126 -36.367193543687904 614.125594058158 -0.886916388992974 0.46476790601679263 -0.8869163889929739 
2.352 0.607623613104681 -1.1657139180584428 -1.3682551224266697 0.0 1.5707963267948966 0.0 0.2743434418098265 0.1828956278732176 0.0914478139366088 0.0 0.0 0.0 0.0 0.0 0.0 0.0 0.0 0.0 144.2493291657927 -36.53495417956764 614.410799719549 -0.885271064254328 0.46266817929721066 -0.8852710642543279 
2.36 0.6098183606391596 -1.1642507530354569 -1.3675235399151768 0.0 1.5707963267948966 0.0 0.2743434418098265 0.1828956278732176 0.0914478139366088 0.0 0.0 0.0 0.0 0.0 0.0 0.0 0.0 0.0 143.63103870477264 -36.706021666583595 614.6943767603877 -0.8836230663601148 0.4605730753335437 -0.8836230663601146 
2.368 0.6120131081736383 -1.1627875880124712 -1.366791957403684 0.0 1.5707963267948966 0.0 0.2743434418098265 0.1828956278732176 0.0914478139366088 0.0 0.0 0.0 0.0 0.0 0.0 0.0 0.0 0.0 143.01360497841068 -36.880392562695974 614.9763234380933 -0.881972402956698 0.45848259598538005 -0.8819724029566979 
2.376 0.6142078557081169 -1.1613244229894855 -1.3660603748921911 0.0 1.5707963267948966 0.0 0.2743434418098265 0.1828956278732176 0.0914478139366088 0.0 0.0 0.0 0.0 0.0 0.0 0.0 0.0 0.0 142.39704305986248 -37.058063359661304 615.2566380166564 -0.8803190816805071 0.45639674309831824 -0.8803190816805071 
2.384 0.6164026032425954 -1.1598612579664997 -1.3653287923806983 0.0 1.5707963267948966 0.0 0.2743434418098265 0.1828956278732176 0.0914478139366088 0.0 0.0 0.0 0.0 0.0 0.0 0.0 0.0 0.0 141.78136800892338 -37.23903048308017 615.5353187666483 -0.8786631101580485 0.4543155185040452 -0.8786631101580483 
2.392 0.6185973507770741 -1.158398092943514 -1.3645972098692052 0.0 1.5707963267948966 0.0 0.2743434418098265 0.1828956278732176 0.0914478139366088 0.0 0.0 0.0 0.0 0.0 0.0 0.0 0.0 0.0 141.16659487174104 -37.42329029244634 615.8123639652291 -0.8770044960059168 0.45223892402041427 -0.8770044960059168 
2.4 0.6207920983115527 -1.1569349279205283 -1.3638656273577123 0.0 1.5707963267948966 0.0 0.2743434418098265 0.1828956278732176 0.0914478139366088 0.0 0.0 0.0 0.0 0.0 0.0 0.0 0.0 0.0 140.55273868052956 -37.6108390811965 616.0877718961581 -0.8753432468308056 0.4501669614515225 -0.8753432468308056 
2.408 0.6229868458460314 -1.1554717628975424 -1.3631340448462195 0.0 1.5707963267948966 0.0 0.2743434418098265 0.1828956278732176 0.0914478139366088 0.0 0.0 0.0 0.0 0.0 0.0 0.0 0.0 0.0 139.93981445328248 -37.801673076762405 616.3615408498023 -0.8736793702295184 0.44809963258778807 -0.8736793702295185 
2.416 0.6251815933805099 -1.1540085978745567 -1.3624024623347266 0.0 1.5707963267948966 0.0 0.2743434418098265 0.1828956278732176 0.0914478139366088 0.0 0.0 0.0 0.0 0.0 0.0 0.0 0.0 0.0 139.32783719348686 -37.99578844062296 616.633669123145 -0.8720128737889808 0.4460369392060271 -0.8720128737889808 
2.424 0.6273763409149885 -1.152545432851571 -1.3616708798232338 0.0 1.5707963267948966 0.0 0.2743434418098265 0.1828956278732176 0.0914478139366088 0.0 0.0 0.0 0.0 0.0 0.0 0.0 0.0 0.0 138.71682188983706 -38.193181268358586 616.9041550197959 -0.8703437650862513 0.4439788830695301 -0.8703437650862514 
2.432 0.6295710884494672 -1.1510822678285852 -1.360939297311741 0.0 1.5707963267948966 0.0 0.2743434418098265 0.1828956278732176 0.0914478139366088 0.0 0.0 0.0 0.0 0.0 0.0 0.0 0.0 0.0 138.10678351594922 -38.393847589706034 617.172996849999 -0.8686720516885339 0.44192546592813825 -0.8686720516885338 
2.44 0.6317658359839458 -1.1496191028055995 -1.360207714800248 0.0 1.5707963267948966 0.0 0.2743434418098265 0.1828956278732176 0.0914478139366088 0.0 0.0 0.0 0.0 0.0 0.0 0.0 0.0 0.0 137.4977370300752 -38.59778336861519 617.4401929306426 -0.8669977411531888 0.43987668951832043 -0.8669977411531887 
2.448 0.6339605835184244 -1.1481559377826138 -1.3594761322887552 0.0 1.5707963267948966 0.0 0.2743434418098265 0.1828956278732176 0.0914478139366088 0.0 0.0 0.0 0.0 0.0 0.0 0.0 0.0 0.0 136.88969737481744 -38.804984503306315 617.7057415852673 -0.865320841027746 0.4378325555632472 -0.8653208410277458 
2.456 0.636155331052903 -1.146692772759628 -1.3587445497772623 0.0 1.5707963267948966 0.0 0.2743434418098265 0.1828956278732176 0.0914478139366088 0.0 0.0 0.0 0.0 0.0 0.0 0.0 0.0 0.0 136.28267947684384 -39.015446826329104 617.9696411440756 -0.8636413588499147 0.4357930657728678 -0.8636413588499147 
2.464 0.6383500785873816 -1.1452296077366424 -1.3580129672657695 0.0 1.5707963267948966 0.0 0.2743434418098265 0.1828956278732176 0.0914478139366088 0.0 0.0 0.0 0.0 0.0 0.0 0.0 0.0 0.0 135.67669824660243 -39.22916610462288 618.2318899439399 -0.8619593021475985 0.4337582218439843 -0.8619593021475985 
2.472 0.6405448261218603 -1.1437664427136567 -1.3572813847542766 0.0 1.5707963267948966 0.0 0.2743434418098265 0.1828956278732176 0.0914478139366088 0.0 0.0 0.0 0.0 0.0 0.0 0.0 0.0 0.0 135.07176857803682 -39.446138039577626 618.4924863284128 -0.8602746784389067 0.43172802546032735 -0.8602746784389064 
2.48 0.6427395736563388 -1.142303277690671 -1.3565498022427838 0.0 1.5707963267948966 0.0 0.2743434418098265 0.1828956278732176 0.0914478139366088 0.0 0.0 0.0 0.0 0.0 0.0 0.0 0.0 0.0 134.46790534830168 -39.66635826709688 618.7514286477344 -0.8585874952321655 0.42970247829262964 -0.8585874952321653 
2.488 0.6449343211908175 -1.140840112667685 -1.355818219731291 0.0 1.5707963267948966 0.0 0.2743434418098265 0.1828956278732176 0.0914478139366088 0.0 0.0 0.0 0.0 0.0 0.0 0.0 0.0 0.0 133.86512341747823 -39.8898223576615 619.0087152588421 -0.8568977600259325 0.4276815819987011 -0.8568977600259323 
2.496 0.6471290687252961 -1.1393769476446993 -1.355086637219798 0.0 1.5707963267948966 0.0 0.2743434418098265 0.1828956278732176 0.0914478139366088 0.0 0.0 0.0 0.0 0.0 0.0 0.0 0.0 0.0 133.2634376282906 -40.11652581639433 619.2643445253789 -0.8552054803090091 0.4256653382235029 -0.8552054803090089 
2.504 0.6493238162597746 -1.1379137826217136 -1.354355054708305 0.0 1.5707963267948966 0.0 0.2743434418098265 0.1828956278732176 0.0914478139366088 0.0 0.0 0.0 0.0 0.0 0.0 0.0 0.0 0.0 132.66286280582136 -40.34646408312684 619.5183148177023 -0.853510663560452 0.4236537485992197 -0.853510663560452 
2.512 0.6515185637942533 -1.136450617598728 -1.3536234721968121 0.0 1.5707963267948966 0.0 0.2743434418098265 0.1828956278732176 0.0914478139366088 0.0 0.0 0.0 0.0 0.0 0.0 0.0 0.0 0.0 132.06341375722855 -40.57963253246656 619.7706245128926 -0.8518133172495886 0.42164681474533555 -0.8518133172495886 
2.52 0.6537133113287319 -1.1349874525757422 -1.3528918896853193 0.0 1.5707963267948966 0.0 0.2743434418098265 0.1828956278732176 0.0914478139366088 0.0 0.0 0.0 0.0 0.0 0.0 0.0 0.0 0.0 131.46510527146205 -40.816026473865534 620.0212719947627 -0.8501134488360275 0.4196445382687047 -0.8501134488360275 
2.528 0.6559080588632106 -1.1335242875527562 -1.3521603071738264 0.0 1.5707963267948966 0.0 0.2743434418098265 0.1828956278732176 0.0914478139366088 0.0 0.0 0.0 0.0 0.0 0.0 0.0 0.0 0.0 130.8679521189805 -41.05564115169058 620.2702556538653 -0.8484110657696741 0.4176469207636252 -0.8484110657696743 
2.536 0.6581028063976891 -1.1320611225297705 -1.3514287246623335 0.0 1.5707963267948966 0.0 0.2743434418098265 0.1828956278732176 0.0914478139366088 0.0 0.0 0.0 0.0 0.0 0.0 0.0 0.0 0.0 130.27196905146872 -41.29847174529418 620.5175738875026 -0.8467061754907429 0.41565396381191255 -0.846706175490743 
2.544 0.6602975539321678 -1.1305979575067848 -1.3506971421508407 0.0 1.5707963267948966 0.0 0.2743434418098265 0.1828956278732176 0.0914478139366088 0.0 0.0 0.0 0.0 0.0 0.0 0.0 0.0 0.0 129.67717080155492 -41.54451336908697 620.7632250997341 -0.8449987854297709 0.41366566898296975 -0.8449987854297708 
2.552 0.6624923014666464 -1.129134792483799 -1.3499655596393478 0.0 1.5707963267948966 0.0 0.2743434418098265 0.1828956278732176 0.0914478139366088 0.0 0.0 0.0 0.0 0.0 0.0 0.0 0.0 0.0 129.08357208252863 -41.79376107261159 621.0072077013855 -0.8432889030076319 0.41168203783386154 -0.8432889030076319 
2.56 0.664687049001125 -1.1276716274608134 -1.349233977127855 0.0 1.5707963267948966 0.0 0.2743434418098265 0.1828956278732176 0.0914478139366088 0.0 0.0 0.0 0.0 0.0 0.0 0.0 0.0 0.0 128.4911875880588 -42.046209840617045 621.2495201100576 -0.8415765356355498 0.4097030719093843 -0.8415765356355498 
2.568 0.6668817965356036 -1.1262084624378277 -1.3485023946163621 0.0 1.5707963267948966 0.0 0.2743434418098265 0.1828956278732176 0.0914478139366088 0.0 0.0 0.0 0.0 0.0 0.0 0.0 0.0 0.0 127.90003199191176 -42.301854593134976 621.4901607501342 -0.8398616907151125 0.4077287727421386 -0.8398616907151125 
2.576 0.6690765440700822 -1.124745297414842 -1.3477708121048693 0.0 1.5707963267948966 0.0 0.2743434418098265 0.1828956278732176 0.0914478139366088 0.0 0.0 0.0 0.0 0.0 0.0 0.0 0.0 0.0 127.31011994767047 -42.560690185557014 621.7291280527913 -0.838144375638287 0.4057591418525997 -0.8381443756382868 
2.584 0.6712712916045609 -1.1232821323918563 -1.3470392295933764 0.0 1.5707963267948966 0.0 0.2743434418098265 0.1828956278732176 0.0914478139366088 0.0 0.0 0.0 0.0 0.0 0.0 0.0 0.0 0.0 126.72146608845253 -42.82271140871331 621.966420456004 -0.8364245977874313 0.4037941807491885 -0.8364245977874311 
2.592 0.6734660391390395 -1.1218189673688705 -1.3463076470818836 0.0 1.5707963267948966 0.0 0.2743434418098265 0.1828956278732176 0.0914478139366088 0.0 0.0 0.0 0.0 0.0 0.0 0.0 0.0 0.0 126.13408502663032 -43.08791298895183 622.202036404557 -0.8347023645353111 0.4018338909283424 -0.8347023645353109 
2.6 0.675660786673518 -1.1203558023458848 -1.3455760645703907 0.0 1.5707963267948966 0.0 0.2743434418098265 0.1828956278732176 0.0914478139366088 0.0 0.0 0.0 0.0 0.0 0.0 0.0 0.0 0.0 125.54799135355009 -43.35628958821979 622.4359743500512 -0.8329776832451128 0.3998782738745852 -0.8329776832451125 
2.608 0.6778555342079967 -1.118892637322899 -1.3448444820588978 0.0 1.5707963267948966 0.0 0.2743434418098265 0.1828956278732176 0.0914478139366088 0.0 0.0 0.0 0.0 0.0 0.0 0.0 0.0 0.0 124.9631996392515 -43.62783580414558 622.6682327509131 -0.831250561270458 0.3979273310605972 -0.8312505612704578 
2.616 0.6800502817424753 -1.1174294722999132 -1.344112899547405 0.0 1.5707963267948966 0.0 0.2743434418098265 0.1828956278732176 0.0914478139366088 0.0 0.0 0.0 0.0 0.0 0.0 0.0 0.0 0.0 124.37972443218848 -43.90254617012185 622.8988100724027 -0.8295210059554197 0.39598106394728505 -0.8295210059554194 
2.624 0.682245029276954 -1.1159663072769275 -1.3433813170359121 0.0 1.5707963267948966 0.0 0.2743434418098265 0.1828956278732176 0.0914478139366088 0.0 0.0 0.0 0.0 0.0 0.0 0.0 0.0 0.0 123.7975802589491 -44.18041515539053 623.1277047866221 -0.8277890246345336 0.3940394739838505 -0.8277890246345333 
2.632 0.6844397768114325 -1.1145031422539418 -1.3426497345244193 0.0 1.5707963267948966 0.0 0.2743434418098265 0.1828956278732176 0.0914478139366088 0.0 0.0 0.0 0.0 0.0 0.0 0.0 0.0 0.0 123.21678162397652 -44.461437165128295 623.3549153725227 -0.8260546246328179 0.39210256260786097 -0.8260546246328176 
