Fleaurent/UniversalRobot/csv/robolib_movej_Trapez.csv
timestamp target_q_0 target_q_1 target_q_2 target_q_3 target_q_4 target_q_5 target_qd_0 target_qd_1 target_qd_2 target_qd_3 target_qd_4 target_qd_5 target_qdd_0 target_qdd_1 target_qdd_2 target_qdd_3 target_qdd_4 target_qdd_5 actual_TCP_pose_0 actual_TCP_pose_1 actual_TCP_pose_2 actual_TCP_pose_3 actual_TCP_pose_4 actual_TCP_pose_5
0.0 0.0 -1.5707963267948966 -1.5707963267948966 0.0 1.5707963267948966 0.0 0.0 0.0 0.0 0.0 0.0 0.0 1.0 0.0 0.0 0.0 0.0 0.0 295.15 -112.34999999999998 480.9 -1.2091995761561454 1.2091995761561456 -1.2091995761561458 
0.008 3.2e-05 -1.5707963267948966 -1.5707963267948966 0.0 1.5707963267948966 0.0 0.008 0.0 0.0 0.0 0.0 0.0 1.0 0.0 0.0 0.0 0.0 0.0 295.1535950488826 -112.34055514247841 480.9 -1.2092147055764364 1.2091760113249628 -1.209176011324963 
0.016 0.000128 -1.5707963267948966 -1.5707963267948966 0.0 1.5707963267948966 0.0 0.016 0.0 0.0 0.0 0.0 0.0 1.0 0.0 0.0 0.0 0.0 0.0 295.1643783820919 -112.31221987973194 480.9 -1.2092600917893326 1.209105316402997 -1.2091053164029972 
0.024 0.000288 -1.5707963267948966 -1.5707963267948966 0.0 1.5707963267948966 0.0 0.024 0.0 0.0 0.0 0.0 0.0 1.0 0.0 0.0 0.0 0.0 0.0 295.182344559092 -112.2649921417959 480.9 -1.2093357286510245 1.2089874901051165 -1.2089874901051167 
0.032 0.000512 -1.5707963267948966 -1.5707963267948966 0.0 1.5707963267948966 0.0 0.032 0.0 0.0 0.0 0.0 0.0 1.0 0.0 0.0 0.0 0.0 0.0 295.2074845115868 -112.19886848066349 480.9 -1.2094416059222521 1.2088225302898576 -1.2088225302898579 
0.04 0.0008 -1.5707963267948966 -1.5707963267948966 0.0 1.5707963267948966 0.0 0.04 0.0 0.0 0.0 0.0 0.0 1.0 0.0 0.0 0.0 0.0 0.0 295.23978554241785 -112.11384407318803 480.9 -1.209577709268942 1.2086104339600623 -1.2086104339600627 
0.048 0.001152 -1.5707963267948966 -1.5707963267948966 0.0 1.5707963267948966 0.0 0.048 0.0 0.0 0.0 0.0 0.0 1.0 0.0 0.0 0.0 0.0 0.0 295.2792313240216 -112.00991272514642 480.9 -1.2097440202630958 1.2083511972637653 -1.2083511972637655 
0.056 0.0015680000000000002 -1.5707963267948966 -1.5707963267948966 0.0 1.5707963267948966 0.0 0.056 0.0 0.0 0.0 0.0 0.0 1.0 0.0 0.0 0.0 0.0 0.0 295.32580189645034 -111.88706687646494 480.9 -1.2099405163839287 1.208044815495334 -1.2080448154953343 
0.064 0.002048 -1.5707963267948966 -1.5707963267948966 0.0 1.5707963267948966 0.0 0.064 0.0 0.0 0.0 0.0 0.0 1.0 0.0 0.0 0.0 0.0 0.0 295.379473664957 -111.74529760760825 480.9 -1.21016717101927 1.2076912830968698 -1.20769128309687 
0.072 0.0025920000000000006 -1.5707963267948966 -1.5707963267948966 0.0 1.5707963267948966 0.0 0.07200000000000001 0.0 0.0 0.0 0.0 0.0 1.0 0.0 0.0 0.0 0.0 0.0 295.4402193971484 -111.58459464713222 480.9 -1.2104239534672074 1.2072905936598501 -1.2072905936598504 
0.08 0.0032 -1.5707963267948966 -1.5707963267948966 0.0 1.5707963267948966 0.0 0.08 0.0 0.0 0.0 0.0 0.0 1.0 0.0 0.0 0.0 0.0 0.0 295.50800821970904 -111.40494638040256 480.9 -1.2107108289379842 1.2068427399270305 -1.206842739927031 
0.088 0.0038719999999999996 -1.5707963267948966 -1.5707963267948966 0.0 1.5707963267948966 0.0 0.088 0.0 0.0 0.0 0.0 0.0 1.0 0.0 0.0 0.0 0.0 0.0 295.5828056147004 -111.20633985948024 480.9 -1.2110277585561553 1.206347713794597 -1.2063477137945973 
0.096 0.004608 -1.5707963267948966 -1.5707963267948966 0.0 1.5707963267948966 0.0 0.096 0.0 0.0 0.0 0.0 0.0 1.0 0.0 0.0 0.0 0.0 0.0 295.6645734154394 -110.98876081417534 480.9 -1.2113746993629853 1.2058055063145694 -1.2058055063145698 
0.104 0.005408000000000001 -1.5707963267948966 -1.5707963267948966 0.0 1.5707963267948966 0.0 0.10400000000000001 0.0 0.0 0.0 0.0 0.0 1.0 0.0 0.0 0.0 0.0 0.0 295.75326980196127 -110.75219366427145 480.9 -1.211751604319099 1.2052161076974512 -1.2052161076974515 
0.112 0.006272000000000001 -1.5707963267948966 -1.5707963267948966 0.0 1.5707963267948966 0.0 0.112 0.0 0.0 0.0 0.0 0.0 1.0 0.0 0.0 0.0 0.0 0.0 295.8488492960722 -110.49662153292248 480.9 -1.212158422307384 1.204579507315135 -1.2045795073151353 
0.12 0.0072 -1.5707963267948966 -1.5707963267948966 0.0 1.5707963267948966 0.0 0.12 0.0 0.0 0.0 0.0 0.0 1.0 0.0 0.0 0.0 0.0 0.0 295.95126275599847 -110.22202626122389 480.9 -1.212595098136135 1.203895693704051 -1.2038956937040513 
0.128 0.008192 -1.5707963267948966 -1.5707963267948966 0.0 1.5707963267948966 0.0 0.128 0.0 0.0 0.0 0.0 0.0 1.0 0.0 0.0 0.0 0.0 0.0 296.06045737063687 -109.92838842396122 480.9 -1.2130615725424498 1.2031646545685644 -1.2031646545685646 
0.136 0.009248000000000001 -1.5707963267948966 -1.5707963267948966 0.0 1.5707963267948966 0.0 0.136 0.0 0.0 0.0 0.0 0.0 1.0 0.0 0.0 0.0 0.0 0.0 296.17637665341584 -109.61568734653784 480.9 -1.2135577821958687 1.202386376784623 -1.2023863767846232 
0.144 0.010368000000000002 -1.5707963267948966 -1.5707963267948966 0.0 1.5707963267948966 0.0 0.14400000000000002 0.0 0.0 0.0 0.0 0.0 1.0 0.0 0.0 0.0 0.0 0.0 296.2989604357729 -109.28390112308516 480.9 -1.2140836597022584 1.201560846403644 -1.2015608464036442 
0.152 0.011552 -1.5707963267948966 -1.5707963267948966 0.0 1.5707963267948966 0.0 0.152 0.0 0.0 0.0 0.0 0.0 1.0 0.0 0.0 0.0 0.0 0.0 296.4281448602577 -108.93300663575795 480.9 -1.2146391336079376 1.2006880486566487 -1.200688048656649 
0.16 0.0128 -1.5707963267948966 -1.5707963267948966 0.0 1.5707963267948966 0.0 0.16 0.0 0.0 0.0 0.0 0.0 1.0 0.0 0.0 0.0 0.0 0.0 296.5638623732683 -108.56297957521768 480.9 -1.2152241284040484 1.1997679679586404 -1.1997679679586406 
0.168 0.014112000000000001 -1.5707963267948966 -1.5707963267948966 0.0 1.5707963267948966 0.0 0.168 0.0 0.0 0.0 0.0 0.0 1.0 0.0 0.0 0.0 0.0 0.0 296.70604171743196 -108.1737944623074 480.9 -1.2158385645311605 1.1988005879132215 -1.1988005879132217 
0.176 0.015487999999999998 -1.5707963267948966 -1.5707963267948966 0.0 1.5707963267948966 0.0 0.176 0.0 0.0 0.0 0.0 0.0 1.0 0.0 0.0 0.0 0.0 0.0 296.8546079236366 -107.7654246709212 480.9 -1.21648235838412 1.1977858913174522 -1.1977858913174524 
0.184 0.016928 -1.5707963267948966 -1.5707963267948966 0.0 1.5707963267948966 0.0 0.184 0.0 0.0 0.0 0.0 0.0 1.0 0.0 0.0 0.0 0.0 0.0 297.0094823027274 -107.33784245207201 480.9 -1.2171554223171324 1.1967238601669474 -1.1967238601669477 
0.192 0.018432 -1.5707963267948966 -1.5707963267948966 0.0 1.5707963267948966 0.0 0.192 0.0 0.0 0.0 0.0 0.0 1.0 0.0 0.0 0.0 0.0 0.0 297.1705824368763 -106.891018959161 480.9 -1.217857664649078 1.195614475661211 -1.1956144756612113 
0.2 0.020000000000000004 -1.5707963267948966 -1.5707963267948966 0.0 1.5707963267948966 0.0 0.2 0.0 0.0 0.0 0.0 0.0 1.0 0.0 0.0 0.0 0.0 0.0 297.3378221706364 -106.42492427445274 480.9 -1.2185889896690676 1.194457718209207 -1.1944577182092075 
0.208 0.021632000000000005 -1.5707963267948966 -1.5707963267948966 0.0 1.5707963267948966 0.0 0.20800000000000002 0.0 0.0 0.0 0.0 0.0 1.0 0.0 0.0 0.0 0.0 0.0 297.51111160169467 -105.93952743675972 480.9 -1.2193492976422196 1.1932535674351608 -1.193253567435161 
0.216 0.023327999999999998 -1.5707963267948966 -1.5707963267948966 0.0 1.5707963267948966 0.0 0.216 0.0 0.0 0.0 0.0 0.0 1.0 0.0 0.0 0.0 0.0 0.0 297.69035707133327 -105.4347964703403 480.9 -1.2201384848156724 1.192002002184595 -1.1920020021845952 
0.224 0.025088000000000003 -1.5707963267948966 -1.5707963267948966 0.0 1.5707963267948966 0.0 0.224 0.0 0.0 0.0 0.0 0.0 1.0 0.0 0.0 0.0 0.0 0.0 297.8754611546139 -104.91069841501428 480.9 -1.2209564434248221 1.1907030005305959 -1.190703000530596 
0.232 0.026912000000000002 -1.5707963267948966 -1.5707963267948966 0.0 1.5707963267948966 0.0 0.232 0.0 0.0 0.0 0.0 0.0 1.0 0.0 0.0 0.0 0.0 0.0 298.0663226502984 -104.36719935750016 480.9 -1.2218030616997861 1.1893565397803083 -1.1893565397803085 
0.24 0.0288 -1.5707963267948966 -1.5707963267948966 0.0 1.5707963267948966 0.0 0.24 0.0 0.0 0.0 0.0 0.0 1.0 0.0 0.0 0.0 0.0 0.0 298.2628365705195 -103.80426446397853 480.9 -1.2226782238720857 1.187962596481655 -1.1879625964816551 
0.248 0.030751999999999998 -1.5707963267948966 -1.5707963267948966 0.0 1.5707963267948966 0.0 0.248 0.0 0.0 0.0 0.0 0.0 1.0 0.0 0.0 0.0 0.0 0.0 298.46489413021624 -103.2218580138858 480.9 -1.2235818101815525 1.1865211464302812 -1.1865211464302814 
0.256 0.032768 -1.5707963267948966 -1.5707963267948966 0.0 1.5707963267948966 0.0 0.256 0.0 0.0 0.0 0.0 0.0 1.0 0.0 0.0 0.0 0.0 0.0 298.6723827363506 -102.61994343494302 480.9 -1.2245136968834491 1.1850321646767241 -1.1850321646767243 
0.264 0.034848000000000004 -1.5707963267948966 -1.5707963267948966 0.0 1.5707963267948966 0.0 0.264 0.0 0.0 0.0 0.0 0.0 1.0 0.0 0.0 0.0 0.0 0.0 298.8851859769186 -101.99848333942413 480.9 -1.2254737562558078 1.1834956255337983 -1.1834956255337985 
0.272 0.036992000000000004 -1.5707963267948966 -1.5707963267948966 0.0 1.5707963267948966 0.0 0.272 0.0 0.0 0.0 0.0 0.0 1.0 0.0 0.0 0.0 0.0 0.0 299.10318360977504 -101.35743956166809 480.9 -1.2264618566069785 1.1819115025842022 -1.1819115025842024 
0.28 0.039200000000000006 -1.5707963267948966 -1.5707963267948966 0.0 1.5707963267948966 0.0 0.28 0.0 0.0 0.0 0.0 0.0 1.0 0.0 0.0 0.0 0.0 0.0 299.32625155128665 -100.69677319684001 480.9 -1.227477862283392 1.180279768688341 -1.1802797686883413 
0.288 0.04147200000000001 -1.5707963267948966 -1.5707963267948966 0.0 1.5707963267948966 0.0 0.28800000000000003 0.0 0.0 0.0 0.0 0.0 1.0 0.0 0.0 0.0 0.0 0.0 299.5542618648326 -100.01644464094551 480.9 -1.228521633677521 1.1786003959923594 -1.1786003959923597 
0.296 0.04380799999999999 -1.5707963267948966 -1.5707963267948966 0.0 1.5707963267948966 0.0 0.296 0.0 0.0 0.0 0.0 0.0 1.0 0.0 0.0 0.0 0.0 0.0 299.78708274916875 -99.3164136321033 480.9 -1.229593027236055 1.1768733559363898 -1.17687335593639 
0.304 0.046208 -1.5707963267948966 -1.5707963267948966 0.0 1.5707963267948966 0.0 0.304 0.0 0.0 0.0 0.0 0.0 1.0 0.0 0.0 0.0 0.0 0.0 300.0245785266769 -98.59663929308057 480.9 -1.230691895468271 1.1750986192630084 -1.1750986192630086 
0.312 0.048672 -1.5707963267948966 -1.5707963267948966 0.0 1.5707963267948966 0.0 0.312 0.0 0.0 0.0 0.0 0.0 1.0 0.0 0.0 0.0 0.0 0.0 300.26660963151534 -97.85708017509612 480.9 -1.2318180869546018 1.1732761560258933 -1.1732761560258935 
0.32 0.0512 -1.5707963267948966 -1.5707963267948966 0.0 1.5707963267948966 0.0 0.32 0.0 0.0 0.0 0.0 0.0 1.0 0.0 0.0 0.0 0.0 0.0 300.51303259769185 -97.09769430289576 480.9 -1.2329714463554022 1.1714059355986934 -1.1714059355986937 
0.328 0.053792000000000006 -1.5707963267948966 -1.5707963267948966 0.0 1.5707963267948966 0.0 0.328 0.0 0.0 0.0 0.0 0.0 1.0 0.0 0.0 0.0 0.0 0.0 300.76370004708065 -96.31843922110498 480.9 -1.2341518144199064 1.1694879266840952 -1.1694879266840954 
0.336 0.056448000000000005 -1.5707963267948966 -1.5707963267948966 0.0 1.5707963267948966 0.0 0.336 0.0 0.0 0.0 0.0 0.0 1.0 0.0 0.0 0.0 0.0 0.0 301.0184606774018 -95.51927204186333 480.9 -1.2353590279953721 1.1675220973230866 -1.1675220973230869 
0.344 0.05916800000000001 -1.5707963267948966 -1.5707963267948966 0.0 1.5707963267948966 0.0 0.34400000000000003 0.0 0.0 0.0 0.0 0.0 1.0 0.0 0.0 0.0 0.0 0.0 301.2771592501865 -94.7001494937454 480.9 -1.2365929200364143 1.1655084149044206 -1.1655084149044208 
0.352 0.06195199999999999 -1.5707963267948966 -1.5707963267948966 0.0 1.5707963267948966 0.0 0.352 0.0 0.0 0.0 0.0 0.0 1.0 0.0 0.0 0.0 0.0 0.0 301.5396365787498 -93.86102797197294 480.9 -1.2378533196145127 1.163446846174269 -1.1634468461742693 
0.36 0.0648 -1.5707963267948966 -1.5707963267948966 0.0 1.5707963267948966 0.0 0.36 0.0 0.0 0.0 0.0 0.0 1.0 0.0 0.0 0.0 0.0 0.0 301.8057295161929 -93.00186358992268 480.9 -1.2391400519277098 1.1613373572460712 -1.1613373572460715 
0.368 0.067712 -1.5707963267948966 -1.5707963267948966 0.0 1.5707963267948966 0.0 0.368 0.0 0.0 0.0 0.0 0.0 1.0 0.0 0.0 0.0 0.0 0.0 302.0752709434597 -92.12261223193445 480.9 -1.240452938310473 1.159179913610567 -1.1591799136105674 
0.376 0.070688 -1.5707963267948966 -1.5707963267948966 0.0 1.5707963267948966 0.0 0.376 0.0 0.0 0.0 0.0 0.0 1.0 0.0 0.0 0.0 0.0 0.0 302.3480897574701 -91.22322960742385 480.9 -1.2417917962437328 1.1569744801460164 -1.156974480146017 
0.384 0.073728 -1.5707963267948966 -1.5707963267948966 0.0 1.5707963267948966 0.0 0.384 0.0 0.0 0.0 0.0 0.0 1.0 0.0 0.0 0.0 0.0 0.0 302.62401085935505 -90.30367130630366 480.9 -1.2431564393650893 1.1547210211286019 -1.154721021128602 
0.392 0.07683200000000001 -1.5707963267948966 -1.5707963267948966 0.0 1.5707963267948966 0.0 0.392 0.0 0.0 0.0 0.0 0.0 1.0 0.0 0.0 0.0 0.0 0.0 302.902855142819 -89.36389285571877 480.9 -1.244546677479181 1.1524195002430102 -1.1524195002430104 
0.4 0.08000000000000002 -1.5707963267948966 -1.5707963267948966 0.0 1.5707963267948966 0.0 0.4 0.0 0.0 0.0 0.0 0.0 1.0 0.0 0.0 0.0 0.0 0.0 303.1844394826546 -88.40384977809795 480.9 -1.245962316568212 1.1500698805931906 -1.1500698805931908 
0.408 0.08323200000000001 -1.5707963267948966 -1.5707963267948966 0.0 1.5707963267948966 0.0 0.40800000000000003 0.0 0.0 0.0 0.0 0.0 1.0 0.0 0.0 0.0 0.0 0.0 303.4685767234366 -87.42349765052661 480.9 -1.247403158802641 1.1476721247132875 -1.1476721247132877 
0.416 0.08652800000000002 -1.5707963267948966 -1.5707963267948966 0.0 1.5707963267948966 0.0 0.41600000000000004 0.0 0.0 0.0 0.0 0.0 1.0 0.0 0.0 0.0 0.0 0.0 303.7550756684213 -86.42279216544465 480.9 -1.2488690025520166 1.145226194578745 -1.1452261945787452 
0.424 0.089888 -1.5707963267948966 -1.5707963267948966 0.0 1.5707963267948966 0.0 0.424 0.0 0.0 0.0 0.0 0.0 1.0 0.0 0.0 0.0 0.0 0.0 304.04374106867937 -85.40168919267246 480.9 -1.2503596423959624 1.1427320516175752 -1.1427320516175754 
0.432 0.09331199999999999 -1.5707963267948966 -1.5707963267948966 0.0 1.5707963267948966 0.0 0.432 0.0 0.0 0.0 0.0 0.0 1.0 0.0 0.0 0.0 0.0 0.0 304.3343736124907 -84.36014484276872 480.9 -1.2518748691353065 1.140189656721796 -1.1401896567217962 
0.44 0.0968 -1.5707963267948966 -1.5707963267948966 0.0 1.5707963267948966 0.0 0.44 0.0 0.0 0.0 0.0 0.0 1.0 0.0 0.0 0.0 0.0 0.0 304.6267699150285 -83.29811553172306 480.9 -1.2534144698033538 1.1375989702590303 -1.1375989702590306 
0.448 0.10035200000000001 -1.5707963267948966 -1.5707963267948966 0.0 1.5707963267948966 0.0 0.448 0.0 0.0 0.0 0.0 0.0 1.0 0.0 0.0 0.0 0.0 0.0 304.9207225083637 -82.21555804698657 480.9 -1.254978227677287 1.1349599520842613 -1.1349599520842617 
0.456 0.103968 -1.5707963267948966 -1.5707963267948966 0.0 1.5707963267948966 0.0 0.456 0.0 0.0 0.0 0.0 0.0 1.0 0.0 0.0 0.0 0.0 0.0 305.21601983181864 -81.11242961484298 480.9 -1.256565922289704 1.132272561551745 -1.1322725615517453 
0.464 0.10764800000000001 -1.5707963267948966 -1.5707963267948966 0.0 1.5707963267948966 0.0 0.464 0.0 0.0 0.0 0.0 0.0 1.0 0.0 0.0 0.0 0.0 0.0 305.5124462227003 -79.9886879691225 480.9 -1.2581773294402823 1.129536757527078 -1.1295367575270783 
0.472 0.11139200000000002 -1.5707963267948966 -1.5707963267948966 0.0 1.5707963267948966 0.0 0.47200000000000003 0.0 0.0 0.0 0.0 0.0 1.0 0.0 0.0 0.0 0.0 0.0 305.8097819074453 -78.84429142126089 480.9 -1.2598122212075618 1.1267524983994113 -1.1267524983994115 
0.48 0.1152 -1.5707963267948966 -1.5707963267948966 0.0 1.5707963267948966 0.0 0.48 0.0 0.0 0.0 0.0 0.0 1.0 0.0 0.0 0.0 0.0 0.0 306.1078029932077 -77.67919893170574 480.9 -1.2614703659608488 1.1239197420938114 -1.1239197420938116 
0.488 0.119072 -1.5707963267948966 -1.5707963267948966 0.0 1.5707963267948966 0.0 0.488 0.0 0.0 0.0 0.0 0.0 1.0 0.0 0.0 0.0 0.0 0.0 306.4062814599219 -76.49337018267077 480.9 -1.2631515283722325 1.1210384460837686 -1.1210384460837688 
0.496 0.12300799999999999 -1.5707963267948966 -1.5707963267948966 0.0 1.5707963267948966 0.0 0.496 0.0 0.0 0.0 0.0 0.0 1.0 0.0 0.0 0.0 0.0 0.0 306.704985152874 -75.28676565224029 480.9 -1.26485546942871 1.1181085674038405 -1.1181085674038407 
0.504 0.127008 -1.5707963267948966 -1.5707963267948966 0.0 1.5707963267948966 0.0 0.504 0.0 0.0 0.0 0.0 0.0 1.0 0.0 0.0 0.0 0.0 0.0 307.00367777581505 -74.05934668982387 480.9 -1.2665819464444141 1.1151300626624359 -1.1151300626624363 
0.512 0.131072 -1.5707963267948966 -1.5707963267948966 0.0 1.5707963267948966 0.0 0.512 0.0 0.0 0.0 0.0 0.0 1.0 0.0 0.0 0.0 0.0 0.0 307.3021188846506 -72.81107559296223 480.9 -1.268330713072941 1.1121028880547332 -1.1121028880547335 
0.52 0.13520000000000001 -1.5707963267948966 -1.5707963267948966 0.0 1.5707963267948966 0.0 0.52 0.0 0.0 0.0 0.0 0.0 1.0 0.0 0.0 0.0 0.0 0.0 307.6000638817408 -71.54191568548418 480.9 -1.2701015193197747 1.1090269993757274 -1.1090269993757278 
0.528 0.13939200000000002 -1.5707963267948966 -1.5707963267948966 0.0 1.5707963267948966 0.0 0.528 0.0 0.0 0.0 0.0 0.0 1.0 0.0 0.0 0.0 0.0 0.0 307.8972640108474 -70.25183139701446 480.9 -1.271894111554794 1.1059023520334073 -1.1059023520334075 
0.536 0.14364800000000003 -1.5707963267948966 -1.5707963267948966 0.0 1.5707963267948966 0.0 0.536 0.0 0.0 0.0 0.0 0.0 1.0 0.0 0.0 0.0 0.0 0.0 308.193466352762 -68.94078834383129 480.9 -1.2737082325248719 1.1027289010620551 -1.1027289010620553 
0.544 0.14796800000000002 -1.5707963267948966 -1.5707963267948966 0.0 1.5707963267948966 0.0 0.544 0.0 0.0 0.0 0.0 0.0 1.0 0.0 0.0 0.0 0.0 0.0 308.48841382165506 -67.60875341107318 480.9 -1.2755436213665516 1.0995066011356742 -1.0995066011356744 
0.552 0.15235200000000002 -1.5707963267948966 -1.5707963267948966 0.0 1.5707963267948966 0.0 0.552 0.0 0.0 0.0 0.0 0.0 1.0 0.0 0.0 0.0 0.0 0.0 308.7818451621793 -66.25569483629245 480.9 -1.2774000136187915 1.0962354065815236 -1.0962354065815239 
0.56 0.15680000000000002 -1.5707963267948966 -1.5707963267948966 0.0 1.5707963267948966 0.0 0.56 0.0 0.0 0.0 0.0 0.0 1.0 0.0 0.0 0.0 0.0 0.0 309.07349494736843 -64.88158229435392 480.9 -1.2792771412357875 1.0929152713937798 -1.09291527139378 
0.568 0.16131200000000004 -1.5707963267948966 -1.5707963267948966 0.0 1.5707963267948966 0.0 0.5680000000000001 0.0 0.0 0.0 0.0 0.0 1.0 0.0 0.0 0.0 0.0 0.0 309.36309357736735 -63.48638698367569 480.9 -1.2811747325998544 1.089546149247304 -1.0895461492473042 
0.576 0.16588800000000004 -1.5707963267948966 -1.5707963267948966 0.0 1.5707963267948966 0.0 0.5760000000000001 0.0 0.0 0.0 0.0 0.0 1.0 0.0 0.0 0.0 0.0 0.0 309.65036727903464 -62.07008171380913 480.9 -1.283092512534367 1.086127993511522 -1.0861279935115224 
0.584 0.17052799999999999 -1.5707963267948966 -1.5707963267948966 0.0 1.5707963267948966 0.0 0.584 0.0 0.0 0.0 0.0 0.0 1.0 0.0 0.0 0.0 0.0 0.0 309.9350381064552 -60.63264099435358 480.9 -1.2850302023167552 1.0826607572644071 -1.0826607572644074 
0.592 0.17523199999999997 -1.5707963267948966 -1.5707963267948966 0.0 1.5707963267948966 0.0 0.592 0.0 0.0 0.0 0.0 0.0 1.0 0.0 0.0 0.0 0.0 0.0 310.21682394240463 -59.17404112520218 480.9 -1.2869875196915488 1.0791443933065696 -1.0791443933065699 
0.6 0.18 -1.5707963267948966 -1.5707963267948966 0.0 1.5707963267948966 0.0 0.6 0.0 0.0 0.0 0.0 0.0 1.0 0.0 0.0 0.0 0.0 0.0 310.49543850080534 -57.694260288113426 480.9 -1.2889641788834592 1.0755788541754445 -1.0755788541754447 
0.608 0.184832 -1.5707963267948966 -1.5707963267948966 0.0 1.5707963267948966 0.0 0.608 0.0 0.0 0.0 0.0 0.0 1.0 0.0 0.0 0.0 0.0 0.0 310.7705913302158 -56.19327863960257 480.9 -1.290959890610505 1.0719640921595757 -1.0719640921595759 
0.616 0.189728 -1.5707963267948966 -1.5707963267948966 0.0 1.5707963267948966 0.0 0.616 0.0 0.0 0.0 0.0 0.0 1.0 0.0 0.0 0.0 0.0 0.0 311.04198781839443 -54.67107840514705 480.9 -1.2929743620971663 1.0683000593129957 -1.0683000593129959 
0.624 0.194688 -1.5707963267948966 -1.5707963267948966 0.0 1.5707963267948966 0.0 0.624 0.0 0.0 0.0 0.0 0.0 1.0 0.0 0.0 0.0 0.0 0.0 311.30932919798215 -53.12764397469877 480.9 -1.2950072970875648 1.064586707469696 -1.0645867074696962 
0.632 0.199712 -1.5707963267948966 -1.5707963267948966 0.0 1.5707963267948966 0.0 0.632 0.0 0.0 0.0 0.0 0.0 1.0 0.0 0.0 0.0 0.0 0.0 311.57231255334386 -51.5629619994952 480.9 -1.2970583958586641 1.0608239882581854 -1.0608239882581856 
0.64 0.2048 -1.5707963267948966 -1.5707963267948966 0.0 1.5707963267948966 0.0 0.64 0.0 0.0 0.0 0.0 0.0 1.0 0.0 0.0 0.0 0.0 0.0 311.83063082861486 -49.97702149016153 480.9 -1.299127355233488 1.0570118531161334 -1.0570118531161337 
0.648 0.209952 -1.5707963267948966 -1.5707963267948966 0.0 1.5707963267948966 0.0 0.648 0.0 0.0 0.0 0.0 0.0 1.0 0.0 0.0 0.0 0.0 0.0 312.08397283699526 -48.3698139160942 480.9 -1.3012138685943437 1.0531502533050965 -1.053150253305097 
0.656 0.21516800000000003 -1.5707963267948966 -1.5707963267948966 0.0 1.5707963267948966 0.0 0.656 0.0 0.0 0.0 0.0 0.0 1.0 0.0 0.0 0.0 0.0 0.0 312.3320232713363 -46.741333306116 480.9 -1.3033176258960528 1.0492391399253238 -1.049239139925324 
0.664 0.22044800000000003 -1.5707963267948966 -1.5707963267948966 0.0 1.5707963267948966 0.0 0.664 0.0 0.0 0.0 0.0 0.0 1.0 0.0 0.0 0.0 0.0 0.0 312.57446271606506 -45.09157635039213 480.9 -1.3054383136791738 1.0452784639306374 -1.0452784639306376 
0.672 0.22579200000000002 -1.5707963267948966 -1.5707963267948966 0.0 1.5707963267948966 0.0 0.672 0.0 0.0 0.0 0.0 0.0 1.0 0.0 0.0 0.0 0.0 0.0 312.8109676604921 -43.42054250359524 480.9 -1.307575615083226 1.0412681761433915 -1.0412681761433917 
0.68 0.23120000000000004 -1.5707963267948966 -1.5707963267948966 0.0 1.5707963267948966 0.0 0.68 0.0 0.0 0.0 0.0 0.0 1.0 0.0 0.0 0.0 0.0 0.0 313.0412105135488 -41.72823408930752 480.9 -1.3097292098598872 1.0372082272694958 -1.0372082272694962 
0.688 0.23667200000000005 -1.5707963267948966 -1.5707963267948966 0.0 1.5707963267948966 0.0 0.6880000000000001 0.0 0.0 0.0 0.0 0.0 1.0 0.0 0.0 0.0 0.0 0.0 313.26485961999964 -40.01465640564612 480.9 -1.3118987743861812 1.0330985679135136 -1.0330985679135138 
0.696 0.24220800000000003 -1.5707963267948966 -1.5707963267948966 0.0 1.5707963267948966 0.0 0.6960000000000001 0.0 0.0 0.0 0.0 0.0 1.0 0.0 0.0 0.0 0.0 0.0 313.48157927817925 -38.27981783209776 480.9 -1.3140839816776364 1.0289391485938213 -1.0289391485938215 
0.704 0.24780799999999997 -1.5707963267948966 -1.5707963267948966 0.0 1.5707963267948966 0.0 0.704 0.0 0.0 0.0 0.0 0.0 1.0 0.0 0.0 0.0 0.0 0.0 313.6910297592985 -36.52372993754742 480.9 -1.3162845014014093 1.0247299197578326 -1.0247299197578328 
0.712 0.253472 -1.5707963267948966 -1.5707963267948966 0.0 1.5707963267948966 0.0 0.712 0.0 0.0 0.0 0.0 0.0 1.0 0.0 0.0 0.0 0.0 0.0 313.8928673283695 -34.746407589484825 480.9 -1.3184999998893734 1.0204708317972837 -1.020470831797284 
0.72 0.2592 -1.5707963267948966 -1.5707963267948966 0.0 1.5707963267948966 0.0 0.72 0.0 0.0 0.0 0.0 0.0 1.0 0.0 0.0 0.0 0.0 0.0 314.08674426679806 -32.947869064371886 480.9 -1.3207301401511626 1.0161618350635744 -1.0161618350635746 
0.728 0.264992 -1.5707963267948966 -1.5707963267948966 0.0 1.5707963267948966 0.0 0.728 0.0 0.0 0.0 0.0 0.0 1.0 0.0 0.0 0.0 0.0 0.0 314.27230889669113 -31.128136159152554 480.9 -1.3229745818871645 1.011802879883167 -1.0118028798831673 
0.736 0.270848 -1.5707963267948966 -1.5707963267948966 0.0 1.5707963267948966 0.0 0.736 0.0 0.0 0.0 0.0 0.0 1.0 0.0 0.0 0.0 0.0 0.0 314.4492056069299 -29.287234303886187 480.9 -1.325232981501457 1.0073939165730368 -1.007393916573037 
0.744 0.276768 -1.5707963267948966 -1.5707963267948966 0.0 1.5707963267948966 0.0 0.744 0.0 0.0 0.0 0.0 0.0 1.0 0.0 0.0 0.0 0.0 0.0 314.6170748810569 -27.425192675483903 480.9 -1.3275049921146813 1.0029348954561714 -1.0029348954561716 
0.752 0.282752 -1.5707963267948966 -1.5707963267948966 0.0 1.5707963267948966 0.0 0.752 0.0 0.0 0.0 0.0 0.0 1.0 0.0 0.0 0.0 0.0 0.0 314.7755533270284 -25.54204431252707 480.9 -1.3297902635768493 0.9984257668771235 -0.9984257668771237 
0.76 0.2888 -1.5707963267948966 -1.5707963267948966 0.0 1.5707963267948966 0.0 0.76 0.0 0.0 0.0 0.0 0.0 1.0 0.0 0.0 0.0 0.0 0.0 314.924273708881 -23.637826231144622 480.9 -1.3320884424800694 0.9938664812176029 -0.9938664812176031 
0.768 0.294912 -1.5707963267948966 -1.5707963267948966 0.0 1.5707963267948966 0.0 0.768 0.0 0.0 0.0 0.0 0.0 1.0 0.0 0.0 0.0 0.0 0.0 315.0628649803647 -21.712579541926345 480.9 -1.3343991721711972 0.9892569889121167 -0.9892569889121169 
0.776 0.301088 -1.5707963267948966 -1.5707963267948966 0.0 1.5707963267948966 0.0 0.776 0.0 0.0 0.0 0.0 0.0 1.0 0.0 0.0 0.0 0.0 0.0 315.1909523205919 -19.76634956784679 480.9 -1.3367220927643941 0.9845972404636498 -0.98459724046365 
0.784 0.30732800000000005 -1.5707963267948966 -1.5707963267948966 0.0 1.5707963267948966 0.0 0.784 0.0 0.0 0.0 0.0 0.0 1.0 0.0 0.0 0.0 0.0 0.0 315.3081571717553 -17.799185963174043 480.9 -1.3390568411535937 0.9798871864593842 -0.9798871864593844 
0.792 0.313632 -1.5707963267948966 -1.5707963267948966 0.0 1.5707963267948966 0.0 0.792 0.0 0.0 0.0 0.0 0.0 1.0 0.0 0.0 0.0 0.0 0.0 315.4140972789641 -15.81114283333594 480.9 -1.3414030510248645 0.975126777586456 -0.9751267775864563 
0.8 0.32000000000000006 -1.5707963267948966 -1.5707963267948966 0.0 1.5707963267948966 0.0 0.8 0.0 0.0 0.0 0.0 0.0 0.0 0.0 0.0 0.0 0.0 0.0 315.50838673225326 -13.802278855715038 480.9 -1.3437603528686695 0.9703159646477474 -0.9703159646477476 
0.808 0.3264000000000001 -1.5707963267948966 -1.5707963267948966 0.0 1.5707963267948966 0.0 0.8 0.0 0.0 0.0 0.0 0.0 0.0 0.0 0.0 0.0 0.0 0.0 315.5902591241956 -11.78275629566603 480.9 -1.3461166250400376 0.965478889190115 -0.9654788891901153 
0.816 0.3328000000000001 -1.5707963267948966 -1.5707963267948966 0.0 1.5707963267948966 0.0 0.8 0.0 0.0 0.0 0.0 0.0 0.0 0.0 0.0 0.0 0.0 0.0 315.6592049832469 -9.762751115566477 480.9 -1.3484600024213886 0.9606397346610869 -0.9606397346610871 
0.824 0.33920000000000006 -1.5707963267948966 -1.5707963267948966 0.0 1.5707963267948966 0.0 0.8 0.0 0.0 0.0 0.0 0.0 0.0 0.0 0.0 0.0 0.0 0.0 315.7152214853944 -7.742346054546179 480.9 -1.3507904978479464 0.9557985147721534 -0.9557985147721536 
0.832 0.3456000000000001 -1.5707963267948966 -1.5707963267948966 0.0 1.5707963267948966 0.0 0.8 0.0 0.0 0.0 0.0 0.0 0.0 0.0 0.0 0.0 0.0 0.0 315.75830633621 -5.721623868113934 480.9 -1.3531081240791623 0.9509552431835191 -0.9509552431835194 
0.84 0.352 -1.5707963267948966 -1.5707963267948966 0.0 1.5707963267948966 0.0 0.8 0.0 0.0 0.0 0.0 0.0 0.0 0.0 0.0 0.0 0.0 0.0 315.78845777094415 -3.700667324768034 480.9 -1.3554128937988612 0.946109933504494 -0.9461099335044942 
0.848 0.3584 -1.5707963267948966 -1.5707963267948966 0.0 1.5707963267948966 0.0 0.8 0.0 0.0 0.0 0.0 0.0 0.0 0.0 0.0 0.0 0.0 0.0 315.80567455459845 -1.6795592026058692 480.9 -1.3577048196153765 0.9412625992938795 -0.9412625992938798 
0.856 0.3648 -1.5707963267948966 -1.5707963267948966 0.0 1.5707963267948966 0.0 0.8 0.0 0.0 0.0 0.0 0.0 0.0 0.0 0.0 0.0 0.0 0.0 315.8099559819757 0.34161771406644803 480.9 -1.359983914061698 0.9364132540603576 -0.9364132540603578 
0.864 0.37120000000000003 -1.5707963267948966 -1.5707963267948966 0.0 1.5707963267948966 0.0 0.8 0.0 0.0 0.0 0.0 0.0 0.0 0.0 0.0 0.0 0.0 0.0 315.8013018777093 2.3627806381249172 480.9 -1.362250189595611 0.9315619112628728 -0.931561911262873 
0.872 0.37760000000000005 -1.5707963267948966 -1.5707963267948966 0.0 1.5707963267948966 0.0 0.8 0.0 0.0 0.0 0.0 0.0 0.0 0.0 0.0 0.0 0.0 0.0 315.7797125962702 4.383846783018818 480.9 -1.3645036585998342 0.9267085843110139 -0.926708584311014 
0.88 0.384 -1.5707963267948966 -1.5707963267948966 0.0 1.5707963267948966 0.0 0.8 0.0 0.0 0.0 0.0 0.0 0.0 0.0 0.0 0.0 0.0 0.0 315.7451890219522 6.404733366161359 480.9 -1.3667443333821645 0.921853286565396 -0.9218532865653962 
0.888 0.3904 -1.5707963267948966 -1.5707963267948966 0.0 1.5707963267948966 0.0 0.8 0.0 0.0 0.0 0.0 0.0 0.0 0.0 0.0 0.0 0.0 0.0 315.69773256883633 8.425357612320692 480.9 -1.3689722261756112 0.9169960313380349 -0.9169960313380351 
0.896 0.39680000000000004 -1.5707963267948966 -1.5707963267948966 0.0 1.5707963267948966 0.0 0.8 0.0 0.0 0.0 0.0 0.0 0.0 0.0 0.0 0.0 0.0 0.0 315.63734518073204 10.445636757010167 480.9 -1.3711873491385396 0.9121368318927252 -0.9121368318927254 
0.904 0.40320000000000006 -1.5707963267948966 -1.5707963267948966 0.0 1.5707963267948966 0.0 0.8 0.0 0.0 0.0 0.0 0.0 0.0 0.0 0.0 0.0 0.0 0.0 315.56402933109837 12.465488049878484 480.9 -1.373389714354805 0.9072757014454121 -0.9072757014454123 
0.912 0.4096000000000001 -1.5707963267948966 -1.5707963267948966 0.0 1.5707963267948966 0.0 0.8 0.0 0.0 0.0 0.0 0.0 0.0 0.0 0.0 0.0 0.0 0.0 315.4777880229423 14.484828758099066 480.9 -1.3755793338338944 0.902412653164564 -0.9024126531645642 
0.92 0.41600000000000004 -1.5707963267948966 -1.5707963267948966 0.0 1.5707963267948966 0.0 0.8 0.0 0.0 0.0 0.0 0.0 0.0 0.0 0.0 0.0 0.0 0.0 315.37862478869573 16.50357616975884 480.9 -1.377756219511061 0.8975477001715411 -0.8975477001715413 
0.928 0.42240000000000005 -1.5707963267948966 -1.5707963267948966 0.0 1.5707963267948966 0.0 0.8 0.0 0.0 0.0 0.0 0.0 0.0 0.0 0.0 0.0 0.0 0.0 315.26654369007093 18.52164759724607 480.9 -1.3799203832474607 0.8926808555409622 -0.8926808555409623 
0.936 0.42880000000000007 -1.5707963267948966 -1.5707963267948966 0.0 1.5707963267948966 0.0 0.8 0.0 0.0 0.0 0.0 0.0 0.0 0.0 0.0 0.0 0.0 0.0 315.141549317894 20.538960380637246 480.9 -1.3820718368302891 0.8878121323010714 -0.8878121323010716 
0.944 0.4352000000000001 -1.5707963267948966 -1.5707963267948966 0.0 1.5707963267948966 0.0 0.8 0.0 0.0 0.0 0.0 0.0 0.0 0.0 0.0 0.0 0.0 0.0 315.0036467919169 22.555431891082744 480.9 -1.384210591972919 0.8829415434341005 -0.8829415434341007 
0.952 0.4416000000000001 -1.5707963267948966 -1.5707963267948966 0.0 1.5707963267948966 0.0 0.8 0.0 0.0 0.0 0.0 0.0 0.0 0.0 0.0 0.0 0.0 0.0 314.85284176060776 24.5709795341915 480.9 -1.3863366603150298 0.8780691018766302 -0.8780691018766302 
0.96 0.448 -1.5707963267948966 -1.5707963267948966 0.0 1.5707963267948966 0.0 0.8 0.0 0.0 0.0 0.0 0.0 0.0 0.0 0.0 0.0 0.0 0.0 314.68914040091977 26.585520753413725 480.9 -1.3884500534227466 0.87319482051995 -0.87319482051995 
0.968 0.4544 -1.5707963267948966 -1.5707963267948966 0.0 1.5707963267948966 0.0 0.8 0.0 0.0 0.0 0.0 0.0 0.0 0.0 0.0 0.0 0.0 0.0 314.5125494180376 28.59897303342287 480.9 -1.3905507827887726 0.8683187122104151 -0.8683187122104151 
0.976 0.4608 -1.5707963267948966 -1.5707963267948966 0.0 1.5707963267948966 0.0 0.8 0.0 0.0 0.0 0.0 0.0 0.0 0.0 0.0 0.0 0.0 0.0 314.3230760451032 30.611253903494973 480.9 -1.3926388598325208 0.8634407897498024 -0.8634407897498025 
0.984 0.46720000000000006 -1.5707963267948966 -1.5707963267948966 0.0 1.5707963267948966 0.0 0.8 0.0 0.0 0.0 0.0 0.0 0.0 0.0 0.0 0.0 0.0 0.0 314.12072804291955 32.62228094088696 480.9 -1.3947142959002472 0.8585610658956637 -0.8585610658956638 
0.992 0.4736 -1.5707963267948966 -1.5707963267948966 0.0 1.5707963267948966 0.0 0.8 0.0 0.0 0.0 0.0 0.0 0.0 0.0 0.0 0.0 0.0 0.0 313.9055136996324 34.63197177421252 480.9 -1.3967771022651843 0.8536795533616781 -0.8536795533616782 
1.0 0.48000000000000004 -1.5707963267948966 -1.5707963267948966 0.0 1.5707963267948966 0.0 0.8 0.0 0.0 0.0 0.0 0.0 0.0 0.0 0.0 0.0 0.0 0.0 313.6774418303913 36.6402440868161 480.9 -1.3988272901276688 0.8487962648180005 -0.8487962648180006 
1.008 0.48640000000000005 -1.5707963267948966 -1.5707963267948966 0.0 1.5707963267948966 0.0 0.8 0.0 0.0 0.0 0.0 0.0 0.0 0.0 0.0 0.0 0.0 0.0 313.436521776988 38.64701562014457 480.9 -1.4008648706152758 0.843911212891611 -0.843911212891611 
1.016 0.4928 -1.5707963267948966 -1.5707963267948966 0.0 1.5707963267948966 0.0 0.8 0.0 0.0 0.0 0.0 0.0 0.0 0.0 0.0 0.0 0.0 0.0 313.1827634074743 40.652204177116445 480.9 -1.402889854782946 0.83902441016666 -0.8390244101666601 
1.024 0.4992000000000001 -1.5707963267948966 -1.5707963267948966 0.0 1.5707963267948966 0.0 0.8 0.0 0.0 0.0 0.0 0.0 0.0 0.0 0.0 0.0 0.0 0.0 312.9161771157575 42.655727625488865 480.9 -1.404902253613117 0.8341358691848129 -0.834135869184813 
1.032 0.5056 -1.5707963267948966 -1.5707963267948966 0.0 1.5707963267948966 0.0 0.8 0.0 0.0 0.0 0.0 0.0 0.0 0.0 0.0 0.0 0.0 0.0 312.63677382117476 44.65750390122136 480.9 -1.4069020780158519 0.8292456024455936 -0.8292456024455938 
1.04 0.512 -1.5707963267948966 -1.5707963267948966 0.0 1.5707963267948966 0.0 0.8 0.0 0.0 0.0 0.0 0.0 0.0 0.0 0.0 0.0 0.0 0.0 312.34456496804603 46.657451011837665 480.9 -1.4088893388289647 0.8243536224067229 -0.824353622406723 
1.048 0.5184000000000001 -1.5707963267948966 -1.5707963267948966 0.0 1.5707963267948966 0.0 0.8 0.0 0.0 0.0 0.0 0.0 0.0 0.0 0.0 0.0 0.0 0.0 312.03956252520516 48.65548703978372 480.9 -1.410864046818151 0.8194599414844593 -0.8194599414844594 
1.056 0.5248 -1.5707963267948966 -1.5707963267948966 0.0 1.5707963267948966 0.0 0.8 0.0 0.0 0.0 0.0 0.0 0.0 0.0 0.0 0.0 0.0 0.0 311.72177898550945 50.65153014578312 480.9 -1.4128262126771145 0.814564572053936 -0.8145645720539361 
1.064 0.5312000000000001 -1.5707963267948966 -1.5707963267948966 0.0 1.5707963267948966 0.0 0.8 0.0 0.0 0.0 0.0 0.0 0.0 0.0 0.0 0.0 0.0 0.0 311.3912273653283 52.645498572189375 480.9 -1.41477584702769 0.8096675264494951 -0.8096675264494952 
1.072 0.5376000000000001 -1.5707963267948966 -1.5707963267948966 0.0 1.5707963267948966 0.0 0.8 0.0 0.0 0.0 0.0 0.0 0.0 0.0 0.0 0.0 0.0 0.0 311.04792120400987 54.63731064633442 480.9 -1.4167129604199737 0.804768816965023 -0.8047688169650231 
1.08 0.544 -1.5707963267948966 -1.5707963267948966 0.0 1.5707963267948966 0.0 0.8 0.0 0.0 0.0 0.0 0.0 0.0 0.0 0.0 0.0 0.0 0.0 310.6918745633265 56.62688478387427 480.9 -1.4186375633324433 0.7998684558542805 -0.7998684558542806 
1.088 0.5504000000000001 -1.5707963267948966 -1.5707963267948966 0.0 1.5707963267948966 0.0 0.8 0.0 0.0 0.0 0.0 0.0 0.0 0.0 0.0 0.0 0.0 0.0 310.3231020268988 58.61413949213036 480.9 -1.4205496661720858 0.7949664553312351 -0.7949664553312352 
1.096 0.5568000000000001 -1.5707963267948966 -1.5707963267948966 0.0 1.5707963267948966 0.0 0.8 0.0 0.0 0.0 0.0 0.0 0.0 0.0 0.0 0.0 0.0 0.0 309.9416186995984 60.59899337342768 480.9 -1.422449279274519 0.7900628275703877 -0.7900628275703878 
1.104 0.5632000000000001 -1.5707963267948966 -1.5707963267948966 0.0 1.5707963267948966 0.0 0.8 0.0 0.0 0.0 0.0 0.0 0.0 0.0 0.0 0.0 0.0 0.0 309.54744020692897 62.58136512842878 480.9 -1.4243364129041152 0.7851575847071004 -0.7851575847071006 
1.112 0.5696000000000001 -1.5707963267948966 -1.5707963267948966 0.0 1.5707963267948966 0.0 0.8 0.0 0.0 0.0 0.0 0.0 0.0 0.0 0.0 0.0 0.0 0.0 309.1405826943864 64.56117355946373 480.9 -1.4262110772541237 0.7802507388379222 -0.7802507388379223 
1.12 0.5760000000000001 -1.5707963267948966 -1.5707963267948966 0.0 1.5707963267948966 0.0 0.8 0.0 0.0 0.0 0.0 0.0 0.0 0.0 0.0 0.0 0.0 0.0 308.7210628267977 66.53833757385593 480.9 -1.4280732824467912 0.7753423020209119 -0.7753423020209119 
1.128 0.5824000000000001 -1.5707963267948966 -1.5707963267948966 0.0 1.5707963267948966 0.0 0.8 0.0 0.0 0.0 0.0 0.0 0.0 0.0 0.0 0.0 0.0 0.0 308.2888977876378 68.51277618724387 480.9 -1.4299230385334836 0.7704322862759593 -0.7704322862759594 
1.136 0.5888000000000002 -1.5707963267948966 -1.5707963267948966 0.0 1.5707963267948966 0.0 0.8 0.0 0.0 0.0 0.0 0.0 0.0 0.0 0.0 0.0 0.0 0.0 307.8441052783264 70.484408526898 480.9 -1.4317603554948062 0.765520703585108 -0.7655207035851082 
1.144 0.5952000000000002 -1.5707963267948966 -1.5707963267948966 0.0 1.5707963267948966 0.0 0.8 0.0 0.0 0.0 0.0 0.0 0.0 0.0 0.0 0.0 0.0 0.0 307.38670351750255 72.45315383503319 480.9 -1.433585243240723 0.7606075658928723 -0.7606075658928724 
1.152 0.6016000000000001 -1.5707963267948966 -1.5707963267948966 0.0 1.5707963267948966 0.0 0.8 0.0 0.0 0.0 0.0 0.0 0.0 0.0 0.0 0.0 0.0 0.0 306.91671124027823 74.41893147211698 480.9 -1.435397711610675 0.755692885106554 -0.7556928851065541 
1.16 0.608 -1.5707963267948966 -1.5707963267948966 0.0 1.5707963267948966 0.0 0.8 0.0 0.0 0.0 0.0 0.0 0.0 0.0 0.0 0.0 0.0 0.0 306.4341476974716 76.38166092017218 480.9 -1.4371977703736998 0.7507766730965598 -0.7507766730965599 
1.168 0.6144000000000001 -1.5707963267948966 -1.5707963267948966 0.0 1.5707963267948966 0.0 0.8 0.0 0.0 0.0 0.0 0.0 0.0 0.0 0.0 0.0 0.0 0.0 305.93903265481777 78.34126178607502 480.9 -1.438985429228547 0.7458589416967137 -0.7458589416967139 
1.176 0.6208 -1.5707963267948966 -1.5707963267948966 0.0 1.5707963267948966 0.0 0.8 0.0 0.0 0.0 0.0 0.0 0.0 0.0 0.0 0.0 0.0 0.0 305.4313863921597 80.29765380484801 480.9 -1.4407606978037981 0.7409397027045712 -0.7409397027045712 
1.184 0.6272 -1.5707963267948966 -1.5707963267948966 0.0 1.5707963267948966 0.0 0.8 0.0 0.0 0.0 0.0 0.0 0.0 0.0 0.0 0.0 0.0 0.0 304.9112297026174 82.25075684294754 480.9 -1.4425235856579781 0.7360189678817279 -0.736018967881728 
1.192 0.6335999999999999 -1.5707963267948966 -1.5707963267948966 0.0 1.5707963267948966 0.0 0.8 0.0 0.0 0.0 0.0 0.0 0.0 0.0 0.0 0.0 0.0 0.0 304.37858389173607 84.20049090154625 480.9 -1.444274102279676 0.7310967489541321 -0.7310967489541322 
1.2 0.64 -1.5707963267948966 -1.5707963267948966 0.0 1.5707963267948966 0.0 0.8 0.0 0.0 0.0 0.0 0.0 0.0 0.0 0.0 0.0 0.0 0.0 303.8334707766137 86.14677611980974 480.9 -1.4460122570876546 0.7261730576123899 -0.72617305761239 
1.208 0.6464000000000001 -1.5707963267948966 -1.5707963267948966 0.0 1.5707963267948966 0.0 0.8 0.0 0.0 0.0 0.0 0.0 0.0 0.0 0.0 0.0 0.0 0.0 303.27591268500726 88.08953277816752 480.9 -1.447738059430969 0.7212479055120737 -0.7212479055120737 
1.216 0.6528 -1.5707963267948966 -1.5707963267948966 0.0 1.5707963267948966 0.0 0.8 0.0 0.0 0.0 0.0 0.0 0.0 0.0 0.0 0.0 0.0 0.0 302.7059324544182 90.0286813015785 480.9 -1.4494515185890762 0.7163213042740261 -0.7163213042740262 
1.224 0.6592 -1.5707963267948966 -1.5707963267948966 0.0 1.5707963267948966 0.0 0.8 0.0 0.0 0.0 0.0 0.0 0.0 0.0 0.0 0.0 0.0 0.0 302.1235534311571 91.96414226279028 480.9 -1.45115264377195 0.7113932654846639 -0.711393265484664 
1.232 0.6656 -1.5707963267948966 -1.5707963267948966 0.0 1.5707963267948966 0.0 0.8 0.0 0.0 0.0 0.0 0.0 0.0 0.0 0.0 0.0 0.0 0.0 301.5287994693874 93.89583638559245 480.9 -1.4528414441201916 0.7064638006962805 -0.7064638006962806 
1.24 0.672 -1.5707963267948966 -1.5707963267948966 0.0 1.5707963267948966 0.0 0.8 0.0 0.0 0.0 0.0 0.0 0.0 0.0 0.0 0.0 0.0 0.0 300.9216949301481 95.82368454806385 480.9 -1.4545179287051426 0.7015329214273467 -0.7015329214273468 
1.248 0.6784000000000001 -1.5707963267948966 -1.5707963267948966 0.0 1.5707963267948966 0.0 0.8 0.0 0.0 0.0 0.0 0.0 0.0 0.0 0.0 0.0 0.0 0.0 300.30226468035636 97.7476077858133 480.9 -1.4561821065289928 0.6966006391628089 -0.696600639162809 
1.256 0.6848000000000001 -1.5707963267948966 -1.5707963267948966 0.0 1.5707963267948966 0.0 0.8 0.0 0.0 0.0 0.0 0.0 0.0 0.0 0.0 0.0 0.0 0.0 299.6705340917885 99.66752729521386 480.9 -1.4578339865248915 0.6916669653543883 -0.6916669653543884 
1.264 0.6912 -1.5707963267948966 -1.5707963267948966 0.0 1.5707963267948966 0.0 0.8 0.0 0.0 0.0 0.0 0.0 0.0 0.0 0.0 0.0 0.0 0.0 299.0265290400412 101.58336443663094 480.9 -1.4594735775570575 0.6867319114208769 -0.686731911420877 
1.272 0.6976 -1.5707963267948966 -1.5707963267948966 0.0 1.5707963267948966 0.0 0.8 0.0 0.0 0.0 0.0 0.0 0.0 0.0 0.0 0.0 0.0 0.0 298.3702759034713 103.49504073764308 480.9 -1.4611008884208854 0.6817954887484325 -0.6817954887484327 
1.28 0.7040000000000001 -1.5707963267948966 -1.5707963267948966 0.0 1.5707963267948966 0.0 0.8 0.0 0.0 0.0 0.0 0.0 0.0 0.0 0.0 0.0 0.0 0.0 297.7018015621155 105.40247789625626 480.9 -1.4627159278430544 0.6768577086908729 -0.6768577086908729 
1.288 0.7104000000000001 -1.5707963267948966 -1.5707963267948966 0.0 1.5707963267948966 0.0 0.8 0.0 0.0 0.0 0.0 0.0 0.0 0.0 0.0 0.0 0.0 0.0 297.02113339658933 107.30559778411114 480.9 -1.4643187044816346 0.6719185825699676 -0.6719185825699676 
1.296 0.7168000000000001 -1.5707963267948966 -1.5707963267948966 0.0 1.5707963267948966 0.0 0.8 0.0 0.0 0.0 0.0 0.0 0.0 0.0 0.0 0.0 0.0 0.0 296.3282992869659 109.2043224496831 480.9 -1.465909226926194 0.6669781216757302 -0.6669781216757302 
1.304 0.7232000000000001 -1.5707963267948966 -1.5707963267948966 0.0 1.5707963267948966 0.0 0.8 0.0 0.0 0.0 0.0 0.0 0.0 0.0 0.0 0.0 0.0 0.0 295.6233276116332 111.09857412147537 480.9 -1.4674875036979027 0.6620363372667063 -0.6620363372667064 
1.312 0.7296 -1.5707963267948966 -1.5707963267948966 0.0 1.5707963267948966 0.0 0.8 0.0 0.0 0.0 0.0 0.0 0.0 0.0 0.0 0.0 0.0 0.0 294.90624724613264 112.98827521120435 480.9 -1.4690535432496394 0.6570932405702639 -0.6570932405702641 
1.32 0.7360000000000001 -1.5707963267948966 -1.5707963267948966 0.0 1.5707963267948966 0.0 0.8 0.0 0.0 0.0 0.0 0.0 0.0 0.0 0.0 0.0 0.0 0.0 294.1770875619757 114.8733483169776 480.9 -1.4706073539660938 0.6521488427828793 -0.6521488427828794 
1.328 0.7424000000000002 -1.5707963267948966 -1.5707963267948966 0.0 1.5707963267948966 0.0 0.8 0.0 0.0 0.0 0.0 0.0 0.0 0.0 0.0 0.0 0.0 0.0 293.4358784254411 116.75371622646418 480.9 -1.4721489441638693 0.6472031550704235 -0.6472031550704236 
1.336 0.7488000000000001 -1.5707963267948966 -1.5707963267948966 0.0 1.5707963267948966 0.0 0.8 0.0 0.0 0.0 0.0 0.0 0.0 0.0 0.0 0.0 0.0 0.0 292.6826501963515 118.62930192005746 480.9 -1.4736783220915879 0.6422561885684465 -0.6422561885684466 
1.344 0.7552000000000001 -1.5707963267948966 -1.5707963267948966 0.0 1.5707963267948966 0.0 0.8 0.0 0.0 0.0 0.0 0.0 0.0 0.0 0.0 0.0 0.0 0.0 291.91743372682976 120.50002857402959 480.9 -1.4751954959299907 0.6373079543824612 -0.6373079543824614 
1.352 0.7616 -1.5707963267948966 -1.5707963267948966 0.0 1.5707963267948966 0.0 0.8 0.0 0.0 0.0 0.0 0.0 0.0 0.0 0.0 0.0 0.0 0.0 291.14026036003554 122.36581956367849 480.9 -1.4767004737920373 0.6323584635882247 -0.6323584635882247 
1.36 0.7680000000000001 -1.5707963267948966 -1.5707963267948966 0.0 1.5707963267948966 0.0 0.8 0.0 0.0 0.0 0.0 0.0 0.0 0.0 0.0 0.0 0.0 0.0 290.3511619288812 124.22659846646604 480.9 -1.4781932637230095 0.6274077272320199 -0.62740772723202 
1.368 0.7744000000000002 -1.5707963267948966 -1.5707963267948966 0.0 1.5707963267948966 0.0 0.8 0.0 0.0 0.0 0.0 0.0 0.0 0.0 0.0 0.0 0.0 0.0 289.55017075472824 126.0822890651485 480.9 -1.479673873700608 0.622455756330935 -0.6224557563309351 
1.376 0.7808000000000002 -1.5707963267948966 -1.5707963267948966 0.0 1.5707963267948966 0.0 0.8 0.0 0.0 0.0 0.0 0.0 0.0 0.0 0.0 0.0 0.0 0.0 288.73731964606327 127.93281535089841 480.9 -1.4811423116350526 0.6175025618731416 -0.6175025618731417 
1.384 0.7872000000000001 -1.5707963267948966 -1.5707963267948966 0.0 1.5707963267948966 0.0 0.8 0.0 0.0 0.0 0.0 0.0 0.0 0.0 0.0 0.0 0.0 0.0 287.9126418971539 129.7781015264178 480.9 -1.4825985853691797 0.6125481548181724 -0.6125481548181724 
1.392 0.7936000000000001 -1.5707963267948966 -1.5707963267948966 0.0 1.5707963267948966 0.0 0.8 0.0 0.0 0.0 0.0 0.0 0.0 0.0 0.0 0.0 0.0 0.0 287.0761712866855 131.61807200904295 480.9 -1.4840427026785392 0.6075925460971966 -0.6075925460971967 
1.4 0.8000000000000002 -1.5707963267948966 -1.5707963267948966 0.0 1.5707963267948966 0.0 0.8 0.0 0.0 0.0 0.0 0.0 0.0 0.0 0.0 0.0 0.0 0.0 286.2279420763772 133.45265143384015 480.9 -1.4854746712714944 0.6026357466132957 -0.6026357466132958 
1.408 0.8064 -1.5707963267948966 -1.5707963267948966 0.0 1.5707963267948966 0.0 0.8 0.0 0.0 0.0 0.0 0.0 0.0 0.0 0.0 0.0 0.0 0.0 285.36798900957905 135.2817646566926 480.9 -1.4868944987893118 0.5976777672417368 -0.5976777672417369 
1.416 0.8128 -1.5707963267948966 -1.5707963267948966 0.0 1.5707963267948966 0.0 0.8 0.0 0.0 0.0 0.0 0.0 0.0 0.0 0.0 0.0 0.0 0.0 284.4963473098483 137.1053367573784 480.9 -1.4883021928062623 0.5927186188302448 -0.5927186188302449 
1.424 0.8191999999999999 -1.5707963267948966 -1.5707963267948966 0.0 1.5707963267948966 0.0 0.8 0.0 0.0 0.0 0.0 0.0 0.0 0.0 0.0 0.0 0.0 0.0 283.61305267950723 138.92329304263936 480.9 -1.489697760829711 0.5877583121992743 -0.5877583121992744 
1.432 0.8256 -1.5707963267948966 -1.5707963267948966 0.0 1.5707963267948966 0.0 0.8 0.0 0.0 0.0 0.0 0.0 0.0 0.0 0.0 0.0 0.0 0.0 282.7181412981802 140.73555904924018 480.9 -1.4910812103002136 0.5827968581422799 -0.58279685814228 
1.44 0.832 -1.5707963267948966 -1.5707963267948966 0.0 1.5707963267948966 0.0 0.8 0.0 0.0 0.0 0.0 0.0 0.0 0.0 0.0 0.0 0.0 0.0 281.8116498213125 142.5420605470185 480.9 -1.492452548591607 0.5778342674259852 -0.5778342674259853 
1.448 0.8384 -1.5707963267948966 -1.5707963267948966 0.0 1.5707963267948966 0.0 0.8 0.0 0.0 0.0 0.0 0.0 0.0 0.0 0.0 0.0 0.0 0.0 280.8936153786682 144.3427235419257 480.9 -1.4938117830111055 0.5728705507906512 -0.5728705507906513 
1.456 0.8448 -1.5707963267948966 -1.5707963267948966 0.0 1.5707963267948966 0.0 0.8 0.0 0.0 0.0 0.0 0.0 0.0 0.0 0.0 0.0 0.0 0.0 279.9640755728097 146.13747427905713 480.9 -1.4951589207993863 0.567905718950343 -0.5679057189503431 
1.464 0.8512000000000001 -1.5707963267948966 -1.5707963267948966 0.0 1.5707963267948966 0.0 0.8 0.0 0.0 0.0 0.0 0.0 0.0 0.0 0.0 0.0 0.0 0.0 279.02306847755744 147.92623924567357 480.9 -1.4964939691306844 0.562939782593196 -0.5629397825931961 
1.472 0.8576 -1.5707963267948966 -1.5707963267948966 0.0 1.5707963267948966 0.0 0.8 0.0 0.0 0.0 0.0 0.0 0.0 0.0 0.0 0.0 0.0 0.0 278.0706326364306 149.7089451742121 480.9 -1.4978169351128805 0.5579727523816804 -0.5579727523816805 
1.48 0.864 -1.5707963267948966 -1.5707963267948966 0.0 1.5707963267948966 0.0 0.8 0.0 0.0 0.0 0.0 0.0 0.0 0.0 0.0 0.0 0.0 0.0 277.106807061068 151.485519045287 480.9 -1.4991278257875922 0.5530046389528658 -0.5530046389528659 
1.488 0.8704000000000001 -1.5707963267948966 -1.5707963267948966 0.0 1.5707963267948966 0.0 0.8 0.0 0.0 0.0 0.0 0.0 0.0 0.0 0.0 0.0 0.0 0.0 276.13163122963044 153.25588809068103 480.9 -1.500426648130258 0.5480354529186826 -0.5480354529186827 
1.496 0.8768 -1.5707963267948966 -1.5707963267948966 0.0 1.5707963267948966 0.0 0.8 0.0 0.0 0.0 0.0 0.0 0.0 0.0 0.0 0.0 0.0 0.0 275.14514508518374 155.01997979632554 480.9 -1.50171340905023 0.5430652048661855 -0.5430652048661856 
1.504 0.8832000000000001 -1.5707963267948966 -1.5707963267948966 0.0 1.5707963267948966 0.0 0.8 0.0 0.0 0.0 0.0 0.0 0.0 0.0 0.0 0.0 0.0 0.0 274.1473890340623 156.777721905271 480.9 -1.5029881153908577 0.5380939053578127 -0.5380939053578128 
1.512 0.8896000000000001 -1.5707963267948966 -1.5707963267948966 0.0 1.5707963267948966 0.0 0.8 0.0 0.0 0.0 0.0 0.0 0.0 0.0 0.0 0.0 0.0 0.0 273.1384039442146 158.52904242064625 480.9 -1.5042507739295727 0.5331215649316461 -0.5331215649316462 
1.52 0.896 -1.5707963267948966 -1.5707963267948966 0.0 1.5707963267948966 0.0 0.8 0.0 0.0 0.0 0.0 0.0 0.0 0.0 0.0 0.0 0.0 0.0 272.11823114352876 160.27386960860787 480.9 -1.5055013913779787 0.5281481941016709 -0.5281481941016709 
1.528 0.9024000000000001 -1.5707963267948966 -1.5707963267948966 0.0 1.5707963267948966 0.0 0.8 0.0 0.0 0.0 0.0 0.0 0.0 0.0 0.0 0.0 0.0 0.0 271.0869124181401 162.01213200127827 480.9 -1.506739974381931 0.5231738033580318 -0.5231738033580319 
1.536 0.9088 -1.5707963267948966 -1.5707963267948966 0.0 1.5707963267948966 0.0 0.8 0.0 0.0 0.0 0.0 0.0 0.0 0.0 0.0 0.0 0.0 0.0 270.0444900107195 163.74375839967274 480.9 -1.507966529521623 0.5181984031672907 -0.5181984031672908 
1.544 0.9152000000000001 -1.5707963267948966 -1.5707963267948966 0.0 1.5707963267948966 0.0 0.8 0.0 0.0 0.0 0.0 0.0 0.0 0.0 0.0 0.0 0.0 0.0 268.991006618743 165.46867787661623 480.9 -1.5091810633116682 0.5132220039726827 -0.5132220039726828 
1.552 0.9216000000000001 -1.5707963267948966 -1.5707963267948966 0.0 1.5707963267948966 0.0 0.8 0.0 0.0 0.0 0.0 0.0 0.0 0.0 0.0 0.0 0.0 0.0 267.9265053927429 167.18681977964798 480.9 -1.5103835822011826 0.5082446161943698 -0.5082446161943699 
1.56 0.9280000000000002 -1.5707963267948966 -1.5707963267948966 0.0 1.5707963267948966 0.0 0.8 0.0 0.0 0.0 0.0 0.0 0.0 0.0 0.0 0.0 0.0 0.0 266.85102993454075 168.898113733916 480.9 -1.5115740925738663 0.5032662502296957 -0.5032662502296958 
1.568 0.9344000000000001 -1.5707963267948966 -1.5707963267948966 0.0 1.5707963267948966 0.0 0.8 0.0 0.0 0.0 0.0 0.0 0.0 0.0 0.0 0.0 0.0 0.0 265.7646242954609 170.60248964505908 480.9 -1.5127526007480845 0.4982869164534391 -0.4982869164534392 
1.576 0.9408000000000001 -1.5707963267948966 -1.5707963267948966 0.0 1.5707963267948966 0.0 0.8 0.0 0.0 0.0 0.0 0.0 0.0 0.0 0.0 0.0 0.0 0.0 264.6673329745265 172.29987770207822 480.9 -1.5139191129769454 0.49330662521806456 -0.4933066252180647 
1.584 0.9472000000000002 -1.5707963267948966 -1.5707963267948966 0.0 1.5707963267948966 0.0 0.8 0.0 0.0 0.0 0.0 0.0 0.0 0.0 0.0 0.0 0.0 0.0 263.55920091663654 173.99020838019595 480.9 -1.5150736354483816 0.48832538685397436 -0.4883253868539745 
1.592 0.9536000000000001 -1.5707963267948966 -1.5707963267948966 0.0 1.5707963267948966 0.0 0.8 0.0 0.0 0.0 0.0 0.0 0.0 0.0 0.0 0.0 0.0 0.0 262.44027351072526 175.67341244370394 480.9 -1.516216174285228 0.4833432116697589 -0.483343211669759 
1.6 0.9600000000000002 -1.5707963267948966 -1.5707963267948966 0.0 1.5707963267948966 0.0 0.8 0.0 0.0 0.0 0.0 0.0 0.0 0.0 0.0 0.0 0.0 0.0 261.31059658790264 177.34942094879915 480.9 -1.5173467355452979 0.478360109952445 -0.4783601099524451 
1.608 0.9664000000000001 -1.5707963267948966 -1.5707963267948966 0.0 1.5707963267948966 0.0 0.8 0.0 0.0 0.0 0.0 0.0 0.0 0.0 0.0 0.0 0.0 0.0 260.17021641957774 179.01816524640748 480.9 -1.5184653252214613 0.47337609196774627 -0.4733760919677464 
1.616 0.9728000000000001 -1.5707963267948966 -1.5707963267948966 0.0 1.5707963267948966 0.0 0.8 0.0 0.0 0.0 0.0 0.0 0.0 0.0 0.0 0.0 0.0 0.0 259.01917971556264 180.67957698499592 480.9 -1.5195719492417197 0.4683911679603082 -0.46839116796030833 
1.624 0.9792000000000002 -1.5707963267948966 -1.5707963267948966 0.0 1.5707963267948966 0.0 0.8 0.0 0.0 0.0 0.0 0.0 0.0 0.0 0.0 0.0 0.0 0.0 257.8575336221598 182.33358811337183 480.9 -1.5206666134692832 0.4634053481539569 -0.463405348153957 
1.632 0.9856000000000001 -1.5707963267948966 -1.5707963267948966 0.0 1.5707963267948966 0.0 0.8 0.0 0.0 0.0 0.0 0.0 0.0 0.0 0.0 0.0 0.0 0.0 256.6853257202309 183.9801308834706 480.9 -1.5217493237026425 0.4584186427519442 -0.4584186427519443 
1.64 0.9920000000000002 -1.5707963267948966 -1.5707963267948966 0.0 1.5707963267948966 0.0 0.8 0.0 0.0 0.0 0.0 0.0 0.0 0.0 0.0 0.0 0.0 0.0 255.50260402324756 185.61913785313072 480.9 -1.5228200856756453 0.4534310619371927 -0.4534310619371928 
1.648 0.9984000000000002 -1.5707963267948966 -1.5707963267948966 0.0 1.5707963267948966 0.0 0.8 0.0 0.0 0.0 0.0 0.0 0.0 0.0 0.0 0.0 0.0 0.0 254.30941697532532 187.25054188885568 480.9 -1.5238789050575654 0.4484426158725398 -0.4484426158725399 
1.656 1.0048000000000001 -1.5707963267948966 -1.5707963267948966 0.0 1.5707963267948966 0.0 0.8 0.0 0.0 0.0 0.0 0.0 0.0 0.0 0.0 0.0 0.0 0.0 253.10581344923872 188.8742761685644 480.9 -1.5249257874531799 0.4434533147009817 -0.4434533147009818 
1.664 1.0112 -1.5707963267948966 -1.5707963267948966 0.0 1.5707963267948966 0.0 0.8 0.0 0.0 0.0 0.0 0.0 0.0 0.0 0.0 0.0 0.0 0.0 251.89184274442002 190.4902741843278 480.9 -1.5259607384028353 0.43846316854591544 -0.4384631685459155 
1.672 1.0176 -1.5707963267948966 -1.5707963267948966 0.0 1.5707963267948966 0.0 0.8 0.0 0.0 0.0 0.0 0.0 0.0 0.0 0.0 0.0 0.0 0.0 250.6675545849394 192.09846974509298 480.9 -1.5269837633825216 0.43347218751138056 -0.43347218751138067 
1.68 1.024 -1.5707963267948966 -1.5707963267948966 0.0 1.5707963267948966 0.0 0.8 0.0 0.0 0.0 0.0 0.0 0.0 0.0 0.0 0.0 0.0 0.0 249.43299911746888 193.69879697939473 480.9 -1.5279948678039408 0.4284803816823007 -0.4284803816823008 
1.688 1.0304 -1.5707963267948966 -1.5707963267948966 0.0 1.5707963267948966 0.0 0.8 0.0 0.0 0.0 0.0 0.0 0.0 0.0 0.0 0.0 0.0 0.0 248.18822690922767 195.29119033805318 480.9 -1.5289940570145768 0.4234877611247238 -0.4234877611247239 
1.696 1.0368 -1.5707963267948966 -1.5707963267948966 0.0 1.5707963267948966 0.0 0.8 0.0 0.0 0.0 0.0 0.0 0.0 0.0 0.0 0.0 0.0 0.0 246.93328894591144 196.87558459685903 480.9 -1.5299813362977612 0.4184943358860607 -0.41849433588606083 
1.704 1.0432000000000001 -1.5707963267948966 -1.5707963267948966 0.0 1.5707963267948966 0.0 0.8 0.0 0.0 0.0 0.0 0.0 0.0 0.0 0.0 0.0 0.0 0.0 245.6682366296037 198.45191485924505 480.9 -1.5309567108727444 0.413500115995325 -0.41350011599532505 
1.712 1.0496 -1.5707963267948966 -1.5707963267948966 0.0 1.5707963267948966 0.0 0.8 0.0 0.0 0.0 0.0 0.0 0.0 0.0 0.0 0.0 0.0 0.0 244.3931217766705 200.02011655894387 480.9 -1.5319201858947586 0.40850511146337015 -0.40850511146337026 
1.72 1.056 -1.5707963267948966 -1.5707963267948966 0.0 1.5707963267948966 0.0 0.8 0.0 0.0 0.0 0.0 0.0 0.0 0.0 0.0 0.0 0.0 0.0 243.10799661563794 201.58012546263328 480.9 -1.532871766455086 0.4035093322831271 -0.4035093322831272 
1.728 1.0624 -1.5707963267948966 -1.5707963267948966 0.0 1.5707963267948966 0.0 0.8 0.0 0.0 0.0 0.0 0.0 0.0 0.0 0.0 0.0 0.0 0.0 241.81291378505287 203.13187767256665 480.9 -1.5338114575811241 0.3985127884298409 -0.398512788429841 
1.736 1.0688 -1.5707963267948966 -1.5707963267948966 0.0 1.5707963267948966 0.0 0.8 0.0 0.0 0.0 0.0 0.0 0.0 0.0 0.0 0.0 0.0 0.0 240.50792633132704 204.6753096291904 480.9 -1.5347392642364477 0.3935154898613059 -0.393515489861306 
1.744 1.0752000000000002 -1.5707963267948966 -1.5707963267948966 0.0 1.5707963267948966 0.0 0.8 0.0 0.0 0.0 0.0 0.0 0.0 0.0 0.0 0.0 0.0 0.0 239.19308770656403 206.21035811374742 480.9 -1.5356551913208738 0.38851744651810133 -0.38851744651810144 
1.752 1.0816000000000001 -1.5707963267948966 -1.5707963267948966 0.0 1.5707963267948966 0.0 0.8 0.0 0.0 0.0 0.0 0.0 0.0 0.0 0.0 0.0 0.0 0.0 237.86845176637019 207.73696025086633 480.9 -1.5365592436705253 0.38351866832382614 -0.38351866832382625 
1.76 1.088 -1.5707963267948966 -1.5707963267948966 0.0 1.5707963267948966 0.0 0.8 0.0 0.0 0.0 0.0 0.0 0.0 0.0 0.0 0.0 0.0 0.0 236.53407276764835 209.25505351113705 480.9 -1.5374514260578913 0.37851916518533124 -0.37851916518533135 
1.768 1.0944 -1.5707963267948966 -1.5707963267948966 0.0 1.5707963267948966 0.0 0.8 0.0 0.0 0.0 0.0 0.0 0.0 0.0 0.0 0.0 0.0 0.0 235.19000536637577 210.7645757136719 480.9 -1.5383317431918895 0.3735189469929543 -0.37351894699295435 
1.776 1.1008 -1.5707963267948966 -1.5707963267948966 0.0 1.5707963267948966 0.0 0.8 0.0 0.0 0.0 0.0 0.0 0.0 0.0 0.0 0.0 0.0 0.0 233.8363046153653 212.26546502865247 480.9 -1.5392001997179254 0.3685180236207505 -0.36851802362075053 
1.784 1.1072000000000002 -1.5707963267948966 -1.5707963267948966 0.0 1.5707963267948966 0.0 0.8 0.0 0.0 0.0 0.0 0.0 0.0 0.0 0.0 0.0 0.0 0.0 232.47302596201035 213.75765997986235 480.9 -1.5400568002179529 0.3635164049267251 -0.36351640492672516 
1.792 1.1136000000000001 -1.5707963267948966 -1.5707963267948966 0.0 1.5707963267948966 0.0 0.8 0.0 0.0 0.0 0.0 0.0 0.0 0.0 0.0 0.0 0.0 0.0 231.10022524601413 215.24109944720487 480.9 -1.540901549210532 0.35851410075306495 -0.358514100753065 
1.8 1.12 -1.5707963267948966 -1.5707963267948966 0.0 1.5707963267948966 0.0 0.8 0.0 0.0 0.0 0.0 0.0 0.0 0.0 0.0 0.0 0.0 0.0 229.7179586971019 216.71572266920685 480.9 -1.5417344511508888 0.3535111209263678 -0.35351112092636783 
1.808 1.1264 -1.5707963267948966 -1.5707963267948966 0.0 1.5707963267948966 0.0 0.8 0.0 0.0 0.0 0.0 0.0 0.0 0.0 0.0 0.0 0.0 0.0 228.3262829327183 218.18146924550734 480.9 -1.54255551043097 0.3485074752578724 -0.3485074752578724 
1.816 1.1328 -1.5707963267948966 -1.5707963267948966 0.0 1.5707963267948966 0.0 0.8 0.0 0.0 0.0 0.0 0.0 0.0 0.0 0.0 0.0 0.0 0.0 226.92525495570808 219.63827913933147 480.9 -1.5433647313795016 0.3435031735436881 -0.34350317354368815 
1.824 1.1392000000000002 -1.5707963267948966 -1.5707963267948966 0.0 1.5707963267948966 0.0 0.8 0.0 0.0 0.0 0.0 0.0 0.0 0.0 0.0 0.0 0.0 0.0 225.51493215198118 221.08609267994973 480.9 -1.5441621182620429 0.33849822556502296 -0.338498225565023 
1.832 1.1456000000000002 -1.5707963267948966 -1.5707963267948966 0.0 1.5707963267948966 0.0 0.8 0.0 0.0 0.0 0.0 0.0 0.0 0.0 0.0 0.0 0.0 0.0 224.09537228816265 222.52485056512177 480.9 -1.5449476752810434 0.3334926410884124 -0.3334926410884124 
1.84 1.1520000000000001 -1.5707963267948966 -1.5707963267948966 0.0 1.5707963267948966 0.0 0.8 0.0 0.0 0.0 0.0 0.0 0.0 0.0 0.0 0.0 0.0 0.0 222.666633509226 223.95449386352587 480.9 -1.5457214065758935 0.32848642986594545 -0.3284864298659455 
1.848 1.1584 -1.5707963267948966 -1.5707963267948966 0.0 1.5707963267948966 0.0 0.8 0.0 0.0 0.0 0.0 0.0 0.0 0.0 0.0 0.0 0.0 0.0 221.22877433611177 225.37496401717237 480.9 -1.546483316222982 0.32347960163549233 -0.3234796016354924 
1.856 1.1648 -1.5707963267948966 -1.5707963267948966 0.0 1.5707963267948966 0.0 0.8 0.0 0.0 0.0 0.0 0.0 0.0 0.0 0.0 0.0 0.0 0.0 219.7818536633307 226.78620284380236 480.9 -1.5472334082357457 0.31847216612093054 -0.31847216612093054 
1.864 1.1712000000000002 -1.5707963267948966 -1.5707963267948966 0.0 1.5707963267948966 0.0 0.8 0.0 0.0 0.0 0.0 0.0 0.0 0.0 0.0 0.0 0.0 0.0 218.32593075655126 228.18815253927093 480.9 -1.547971686564721 0.31346413303237003 -0.3134641330323701 
1.872 1.1776000000000002 -1.5707963267948966 -1.5707963267948966 0.0 1.5707963267948966 0.0 0.8 0.0 0.0 0.0 0.0 0.0 0.0 0.0 0.0 0.0 0.0 0.0 216.86106525017217 229.58075567991438 480.9 -1.548698155097596 0.3084555120663794 -0.30845551206637944 
1.88 1.1840000000000002 -1.5707963267948966 -1.5707963267948966 0.0 1.5707963267948966 0.0 0.8 0.0 0.0 0.0 0.0 0.0 0.0 0.0 0.0 0.0 0.0 0.0 215.38731714487983 230.96395522490292 480.9 -1.5494128176592614 0.3034463129062092 -0.30344631290620927 
1.888 1.1904000000000001 -1.5707963267948966 -1.5707963267948966 0.0 1.5707963267948966 0.0 0.8 0.0 0.0 0.0 0.0 0.0 0.0 0.0 0.0 0.0 0.0 0.0 213.90474680519048 232.33769451857643 480.9 -1.5501156780118572 0.2984365452220165 -0.29843654522201657 
1.896 1.1968 -1.5707963267948966 -1.5707963267948966 0.0 1.5707963267948966 0.0 0.8 0.0 0.0 0.0 0.0 0.0 0.0 0.0 0.0 0.0 0.0 0.0 212.41341495697804 233.70191729276564 480.9 -1.5508067398548229 0.2934262186710885 -0.29342621867108853 
1.904 1.2032000000000003 -1.5707963267948966 -1.5707963267948966 0.0 1.5707963267948966 0.0 0.8 0.0 0.0 0.0 0.0 0.0 0.0 0.0 0.0 0.0 0.0 0.0 210.91338268498635 235.05656766909638 480.9 -1.5514860068249452 0.28841534289806486 -0.2884153428980649 
1.912 1.2096000000000002 -1.5707963267948966 -1.5707963267948966 0.0 1.5707963267948966 0.0 0.8 0.0 0.0 0.0 0.0 0.0 0.0 0.0 0.0 0.0 0.0 0.0 209.40471143032778 236.4015901612786 480.9 -1.552153482496405 0.28340392753516164 -0.2834039275351617 
1.92 1.216 -1.5707963267948966 -1.5707963267948966 0.0 1.5707963267948966 0.0 0.8 0.0 0.0 0.0 0.0 0.0 0.0 0.0 0.0 0.0 0.0 0.0 207.8874629879659 237.73692967737912 480.9 -1.5528091703808233 0.2783919822023916 -0.2783919822023916 
1.928 1.2224 -1.5707963267948966 -1.5707963267948966 0.0 1.5707963267948966 0.0 0.8 0.0 0.0 0.0 0.0 0.0 0.0 0.0 0.0 0.0 0.0 0.0 206.36169950418474 239.06253152207802 480.9 -1.5534530739273056 0.27337951650778586 -0.2733795165077859 
1.936 1.2288000000000001 -1.5707963267948966 -1.5707963267948966 0.0 1.5707963267948966 0.0 0.8 0.0 0.0 0.0 0.0 0.0 0.0 0.0 0.0 0.0 0.0 0.0 204.82748347404328 240.37834139890919 480.9 -1.5540851965224884 0.268366540047616 -0.26836654004761606 
1.944 1.2352 -1.5707963267948966 -1.5707963267948966 0.0 1.5707963267948966 0.0 0.8 0.0 0.0 0.0 0.0 0.0 0.0 0.0 0.0 0.0 0.0 0.0 203.28487773881562 241.6843054124838 480.9 -1.554705541490582 0.26335306240661427 -0.2633530624066143 
1.952 1.2416 -1.5707963267948966 -1.5707963267948966 0.0 1.5707963267948966 0.0 0.8 0.0 0.0 0.0 0.0 0.0 0.0 0.0 0.0 0.0 0.0 0.0 201.7339454834171 242.9803700706987 480.9 -1.5553141120934122 0.2583390931581925 -0.25833909315819253 
1.96 1.248 -1.5707963267948966 -1.5707963267948966 0.0 1.5707963267948966 0.0 0.8 0.0 0.0 0.0 0.0 0.0 0.0 0.0 0.0 0.0 0.0 0.0 200.17475023381593 244.2664822869266 480.9 -1.5559109115304646 0.253324641864663 -0.2533246418646631 
1.968 1.2543898543276801 -1.5707963267948966 -1.5707963267948966 0.0 1.5707963267948966 0.0 0.7954954084936208 0.0 0.0 0.0 0.0 0.0 -1.0 0.0 0.0 0.0 0.0 0.0 198.60984703886226 245.54057436440058 480.9 -1.5564950248225593 0.24831766841094768 -0.24831766841094774 
1.976 1.260721817595629 -1.5707963267948966 -1.5707963267948966 0.0 1.5707963267948966 0.0 0.7874954084936208 0.0 0.0 0.0 0.0 0.0 -1.0 0.0 0.0 0.0 0.0 0.0 197.05112203614516 246.79323391109452 480.9 -1.5570622773407075 0.24335560206025025 -0.24335560206025028 
1.984 1.2669897808635782 -1.5707963267948966 -1.5707963267948966 0.0 1.5707963267948966 0.0 0.7794954084936208 0.0 0.0 0.0 0.0 0.0 -1.0 0.0 0.0 0.0 0.0 0.0 195.50037044321007 248.0234871067005 480.9 -1.5576124571095324 0.23844325227562937 -0.23844325227562943 
1.992 1.273193744131527 -1.5707963267948966 -1.5707963267948966 0.0 1.5707963267948966 0.0 0.7714954084936207 0.0 0.0 0.0 0.0 0.0 -1.0 0.0 0.0 0.0 0.0 0.0 193.957889399847 249.23158335081993 480.9 -1.5581459124398245 0.23358064119018548 -0.23358064119018554 
2.0 1.279333707399476 -1.5707963267948966 -1.5707963267948966 0.0 1.5707963267948966 0.0 0.7634954084936207 0.0 0.0 0.0 0.0 0.0 -1.0 0.0 0.0 0.0 0.0 0.0 192.42397023564516 250.4177722901303 480.9 -1.5586629878921667 0.22876779025265936 -0.2287677902526594 
2.008 1.285409670667425 -1.5707963267948966 -1.5707963267948966 0.0 1.5707963267948966 0.0 0.7554954084936207 0.0 0.0 0.0 0.0 0.0 -1.0 0.0 0.0 0.0 0.0 0.0 190.89889853270842 251.582303707949 480.9 -1.5591640242868292 0.22400472024235155 -0.2240047202423516 
2.016 1.291421633935374 -1.5707963267948966 -1.5707963267948966 0.0 1.5707963267948966 0.0 0.7474954084936207 0.0 0.0 0.0 0.0 0.0 -1.0 0.0 0.0 0.0 0.0 0.0 189.38295418908888 252.72542741602686 480.9 -1.5596493587133584 0.2192914512838279 -0.21929145128382793 
2.024 1.297369597203323 -1.5707963267948966 -1.5707963267948966 0.0 1.5707963267948966 0.0 0.7394954084936207 0.0 0.0 0.0 0.0 0.0 -1.0 0.0 0.0 0.0 0.0 0.0 187.876411482884 253.8473931485491 480.9 -1.5601193245398635 0.21462800286141628 -0.21462800286141634 
2.032 1.3032535604712718 -1.5707963267948966 -1.5707963267948966 0.0 1.5707963267948966 0.0 0.7314954084936207 0.0 0.0 0.0 0.0 0.0 -1.0 0.0 0.0 0.0 0.0 0.0 186.37953913694315 254.94845045832434 480.9 -1.5605742514220082 0.2100143938334978 -0.21001439383349785 
2.04 1.309073523739221 -1.5707963267948966 -1.5707963267948966 0.0 1.5707963267948966 0.0 0.7234954084936207 0.0 0.0 0.0 0.0 0.0 -1.0 0.0 0.0 0.0 0.0 0.0 184.89260038413005 256.0288486151402 480.9 -1.5610144653117135 0.20545064244659322 -0.20545064244659325 
2.048 1.31482948700717 -1.5707963267948966 -1.5707963267948966 0.0 1.5707963267948966 0.0 0.7154954084936207 0.0 0.0 0.0 0.0 0.0 -1.0 0.0 0.0 0.0 0.0 0.0 183.41585303309057 257.0888365062624 480.9 -1.5614402884655794 0.2009367663492518 -0.20093676634925187 
2.056 1.320521450275119 -1.5707963267948966 -1.5707963267948966 0.0 1.5707963267948966 0.0 0.7074954084936207 0.0 0.0 0.0 0.0 0.0 -1.0 0.0 0.0 0.0 0.0 0.0 181.94954953447365 258.1286625390565 480.9 -1.5618520394530306 0.19647278260573878 -0.19647278260573883 
2.064 1.326149413543068 -1.5707963267948966 -1.5707963267948966 0.0 1.5707963267948966 0.0 0.6994954084936207 0.0 0.0 0.0 0.0 0.0 -1.0 0.0 0.0 0.0 0.0 0.0 180.49393704755644 259.1485745457087 480.9 -1.562250033164193 0.19205870770953068 -0.19205870770953073 
2.072 1.331713376811017 -1.5707963267948966 -1.5707963267948966 0.0 1.5707963267948966 0.0 0.6914954084936207 0.0 0.0 0.0 0.0 0.0 -1.0 0.0 0.0 0.0 0.0 0.0 179.04925750722512 260.14881969002164 480.9 -1.5626345808175075 0.18769455759661624 -0.1876945575966163 
2.08 1.3372133400789656 -1.5707963267948966 -1.5707963267948966 0.0 1.5707963267948966 0.0 0.6834954084936207 0.0 0.0 0.0 0.0 0.0 -1.0 0.0 0.0 0.0 0.0 0.0 177.6157476912636 261.1296443762626 480.9 -1.5630059899670847 0.18338034765860736 -0.18338034765860742 
2.088 1.342649303346915 -1.5707963267948966 -1.5707963267948966 0.0 1.5707963267948966 0.0 0.6754954084936207 0.0 0.0 0.0 0.0 0.0 -1.0 0.0 0.0 0.0 0.0 0.0 176.19363928790324 262.09129416003924 480.9 -1.5633645645098126 0.1791160927556616 -0.17911609275566162 
2.096 1.3480212666148634 -1.5707963267948966 -1.5707963267948966 0.0 1.5707963267948966 0.0 0.6674954084936207 0.0 0.0 0.0 0.0 0.0 -1.0 0.0 0.0 0.0 0.0 0.0 174.78315896358993 263.03401366117737 480.9 -1.5637106046922142 0.17490180722922147 -0.1749018072292215 
2.104 1.3533292298828126 -1.5707963267948966 -1.5707963267948966 0.0 1.5707963267948966 0.0 0.6594954084936206 0.0 0.0 0.0 0.0 0.0 -1.0 0.0 0.0 0.0 0.0 0.0 173.3845284309204 263.95804647857835 480.9 -1.5640444071170723 0.17073750491456485 -0.17073750491456488 
2.112 1.3585731931507616 -1.5707963267948966 -1.5707963267948966 0.0 1.5707963267948966 0.0 0.6514954084936206 0.0 0.0 0.0 0.0 0.0 -1.0 0.0 0.0 0.0 0.0 0.0 171.99796451670977 264.86363510702756 480.9 -1.5643662647498129 0.16662319915318033 -0.16662319915318036 
2.12 1.3637531564187106 -1.5707963267948966 -1.5707963267948966 0.0 1.5707963267948966 0.0 0.6434954084936206 0.0 0.0 0.0 0.0 0.0 -1.0 0.0 0.0 0.0 0.0 0.0 170.62367923014253 265.75102085593096 480.9 -1.5646764669246682 0.16255890280495777 -0.1625589028049578 
2.128 1.3688691196866594 -1.5707963267948966 -1.5707963267948966 0.0 1.5707963267948966 0.0 0.6354954084936206 0.0 0.0 0.0 0.0 0.0 -1.0 0.0 0.0 0.0 0.0 0.0 169.26187983096912 266.62044376995283 480.9 -1.564975299350613 0.15854462826020407 -0.1585446282602041 
2.136 1.3739210829546087 -1.5707963267948966 -1.5707963267948966 0.0 1.5707963267948966 0.0 0.6274954084936206 0.0 0.0 0.0 0.0 0.0 -1.0 0.0 0.0 0.0 0.0 0.0 167.91276889770626 267.4721425515291 480.9 -1.5652630441170863 0.15458038745148137 -0.1545803874514814 
2.144 1.3789090462225573 -1.5707963267948966 -1.5707963267948966 0.0 1.5707963267948966 0.0 0.6194954084936206 0.0 0.0 0.0 0.0 0.0 -1.0 0.0 0.0 0.0 0.0 0.0 166.57654439580307 268.30635448522844 480.9 -1.5655399796995009 0.15066619186527472 -0.15066619186527475 
2.152 1.3838330094905065 -1.5707963267948966 -1.5707963267948966 0.0 1.5707963267948966 0.0 0.6114954084936206 0.0 0.0 0.0 0.0 0.0 -1.0 0.0 0.0 0.0 0.0 0.0 165.25339974573112 269.12331536393793 480.9 -1.5658063809645486 0.1468020525534816 -0.14680205255348164 
2.16 1.3886929727584556 -1.5707963267948966 -1.5707963267948966 0.0 1.5707963267948966 0.0 0.6034954084936206 0.0 0.0 0.0 0.0 0.0 -1.0 0.0 0.0 0.0 0.0 0.0 163.94352389096625 269.9232594168427 480.9 -1.5660625191753028 0.14298798014473788 -0.14298798014473788 
2.168 1.3934889360264047 -1.5707963267948966 -1.5707963267948966 0.0 1.5707963267948966 0.0 0.5954954084936206 0.0 0.0 0.0 0.0 0.0 -1.0 0.0 0.0 0.0 0.0 0.0 162.64710136582025 270.7064192391761 480.9 -1.5663086619961262 0.1392239848555689 -0.13922398485556892 
2.176 1.3982208992943534 -1.5707963267948966 -1.5707963267948966 0.0 1.5707963267948966 0.0 0.5874954084936206 0.0 0.0 0.0 0.0 0.0 -1.0 0.0 0.0 0.0 0.0 0.0 161.36431236309042 271.4730257237116 480.9 -1.566545073497391 0.1355100765013766 -0.13551007650137661 
2.184 1.4028888625623024 -1.5707963267948966 -1.5707963267948966 0.0 1.5707963267948966 0.0 0.5794954084936206 0.0 0.0 0.0 0.0 0.0 -1.0 0.0 0.0 0.0 0.0 0.0 160.09533280149046 272.2233079939703 480.9 -1.566772014160011 0.13184626450725856 -0.1318462645072586 
2.192 1.407492825830251 -1.5707963267948966 -1.5707963267948966 0.0 1.5707963267948966 0.0 0.5714954084936206 0.0 0.0 0.0 0.0 0.0 -1.0 0.0 0.0 0.0 0.0 0.0 158.84033439283002 272.9574933391167 480.9 -1.5669897408797935 0.1282325579186647 -0.12823255791866472 
2.2 1.4120327890982003 -1.5707963267948966 -1.5707963267948966 0.0 1.5707963267948966 0.0 0.5634954084936206 0.0 0.0 0.0 0.0 0.0 -1.0 0.0 0.0 0.0 0.0 0.0 157.5994847089086 273.6758071505161 480.9 -1.567198506971618 0.12466896541188745 -0.12466896541188746 
2.208 1.4165087523661495 -1.5707963267948966 -1.5707963267948966 0.0 1.5707963267948966 0.0 0.5554954084936206 0.0 0.0 0.0 0.0 0.0 -1.0 0.0 0.0 0.0 0.0 0.0 156.3729472480938 274.3784728599255 480.9 -1.567398562173444 0.1211554953043945 -0.12115549530439453 
2.216 1.4209207156340982 -1.5707963267948966 -1.5707963267948966 0.0 1.5707963267948966 0.0 0.5474954084936206 0.0 0.0 0.0 0.0 0.0 -1.0 0.0 0.0 0.0 0.0 0.0 155.1608815015504 275.0657118792923 480.9 -1.5675901526501517 0.11769215556499665 -0.11769215556499668 
2.224 1.425268678902047 -1.5707963267948966 -1.5707963267948966 0.0 1.5707963267948966 0.0 0.5394954084936205 0.0 0.0 0.0 0.0 0.0 -1.0 0.0 0.0 0.0 0.0 0.0 153.96344301909093 275.73774354213305 480.9 -1.5677735209972226 0.11427895382385732 -0.11427895382385735 
2.232 1.429552642169996 -1.5707963267948966 -1.5707963267948966 0.0 1.5707963267948966 0.0 0.5314954084936205 0.0 0.0 0.0 0.0 0.0 -1.0 0.0 0.0 0.0 0.0 0.0 152.7807834746194 276.39478504646473 480.9 -1.567948906244265 0.11091589738234524 -0.11091589738234527 
2.24 1.4337726054379452 -1.5707963267948966 -1.5707963267948966 0.0 1.5707963267948966 0.0 0.5234954084936205 0.0 0.0 0.0 0.0 0.0 -1.0 0.0 0.0 0.0 0.0 0.0 151.61305073113746 277.0370513992624 480.9 -1.5681165438583848 0.10760299322272829 -0.1076029932227283 
2.248 1.437928568705894 -1.5707963267948966 -1.5707963267948966 0.0 1.5707963267948966 0.0 0.5154954084936205 0.0 0.0 0.0 0.0 0.0 -1.0 0.0 0.0 0.0 0.0 0.0 150.4603889052862 277.66475536241546 480.9 -1.5682766657474134 0.10434024801771213 -0.10434024801771215 
2.256 1.4420205319738433 -1.5707963267948966 -1.5707963267948966 0.0 1.5707963267948966 0.0 0.5074954084936205 0.0 0.0 0.0 0.0 0.0 -1.0 0.0 0.0 0.0 0.0 0.0 149.32293843139624 278.27810740015724 480.9 -1.568429500262986 0.10112766813982144 -0.10112766813982146 
2.264 1.446048495241792 -1.5707963267948966 -1.5707963267948966 0.0 1.5707963267948966 0.0 0.4994954084936205 0.0 0.0 0.0 0.0 0.0 -1.0 0.0 0.0 0.0 0.0 0.0 148.20083612502003 278.87731562793874 480.9 -1.5685752722034905 0.0979652596706307 -0.09796525967063073 
2.272 1.4500124585097411 -1.5707963267948966 -1.5707963267948966 0.0 1.5707963267948966 0.0 0.4914954084936205 0.0 0.0 0.0 0.0 0.0 -1.0 0.0 0.0 0.0 0.0 0.0 147.09421524591994 279.46258576272237 480.9 -1.5687142028168717 0.09485302840983657 -0.0948530284098366 
2.28 1.4539124217776902 -1.5707963267948966 -1.5707963267948966 0.0 1.5707963267948966 0.0 0.4834954084936205 0.0 0.0 0.0 0.0 0.0 -1.0 0.0 0.0 0.0 0.0 0.0 146.00320556048874 280.0341210746677 480.9 -1.5688465098033144 0.09179097988418296 -0.09179097988418297 
2.288 1.4577483850456388 -1.5707963267948966 -1.5707963267948966 0.0 1.5707963267948966 0.0 0.4754954084936205 0.0 0.0 0.0 0.0 0.0 -1.0 0.0 0.0 0.0 0.0 0.0 144.9279334035768 280.5921223401833 480.9 -1.5689724073177946 0.08877911935623078 -0.0887791193562308 
2.296 1.4615203483135877 -1.5707963267948966 -1.5707963267948966 0.0 1.5707963267948966 0.0 0.4674954084936205 0.0 0.0 0.0 0.0 0.0 -1.0 0.0 0.0 0.0 0.0 0.0 143.86852173970337 281.13678779631897 480.9 -1.5690921059725114 0.0858174518329769 -0.08581745183297691 
2.304 1.465228311581537 -1.5707963267948966 -1.5707963267948966 0.0 1.5707963267948966 0.0 0.45949540849362047 0.0 0.0 0.0 0.0 0.0 -1.0 0.0 0.0 0.0 0.0 0.0 142.82509022362967 281.66831309647176 480.9 -1.5692058128391986 0.08290598207432552 -0.08290598207432553 
2.312 1.4688722748494858 -1.5707963267948966 -1.5707963267948966 0.0 1.5707963267948966 0.0 0.4514954084936209 0.0 0.0 0.0 0.0 0.0 -1.0 0.0 0.0 0.0 0.0 0.0 141.79775526027137 282.18689126738 480.9 -1.5693137314513268 0.08004471460140869 -0.0800447146014087 
2.32 1.4724522381174345 -1.5707963267948966 -1.5707963267948966 0.0 1.5707963267948966 0.0 0.4434954084936209 0.0 0.0 0.0 0.0 0.0 -1.0 0.0 0.0 0.0 0.0 0.0 140.78663006392796 282.69271266738144 480.9 -1.5694160618061888 0.07723365370475595 -0.07723365370475596 
2.328 1.4759682013853836 -1.5707963267948966 -1.5707963267948966 0.0 1.5707963267948966 0.0 0.4354954084936209 0.0 0.0 0.0 0.0 0.0 -1.0 0.0 0.0 0.0 0.0 0.0 139.79182471681062 283.185964945907 480.9 -1.5695130003668847 0.07447280345231881 -0.07447280345231881 
2.336 1.4794201646533327 -1.5707963267948966 -1.5707963267948966 0.0 1.5707963267948966 0.0 0.4274954084936209 0.0 0.0 0.0 0.0 0.0 -1.0 0.0 0.0 0.0 0.0 0.0 138.81344622684756 283.6668330041884 480.9 -1.5696047400641995 0.07176216769734733 -0.07176216769734735 
2.344 1.4828081279212817 -1.5707963267948966 -1.5707963267948966 0.0 1.5707963267948966 0.0 0.4194954084936209 0.0 0.0 0.0 0.0 0.0 -1.0 0.0 0.0 0.0 0.0 0.0 137.85159858474606 284.13549895715255 480.9 -1.5696914702983826 0.0691017500861179 -0.06910175008611791 
2.352 1.4861320911892306 -1.5707963267948966 -1.5707963267948966 0.0 1.5707963267948966 0.0 0.4114954084936209 0.0 0.0 0.0 0.0 0.0 -1.0 0.0 0.0 0.0 0.0 0.0 136.90638282029485 284.5921420964796 480.9 -1.5697733769408357 0.06649155406551618 -0.0664915540655162 
2.36 1.4893920544571795 -1.5707963267948966 -1.5707963267948966 0.0 1.5707963267948966 0.0 0.40349540849362087 0.0 0.0 0.0 0.0 0.0 -1.0 0.0 0.0 0.0 0.0 0.0 135.97789705788696 285.0369388547995 480.9 -1.5698506423357024 0.06393158289047367 -0.06393158289047368 
2.368 1.4925880177251287 -1.5707963267948966 -1.5707963267948966 0.0 1.5707963267948966 0.0 0.39549540849362086 0.0 0.0 0.0 0.0 0.0 -1.0 0.0 0.0 0.0 0.0 0.0 135.0662365712461 285.47006277100263 480.9 -1.5699234453013735 0.06142183963125855 -0.061421839631258565 
2.376 1.495719980993077 -1.5707963267948966 -1.5707963267948966 0.0 1.5707963267948966 0.0 0.38749540849362085 0.0 0.0 0.0 0.0 0.0 -1.0 0.0 0.0 0.0 0.0 0.0 134.17149383734002 285.89168445664285 480.9 -1.5699919611319046 0.05896232718062373 -0.05896232718062375 
2.384 1.4987879442610261 -1.5707963267948966 -1.5707963267948966 0.0 1.5707963267948966 0.0 0.37949540849362084 0.0 0.0 0.0 0.0 0.0 -1.0 0.0 0.0 0.0 0.0 0.0 133.29375858946224 286.3019715634074 480.9 -1.5700563615983543 0.056553048260804706 -0.05655304826080472 
2.392 1.5017919075289752 -1.5707963267948966 -1.5707963267948966 0.0 1.5707963267948966 0.0 0.37149540849362084 0.0 0.0 0.0 0.0 0.0 -1.0 0.0 0.0 0.0 0.0 0.0 132.4331178694706 286.7010887516315 480.9 -1.570116814950041 0.054194005430381866 -0.05419400543038187 
2.4 1.5047318707969242 -1.5707963267948966 -1.5707963267948966 0.0 1.5707963267948966 0.0 0.36349540849362083 0.0 0.0 0.0 0.0 0.0 -1.0 0.0 0.0 0.0 0.0 0.0 131.58965607916238 287.08919765983495 480.9 -1.5701734859157248 0.05188520109099151 -0.051885201090991526 
2.408 1.5076078340648735 -1.5707963267948966 -1.5707963267948966 0.0 1.5707963267948966 0.0 0.3554954084936208 0.0 0.0 0.0 0.0 0.0 -1.0 0.0 0.0 0.0 0.0 0.0 130.7634550307741 287.46645687525825 480.9 -1.570226535704717 0.049626637493896925 -0.04962663749389694 
2.416 1.5104197973328224 -1.5707963267948966 -1.5707963267948966 0.0 1.5707963267948966 0.0 0.3474954084936208 0.0 0.0 0.0 0.0 0.0 -1.0 0.0 0.0 0.0 0.0 0.0 129.9545939965921 287.8330219053764 480.9 -1.5702761220079227 0.04741831674641734 -0.04741831674641735 
2.424 1.5131677606007712 -1.5707963267948966 -1.5707963267948966 0.0 1.5707963267948966 0.0 0.3394954084936208 0.0 0.0 0.0 0.0 0.0 -1.0 0.0 0.0 0.0 0.0 0.0 129.1631497576573 288.18904515036826 480.9 -1.5703223989988113 0.04526024081821067 -0.04526024081821069 
2.432 1.5158517238687204 -1.5707963267948966 -1.5707963267948966 0.0 1.5707963267948966 0.0 0.3314954084936208 0.0 0.0 0.0 0.0 0.0 -1.0 0.0 0.0 0.0 0.0 0.0 128.38919665155382 288.53467587652034 480.9 -1.5703655173343303 0.04315241154741721 -0.04315241154741722 
2.44 1.5184716871366695 -1.5707963267948966 -1.5707963267948966 0.0 1.5707963267948966 0.0 0.3234954084936208 0.0 0.0 0.0 0.0 0.0 -1.0 0.0 0.0 0.0 0.0 0.0 127.6328066192678 288.8700601905441 480.9 -1.5704056241557507 0.04109483064666064 -0.04109483064666065 
2.448 1.5210276504046185 -1.5707963267948966 -1.5707963267948966 0.0 1.5707963267948966 0.0 0.3154954084936208 0.0 0.0 0.0 0.0 0.0 -1.0 0.0 0.0 0.0 0.0 0.0 126.8940492511026 289.19534101478666 480.9 -1.570442863089461 0.0390874997089055 -0.03908749970890551 
2.456 1.523519613672567 -1.5707963267948966 -1.5707963267948966 0.0 1.5707963267948966 0.0 0.3074954084936208 0.0 0.0 0.0 0.0 0.0 -1.0 0.0 0.0 0.0 0.0 0.0 126.17299183164046 289.51065806331343 480.9 -1.5704773742477032 0.03713042021317495 -0.037130420213174954 
2.464 1.525947576940516 -1.5707963267948966 -1.5707963267948966 0.0 1.5707963267948966 0.0 0.2994954084936208 0.0 0.0 0.0 0.0 0.0 -1.0 0.0 0.0 0.0 0.0 0.0 125.46969938373765 289.8161478188448 480.9 -1.5705092942292558 0.035223593530124796 -0.0352235935301248 
2.472 1.5283115402084653 -1.5707963267948966 -1.5707963267948966 0.0 1.5707963267948966 0.0 0.29149540849362077 0.0 0.0 0.0 0.0 0.0 -1.0 0.0 0.0 0.0 0.0 0.0 124.78423471154386 290.1119435105254 480.9 -1.5705387561200674 0.0333670209274797 -0.03336702092747971 
2.48 1.5306115034764136 -1.5707963267948966 -1.5707963267948966 0.0 1.5707963267948966 0.0 0.28349540849362076 0.0 0.0 0.0 0.0 0.0 -1.0 0.0 0.0 0.0 0.0 0.0 124.11665844253373 290.39817509250884 480.9 -1.5705658894938423 0.03156070357532685 -0.03156070357532686 
2.488 1.5328474667443628 -1.5707963267948966 -1.5707963267948966 0.0 1.5707963267948966 0.0 0.27549540849362075 0.0 0.0 0.0 0.0 0.0 -1.0 0.0 0.0 0.0 0.0 0.0 123.46702906853915 290.674969223338 480.9 -1.5705908204125811 0.029804642551265147 -0.02980464255126515 
2.496 1.535019430012312 -1.5707963267948966 -1.5707963267948966 0.0 1.5707963267948966 0.0 0.26749540849362075 0.0 0.0 0.0 0.0 0.0 -1.0 0.0 0.0 0.0 0.0 0.0 122.8354029857776 290.94244924610365 480.9 -1.57061367142708 0.028098838845421588 -0.02809883884542159 
2.504 1.537127393280261 -1.5707963267948966 -1.5707963267948966 0.0 1.5707963267948966 0.0 0.25949540849362074 0.0 0.0 0.0 0.0 0.0 -1.0 0.0 0.0 0.0 0.0 0.0 122.2218345338605 291.2007351693632 480.9 -1.5706345615773867 0.02644329336532003 -0.026443293365320038 
2.512 1.53917135654821 -1.5707963267948966 -1.5707963267948966 0.0 1.5707963267948966 0.0 0.25149540849362073 0.0 0.0 0.0 0.0 0.0 -1.0 0.0 0.0 0.0 0.0 0.0 121.62637603377738 291.44994364880256 480.9 -1.5706536063932213 0.024838006940612972 -0.02483800694061298 
2.52 1.5411513198161588 -1.5707963267948966 -1.5707963267948966 0.0 1.5707963267948966 0.0 0.24349540849362072 0.0 0.0 0.0 0.0 0.0 -1.0 0.0 0.0 0.0 0.0 0.0 121.04907782484537 291.6901879696239 480.9 -1.5706709178943585 0.023282980327672446 -0.02328298032767245 
2.528 1.5430672830841081 -1.5707963267948966 -1.5707963267948966 0.0 1.5707963267948966 0.0 0.23549540849362072 0.0 0.0 0.0 0.0 0.0 -1.0 0.0 0.0 0.0 0.0 0.0 120.48998830061566 291.9215780296439 480.9 -1.5706866045909786 0.021778214214040498 -0.0217782142140405 
2.536 1.544919246352057 -1.5707963267948966 -1.5707963267948966 0.0 1.5707963267948966 0.0 0.2274954084936207 0.0 0.0 0.0 0.0 0.0 -1.0 0.0 0.0 0.0 0.0 0.0 119.94915394373044 292.14422032308505 480.9 -1.5707007714839838 0.02032370922274136 -0.020323709222741362 
2.544 1.546707209620006 -1.5707963267948966 -1.5707963267948966 0.0 1.5707963267948966 0.0 0.2194954084936207 0.0 0.0 0.0 0.0 0.0 -1.0 0.0 0.0 0.0 0.0 0.0 119.42661935971945 292.35821792504595 480.9 -1.5707135200652873 0.01891946591644995 -0.018919465916449954 
2.552 1.5484311728879547 -1.5707963267948966 -1.5707963267948966 0.0 1.5707963267948966 0.0 0.2114954084936207 0.0 0.0 0.0 0.0 0.0 -1.0 0.0 0.0 0.0 0.0 0.0 118.92242730973398 292.5636704766349 480.9 -1.5707249483180739 0.017565484801525776 -0.017565484801525776 
2.56 1.5500911361559038 -1.5707963267948966 -1.5707963267948966 0.0 1.5707963267948966 0.0 0.2034954084936207 0.0 0.0 0.0 0.0 0.0 -1.0 0.0 0.0 0.0 0.0 0.0 118.43661874220557 292.76067417075234 480.9 -1.5707351507170317 0.01626176633190145 -0.016261766331901455 
2.568 1.5516870994238527 -1.5707963267948966 -1.5707963267948966 0.0 1.5707963267948966 0.0 0.19549540849362068 0.0 0.0 0.0 0.0 0.0 -1.0 0.0 0.0 0.0 0.0 0.0 117.9692328234282 292.9493217385078 480.9 -1.5707442182285645 0.01500831091283696 -0.015008310912836963 
2.576 1.5532190626918012 -1.5707963267948966 -1.5707963267948966 0.0 1.5707963267948966 0.0 0.18749540849362067 0.0 0.0 0.0 0.0 0.0 -1.0 0.0 0.0 0.0 0.0 0.0 117.52030696705368 293.1297024362585 480.9 -1.5707522383109778 0.01380511890453065 -0.013805118904530653 
2.584 1.5546870259597505 -1.5707963267948966 -1.5707963267948966 0.0 1.5707963267948966 0.0 0.17949540849362067 0.0 0.0 0.0 0.0 0.0 -1.0 0.0 0.0 0.0 0.0 0.0 117.0898768624957 293.30190203325583 480.9 -1.5707592949146465 0.012652190625590483 -0.012652190625590486 
2.592 1.5560909892276997 -1.5707963267948966 -1.5707963267948966 0.0 1.5707963267948966 0.0 0.17149540849362066 0.0 0.0 0.0 0.0 0.0 -1.0 0.0 0.0 0.0 0.0 0.0 116.67797650223855 293.4660027998866 480.9 -1.5707654684821606 0.01154952635637024 -0.011549526356370243 
2.6 1.5574309524956484 -1.5707963267948966 -1.5707963267948966 0.0 1.5707963267948966 0.0 0.16349540849362065 0.0 0.0 0.0 0.0 0.0 -1.0 0.0 0.0 0.0 0.0 0.0 116.28463820804154 293.6220834964987 480.9 -1.5707708359484562 0.01049712634216113 -0.010497126342161132 
2.608 1.5587069157635975 -1.5707963267948966 -1.5707963267948966 0.0 1.5707963267948966 0.0 0.15549540849362065 0.0 0.0 0.0 0.0 0.0 -1.0 0.0 0.0 0.0 0.0 0.0 115.90989265603625 293.77021936279743 480.9 -1.570775470740928 0.009494990796245335 -0.009494990796245335 
2.616 1.5599188790315466 -1.5707963267948966 -1.5707963267948966 0.0 1.5707963267948966 0.0 0.14749540849362064 0.0 0.0 0.0 0.0 0.0 -1.0 0.0 0.0 0.0 0.0 0.0 115.55376890071261 293.9104821078022 480.9 -1.5707794427795285 0.008543119902813014 -0.008543119902813015 
2.624 1.5610668422994955 -1.5707963267948966 -1.5707963267948966 0.0 1.5707963267948966 0.0 0.13949540849362063 0.0 0.0 0.0 0.0 0.0 -1.0 0.0 0.0 0.0 0.0 0.0 115.21629439778661 294.0429399003529 480.9 -1.5707828184768537 0.007641513819736475 -0.0076415138197364766 
2.632 1.562150805567445 -1.5707963267948966 -1.5707963267948966 0.0 1.5707963267948966 0.0 0.13149540849362062 0.0 0.0 0.0 0.0 0.0 -1.0 0.0 0.0 0.0 0.0 0.0 114.89749502594698 294.16765736015657 480.9 -1.5707856607382156 0.006790172681206436 -0.006790172681206437 
2.64 1.5631707688353937 -1.5707963267948966 -1.5707963267948966 0.0 1.5707963267948966 0.0 0.12349540849362062 0.0 0.0 0.0 0.0 0.0 -1.0 0.0 0.0 0.0 0.0 0.0 114.59739510747733 294.2846955493621 480.9 -1.570788028961702 0.005989096600230372 -0.005989096600230373 
2.648 1.5641267321033425 -1.5707963267948966 -1.5707963267948966 0.0 1.5707963267948966 0.0 0.11549540849362061 0.0 0.0 0.0 0.0 0.0 -1.0 0.0 0.0 0.0 0.0 0.0 114.31601742774721 294.39411196465693 480.9 -1.5707899790382351 0.005238285670988155 -0.005238285670988156 
2.656 1.5650186953712912 -1.5707963267948966 -1.5707963267948966 0.0 1.5707963267948966 0.0 0.1074954084936206 0.0 0.0 0.0 0.0 0.0 -1.0 0.0 0.0 0.0 0.0 0.0 114.0533832535722 294.4959605298751 480.9 -1.5707915633516065 0.004537739971051874 -0.004537739971051875 
2.664 1.5658466586392403 -1.5707963267948966 -1.5707963267948966 0.0 1.5707963267948966 0.0 0.0994954084936206 0.0 0.0 0.0 0.0 0.0 -1.0 0.0 0.0 0.0 0.0 0.0 113.80951235043645 294.5902915891083 480.9 -1.5707928307785217 0.0038874595634643687 -0.003887459563464369 
2.672 1.566610621907189 -1.5707963267948966 -1.5707963267948966 0.0 1.5707963267948966 0.0 0.09149540849362059 0.0 0.0 0.0 0.0 0.0 -1.0 0.0 0.0 0.0 0.0 0.0 113.58442299857693 294.67715190031333 480.9 -1.5707938266886228 0.0032874444986806008 -0.003287444498680601 
2.68 1.5673105851751379 -1.5707963267948966 -1.5707963267948966 0.0 1.5707963267948966 0.0 0.08349540849362058 0.0 0.0 0.0 0.0 0.0 -1.0 0.0 0.0 0.0 0.0 0.0 113.37813200792388 294.7565846294087 480.9 -1.5707945929445148 0.0027376948163659836 -0.002737694816365984 
2.688 1.5679465484430872 -1.5707963267948966 -1.5707963267948966 0.0 1.5707963267948966 0.0 0.07549540849362057 0.0 0.0 0.0 0.0 0.0 -1.0 0.0 0.0 0.0 0.0 0.0 113.1906547318983 294.82862934485206 480.9 -1.5707951679017835 0.0022382105470600305 -0.002238210547060031 
2.696 1.568518511711036 -1.5707963267948966 -1.5707963267948966 0.0 1.5707963267948966 0.0 0.06749540849362057 0.0 0.0 0.0 0.0 0.0 -1.0 0.0 0.0 0.0 0.0 0.0 113.0220050800608 294.89332201269445 480.9 -1.57079558640901 0.001788991713698706 -0.0017889917136987064 
2.704 1.5690264749789853 -1.5707963267948966 -1.5707963267948966 0.0 1.5707963267948966 0.0 0.05949540849362056 0.0 0.0 0.0 0.0 0.0 -1.0 0.0 0.0 0.0 0.0 0.0 112.87219552961052 294.95069499210433 480.9 -1.5707958798077812 0.0013900383329954837 -0.0013900383329954837 
2.712 1.5694704382469344 -1.5707963267948966 -1.5707963267948966 0.0 1.5707963267948966 0.0 0.051495408493620554 0.0 0.0 0.0 0.0 0.0 -1.0 0.0 0.0 0.0 0.0 0.0 112.74123713573402 295.00077703135656 480.9 -1.570796075932697 0.0010413504166877374 -0.0010413504166877374 
2.72 1.569850401514883 -1.5707963267948966 -1.5707963267948966 0.0 1.5707963267948966 0.0 0.043495408493620547 0.0 0.0 0.0 0.0 0.0 -1.0 0.0 0.0 0.0 0.0 0.0 112.62913954079924 295.04359326428215 480.9 -1.5707961991113766 0.0007429279726404516 -0.0007429279726404517 
2.728 1.5701663647828321 -1.5707963267948966 -1.5707963267948966 0.0 1.5707963267948966 0.0 0.03549540849362054 0.0 0.0 0.0 0.0 0.0 -1.0 0.0 0.0 0.0 0.0 0.0 112.53591098239478 295.0791652071737 480.9 -1.5707962701644607 0.000494771005810738 -0.0004947710058107381 
2.736 1.5704183280507815 -1.5707963267948966 -1.5707963267948966 0.0 1.5707963267948966 0.0 0.027495408493620532 0.0 0.0 0.0 0.0 0.0 -1.0 0.0 0.0 0.0 0.0 0.0 112.46155830021345 295.10751075614405 480.9 -1.5707963064056163 0.0002968795190759488 -0.0002968795190759488 
2.744 1.5706062913187304 -1.5707963267948966 -1.5707963267948966 0.0 1.5707963267948966 0.0 0.019495408493620525 0.0 0.0 0.0 0.0 0.0 -1.0 0.0 0.0 0.0 0.0 0.0 112.40608694177799 295.1286441849341 480.9 -1.5707963216415355 0.00014925351392085288 -0.0001492535139208529 
2.752 1.5707302545866793 -1.5707963267948966 -1.5707963267948966 0.0 1.5707963267948966 0.0 0.011495408493620518 0.0 0.0 0.0 0.0 0.0 -1.0 0.0 0.0 0.0 0.0 0.0 112.36950096700713 295.14257614316807 480.9 -1.5707963261719384 5.1892990983879494e-05 -5.189299098387951e-05 
2.76 1.5707902178546276 -1.5707963267948966 -1.5707963267948966 0.0 1.5707963267948966 0.0 0.003495408493620511 0.0 0.0 0.0 0.0 0.0 -1.0 0.0 0.0 0.0 0.0 0.0 112.35180305162397 295.1493136550534 480.9 -1.5707963267895708 4.797950467655232e-06 -4.797950467655233e-06 
2.768 1.5707861811225767 -1.5707963267948966 -1.5707963267948966 0.0 1.5707963267948966 0.0 -0.004504591506379496 0.0 0.0 0.0 0.0 0.0 -1.0 0.0 0.0 0.0 0.0 0.0 112.35299448940279 295.1488601185243 480.9 -1.5707963267802079 7.968392406515168e-06 -7.968392406515168e-06 
