Fleaurent/UniversalRobot/csv/robolib_movel_x400_Singular.csv
timestamp target_q_0 target_q_1 target_q_2 target_q_3 target_q_4 target_q_5 target_qd_0 target_qd_1 target_qd_2 target_qd_3 target_qd_4 target_qd_5 target_TCP_pose_0 target_TCP_pose_1 target_TCP_pose_2 target_TCP_pose_3 target_TCP_pose_4 target_TCP_pose_5 target_TCP_speed_0 target_TCP_speed_1 target_TCP_speed_2 target_TCP_speed_3 target_TCP_speed_4 target_TCP_speed_5 target_TCP_acc_0 target_TCP_acc_1 target_TCP_acc_2 target_TCP_acc_3 target_TCP_acc_4 target_TCP_acc_5
0.0 -0.31866182699889434 -1.3456676029841685 -2.1328533871034123 6.000414840147485 1.3875764263084367 0.3089424228297599 0.0 0.0 0.0 0.0 0.0 0.0 200.0 -200.0 350.0 2.0 -2.0 2.0 0.0 0.0 0.0 0.0 0.0 0.0 0.0 1000.0 0.0 0.0 0.0 0.0 
0.008 -0.3184890190182861 -1.345486414153326 -2.132982709481519 6.000275694936313 1.3874118000634266 0.30895216347104987 0.03868340931418801 0.0330224931792907 -0.023064732320418606 -0.014125175133847308 -0.03148840085521709 0.022852879676081062 200.0 -199.968 350.0 2.0 -2.0 2.0 0.0 8.0 0.0 0.0 0.0 0.0 0.0 1000.0 0.0 0.0 0.0 0.0 
0.016 -0.3179703623560721 -1.3449427170645365 -2.133370524587959 5.999857903001734 1.3869177027031048 0.3089814540329731 0.07741943113697392 0.06606774158032415 -0.04609620088746692 -0.028338092598734568 -0.06300784820217797 0.0457578252684465 200.0 -199.872 350.0 2.0 -2.0 2.0 0.0 16.0 0.0 0.0 0.0 0.0 0.0 1000.0 0.0 0.0 0.0 0.0 
0.024 -0.31710515830192687 -1.3440361196526625 -2.134016375795851 5.9991603944569984 1.3860934778793657 0.30903050091594697 0.11626081832730209 0.09915862053503843 -0.06906104436259158 -0.04272696956885132 -0.09458941831549891 0.06876715348500795 200.0 -199.712 350.0 2.0 -2.0 2.0 0.0 24.0 0.0 0.0 0.0 0.0 0.0 1000.0 0.0 0.0 0.0 0.0 
0.032 -0.315892240507865 -1.3427659675587438 -2.1349195002442753 5.9981813828757025 1.3849380301051941 0.30909964974705023 0.1552606047759986 0.13231824595528274 -0.09192570481843765 -0.05738097746825121 -0.12626424658533167 0.09193368478764263 200.0 -199.488 350.0 2.0 -2.0 2.0 0.0 32.0 0.0 0.0 0.0 0.0 0.0 1000.0 0.0 0.0 0.0 0.0 
0.04 -0.31432997224123427 -1.3411313427688965 -2.1360788260955292 5.99691836035769 1.3834498223965046 0.3091893878390454 0.194472246743827 0.16557009551365293 -0.11465632587824842 -0.07239073055675266 -0.15806355593745453 0.11531100072593349 200.0 -199.2 350.0 2.0 -2.0 2.0 0.0 40.0 0.0 0.0 0.0 0.0 0.0 1000.0 0.0 0.0 0.0 0.0 
0.048 -0.31241624253739264 -1.3391310617382242 -2.1374929686580235 5.995368090598719 1.3816268729751404 0.3093003476722471 0.23394976516941082 0.19893813087065576 -0.13721864651909027 -0.08784878841535763 -0.19001868385381443 0.1389537079035485 200.0 -198.848 350.0 2.0 -2.0 2.0 0.0 48.0 0.0 0.0 0.0 0.0 0.0 1000.0 0.0 0.0 0.0 0.0 
0.056 -0.3101484612509158 -1.3367636730302612 -2.1391602253373705 5.99352659994152 1.3794667510379457 0.3094333114392918 0.2737478892417009 0.23244692125743624 -0.15957788899765726 -0.10385017721011469 -0.22216110746882045 0.1629177109308484 200.0 -198.432 350.0 2.0 -2.0 2.0 0.0 56.0 0.0 0.0 0.0 0.0 0.0 1000.0 0.0 0.0 0.0 0.0 
0.064 -0.3075235530044209 -1.3340274545127548 -2.1410785693671905 5.991389166380157 1.3769665715989763 0.3095892167054895 0.31392220150549555 0.26612176868602455 -0.18169863927266228 -0.12049293482763064 -0.2545224661649552 0.18726049684327273 200.0 -197.952 350.0 2.0 -2.0 2.0 0.0 64.0 0.0 0.0 0.0 0.0 0.0 1000.0 0.0 0.0 0.0 0.0 
0.072 -0.3045379500347214 -1.3309204101620797 -2.1432456422599526 5.98895030648387 1.3741229894145897 0.30976916325100085 0.3545292847336337 0.29998883500803536 -0.2035447181885472 -0.13787868524786978 -0.2871345810241107 0.21204143362724326 200.0 -197.408 350.0 2.0 -2.0 2.0 0.0 72.00000000000001 0.0 0.0 0.0 0.0 0.0 1000.0 0.0 0.0 0.0 0.0 
0.08 -0.3011875839372631 -1.3274402665416387 -2.14565874490666 5.9862037602016205 1.3709321920046464 0.30997442117582025 0.3956268707543795 0.33407527097479284 -0.22507904154918823 -0.15611324785346836 -0.3200294704068123 0.23732208569699 200.0 -196.8 350.0 2.0 -2.0 2.0 0.0 80.0 0.0 0.0 0.0 0.0 0.0 1000.0 0.0 0.0 0.0 0.0 
0.088 -0.2974678763116718 -1.3235844690345484 -2.1483148272424106 5.983142473503974 1.3673898917873903 0.3102064403647548 0.43727399136519407 0.36840934736276504 -0.2462634670445013 -0.17530728777324123 -0.35323936082791774 0.26316654941106415 200.0 -196.12800000000001 350.0 2.0 -2.0 2.0 0.0 88.0 0.0 0.0 0.0 0.0 0.0 1000.0 0.0 0.0 0.0 0.0 
0.096 -0.2933737283140201 -1.3193501779281842 -2.1512104763827082 5.979758578815227 1.3634913173510772 0.3104668614275734 0.47953113139213716 0.40302058811277286 -0.2670586257939543 -0.19557701382508738 -0.3867966921718052 0.28964181201143574 200.0 -195.392 350.0 2.0 -2.0 2.0 0.0 96.0 0.0 0.0 0.0 0.0 0.0 1000.0 0.0 0.0 0.0 0.0 
0.104 -0.28889950912521734 -1.3147342644681972 -2.154341903122898 5.976043373185611 1.3592312038923302 0.31075752824964226 0.5224603838644759 0.43793990528301785 -0.2874237360347066 -0.2170449311649709 -0.420734116139092 0.31681813771726525 200.0 -194.59199999999998 350.0 2.0 -2.0 2.0 0.0 104.00000000000001 0.0 0.0 0.0 0.0 0.0 1000.0 0.0 0.0 0.0 0.0 
0.112 -0.28403904334997865 -1.3097333070229245 -2.157704926680182 5.971987294151257 1.354603782859654 0.3110805023110754 0.5661256071630144 0.4731997354264234 -0.30731639620351636 -0.23984065636953225 -0.4550844866365241 0.34476948511721506 200.0 -193.728 350.0 2.0 -2.0 2.0 0.0 112.0 0.0 0.0 0.0 0.0 0.0 1000.0 0.0 0.0 0.0 0.0 
0.12 -0.2787855973674249 -1.3043435875263067 -2.1612949575443583 5.967579893228775 1.3496027708511569 0.3114380789582102 0.6105925838636772 0.5088341767618861 -0.32669235433484745 -0.2641018033859533 -0.4898808406070234 0.37357396048742925 200.0 -192.8 350.0 2.0 -2.0 2.0 0.0 120.0 0.0 0.0 0.0 0.0 0.0 1000.0 0.0 0.0 0.0 0.0 
0.128 -0.27313186466273676 -1.2985610883991097 -2.165106978289656 5.962809806991313 1.3442213578283495 0.31183280584063966 0.6559291808294301 0.5448791262042918 -0.34550525031588164 -0.28997494958055886 -0.5251563675418892 0.40331431222800085 200.0 -191.808 350.0 2.0 -2.0 2.0 0.0 128.0 0.0 0.0 0.0 0.0 0.0 1000.0 0.0 0.0 0.0 0.0 
0.136 -0.26706995017983814 -1.292381490185167 -2.1691355221859316 5.957664725674525 1.338452194723656 0.3122675037607905 0.702205509897135 0.58137241493418 -0.36370632709449674 -0.31761669201390413 -0.5609443656149055 0.4340784722715219 200.0 -190.752 350.0 2.0 -2.0 2.0 0.0 136.0 0.0 0.0 0.0 0.0 0.0 1000.0 0.0 0.0 0.0 0.0 
0.144 -0.26059135374821896 -1.2858001701823687 -2.173374649432894 5.952131359263667 1.3322873805384001 0.3127452902219153 0.7494940882532584 0.6183539407057742 -0.3812441064193594 -0.34719480507184225 -0.5972781820198614 0.46596015108854566 200.0 -189.632 350.0 2.0 -2.0 2.0 0.0 144.00000000000003 0.0 0.0 0.0 0.0 0.0 1000.0 0.0 0.0 0.0 0.0 
0.152 -0.25369866392560025 -1.2788240329603795 -2.177810448620666 5.946205503331844 1.3257295903499562 0.31326870337958723 0.7873604239868188 0.6472306701144309 -0.3928336576780683 -0.3738832265415785 -0.62584028971942 0.49248078580368243 200.0 -188.45 350.0 2.0 -2.0 2.0 0.0 150.0 0.0 0.0 0.0 0.0 0.0 0.0 0.0 0.0 0.0 0.0 
0.16 -0.24664228992851855 -1.271709502794237 -2.182273310236177 5.9400979811507515 1.319017238248473 0.31382078094628435 0.7941630035357047 0.6504452077935787 -0.38841187014172057 -0.3865550911558303 -0.6295782587682307 0.49983173105247997 200.0 -187.25 350.0 2.0 -2.0 2.0 0.0 150.0 0.0 0.0 0.0 0.0 0.0 0.0 0.0 0.0 0.0 0.0 
0.168 -0.23952627926400005 -1.2645624618148084 -2.1866947726037083 5.933897416717869 1.3122493931885866 0.314394290422857 0.8010303361395638 0.6537154221807354 -0.3839266283950043 -0.39949944928767495 -0.6333218631996884 0.5073242268607735 200.0 -186.05 350.0 2.0 -2.0 2.0 0.0 150.0 0.0 0.0 0.0 0.0 0.0 0.0 0.0 0.0 0.0 0.0 
0.176 -0.2323501582915477 -1.2573828164746228 -2.1910742136033594 5.927602873373598 1.3054256759386504 0.31498983569214783 0.8079625753844675 0.6570413567853439 -0.37937560776199686 -0.41272321616135516 -0.6370701586379294 0.5149618001606321 200.0 -184.85 350.0 2.0 -2.0 2.0 0.0 150.0 0.0 0.0 0.0 0.0 0.0 0.0 0.0 0.0 0.0 0.0 
0.184 -0.2251134560717576 -1.2501704916638317 -2.195410997374028 5.921213409258332 1.2985457129983138 0.315608040523098 0.8149598435267831 0.6604229990794941 -0.3747564104425394 -0.4262334630995782 -0.6408221521126377 0.5227480866718853 200.0 -183.65 350.0 2.0 -2.0 2.0 0.0 150.0 0.0 0.0 0.0 0.0 0.0 0.0 0.0 0.0 0.0 0.0 
0.192 -0.2178157047478848 -1.2429254316464209 -2.199704474222714 5.914728077537022 1.2916091371007792 0.31624954934596883 0.8220222295120003 0.6638602760000721 -0.3700665630186796 -0.44003741992041684 -0.6445767999134043 0.5306868348136612 200.0 -182.45 350.0 2.0 -2.0 2.0 0.0 150.0 0.0 0.0 0.0 0.0 0.0 0.0 0.0 0.0 0.0 0.0 
0.2 -0.21045643994507524 -1.2356476010243238 -2.2039539805371584 5.908145926617886 1.2846155877383725 0.3169150280623889 0.8291497869005436 0.6673530492024488 -0.36530351388943183 -0.454142477298425 -0.6483330053483863 0.5387819097695494 200.0 -181.25 350.0 2.0 -2.0 2.0 0.0 150.0 0.0 0.0 0.0 0.0 0.0 0.0 0.0 0.0 0.0 0.0 
0.208 -0.20303520118785645 -1.2283369857292228 -2.2081588387017437 5.9014660003627295 1.277564711712294 0.3176051648919787 0.8363425316970664 0.6709011100550758 -0.36046463063181355 -0.4685561890856262 -0.6520896164029284 0.5470372977125516 200.0 -180.05 350.0 2.0 -2.0 2.0 0.0 150.0 0.0 0.0 0.0 0.0 0.0 0.0 0.0 0.0 0.0 0.0 
0.216 -0.1955515323365189 -1.2209935940417915 -2.2123183570165135 5.8946873382864045 1.2704561637075102 0.3183206712573947 0.843600440079668 0.6745041743640463 -0.3555471972861054 -0.4832862745877278 -0.6558454232937728 0.5554571101959911 200.0 -178.85 350.0 2.0 -2.0 2.0 0.0 150.0 0.0 0.0 0.0 0.0 0.0 0.0 0.0 0.0 0.0 0.0 
0.224 -0.18800498204301475 -1.2136174576380168 -2.2164318296191348 5.887808975742349 1.2632896068937456 0.3190622827097397 0.850923446025359 0.6781618768163414 -0.3505484115631358 -0.4983406207908677 -0.6595991559141351 0.5640455887169167 200.0 -177.65 350.0 2.0 -2.0 2.0 0.0 150.0 0.0 0.0 0.0 0.0 0.0 0.0 0.0 0.0 0.0 0.0 
0.232 -0.18039510422701577 -1.2062086326621366 -2.220498536409532 5.880829944091119 1.2560647135535643 0.31983075989639015 0.8583114388281218 0.6818737651301781 -0.34546538197132587 -0.5137272845339488 -0.6633494811649192 0.5728071094585895 200.0 -176.45 350.0 2.0 -2.0 2.0 0.0 150.0 0.0 0.0 0.0 0.0 0.0 0.0 0.0 0.0 0.0 0.0 
0.24 -0.17272145857278964 -1.1987672008256542 -2.2245177429768774 5.873749270848297 1.2487811657385808 0.32062688957340424 0.8657642605057819 0.6856392939005276 -0.34029512486110597 -0.5294544946214947 -0.6670950001669814 0.5817461882189476 200.0 -175.25 350.0 2.0 -2.0 2.0 0.0 150.0 0.0 0.0 0.0 0.0 0.0 0.0 0.0 0.0 0.0 0.0 
0.248 -0.16498361104755688 -1.1912932705317565 -2.228488700528525 5.866565979808028 1.2414386559548614 0.32145148566479337 0.8732817030919522 0.689457818127536 -0.33503456138422527 -0.5455306538717017 -0.6708342453493581 0.5908674855320155 200.0 -174.05 350.0 2.0 -2.0 2.0 0.0 150.0 0.0 0.0 0.0 0.0 0.0 0.0 0.0 0.0 0.0 0.0 
0.256 -0.157181134442002 -1.1837869780243802 -2.232410645820385 5.859279091137895 1.2340368878785946 0.32230539037106454 0.8808635058092004 0.6933285864151969 -0.32968051436532414 -0.5619643410941979 -0.6745656774079763 0.6001758119894991 200.0 -172.85 350.0 2.0 -2.0 2.0 0.0 150.0 0.0 0.0 0.0 0.0 0.0 0.0 0.0 0.0 0.0 0.0 
0.264 -0.1493136089336271 -1.176248488561043 -2.2362828010881555 5.8518876214406745 1.226575577103187 0.3231894753295736 0.8885093521196599 0.6972507338272713 -0.32422970508303844 -0.5787643129917122 -0.6782876821293903 0.6096761337698695 200.0 -171.65 350.0 2.0 -2.0 2.0 0.0 150.0 0.0 0.0 0.0 0.0 0.0 0.0 0.0 0.0 0.0 0.0 
0.272 -0.14138062267363205 -1.1686779976084494 -2.2401043739787 5.84439058377791 1.2190544519189228 0.3241046428293713 0.896218866649225 0.7012232743870176 -0.31867874995773965 -0.5959395059796349 -0.6819985670736938 0.6193735783824872 200.0 -170.45 350.0 2.0 -2.0 2.0 0.0 150.0 0.0 0.0 0.0 0.0 0.0 0.0 0.0 0.0 0.0 0.0 
0.28 -0.13338177239802995 -1.1610757320597782 -2.243874557480752 5.836786987650038 1.2114732541264073 0.3250518270833666 0.9039916119815331 0.7052450932068753 -0.3130241571428991 -0.613499037917041 -0.6856965581107156 0.6292734406343433 200.0 -169.25 350.0 2.0 -2.0 2.0 0.0 150.0 0.0 0.0 0.0 0.0 0.0 0.0 0.0 0.0 0.0 0.0 
0.288 -0.12531666406369002 -1.153441951472417 -2.2475925298540114 5.829075838927233 1.2038317398850114 0.3260319955607938 0.911827085317968 0.7093149382338154 -0.30726232301688344 -0.6314522097424795 -0.689379795803356 0.6393811888271892 200.0 -168.04999999999998 350.0 2.0 -2.0 2.0 0.0 150.0 0.0 0.0 0.0 0.0 0.0 0.0 0.0 0.0 0.0 0.0 
0.296 -0.1171849135100258 -1.1457769493248322 -2.2512574545555273 5.821256139724707 1.1961296805976012 0.32704615038312995 0.9197247149999137 0.7134314115955026 -0.3013895285718385 -0.6498085070072867 -0.693046331631686 0.6497024711928567 200.0 -166.85 350.0 2.0 -2.0 2.0 0.0 150.0 0.0 0.0 0.0 0.0 0.0 0.0 0.0 0.0 0.0 0.0 
0.304 -0.10898614714703525 -1.1380810542911104 -2.2548684801621532 5.8133268882158715 1.1883668638328635 0.3280953297867836 0.9276838568896781 0.717592960531986 -0.29540193569618206 -0.6685776012987265 -0.6966941240514238 0.6602431225745921 200.0 -165.65 350.0 2.0 -2.0 2.0 0.0 150.0 0.0 0.0 0.0 0.0 0.0 0.0 0.0 0.0 0.0 0.0 
0.312 -0.1007200026704056 -1.1303546315316462 -2.258424740287664 5.805287078376008 1.1805430942865602 0.32918060965605955 0.9357037906064304 0.72179786789692 -0.2892955833469959 -0.6877693515446588 -0.7003210343799272 0.6710091713623338 200.0 -164.45 350.0 2.0 -2.0 2.0 0.0 150.0 0.0 0.0 0.0 0.0 0.0 0.0 0.0 0.0 0.0 0.0 
0.32 -0.09238612980439509 -1.1225980839982954 -2.2619253534929538 5.797135699648876 1.1726581947831105 0.3303031051300969 0.9437837156138036 0.7260442422118026 -0.2830663836085069 -0.7073938051907028 -0.7039248225030015 0.6820068466897012 200.0 -163.25 350.0 2.0 -2.0 2.0 0.0 150.0 0.0 0.0 0.0 0.0 0.0 0.0 0.0 0.0 0.0 0.0 
0.328 -0.08398419107319999 -1.1148118537522769 -2.26536942318757 5.788871736528021 1.1647120073189228 0.33146397228767754 0.9519227471558322 0.7303300072559212 -0.2767101176326439 -0.7274611992400203 -0.7075031423954282 0.6932425859004292 200.0 -162.05 350.0 2.0 -2.0 2.0 0.0 150.0 0.0 0.0 0.0 0.0 0.0 0.0 0.0 0.0 0.0 0.0 
0.336 -0.07551386260151194 -1.1069964232929572 -2.268756037520598 5.780494168043951 1.1567043941489334 0.3326644099140216 0.9601199120381484 0.734652891173983 -0.2702224314574879 -0.7479819611449435 -0.7110535374480447 0.7047230422918579 200.0 -160.85 350.0 2.0 -2.0 2.0 0.0 150.0 0.0 0.0 0.0 0.0 0.0 0.0 0.0 0.0 0.0 0.0 
0.344 -0.06697483494496281 -1.0991523168956365 -2.272084269258712 5.772001967147959 1.148635238917866 0.3339056613539036 0.9683741442515563 0.7390104150824963 -0.2635988316993101 -0.7689667095383896 -0.7145734355940996 0.716455093142743 200.0 -159.65 350.0 2.0 -2.0 2.0 0.0 150.0 0.0 0.0 0.0 0.0 0.0 0.0 0.0 0.0 0.0 0.0 
0.352 -0.058366813951139296 -1.0912801019563467 -2.275353175648992 5.763394099982653 1.1405044478377424 0.3351890164556671 0.9766842804353923 0.7433998811550936 -0.25683468111372676 -0.7904262547918198 -0.7180601442274395 0.7284458480324579 200.0 -158.45 350.0 2.0 -2.0 2.0 0.0 150.0 0.0 0.0 0.0 0.0 0.0 0.0 0.0 0.0 0.0 0.0 
0.36 -0.04968952165184937 -1.0833803903416612 -2.278561798263808 5.754669525028776 1.132311950913244 0.3365158136109552 0.9850490551783534 0.7478183601658512 -0.24992519402140922 -0.8123715993847571 -0.7215108449050278 0.7407026574580942 200.0 -157.25 350.0 2.0 -2.0 2.0 0.0 150.0 0.0 0.0 0.0 0.0 0.0 0.0 0.0 0.0 0.0 0.0 
0.368 -0.040942697187290156 -1.075453839741468 -2.2817091628248605 5.745827192117225 1.124057703216536 0.33788744189524067 0.9934670961548591 0.7522626784685822 -0.24286543159366275 -0.8348139380692097 -0.7249225878261754 0.7532331217555487 200.0 -156.05 350.0 2.0 -2.0 2.0 0.0 150.0 0.0 0.0 0.0 0.0 0.0 0.0 0.0 0.0 0.0 0.0 
0.376 -0.03212609776276221 -1.0675011550226774 -2.2847942790031572 5.736866041294688 1.115741686213229 0.33930534331450973 1.0019369190954133 0.7567294043887348 -0.2356502969931922 -0.8577646578100575 -0.7282922860808835 0.7660451003298788 200.0 -154.85 350.0 2.0 -2.0 2.0 0.0 150.0 0.0 0.0 0.0 0.0 0.0 0.0 0.0 0.0 0.0 0.0 
0.384 -0.02323949963854277 -1.0595230895818446 -2.2878161401913997 5.727785001530613 1.1073639091411858 0.340771015163736 1.0104569225898734 0.7612148340031318 -0.22827453036531561 -0.8812353374800742 -0.7316167096596142 0.7791467211994263 200.0 -153.65 350.0 2.0 -2.0 2.0 0.0 150.0 0.0 0.0 0.0 0.0 0.0 0.0 0.0 0.0 0.0 0.0 
0.392 -0.014282699153504552 -1.0515204466947505 -2.290773723244965 5.718582989252724 1.0989244104439142 0.34228601250308366 1.0190253827231146 0.7657149762812189 -0.22073270367499626 -0.9052377472853365 -0.7348924792169104 0.7925463908571451 200.0 -152.45 350.0 2.0 -2.0 2.0 0.0 150.0 0.0 0.0 0.0 0.0 0.0 0.0 0.0 0.0 0.0 0.0 
0.4 -0.005255513783042343 -1.0434940808610813 -2.2936659881873043 5.709258906697608 1.0904232592603482 0.3438519507580851 1.027640447543089 0.7702255375597306 -0.21301921538516858 -0.9297838478934398 -0.7381160595812553 0.8062528044513096 200.0 -151.25 350.0 2.0 -2.0 2.0 0.0 150.0 0.0 0.0 0.0 0.0 0.0 0.0 0.0 0.0 0.0 0.0 
0.408 0.0038422167681799735 -1.0354448991424587 -2.296491877875259 5.69981164006246 1.0818605569728403 0.34547050845036537 1.0363001313620641 0.774741905320839 -0.20512828497210525 -0.954885789233116 -0.7412837530038505 0.8202749562862645 200.0 -150.05 350.0 2.0 -2.0 2.0 0.0 150.0 0.0 0.0 0.0 0.0 0.0 0.0 0.0 0.0 0.0 0.0 
0.416 0.013010629438174215 -1.0273738624922704 -2.2992503176193932 5.69024005744331 1.0732364388152495 0.3471434300658191 1.0450023088924236 0.7792591312416723 -0.19705394727388642 -0.9805559089293927 -0.7443916921389471 0.8346221506421031 200.0 -148.85 350.0 2.0 -2.0 2.0 0.0 150.0 0.0 0.0 0.0 0.0 0.0 0.0 0.0 0.0 0.0 0.0 
0.424 0.022249836643839505 -1.0192819870759515 -2.301940214754087 5.68054300654471 1.0645510755430188 0.3488725290674953 1.0537447092193932 0.7837719134809218 -0.18879004666856652 -1.006806730333422 -0.747435832748849 0.8493040129100087 200.0 -147.65 350.0 2.0 -2.0 2.0 0.0 150.0 0.0 0.0 0.0 0.0 0.0 0.0 0.0 0.0 0.0 0.0 
0.432 0.03155992508105765 -1.0111703455806569 -2.3045604581517187 5.670719312145179 1.0558046751672254 0.35065969106080636 1.0625249096138576 0.7882745781656857 -0.1803302310792732 -1.033650960100209 -0.7504119461268376 0.8643305010375063 200.0 -146.45 350.0 2.0 -2.0 2.0 0.0 150.0 0.0 0.0 0.0 0.0 0.0 0.0 0.0 0.0 0.0 0.0 
0.44 0.04094095448835011 -1.0030400685135952 -2.3071099176748375 5.6607677733023225 1.0469974847545784 0.3525068771190466 1.0713403291895343 0.7927610600390709 -0.17166794580435596 -1.0611014852609078 -0.753315611231811 0.8797119172749149 200.0 -145.25 350.0 2.0 -2.0 2.0 0.0 150.0 0.0 0.0 0.0 0.0 0.0 0.0 0.0 0.0 0.0 0.0 
0.448 0.050392956373849884 -0.994892345488688 -2.309587443559812 5.650687160281019 1.0381297922953956 0.35441612727758814 1.080188222409864 0.7972248822261817 -0.16279642717181117 -1.089171369728757 -0.7561422065288632 0.8954589202108605 200.0 -144.05 350.0 2.0 -2.0 2.0 0.0 150.0 0.0 0.0 0.0 0.0 0.0 0.0 0.0 0.0 0.0 0.0 
0.456 0.059915932705394415 -0.9867284265017178 -2.311991865724973 5.64047621118776 1.029201928641659 0.35638956420551016 1.0890656724512038 0.8016591350729928 -0.15370869601863008 -1.1178738501690288 -0.7588869015306782 0.9115825370806541 200.0 -142.85 350.0 2.0 -2.0 2.0 0.0 150.0 0.0 0.0 0.0 0.0 0.0 0.0 0.0 0.0 0.0 0.0 
0.464 0.06950985456365322 -0.9785496231946311 -2.3143219929958194 5.630133628293771 1.0202142695172163 0.35842939706381455 1.097969584430302 0.8060564540093678 -0.1443975509974109 -1.147222331153768 -0.7615446480353341 0.9280941763267441 200.0 -141.64999999999998 350.0 2.0 -2.0 2.0 0.0 150.0 0.0 0.0 0.0 0.0 0.0 0.0 0.0 0.0 0.0 0.0 
0.472 0.07917466075826951 -0.9703573101103506 -2.3165766122393707 5.619658074029404 1.0111672376023173 0.3605379255597798 1.1068966785054921 0.8104089963839616 -0.1348555617147923 -1.1772303795107486 -0.7641101710570137 0.9450056403849093 200.0 -140.45 350.0 2.0 -2.0 2.0 0.0 150.0 0.0 0.0 0.0 0.0 0.0 0.0 0.0 0.0 0.0 0.0 
0.48 0.08891025640710826 -0.9621529259401203 -2.3187544873992714 5.609048166632039 1.0020613046946354 0.3627175442074055 1.1158434828626955 0.81470841721516 -0.1250750617088047 -1.2079117177637808 -0.7665779594471726 0.9623291386636902 200.0 -139.25 350.0 2.0 -2.0 2.0 0.0 150.0 0.0 0.0 0.0 0.0 0.0 0.0 0.0 0.0 0.0 0.0 
0.488 0.09871651147880556 -0.9539379747662808 -2.3208543584227512 5.598302475429595 0.9928969939489896 0.3649707468043006 1.1248063265990114 0.8189458437983519 -0.11504814127542701 -1.2392802165471182 -0.7689422562047981 0.9800773006771974 200.0 -138.05 350.0 2.0 -2.0 2.0 0.0 150.0 0.0 0.0 0.0 0.0 0.0 0.0 0.0 0.0 0.0 0.0 
0.496 0.10859325929893338 -0.9457140273042488 -2.322874940070067 5.5874195157419315 0.9836748821980256 0.3673001311357594 1.1337813325187278 0.8231118491061156 -0.10476664015845606 -1.2713498858608745 -0.7711970484760579 0.9982631892830908 200.0 -136.85 350.0 2.0 -2.0 2.0 0.0 150.0 0.0 0.0 0.0 0.0 0.0 0.0 0.0 0.0 0.0 0.0 
0.504 0.11854029502022057 -0.9374827221485504 -2.3248149205965145 5.576397743382378 0.9743956023561021 0.3697084039171476 1.1427644098584913 0.8271964239138452 -0.0942221401212819 -1.304134865016271 -0.7733360572449519 1.0169003139678254 200.0 -135.65 350.0 2.0 -2.0 2.0 0.0 150.0 0.0 0.0 0.0 0.0 0.0 0.0 0.0 0.0 0.0 0.0 
0.512 0.12855737405742196 -0.9292457670288785 -2.326672960296647 5.565235548742081 0.9650598459086754 0.37219838598608646 1.151751246960773 0.8311889475796604 -0.08340595742462682 -1.3376494110993988 -0.775352726718763 1.0360026441101342 200.0 -134.45 350.0 2.0 -2.0 2.0 0.0 150.0 0.0 0.0 0.0 0.0 0.0 0.0 0.0 0.0 0.0 0.0 
0.52 0.13864421048755848 -0.9210049400834581 -2.3284476898998094 5.553931250440182 0.9556683654895085 0.37477301775624916 1.1607373039170366 0.8350781574035955 -0.07230913524065885 -1.3719078857593934 -0.7772402134139718 1.0555846221409144 200.0 -133.25 350.0 2.0 -2.0 2.0 0.0 150.0 0.0 0.0 0.0 0.0 0.0 0.0 0.0 0.0 0.0 0.0 
0.528 0.14880047541644492 -0.9127620911583687 -2.330137708805636 5.542483088523612 0.9462219775480055 0.3774353649448945 1.1697178052047565 0.8388521164877385 -0.06092243604149758 -1.406924740101587 -0.7789913749510493 1.0756611765029631 200.0 -132.05 350.0 2.0 -2.0 2.0 0.0 150.0 0.0 0.0 0.0 0.0 0.0 0.0 0.0 0.0 0.0 0.0 
0.536 0.15902579531257865 -0.9045191431430659 -2.3317415831477057 5.530889217201001 0.9367215651090123 0.38018862458650515 1.1786877323450524 0.842498180015831 -0.04923633400897792 -1.4427144974376824 -0.7805987585690659 1.0962477342971746 200.0 -130.85 350.0 2.0 -2.0 2.0 0.0 150.0 0.0 0.0 0.0 0.0 0.0 0.0 0.0 0.0 0.0 0.0 
0.544 0.1693197503096635 -0.8962780933540007 -2.3332578436731053 5.519147697096449 0.9271680806274301 0.3830361313450917 1.1876418166108287 0.8460029598684621 -0.03724100752303667 -1.4792917336131723 -0.7820545893745366 1.1173602334824106 200.0 -129.65 350.0 2.0 -2.0 2.0 0.0 150.0 0.0 0.0 0.0 0.0 0.0 0.0 0.0 0.0 0.0 0.0 
0.552 0.17968187247926792 -0.8880410149800748 -2.334684983425261 5.507256487010073 0.917562548939928 0.38598136413785095 1.1965745318183658 0.8493522874882588 -0.02492633179819775 -1.5166710545969089 -0.7833507583422957 1.1390151344742716 200.0 -128.45 350.0 2.0 -2.0 2.0 0.0 150.0 0.0 0.0 0.0 0.0 0.0 0.0 0.0 0.0 0.0 0.0 
0.56 0.19011164407530767 -0.8798100586056896 -2.3360214552170624 5.49521343517412 0.9079060703161204 0.3890279530828736 1.205480087238725 0.8525311749089091 -0.012281871751985935 -1.5548670709779127 -0.7844788100905351 1.1612294309624935 200.0 -127.25 350.0 2.0 -2.0 2.0 0.0 150.0 0.0 0.0 0.0 0.0 0.0 0.0 0.0 0.0 0.0 0.0 
0.568 0.2006084957523262 -0.8715874538292505 -2.3372656688810034 5.483016269995255 0.8981998236114404 0.3921796867835209 1.2143524206688854 0.8555237738626078 0.0007031247944447607 -1.593894368970812 -0.7854299304566335 1.184020659737984 200.0 -126.05 350.0 2.0 -2.0 2.0 0.0 150.0 0.0 0.0 0.0 0.0 0.0 0.0 0.0 0.0 0.0 0.0 
0.576 0.21117180475977415 -0.8633755109973209 -2.338415988282854 5.470662590276127 0.8884450695239838 0.3954405199618508 1.2231851917062928 0.858313332883075 0.014039733463858966 -1.6337674774822006 -0.7861949339057991 1.2074069092873707 200.0 -124.85 350.0 2.0 -2.0 2.0 0.0 150.0 0.0 0.0 0.0 0.0 0.0 0.0 0.0 0.0 0.0 0.0 
0.584 0.2218008931147839 -0.855176623077079 -2.339470728085278 5.458149854912124 0.8786431539575056 0.39881458145307264 1.231971775274471 0.8608821523260303 0.027739359076799835 -1.6745008307360223 -0.7867642508104096 1.2314068268753702 200.0 -123.65 350.0 2.0 -2.0 2.0 0.0 150.0 0.0 0.0 0.0 0.0 0.0 0.0 0.0 0.0 0.0 0.0 
0.592 0.2324950257562315 -0.846993267692338 -2.340428150247776 5.445475372062509 0.8687955114926785 0.40230618257240913 1.2407052554515074 0.8632115372365309 0.04181374064412108 -1.7161087258960404 -0.7871279146447216 1.2560396237924079 200.0 -122.45 350.0 2.0 -2.0 2.0 0.0 150.0 0.0 0.0 0.0 0.0 0.0 0.0 0.0 0.0 0.0 0.0 
0.6 0.24325340868319256 -0.8388280093511655 -2.3412864602495027 5.432636287798977 0.8589036689686379 0.4059198258648929 1.2493784196575475 0.8652817480034396 0.05627495540079898 -1.7586052750568866 -0.7872755491470987 1.2813250783961356 200.0 -121.25 350.0 2.0 -2.0 2.0 0.0 150.0 0.0 0.0 0.0 0.0 0.0 0.0 0.0 0.0 0.0 0.0 
0.608 0.2540751870812432 -0.8306835018960745 -2.342043803021774 5.419629574239244 0.8489692491767136 0.4096602142474866 1.2579837532620042 0.8670719487563467 0.07113542164937331 -1.8020043509018553 -0.7871963555105541 1.3072835365200244 200.0 -120.05000000000001 350.0 2.0 -2.0 2.0 0.0 150.0 0.0 0.0 0.0 0.0 0.0 0.0 0.0 0.0 0.0 0.0 
0.616 0.2649594434404121 -0.8225624912107685 -2.3426982585776015 5.406452017178298 0.8389939746681024 0.41353226055143116 1.266513434675809 0.8685601534802411 0.08640790014201385 -1.8463195252446847 -0.7868790996718575 1.33393590875926 200.0 -118.85000000000001 350.0 2.0 -2.0 2.0 0.0 150.0 0.0 0.0 0.0 0.0 0.0 0.0 0.0 0.0 0.0 0.0 
0.624 0.27590519566897864 -0.8144678182206371 -2.3432478373263184 5.393100203236016 0.8289796716770504 0.417541097470837 1.2749593309989045 0.8697231698493009 0.10210549368502062 -1.8915639995836209 -0.7863120997803493 1.3613036640727556 200.0 -117.65 350.0 2.0 -2.0 2.0 0.0 150.0 0.0 0.0 0.0 0.0 0.0 0.0 0.0 0.0 0.0 0.0 
0.632 0.28691139520771425 -0.8064024222274222 -2.3436904750623775 5.379570506546624 0.8189282741608921 0.42169208792116275 1.2833129942981176 0.8705365408144331 0.11824164459788285 -1.9377505266985071 -0.785483213939713 1.3894088190592195 200.0 -116.45 350.0 2.0 -2.0 2.0 0.0 150.0 0.0 0.0 0.0 0.0 0.0 0.0 0.0 0.0 0.0 0.0 
0.64 0.29797692514959695 -0.7983693446218316 -2.3440240276187496 5.365859075023262 0.808841827958013 0.42599083580829106 1.2915656585955735 0.8709744840209946 0.13483012959993884 -1.9848913222147748 -0.7843798283295917 1.4182739221737737 200.0 -115.25 350.0 2.0 -2.0 2.0 0.0 150.0 0.0 0.0 0.0 0.0 0.0 0.0 0.0 0.0 0.0 0.0 
0.648 0.30910059837047754 -0.7903717330212316 -2.3442462651771088 5.351961816239867 0.7987224950644907 0.4304431972053196 1.299708237652888 0.8710098291852042 0.1518850516303558 -2.032997964941745 -0.7829888458292585 1.4479220320483326 200.0 -114.05 350.0 2.0 -2.0 2.0 0.0 150.0 0.0 0.0 0.0 0.0 0.0 0.0 0.0 0.0 0.0 0.0 
0.656 0.3202811556766534 -0.7824128458828659 -2.3443548662291764 5.33787438298271 0.7885725580297636 0.43505529192981907 1.3077313236415815 0.8706139536218105 0.16942082803057426 -2.082081284665978 -0.7812966752828716 1.4783766889626446 200.0 -112.85 350.0 2.0 -2.0 2.0 0.0 150.0 0.0 0.0 0.0 0.0 0.0 0.0 0.0 0.0 0.0 0.0 
0.664 0.3315172639758144 -0.7744960576463473 -2.3443474111863645 5.323592158535435 0.7783944244711918 0.43983351550905525 1.3156251867950801 0.8697567161937032 0.18745217443149653 -2.1321512359431045 -0.7792892215650757 1.5096618783819262 200.0 -111.64999999999999 350.0 2.0 -2.0 2.0 0.0 150.0 0.0 0.0 0.0 0.0 0.0 0.0 0.0 0.0 0.0 0.0 
0.672 0.3428075144783329 -0.7666248644622353 -2.3442213756382304 5.309110241774553 0.7681906317068483 0.4447845515143636 1.323379776142806 0.8684063900489374 0.20599408358941668 -2.183216756283699 -0.776951876627592 1.5418019853301808 200.0 -110.45 350.0 2.0 -2.0 2.0 0.0 150.0 0.0 0.0 0.0 0.0 0.0 0.0 0.0 0.0 0.0 0.0 
0.68 0.35415042093643634 -0.7588028905663795 -2.343974123264391 5.294423432167083 0.7579638515051568 0.4499153842383657 1.330984721431598 0.8665295946245254 0.22506179830385775 -2.2352856069700544 -0.7742695117317548 1.574821738203856 200.0 -109.25 350.0 2.0 -2.0 2.0 0.0 150.0 0.0 0.0 0.0 0.0 0.0 0.0 0.0 0.0 0.0 0.0 
0.688 0.36554441792934944 -0.7510338953622009 -2.343602898409528 5.279526214778802 0.7477168949492379 0.45523331167980446 1.3384293363443265 0.8640912275326511 0.2446707774258243 -2.288364194571557 -0.7712264710993999 1.6087461404468568 200.0 -108.05 350.0 2.0 -2.0 2.0 0.0 150.0 0.0 0.0 0.0 0.0 0.0 0.0 0.0 0.0 0.0 0.0 
0.696 0.37698785920310174 -0.7433217812750463 -2.3431048183371086 5.264412745420335 0.7374527174128481 0.4607459587902751 1.3457026231298868 0.861054397106957 0.2648366538253953 -2.3424573710475642 -0.7678065672452411 1.643600388303801 200.0 -106.85 350.0 2.0 -2.0 2.0 0.0 150.0 0.0 0.0 0.0 0.0 0.0 0.0 0.0 0.0 0.0 0.0 
0.704 0.3884790160742917 -0.7356706024440567 -2.342476865184596 5.2490768360795474 0.7271744236436902 0.4664612909247712 1.3527932787626011 0.8573803565781621 0.28557518303182994 -2.397568210139163 -0.7639930782883279 1.6794097726419044 200.0 -105.65 350.0 2.0 -2.0 2.0 0.0 150.0 0.0 0.0 0.0 0.0 0.0 0.0 0.0 0.0 0.0 0.0 
0.712 0.400016075907734 -0.7280845743174185 -2.341715877651412 5.233511940812468 0.7168852729485352 0.47238762742350116 1.3596897027524377 0.853028441073575 0.306902181086436 -2.4536977575569154 -0.7597687475787556 1.7161995625820252 200.0 -104.45 350.0 2.0 -2.0 2.0 0.0 150.0 0.0 0.0 0.0 0.0 0.0 0.0 0.0 0.0 0.0 0.0 
0.72 0.4115971406785466 -0.7205680842161302 -2.3408185424609362 5.217711142291564 0.7065886844730608 0.4785336552355441 1.3663800067301908 0.8479560088987255 0.32883344995748137 -2.5108447522731643 -0.7551157860189649 1.7539948684049107 200.0 -103.25000000000001 350.0 2.0 -2.0 2.0 0.0 150.0 0.0 0.0 0.0 0.0 0.0 0.0 0.0 0.0 0.0 0.0 
0.728 0.42322022562990247 -0.7131257029292977 -2.3397813856496024 5.201667139239975 0.6962882425674252 0.4849084424752998 1.372852025933738 0.8421183888661429 0.3513846886568352 -2.5690053160284343 -0.7500158775072682 1.7928204808989914 200.0 -102.05000000000001 350.0 2.0 -2.0 2.0 0.0 150.0 0.0 0.0 0.0 0.0 0.0 0.0 0.0 0.0 0.0 0.0 
0.736 0.43488325803831707 -0.7057621974000305 -2.3386007637499637 5.185372235013325 0.6859877022264668 0.4915214517799449 1.3790933327225643 0.8354688357914453 0.37457138796972217 -2.628172607966739 -0.7444501879849725 1.8327006839911277 200.0 -100.85000000000001 350.0 2.0 -2.0 2.0 0.0 150.0 0.0 0.0 0.0 0.0 0.0 0.0 0.0 0.0 0.0 0.0 
0.744 0.44658407609900586 -0.6984825445549596 -2.3372728549506423 5.168818327627556 0.6756909945908752 0.4983825533098659 1.3850912522477283 0.8279584966854302 0.39840870646228044 -2.688336441130257 -0.7383993786284315 1.8736590371520627 200.0 -99.65 350.0 2.0 -2.0 2.0 0.0 150.0 0.0 0.0 0.0 0.0 0.0 0.0 0.0 0.0 0.0 0.0 
0.752 0.45832042794451966 -0.691291946321579 -2.335793650334736 5.1519969015717235 0.6654022324926616 0.5055020372038622 1.3908328804033072 0.8195363906382507 0.4229113251681885 -2.7494828573793546 -0.7318436237938961 1.9157181236964052 200.0 -98.45 350.0 2.0 -2.0 2.0 0.0 150.0 0.0 0.0 0.0 0.0 0.0 0.0 0.0 0.0 0.0 0.0 
0.76 0.47008997081049686 -0.6841958458656965 -2.334158945319795 5.134899021789455 0.6551257160248218 0.5128906252663264 1.396305104182659 0.8101494059223983 0.4480932780774932 -2.811593657168251 -0.7247626343965562 1.9588992607054094 200.0 -97.25 350.0 2.0 -2.0 2.0 0.0 150.0 0.0 0.0 0.0 0.0 0.0 0.0 0.0 0.0 0.0 0.0 
0.768 0.48189027036302123 -0.677199945065424 -2.3323643314472156 5.117515330261696 0.6448659381109739 0.5205594816241578 1.4014946245587343 0.7997423184397289 0.4739677552622356 -2.874645880514854 -0.7171356874864596 2.0032221658957323 200.0 -96.05 350.0 2.0 -2.0 2.0 0.0 150.0 0.0 0.0 0.0 0.0 0.0 0.0 0.0 0.0 0.0 0.0 
0.776 0.4937188002026711 -0.6703102232177334 -2.3304051886972554 5.099836045676714 0.634627590046029 0.5285202220463298 1.4063879820016927 0.7882578363068077 0.5005468751802701 -2.9386112354712886 -0.7089416628730209 2.048704576346354 200.0 -94.85 350.0 2.0 -2.0 2.0 0.0 150.0 0.0 0.0 0.0 0.0 0.0 0.0 0.0 0.0 0.0 0.0 
0.784 0.5055729415609327 -0.6635329569478019 -2.328276678538061 5.0818509667309755 0.6244155669734246 0.536784921568351 1.4109715847391449 0.7756366761136513 0.5278414224090562 -3.0034554704500938 -0.7001590877470596 2.0953618135901126 200.0 -93.65 350.0 2.0 -2.0 2.0 0.0 150.0 0.0 0.0 0.0 0.0 0.0 0.0 0.0 0.0 0.0 0.0 
0.792 0.5174499832051633 -0.6568747412592759 -2.3259737379536123 5.0635494796665945 0.6142349732580646 0.545366120006831 1.4152317398542487 0.7618176772022374 0.555860546786682 -3.0691376869155413 -0.6907661903546389 2.143206289191274 200.0 -92.45 350.0 2.0 -2.0 2.0 0.0 150.0 0.0 0.0 0.0 0.0 0.0 0.0 0.0 0.0 0.0 0.0 
0.8 0.5293471215687724 -0.6503425116241299 -2.323491074736453 5.0449205707168545 0.6040911277067175 0.554276824885601 1.4191546873043923 0.7467379611875319 0.5846114196930937 -3.1356095892400018 -0.6807409638901045 2.1922469445865387 200.0 -91.25 350.0 2.0 -2.0 2.0 0.0 150.0 0.0 0.0 0.0 0.0 0.0 0.0 0.0 0.0 0.0 0.0 
0.808 0.5412614611236872 -0.6439435669630003 -2.3208231643768564 5.025952844200772 0.5939895685790682 0.5635305112239936 1.4227266369282323 0.7303331448755033 0.6140988430103721 -3.2028146689886428 -0.6700612418959755 2.2424886186905497 200.0 -90.05 350.0 2.0 -2.0 2.0 0.0 150.0 0.0 0.0 0.0 0.0 0.0 0.0 0.0 0.0 0.0 0.0 
0.816 0.5531900150124722 -0.6376855933095631 -2.3179642489307164 5.006634547079657 0.5839360583228971 0.5731411175597586 1.4259338084909339 0.7125376157026498 0.6443248061821271 -3.2706873215734724 -0.65870478658325 2.2939313365918825 200.0 -88.85 350.0 2.0 -2.0 2.0 0.0 150.0 0.0 0.0 0.0 0.0 0.0 0.0 0.0 0.0 0.0 0.0 
0.824 0.5651297059577032 -0.6315766878844835 -2.3149083383040048 4.986953600862062 0.57393658795556 0.5831230374937164 1.4287624747968575 0.693284879805334 0.6752879867812189 -3.3391518941619136 -0.6466493916154407 2.3465695126355994 200.0 -87.64999999999999 350.0 2.0 -2.0 2.0 0.0 150.0 0.0 0.0 0.0 0.0 0.0 0.0 0.0 0.0 0.0 0.0 
0.832 0.5770773674662673 -0.6256253832246914 -2.3116492144518554 4.9668976418168675 0.5639973810013057 0.5934911059508562 1.4311990078750205 0.6725079937885594 0.70698319013099 -3.4081216649899018 -0.6338730010299748 2.4003910613555086 200.0 -86.44999999999999 350.0 2.0 -2.0 2.0 0.0 150.0 0.0 0.0 0.0 0.0 0.0 0.0 0.0 0.0 0.0 0.0 
0.84 0.5890297453462311 -0.6198406709210591 -2.308180439054757 4.946454070525144 0.5541248968794322 0.6042605792538774 1.4332299282156895 0.6501400921541631 0.7394007238573673 -3.4774977558828497 -0.6203538460973821 2.455376410150212 200.0 -85.25000000000001 350.0 2.0 -2.0 2.0 0.0 150.0 0.0 0.0 0.0 0.0 0.0 0.0 0.0 0.0 0.0 0.0 
0.848 0.6009834995537218 -0.614232024411197 -2.304495365302102 4.925610111867121 0.5443258336220476 0.6154471080012907 1.4348419570062307 0.6261150231027072 0.7725257038349963 -3.547167981899123 -0.6060706020360823 2.5114974083691872 200.0 -84.05000000000001 350.0 2.0 -2.0 2.0 0.0 150.0 0.0 0.0 0.0 0.0 0.0 0.0 0.0 0.0 0.0 0.0 
0.856 0.6129352063868619 -0.6088094201535479 -2.3005871544832 4.904352886597611 0.5346071297820442 0.6270667016348692 1.4360220712805396 0.6003681059579834 0.8063372888982581 -3.617005644657426 -0.591002566600856 2.568716128681258 200.0 -82.85000000000001 350.0 2.0 -2.0 2.0 0.0 150.0 0.0 0.0 0.0 0.0 0.0 0.0 0.0 0.0 0.0 0.0 
0.864 0.6248813610432626 -0.6035833563740303 -2.2964487981558657 4.882669495706532 0.5249759653716601 0.6391356834731845 1.43675756185964 0.5728370236724938 0.8408078429972272 -3.686868279175071 -0.5751298626362248 2.626983558347361 200.0 -81.65 350.0 2.0 -2.0 2.0 0.0 150.0 0.0 0.0 0.0 0.0 0.0 0.0 0.0 0.0 0.0 0.0 
0.872 0.6368183805567482 -0.5985648684279661 -2.2920731467302824 4.860547118785867 0.5154397616498763 0.651670634882614 1.4370360939207494 0.5434628636269839 0.8759020252766919 -3.7565963680067367 -0.5584336667195046 2.686238180432907 200.0 -80.45 350.0 2.0 -2.0 2.0 0.0 150.0 0.0 0.0 0.0 0.0 0.0 0.0 0.0 0.0 0.0 0.0 
0.88 0.6487426071279814 -0.5937655396592572 -2.2874529453675736 4.83797312762296 0.5060061795527859 0.6646883271595072 1.4368457699889838 0.5121913190810786 0.9115758109411215 -3.826012041212294 -0.540896465995999 2.746404448209873 200.0 -79.25 350.0 2.0 -2.0 2.0 0.0 150.0 0.0 0.0 0.0 0.0 0.0 0.0 0.0 0.0 0.0 0.0 
0.888 0.6606503118623439 -0.589197506468599 -2.2825808781438175 4.81493521620515 0.49668311653523023 0.6782056396132612 1.4361751950997363 0.4789740619835911 0.9477754488405715 -3.8949177862603905 -0.5225023452119143 2.807391160158779 200.0 -78.05 350.0 2.0 -2.0 2.0 0.0 150.0 0.0 0.0 0.0 0.0 0.0 0.0 0.0 0.0 0.0 0.0 
0.896 0.672537698926876 -0.5848734561270694 -2.277449621465557 4.7914215482425115 0.4874787015647964 0.6922394622778546 1.4350135438313953 0.4437702952032394 0.9844363655731521 -3.963095198434763 -0.5032373057556911 2.8690897482349853 200.0 -76.85 350.0 2.0 -2.0 2.0 0.0 150.0 0.0 0.0 0.0 0.0 0.0 0.0 0.0 0.0 0.0 0.0 
0.904 0.6844009101361981 -0.5808066156968672 -2.2720519077351757 4.767420923183658 0.4784012879810984 0.7068065816486295 1.4333506288574813 0.40654848836726337 1.0214820306408037 -4.0303038096606025 -0.4830896181987313 2.9313724985539307 200.0 -75.65 350.0 2.0 -2.0 2.0 0.0 150.0 0.0 0.0 0.0 0.0 0.0 0.0 0.0 0.0 0.0 0.0 
0.912 0.6962360299751678 -0.5770107302556249 -2.2663806002454505 4.742922961502127 0.4694594439050834 0.7219235478535962 1.431176970615294 0.36728829616000863 1.0588228028876434 -4.096280041862807 -0.46205020935143565 2.9940907314963696 200.0 -74.45 350.0 2.0 -2.0 2.0 0.0 150.0 0.0 0.0 0.0 0.0 0.0 0.0 0.0 0.0 0.0 0.0 
0.92 0.7080390910635274 -0.5735000284754683 -2.2604287802225036 4.7179183097552055 0.46066193985570897 0.7376065217381707 1.4284838676355085 0.32598265090433415 1.096354785130594 -4.160736339894488 -0.44011308418608164 3.057072977519894 200.0 -73.25 350.0 2.0 -2.0 2.0 0.0 150.0 0.0 0.0 0.0 0.0 0.0 0.0 0.0 0.0 0.0 0.0 
0.928 0.719806080064978 -0.5702891734966591 -2.254189846824075 4.692398865549836 0.4520177332062902 0.7538711004849739 1.4252634670244035 0.2826400123200601 1.1339587215389886 -4.223360548519251 -0.41727578208865657 3.1201231957009883 200.0 -72.05 350.0 2.0 -2.0 2.0 0.0 150.0 0.0 0.0 0.0 0.0 0.0 0.0 0.0 0.0 0.0 0.0 
0.936 0.731532944039945 -0.5673931969750261 -2.2476576307235594 4.666358022078649 0.44353594909188665 0.770732120623812 1.4215088345387439 0.23728674637771935 1.1714989808330505 -4.283815607564805 -0.3935398657515576 3.183019094140731 200.0 -70.85 350.0 2.0 -2.0 2.0 0.0 150.0 0.0 0.0 0.0 0.0 0.0 0.0 0.0 0.0 0.0 0.0 
0.944 0.7432155972378338 -0.5648274141922114 -2.240826521656812 4.639790931301014 0.4352258573642471 0.78820343763027 1.41721402364361 0.18996959208975295 1.2088226775416195 -4.341739648709854 -0.36891143957445327 3.245510624630294 200.0 -69.64999999999999 350.0 2.0 -2.0 2.0 0.0 150.0 0.0 0.0 0.0 0.0 0.0 0.0 0.0 0.0 0.0 0.0 
0.952 0.754849928320763 -0.562607318220445 -2.233691609965945 4.612694784130278 0.42709684518512947 0.8062976817837061 1.412374142897141 0.14075815999757538 1.2457589930375474 -4.396746585765446 -0.3434016926757556 3.3073187379912126 200.0 -68.44999999999999 350.0 2.0 -2.0 2.0 0.0 150.0 0.0 0.0 0.0 0.0 0.0 0.0 0.0 0.0 0.0 0.0 
0.96 0.7664318080066733 -0.5607484513533532 -2.226248841730962 4.585069105143498 0.41915838485488366 0.8250259905752385 1.4069854209640038 0.08974738931234982 1.2821187673368752 -4.448427296920828 -0.3170274595168103 3.368134500661587 200.0 -67.25000000000001 350.0 2.0 -2.0 2.0 0.0 150.0 0.0 0.0 0.0 0.0 0.0 0.0 0.0 0.0 0.0 0.0 
0.968 0.7779570971153332 -0.5592662523760494 -2.218495186527634 4.556916058355136 0.41141999649501254 0.8443977187389196 1.4010452685235015 0.037059872700670224 1.317694440989623 -4.496351501190744 -0.28981178870974195 3.427618686506375 200.0 -66.05000000000001 350.0 2.0 -2.0 2.0 0.0 150.0 0.0 0.0 0.0 0.0 0.0 0.0 0.0 0.0 0.0 0.0 
0.976 0.7894216549961649 -0.5581758787749345 -2.210428816184676 4.528240759500815 0.4038912052444803 0.8644201279349203 1.394552336309304 -0.017152060561714887 1.3522604328797883 -4.540070430983008 -0.2617845078475243 3.4854019693054847 200.0 -64.85000000000001 350.0 2.0 -2.0 2.0 0.0 150.0 0.0 0.0 0.0 0.0 0.0 0.0 0.0 0.0 0.0 0.0 
0.984 0.8008213483120111 -0.5574920036998265 -2.2020492921378176 4.499051589081918 0.3965814926940214 0.8850980592439611 1.3875065684978476 -0.07270462968897685 1.3855740432551842 -4.579120396902026 -0.23298276922644964 3.541085849426762 200.0 -63.650000000000006 350.0 2.0 -2.0 2.0 0.0 150.0 0.0 0.0 0.0 0.0 0.0 0.0 0.0 0.0 0.0 0.0 
0.992 0.8121520601480335 -0.5572285884005956 -2.1933577581050403 4.469360499161132 0.38950024237440395 0.9064335929275672 1.3799092506527113 -0.12938139717296013 1.4173769705128736 -4.6130273281325085 -0.2034515582346047 3.594244451045027 200.0 -62.45 350.0 2.0 -2.0 2.0 0.0 150.0 0.0 0.0 0.0 0.0 0.0 0.0 0.0 0.0 0.0 0.0 
1.0 0.8234096994099319 -0.5573986319686077 -2.1843571338597685 4.439183305623317 0.3826566792368825 0.9284257013436261 1.3717630514342862 -0.18693272501745226 1.4473975237557057 -4.64131235056171 -0.17324414311371766 3.64442732192971 200.0 -61.25 350.0 2.0 -2.0 2.0 0.0 150.0 0.0 0.0 0.0 0.0 0.0 0.0 0.0 0.0 0.0 0.0 
1.008 0.8345902104706533 -0.5580139015059249 -2.175052304895087 4.408539956393557 0.3760598032195555 0.9510699024368058 1.3630720572991977 -0.2450760477582988 1.475353599501599 -4.663498433954869 -0.14242244197952955 3.691163354210165 200.0 -60.05000000000001 350.0 2.0 -2.0 2.0 0.0 150.0 0.0 0.0 0.0 0.0 0.0 0.0 0.0 0.0 0.0 0.0 
1.016 0.8456895830198683 -0.5590846472887523 -2.165450301805326 4.377454765020932 0.3697183171828048 0.9743579227824245 1.3538417994434555 -0.30349711207138486 1.5009564689434591 -4.679118098185257 -0.11105728067614674 3.7339659196746298 200.0 -58.849999999999994 350.0 2.0 -2.0 2.0 0.0 150.0 0.0 0.0 0.0 0.0 0.0 0.0 0.0 0.0 0.0 0.0 
1.024 0.8567038620657115 -0.5606193090297014 -2.155560462330817 4.345956598195127 0.3636405497196965 0.9982773806603815 1.3440792722883248 -0.361852315833647 1.523915390994116 -4.687722116607656 -0.07922851355938529 3.77233927548578 200.0 -57.650000000000006 350.0 2.0 -2.0 2.0 0.0 150.0 0.0 0.0 0.0 0.0 0.0 0.0 0.0 0.0 0.0 0.0 
1.032 0.8676291580338367 -0.5626242208946874 -2.1453945683007323 4.314079005278367 0.3578343735991805 1.0228115009601568 1.3337929428690194 -0.4197722493007721 1.5439430258366282 -4.6888890929993 -0.04702497900115179 3.8057862448549473 200.0 -56.44999999999999 350.0 2.0 -2.0 2.0 0.0 150.0 0.0 0.0 0.0 0.0 0.0 0.0 0.0 0.0 0.0 0.0 
1.04 0.8784616569046997 -0.5651033243890686 -2.1349669492616945 4.281860277928054 0.3523071208743662 1.0479388747362408 1.3229927505644312 -0.4768664965243845 1.5607615745872263 -4.682235719155498 -0.014544262634899573 3.833817112462403 200.0 -55.25 350.0 2.0 -2.0 2.0 0.0 150.0 0.0 0.0 0.0 0.0 0.0 0.0 0.0 0.0 0.0 0.0 
1.048 0.8891976303263787 -0.5680578994675631 -2.124294544494176 4.2493434284715805 0.3470654959743795 1.0736332768014532 1.3116900967007519 -0.5327296963760569 1.5741095148777224 -4.667427446727951 0.018107755558844314 3.855959597964807 200.0 -54.04999999999998 350.0 2.0 -2.0 2.0 0.0 150.0 0.0 0.0 0.0 0.0 0.0 0.0 0.0 0.0 0.0 0.0 
1.056 0.8998334456371332 -0.5714863251039768 -2.1133969154871455 4.2165760769727685 0.34211548838239897 1.0998635547178017 1.2998978236730305 -0.586948791267607 1.5837487428949653 -4.6441892342311855 0.050817589057242527 3.8717696862656417 200.0 -52.849999999999994 350.0 2.0 -2.0 2.0 0.0 150.0 0.0 0.0 0.0 0.0 0.0 0.0 0.0 0.0 0.0 0.0 
1.064 0.9103655757295486 -0.5753838809389151 -2.1022962018388958 4.183610238963922 0.3374622867663517 1.1265936017899674 1.287630183355159 -0.6391113113813278 1.5894718742056821 -4.612315964674712 0.08346507885219481 3.8808430056935372 200.0 -51.650000000000006 350.0 2.0 -2.0 2.0 0.0 150.0 0.0 0.0 0.0 0.0 0.0 0.0 0.0 0.0 0.0 0.0 
1.072 0.920790608686448 -0.5797426013794018 -2.0910170150232004 4.150502008625574 0.3331101966524876 1.1537824250858928 1.2749027947091987 -0.6888144583578019 1.5911094041704434 -4.571682078319744 0.11592457563287985 3.882826361934094 200.0 -50.44999999999999 350.0 2.0 -2.0 2.0 0.0 150.0 0.0 0.0 0.0 0.0 0.0 0.0 0.0 0.0 0.0 0.0 
1.08 0.931105257117967 -0.5845511925585862 -2.079586266505674 4.117311135730294 0.3290625638941291 1.1813843170550202 1.2617325906564962 -0.7356746720068827 1.5885363901834606 -4.522249936219519 0.14806636066323442 3.8774289649040696 200.0 -49.25 350.0 2.0 -2.0 2.0 0.0 150.0 0.0 0.0 0.0 0.0 0.0 0.0 0.0 0.0 0.0 0.0 
1.088 0.941306367129298 -0.589795020831092 -2.068032929262067 4.084100498807338 0.3253217062669417 1.20934913600882 1.2481377544333416 -0.7793372948953179 1.5816782985971876 -4.464076430483018 0.17975828335710872 3.864432836698101 200.0 -48.04999999999998 350.0 2.0 -2.0 2.0 0.0 150.0 0.0 0.0 0.0 0.0 0.0 0.0 0.0 0.0 0.0 0.0 
1.096 0.9513909268496772 -0.595456179000224 -2.0563877347247237 4.0509354815346175 0.32188885550027635 1.2376226966736505 1.234137645818893 -0.8194859010459077 1.570515664309872 -4.397317391895093 0.2108675805154534 3.8437018696854452 200.0 -46.849999999999994 350.0 2.0 -2.0 2.0 0.0 150.0 0.0 0.0 0.0 0.0 0.0 0.0 0.0 0.0 0.0 0.0 
1.104 0.9613560744552494 -0.60151363334248 -2.0446828103931747 4.017883264056216 0.31876411191804954 1.2661472674126 1.2197527177885792 -0.8558508340053258 1.5550872440578927 -4.322229417154396 0.2412628296631674 3.815189021409593 200.0 -45.64999999999998 350.0 2.0 -2.0 2.0 0.0 150.0 0.0 0.0 0.0 0.0 0.0 0.0 0.0 0.0 0.0 0.0 
1.112 0.9711991056215119 -0.6079434508841266 -2.0329512665683436 3.98501204543732 0.3159464136065113 1.2948621658110493 1.205004424307693 -0.8882165116648403 1.5354914061986482 -4.239168845399489 0.270815977999477 3.778941190720858 200.0 -44.44999999999999 350.0 2.0 -2.0 2.0 0.0 150.0 0.0 0.0 0.0 0.0 0.0 0.0 0.0 0.0 0.0 0.0 
1.12 0.9809174803450821 -0.6147191025325434 -2.0212267436551343 3.952390217457478 0.3134335216536256 1.3237044394630688 1.1899151201322178 -0.9164271027465412 1.5118855876491826 -4.148587751555441 0.2994043802372679 3.735101417064692 200.0 -43.25 350.0 2.0 -2.0 2.0 0.0 150.0 0.0 0.0 0.0 0.0 0.0 0.0 0.0 0.0 0.0 0.0 
1.128 0.9905088290795548 -0.6218118338568424 -2.009542933968281 3.920085513070113 0.3112220225285179 1.3526096143481952 1.1745079536223935 -0.9403902611982266 1.4844837567235158 -4.051026982949932 0.326912773992782 3.683908176996676 200.0 -42.04999999999998 350.0 2.0 -2.0 2.0 0.0 150.0 0.0 0.0 0.0 0.0 0.0 0.0 0.0 0.0 0.0 0.0 
1.136 0.9999709581361085 -0.6291910918508457 -1.9979330937397262 3.888164154831955 0.3093073481128638 1.3815124895112485 1.1588067536944737 -0.9600787141847219 1.453551939977463 -3.9471064328790026 0.35323512105969246 3.625691709280699 200.0 -40.849999999999994 350.0 2.0 -2.0 2.0 0.0 150.0 0.0 0.0 0.0 0.0 0.0 0.0 0.0 0.0 0.0 0.0 
1.144 1.0093018543062453 -0.6368249931831298 -1.9864295618854035 3.8566900292252777 0.30768381329014644 1.4103479541663089 1.1428359121333123 -0.9755296276145805 1.4194019909179763 -3.837512905657278 0.37827624713983976 3.560867469257924 200.0 -39.64999999999998 350.0 2.0 -2.0 2.0 0.0 150.0 0.0 0.0 0.0 0.0 0.0 0.0 0.0 0.0 0.0 0.0 
1.152 1.0184996886714717 -0.6446808174786076 -1.9750633019475308 3.8257239119666697 0.30634467038028956 1.4390518020691703 1.1266202625599302 -0.9868418083543599 1.38238388704622 -3.722986067333069 0.40195322124065125 3.489926979392174 200.0 -38.44999999999996 350.0 2.0 -2.0 2.0 0.0 150.0 0.0 0.0 0.0 0.0 0.0 0.0 0.0 0.0 0.0 0.0 
1.16 1.0275628195727413 -0.6527255082391852 -1.9638634824814845 3.7953227671545537 0.3052821791154087 1.4675615181561916 1.1101849573916809 -0.9941709316296579 1.3428769286219389 -3.604303081672113 0.42419642837590493 3.413426490719803 200.0 -37.25 350.0 2.0 -2.0 2.0 0.0 150.0 0.0 0.0 0.0 0.0 0.0 0.0 0.0 0.0 0.0 0.0 
1.168 1.0364897947209353 -0.6609261641540982 -1.952857109096611 3.7655391396172853 0.3044876903244746 1.495817014017369 1.0935553441471408 -0.9977230935230735 1.3012802696402703 -3.4822625927936843 0.4449503044296008 3.33197398598927 200.0 -36.05000000000001 350.0 2.0 -2.0 2.0 0.0 150.0 0.0 0.0 0.0 0.0 0.0 0.0 0.0 0.0 0.0 0.0 
1.176 1.0452793524384143 -0.6692505047269135 -1.9420687185654573 3.736420655356779 0.30395174106285455 1.5237612916165229 1.0767568424335647 -0.997747072256673 1.2580032342076528 -3.357668729370491 0.4641737188076823 3.2462151298557025 200.0 -34.849999999999994 350.0 2.0 -2.0 2.0 0.0 150.0 0.0 0.0 0.0 0.0 0.0 0.0 0.0 0.0 0.0 0.0 
1.184 1.0539304220305477 -0.6776672962147687 -1.931520142126569 3.7080096398896867 0.3036641586104881 1.5513410185410625 1.0598148229132325 -0.9945257319634226 1.2134558592488454 -3.2313157712869995 0.4818400074447763 3.156818799722122 200.0 -33.650000000000006 350.0 2.0 -2.0 2.0 0.0 150.0 0.0 0.0 0.0 0.0 0.0 0.0 0.0 0.0 0.0 0.0 
1.192 1.062442123294987 -0.6861467266221712 -1.9212303415955634 3.680342858956061 0.3036141705834309 1.5785070026304726 1.0427544894782752 -0.9883670169285496 1.1680400606385104 -3.1039740437673626 0.4979366745431785 3.0644628130242824 200.0 -32.44999999999999 350.0 2.0 -2.0 2.0 0.0 150.0 0.0 0.0 0.0 0.0 0.0 0.0 0.0 0.0 0.0 0.0 
1.2 1.070813765185107 -0.6946607216583169 -1.9112153184417937 3.6534513808758615 0.3037905183599108 1.605214558730927 1.025600765775352 -0.9795949648916601 1.1221417509818965 -2.976377495856614 0.5124647949880311 2.969820408083943 200.0 -31.25 350.0 2.0 -2.0 2.0 0.0 150.0 0.0 0.0 0.0 0.0 0.0 0.0 0.0 0.0 0.0 0.0 
1.208 1.0790448436523388 -0.7031831968837836 -1.9014880928282114 3.6273605551230794 0.30418157110633853 1.6314237651917365 1.0083781871148443 -0.9685411203741835 1.0761241519586673 -2.8492132917810205 0.5254381599014709 2.8735479449617163 200.0 -30.049999999999983 350.0 2.0 -2.0 2.0 0.0 150.0 0.0 0.0 0.0 0.0 0.0 0.0 0.0 0.0 0.0 0.0 
1.216 1.087135038699933 -0.7116902444877207 -1.8920587469425132 3.602090097718268 0.30477543788394024 1.657099612235827 0.9911107986789228 -0.9555366608270035 1.0303224517097158 -2.7231136078499407 0.5368822148268527 2.7762741811253067 200.0 -28.849999999999994 350.0 2.0 -2.0 2.0 0.0 150.0 0.0 0.0 0.0 0.0 0.0 0.0 0.0 0.0 0.0 0.0 
1.224 1.0950842106878755 -0.7201602560408071 -1.8829345248949116 3.577654270984239 0.30556007560062454 1.682212048246705 0.9738220608120831 -0.9409054683604535 0.9850398669784167 -2.5986496960049306 0.5468328434922417 2.678591355915737 200.0 -27.649999999999977 350.0 2.0 -2.0 2.0 0.0 150.0 0.0 0.0 0.0 0.0 0.0 0.0 0.0 0.0 0.0 0.0 
1.232 1.1028923959351102 -0.7285739850093274 -1.8741199800789188 3.554062143142323 0.30652339091890674 1.7067359331466747 0.9565347620413491 -0.924958296399668 0.9405450879083019 -2.4763281575735903 0.5553350502311978 2.5810481986281157 200.0 -26.44999999999999 350.0 2.0 -2.0 2.0 0.0 150.0 0.0 0.0 0.0 0.0 0.0 0.0 0.0 0.0 0.0 0.0 
1.24 1.1105598016708327 -0.7369145547017899 -1.8656171601792497 3.5313179121359575 0.3076533346127273 1.730650910310108 0.9392709403341696 -0.9079881011150229 0.8970710157334174 -2.356589274064557 0.5624415914223113 2.484144866470672 200.0 -25.25 350.0 2.0 -2.0 2.0 0.0 150.0 0.0 0.0 0.0 0.0 0.0 0.0 0.0 0.0 0.0 0.0 
1.248 1.1180868003913156 -0.7451674186215023 -1.8574258199056592 3.5094212778700538 0.30893798725847377 1.7539412098557423 0.9220518129640354 -0.8902665374572427 0.8548146529580133 -2.239807169673528 0.5682116013841837 2.3883297271184722 200.0 -24.049999999999983 350.0 2.0 -2.0 2.0 0.0 150.0 0.0 0.0 0.0 0.0 0.0 0.0 0.0 0.0 0.0 0.0 
1.256 1.1254739236824576 -0.753320280937734 -1.8495436519366943 3.4883678476133815 0.3103656355270669 1.7765953967531718 0.9048977152192945 -0.8720415626114796 0.813937972725835 -2.126291533382831 0.5727092517273743 2.2939978296751007 200.0 -22.849999999999994 350.0 2.0 -2.0 2.0 0.0 150.0 0.0 0.0 0.0 0.0 0.0 0.0 0.0 0.0 0.0 0.0 
1.264 1.1327218555710488 -0.7613629850244363 -1.841966527355752 3.4681495604618346 0.31192483869698284 1.7986060770684698 0.8878280480622401 -0.853536047263725 0.7745695778736176 -2.016290605589319 0.5760024759001405 2.201490858698772 200.0 -21.649999999999977 350.0 2.0 -2.0 2.0 0.0 150.0 0.0 0.0 0.0 0.0 0.0 0.0 0.0 0.0 0.0 0.0 
1.272 1.139831425469495 -0.7692873778335474 -1.8346887379308179 3.448755118329488 0.31360448532079893 1.8199695749975198 0.8708612347252142 -0.8349472671809872 0.7368069583400068 -1.9099951318536252 0.5781617831743182 2.1110983375479067 200.0 -20.44999999999999 350.0 2.0 -2.0 2.0 0.0 150.0 0.0 0.0 0.0 0.0 0.0 0.0 0.0 0.0 0.0 0.0 
1.28 1.1468036007796196 -0.7770871573661458 -1.8277032338124042 3.430170412754818 0.3153938402423131 1.840685592239917 0.8540146861195196 -0.8164471329459351 0.7007191651412032 -1.8075430004286628 0.5792591790920046 2.0230598371760777 200.0 -19.24999999999997 350.0 2.0 -2.0 2.0 0.0 150.0 0.0 0.0 0.0 0.0 0.0 0.0 0.0 0.0 0.0 0.0 
1.288 1.1536394792210627 -0.7847577097760254 -1.8210018515001039 3.412378938734399 0.3172825823747425 1.8607568598935664 0.837304774832822 -0.7981830121713674 0.6663497367791243 -1.709024306165042 0.579367202794007 1.9375679512887871 200.0 -18.049999999999983 350.0 2.0 -2.0 2.0 0.0 150.0 0.0 0.0 0.0 0.0 0.0 0.0 0.0 0.0 0.0 0.0 
1.296 1.1603402809488814 -0.7922959417762527 -1.814575528175105 3.3953621887046217 0.3192608338131181 1.8801887915292204 0.820746817402005 -0.7802790036931126 0.6337197366164694 -1.6144866168532357 0.5785580859105949 1.8547718147549468 200.0 -16.849999999999994 350.0 2.0 -2.0 2.0 0.0 150.0 0.0 0.0 0.0 0.0 0.0 0.0 0.0 0.0 0.0 0.0 
1.304 1.166907340523236 -0.7997001130965815 -1.8084144996534792 3.3791000215917144 0.3213191809690242 1.8989891445431746 0.8043550644718668 -0.7628375346060854 0.6028307847369504 -1.523940255218901 0.5769030329330657 1.7747809657191886 200.0 -15.649999999999977 350.0 2.0 -2.0 2.0 0.0 150.0 0.0 0.0 0.0 0.0 0.0 0.0 0.0 0.0 0.0 0.0 
1.312 1.1733420987916445 -0.806969672819787 -1.802508480243188 3.3635710034780306 0.3234486884881492 1.9171676953701886 0.7881426983855421 -0.7459411662726779 0.5736679929463046 -1.4373634475269623 0.5744716192264036 1.6976693797421165 200.0 -14.449999999999989 350.0 2.0 -2.0 2.0 0.0 150.0 0.0 0.0 0.0 0.0 0.0 0.0 0.0 0.0 0.0 0.0 
1.32 1.179646094741284 -0.8141051025534436 -1.7968468236646884 3.3487527178504415 0.32564090674673135 1.934735932728827 0.7721218377005129 -0.7296545126464554 0.5462027352753507 -1.3547072257440333 0.5713313000443401 1.623479533812428 200.0 -13.249999999999972 350.0 2.0 -2.0 2.0 0.0 150.0 0.0 0.0 0.0 0.0 0.0 0.0 0.0 0.0 0.0 0.0 
1.328 1.1858209573752734 -0.8211077686014185 -1.7914186649137112 3.334622044588582 0.3278878737284014 1.9517067718079122 0.7563035480837317 -0.7140261918775126 0.5203952075779015 -1.2759000028753835 0.5675470219760559 1.5522263871477207 200.0 -12.049999999999983 350.0 2.0 -2.0 2.0 0.0 150.0 0.0 0.0 0.0 0.0 0.0 0.0 0.0 0.0 0.0 0.0 
1.336 1.1918683976629836 -0.827979784604246 -1.7862130435092223 3.321155407816459 0.3301821120643864 1.9680942912076702 0.7406978590109015 -0.6990907490731586 0.4961967480005649 -1.2008517695100813 0.5631809270697444 1.483901192855152 200.0 -10.849999999999966 350.0 2.0 -2.0 2.0 0.0 150.0 0.0 0.0 0.0 0.0 0.0 0.0 0.0 0.0 0.0 0.0 
1.344 1.197790200610148 -0.8347238855274028 -1.7812190089916649 3.3083289934935776 0.3325166219835779 1.9839134935292233 0.7253137856771287 -0.6848705035291659 0.47355190503679095 -1.1294578833837863 0.55829213931134 1.4184750788183311 200.0 -9.649999999999977 350.0 2.0 -2.0 2.0 0.0 150.0 0.0 0.0 0.0 0.0 0.0 0.0 0.0 0.0 0.0 0.0 
1.352 1.2035882174901205 -0.8413433133910866 -1.776425709832697 3.296118938180933 0.33488487086979074 1.9991800897578507 0.7101593555186614 -0.671377287290593 0.45240025163560366 -1.0616024429136643 0.5529366230580285 1.3559023571198 200.0 -8.44999999999996 350.0 2.0 -2.0 2.0 0.0 150.0 0.0 0.0 0.0 0.0 0.0 0.0 0.0 0.0 0.0 0.0 
1.36 1.2092643582730445 -0.8478417147487001 -1.7718224671066274 3.284501490807832 0.3372807800662435 2.0139103069971855 0.6952416387471282 -0.6586140533645812 0.43267795266999054 -0.9971612504612597 0.5471671033154124 1.296123538749941 200.0 -7.249999999999972 350.0 2.0 -2.0 2.0 0.0 150.0 0.0 0.0 0.0 0.0 0.0 0.0 0.0 0.0 0.0 0.0 
1.368 1.2148205842850928 -0.8542230496247312 -1.7673988343747442 3.2734531495137684 0.33969870950548053 2.0281207186671635 0.6805667823076109 -0.6465763412910446 0.4143190993404016 -0.9360043819961427 0.5410330382984324 1.239068044393399 200.0 -6.049999999999983 350.0 2.0 -2.0 2.0 0.0 150.0 0.0 0.0 0.0 0.0 0.0 0.0 0.0 0.0 0.0 0.0 
1.376 1.2202589011253322 -0.860491511404804 -1.7631446452650756 3.2629507757713725 0.342133440679841 2.0418280959592425 0.6661400466891864 -0.6352535952052915 0.3972568282008785 -0.8779983874113877 0.5345806354399814 1.1846566129875793 200.0 -4.849999999999966 350.0 2.0 -2.0 2.0 0.0 150.0 0.0 0.0 0.0 0.0 0.0 0.0 0.0 0.0 0.0 0.0 
1.384 1.22558135186333 -0.8666514570197306 -1.7590500502083517 3.2529716880358093 0.344580158405072 2.0550492791291712 0.6519658450398833 -0.6246303351993018 0.3814242448579534 -0.823008150550624 0.5278529028347556 1.132803417874582 200.0 -3.6499999999999773 350.0 2.0 -2.0 2.0 0.0 150.0 0.0 0.0 0.0 0.0 0.0 0.0 0.0 0.0 0.0 0.0 
1.392 1.2307900105362581 -0.8727073466696131 -1.7551055437306466 3.243493737134946 0.3470344317698993 2.067801067081155 0.6380477840665171 -0.614687186942398 0.3667551733891894 -0.7708984405938533 0.520889728972373 1.083417906119697 200.0 -2.44999999999996 350.0 2.0 -2.0 2.0 0.0 150.0 0.0 0.0 0.0 0.0 0.0 0.0 0.0 0.0 0.0 0.0 
1.4 1.2358869759601614 -0.8786636922827422 -1.7513019836164052 3.234495365531582 0.3494921946079835 2.0801001236407375 0.6243887062323249 -0.6054017774046142 0.35318475250076553 -0.7215351873168916 0.5137279844805153 1.0364063803532133 200.0 -1.2499999999999716 350.0 2.0 -2.0 2.0 0.0 150.0 0.0 0.0 0.0 0.0 0.0 0.0 0.0 0.0 0.0 0.0 
1.408 1.2408743658661732 -0.8845250138873348 -1.7476306031523423 3.2259556524699637 0.3519497257768381 2.0919628989111687 0.6109907328009433 -0.5967495063747044 0.3406498986831558 -0.6747865123241286 0.5064016404353019 0.9916733446911388 200.0 -0.05000000000001137 350.0 2.0 -2.0 2.0 0.0 150.0 0.0 0.0 0.0 0.0 0.0 0.0 0.0 0.0 0.0 0.0 
1.416 1.2457543113688667 -0.8902958030838017 -1.7440830175508149 3.2178543468766714 0.354403629481056 2.1034055641463056 0.5978553073127377 -0.588704204497148 0.3290896553710649 -0.6305235470266554 0.4989418985814438 0.9491226372520962 200.0 1.1500000000000057 350.0 2.0 -2.0 2.0 0.0 150.0 0.0 0.0 0.0 0.0 0.0 0.0 0.0 0.0 0.0 0.0 
1.424 1.2505289517706082 -0.8959804928338277 -1.7406512255367266 3.2101718897308 0.35685081583494566 2.1144439586405483 0.5849832391184799 -0.5812386889594637 0.3184454455593739 -0.5886210662000374 0.4913773295267868 0.9086583718144754 200.0 2.3499999999999943 350.0 2.0 -2.0 2.0 0.0 150.0 0.0 0.0 0.0 0.0 0.0 0.0 0.0 0.0 0.0 0.0 
1.432 1.255200429702803 -0.9015834328244998 -1.7373276069692145 3.2028894274582402 0.3592884818220948 2.125093547223921 0.5723747466344669 -0.5743252279049191 0.30866124361830366 -0.54895796364802 0.48373401562765433 0.8701857105046221 200.0 3.5500000000000114 350.0 2.0 -2.0 2.0 0.0 150.0 0.0 0.0 0.0 0.0 0.0 0.0 0.0 0.0 0.0 0.0 
1.44 1.259770886602197 -0.9071088697160525 -1.7341049172614307 3.1959888177457487 0.36171409277665145 2.135369387050255 0.5600295000222579 -0.5679359242600791 0.29968368029773984 -0.5114175940053789 0.4760356958613547 0.8336114882831112 200.0 4.75 350.0 2.0 -2.0 2.0 0.0 150.0 0.0 0.0 0.0 0.0 0.0 0.0 0.0 0.0 0.0 0.0 
1.448 1.2642424585180412 -0.9125609316369556 -1.730976279260674 3.1894526290164995 0.36412536448246885 2.1452861024729493 0.5479466630342669 -0.5620430290595932 0.29146209319095 -0.47588800217320526 0.4683039104913999 0.7988447085699298 200.0 5.950000000000017 350.0 2.0 -2.0 2.0 0.0 150.0 0.0 0.0 0.0 0.0 0.0 0.0 0.0 0.0 0.0 0.0 
1.456 1.268617272243831 -0.9179436163471117 -1.7279351731581896 3.183264134662968 0.36652024596186644 2.1548578669112093 0.5361249338033078 -0.5566191936063544 0.2839485332944894 -0.44226205939168933 0.46055814377302967 0.7657969277508648 200.0 7.150000000000006 350.0 2.0 -2.0 2.0 0.0 150.0 0.0 0.0 0.0 0.0 0.0 0.0 0.0 0.0 0.0 0.0 
1.464 1.2728974417655607 -0.9232607825468113 -1.7249754249137235 3.1774073029972034 0.3688969030048186 2.164098390716707 0.524562584389154 -0.5516376689886454 0.2770977367873052 -0.4104375225872072 0.4528159633261544 0.7343825446363984 200.0 8.350000000000023 350.0 2.0 -2.0 2.0 0.0 150.0 0.0 0.0 0.0 0.0 0.0 0.0 0.0 0.0 0.0 0.0 
1.472 1.277085065016912 -0.9285161438642069 -1.722091193604536 3.171866783753705 0.3712537024718684 2.173020914153841 0.513257498928255 -0.547072460634819 0.2708670697759307 -0.3803170314249359 0.4450931551257281 0.704519009273513 200.0 9.550000000000011 350.0 2.0 -2.0 2.0 0.0 150.0 0.0 0.0 0.0 0.0 0.0 0.0 0.0 0.0 0.0 0.0 
1.48 1.2811822209305772 -0.933713265106471 -1.7192769580417862 3.1666278918667174 0.3735891973893302 2.181638204704594 0.5022072102634216 -0.5428984447551577 0.2652164525214878 -0.3518080554797925 0.43740385333143933 0.676126963891897 200.0 10.75 350.0 2.0 -2.0 2.0 0.0 150.0 0.0 0.0 0.0 0.0 0.0 0.0 0.0 0.0 0.0 0.0 
1.488 1.2851909667739045 -0.9388555604087498 -1.716527502938655 3.1616765891417966 0.37590211284326963 2.189962558000222 0.4914089349585899 -0.5390914527234465 0.2601082685773474 -0.3248228021175257 0.42976066440547833 0.6491303272338199 200.0 11.950000000000017 350.0 2.0 -2.0 2.0 0.0 150.0 0.0 0.0 0.0 0.0 0.0 0.0 0.0 0.0 0.0 0.0 
1.496 1.2891133357563054 -0.9439462929601552 -1.713837904863633 3.156999464350436 0.3781913326688592 2.1980058017662594 0.4808596066296261 -0.53562832870289 0.25550726331776913 -0.2992780940545812 0.4221747851547066 0.6234563320931225 200.0 13.150000000000006 350.0 2.0 -2.0 2.0 0.0 150.0 0.0 0.0 0.0 0.0 0.0 0.0 0.0 0.0 0.0 0.0 
1.504 1.2929513348952888 -0.9489885760272556 -1.7112035181684238 3.1525837121960167 0.38045588692374893 2.2057793022442245 0.47055590754530424 -0.5324869651314139 0.2513804355185431 -0.275095224133256 0.4146561144868224 0.5990355245849307 200.0 14.350000000000023 350.0 2.0 -2.0 2.0 0.0 150.0 0.0 0.0 0.0 0.0 0.0 0.0 0.0 0.0 0.0 0.0 
1.512 1.2967069431276237 -0.9539853750327278 -1.7086199610422912 3.148417111528422 0.38269494012783095 2.2132939726230694 0.4604942984734183 -0.529646320054248 0.24769692494927983 -0.25219979359649164 0.4072133587942532 0.5758017324882377 200.0 15.550000000000011 350.0 2.0 -2.0 2.0 0.0 150.0 0.0 0.0 0.0 0.0 0.0 0.0 0.0 0.0 0.0 0.0 
1.52 1.3003821096519261 -0.9589395104802216 -1.7060831018126263 3.1444880031226825 0.3849077802469021 2.220560283076069 0.45067104676524317 -0.5270864197280457 0.2444278983417414 -0.2305215390605462 0.39985413097850936 0.5536920089473337 200.0 16.75000000000003 350.0 2.0 -2.0 2.0 0.0 150.0 0.0 0.0 0.0 0.0 0.0 0.0 0.0 0.0 0.0 0.0 
1.528 1.3039787524888995 -0.9638536615462163 -1.7035890455844627 3.1407852672831416 0.3870938083940457 2.227588272054778 0.44108225268752904 -0.5247883494190919 0.24154643559737268 -0.20999415244871486 0.3925850432057021 0.5326465568808402 200.0 17.950000000000017 350.0 2.0 -2.0 2.0 0.0 150.0 0.0 0.0 0.0 0.0 0.0 0.0 0.0 0.0 0.0 0.0 
1.536 1.3074987572455312 -0.9687303701859373 -1.7011341212889683 3.1372983014879736 0.38925252921995174 2.234387558541397 0.43172387402494977 -0.5227342348752485 0.23902741767825947 -0.19055509734929255 0.3854117935441233 0.5126086386214316 200.0 19.150000000000006 350.0 2.0 -2.0 2.0 0.0 150.0 0.0 0.0 0.0 0.0 0.0 0.0 0.0 0.0 0.0 0.0 
1.544 1.3109439760697223 -0.9735720456235661 -1.6987148691920149 3.134016998248784 0.3913835419615206 2.2409673550048117 0.4225917489875429 -0.5209072165633054 0.23684741727837258 -0.17214542458133522 0.37833924668015984 0.4935244745873413 200.0 20.350000000000023 350.0 2.0 -2.0 2.0 0.0 150.0 0.0 0.0 0.0 0.0 0.0 0.0 0.0 0.0 0.0 0.0 
1.552 1.3143162267820978 -0.9783809691172443 -1.6963280288982978 3.1309317233256326 0.39348653211704954 2.2473364808442007 0.41368161746738086 -0.5192914184255808 0.23498459308595296 -0.15470958917742367 0.3713715089419737 0.4753431341588914 200.0 21.55000000000001 350.0 2.0 -2.0 2.0 0.0 150.0 0.0 0.0 0.0 0.0 0.0 0.0 0.0 0.0 0.0 0.0 
1.56 1.317617292172094 -0.9831592989070286 -1.6939705278736235 3.1280332944084757 0.39556126371571254 2.2535033761379646 0.4049891406966595 -0.517871912617319 0.2334185882143873 -0.13819527051056554 0.3645119978834586 0.45801642139074195 200.0 22.75000000000003 350.0 2.0 -2.0 2.0 0.0 150.0 0.0 0.0 0.0 0.0 0.0 0.0 0.0 0.0 0.0 0.0 
1.568 1.320848919445826 -0.987909075269314 -1.6916394704975586 3.1253129603512133 0.39760757214899184 2.2594761155452283 0.39650991936564334 -0.5166346814348254 0.2321304331898344 -0.12255319688983113 0.3577635066958153 0.44149875772390446 200.0 23.950000000000017 350.0 2.0 -2.0 2.0 0.0 150.0 0.0 0.0 0.0 0.0 0.0 0.0 0.0 0.0 0.0 0.0 
1.576 1.3240128198137033 -0.9926322256144609 -1.6893321276502082 3.1227623810234406 0.3996253575320348 2.2652624222328503 0.38823951026381764 -0.5155665774287845 0.23110245373212765 -0.10773697561545982 0.3511282637223611 0.42574706346238245 200.0 25.150000000000034 350.0 2.0 -2.0 2.0 0.0 150.0 0.0 0.0 0.0 0.0 0.0 0.0 0.0 0.0 0.0 0.0 
1.584 1.3271106682062532 -0.997330569575797 -1.6870459268302156 3.1203736078274398 0.40161457856347726 2.2708696817230662 0.3801734415110906 -0.5146552825135813 0.23031818344508276 -0.09370292920896366 0.3446079873550619 0.41072063943939374 200.0 26.350000000000023 350.0 2.0 -2.0 2.0 0.0 150.0 0.0 0.0 0.0 0.0 0.0 0.0 0.0 0.0 0.0 0.0 
1.592 1.3301441031071468 -1.0020058240479326 -1.6847784427958001 3.1181390649131413 0.40357524685311846 2.2763049555760753 0.3723072264483284 -0.5138892667276125 0.2297622814378683 -0.08040993830850719 0.33820393659003894 0.39638105001012 200.0 27.55000000000001 350.0 2.0 -2.0 2.0 0.0 150.0 0.0 0.0 0.0 0.0 0.0 0.0 0.0 0.0 0.0 0.0 
1.6 1.333114726492961 -1.006659608140665 -1.6825273887166288 3.1160515311115846 0.40550742168781295 2.2815749948383437 0.36463637625791034 -0.5132577471680151 0.2294204548261491 -0.0678192915368571 0.3319169575147537 0.3826920082650054 200.0 28.75000000000003 350.0 2.0 -2.0 2.0 0.0 150.0 0.0 0.0 0.0 0.0 0.0 0.0 0.0 0.0 0.0 0.0 
1.608 1.3360241038697702 -1.0112934480218816 -1.6802906078212405 3.1141041225973165 0.40741120520709945 2.2866862532015126 0.3571564113854889 -0.5127506475126081 0.22927938600637868 -0.05589454250182164 0.32574752599251794 0.3696192641537307 200.0 29.950000000000017 350.0 2.0 -2.0 2.0 0.0 150.0 0.0 0.0 0.0 0.0 0.0 0.0 0.0 0.0 0.0 0.0 
1.616 1.3388737643972173 -1.0159087816288555 -1.6780660655225257 3.1122902762818807 0.40928673796128273 2.2916448998288392 0.3498628718339869 -0.5123585584492932 0.22932666455566764 -0.04460137397167525 0.31969578680111777 0.357130496039802 200.0 31.150000000000034 350.0 2.0 -2.0 2.0 0.0 150.0 0.0 0.0 0.0 0.0 0.0 0.0 0.0 0.0 0.0 0.0 
1.624 1.3416652010912824 -1.020506963232417 -1.6758518420022155 3.1106037339338855 0.411134194825913 2.296456831816341 0.34275132639997846 -0.5120726992561233 0.22955072358039172 -0.033907469175539176 0.31376158947206323 0.345195206064326 200.0 32.35000000000002 350.0 2.0 -2.0 2.0 0.0 150.0 0.0 0.0 0.0 0.0 0.0 0.0 0.0 0.0 0.0 0.0 
1.632 1.3443998710975036 -1.0250892678427332 -1.673646125234325 3.109038527015758 0.4129537812480339 2.30112768626445 0.3358173809212883 -0.5118848807113813 0.22994078031676443 -0.02378239010684164 0.307944521065858 0.33378461958078803 200.0 33.55000000000004 350.0 2.0 -2.0 2.0 0.0 150.0 0.0 0.0 0.0 0.0 0.0 0.0 0.0 0.0 0.0 0.0 
1.64 1.3470791960269595 -1.0296568954489786 -1.6714472044269608 3.1075889622230735 0.41474572980071955 2.305662851943302 0.3290566856028312 -0.5117874694605143 0.23048678077421697 -0.014197462653409307 0.30224393610692446 0.32287158882704137 200.0 34.75000000000003 350.0 2.0 -2.0 2.0 0.0 150.0 0.0 0.0 0.0 0.0 0.0 0.0 0.0 0.0 0.0 0.0 
1.648 1.3497045623478432 -1.0342109750881363 -1.6692534638616607 3.106249607708983 0.4165102970238588 2.3100674805409014 0.3224649414856115 -0.5117733539237067 0.23117934820586292 -0.00512566833706636 0.29665898388982453 0.31243050092271685 200.0 35.950000000000045 350.0 2.0 -2.0 2.0 0.0 150.0 0.0 0.0 0.0 0.0 0.0 0.0 0.0 0.0 0.0 0.0 
1.656 1.3522773218259674 -1.0387525687405788 -1.6670633771095769 3.1050152799738653 0.418247760530365 2.314346497488464 0.3160379061213993 -0.5118359117929948 0.2320097351884587 0.0034584575833802086 0.29118863335629397 0.30243719021748755 200.0 37.150000000000034 350.0 2.0 -2.0 2.0 0.0 150.0 0.0 0.0 0.0 0.0 0.0 0.0 0.0 0.0 0.0 0.0 
1.664 1.3547987920080302 -1.0432826750520858 -1.664875501604057 3.1038810313983842 0.41995841635826237 2.318504612361498 0.3097713985130228 -0.5119689791396612 0.23296977909589295 0.011578921911637207 0.28583169573061656 0.29286885496539344 200.0 38.35000000000002 350.0 2.0 -2.0 2.0 0.0 150.0 0.0 0.0 0.0 0.0 0.0 0.0 0.0 0.0 0.0 0.0 
1.672 1.3572702567419452 -1.047802232883547 -1.6626884735496894 3.1028421383969134 0.42164257655031034 2.322546328858613 0.30366130337746966 -0.5121668211302324 0.2340518607545859 0.019258363493935244 0.2805868450890681 0.28370397826087623 200.0 39.55000000000001 350.0 2.0 -2.0 2.0 0.0 150.0 0.0 0.0 0.0 0.0 0.0 0.0 0.0 0.0 0.0 0.0 
1.68 1.3596929667289848 -1.0523121246908964 -1.6605010031484544 3.101894090167416 0.4233005669440181 2.3264759543628943 0.2977035747861831 -0.5124241043317234 0.2352488660754927 0.026518137663726057 0.2754526370277231 0.274922253141478 200.0 40.75 350.0 2.0 -2.0 2.0 0.0 150.0 0.0 0.0 0.0 0.0 0.0 0.0 0.0 0.0 0.0 0.0 
1.688 1.3620681401029087 -1.056813179738835 -1.658311870124331 3.101032578013447 0.42493272515599984 2.3302976090929097 0.29189423923405505 -0.5127358705730853 0.23655415046515635 0.033378395436598145 0.2704275255818501 0.26650451173883966 200.0 41.95000000000002 350.0 2.0 -2.0 2.0 0.0 150.0 0.0 0.0 0.0 0.0 0.0 0.0 0.0 0.0 0.0 0.0 
1.696 1.36439696303166 -1.0613061771526993 -1.6561199195284397 3.1002534852137518 0.42653939874571484 2.334015234852248 0.28622939818573173 -0.5130975123193863 0.23796150582696152 0.03985815773858355 0.2655098785395336 0.2584326583424077 200.0 43.150000000000006 350.0 2.0 -2.0 2.0 0.0 150.0 0.0 0.0 0.0 0.0 0.0 0.0 0.0 0.0 0.0 0.0 
1.704 1.3666805903375867 -1.0657918488134128 -1.653924057807627 3.099552877415058 0.4281209435446534 2.337632603387874 0.28070523014499177 -0.5135047495075539 0.23946512997305697 0.045975384945792994 0.2606979912820572 0.25068960622806974 200.0 44.349999999999994 350.0 2.0 -2.0 2.0 0.0 150.0 0.0 0.0 0.0 0.0 0.0 0.0 0.0 0.0 0.0 0.0 
1.712 1.3689201461325045 -1.0702708821009104 -1.6517232491201783 3.0989269935239445 0.4296777221380027 2.341153324368647 0.27531799229011716 -0.5139536077870375 0.2410595982770792 0.05174704200587577 0.25599009927397476 0.24325921809586837 200.0 45.55000000000001 350.0 2.0 -2.0 2.0 0.0 150.0 0.0 0.0 0.0 0.0 0.0 0.0 0.0 0.0 0.0 0.0 
1.72 1.371116724464253 -1.0747439224917246 -1.6495165118832125 3.0983722370741225 0.4312101024866984 2.344580852996127 0.2700640217154166 -0.5144403981050872 0.24273983740756466 0.05718915940280914 0.2513843893167326 0.23612624995620454 200.0 46.75 350.0 2.0 -2.0 2.0 0.0 150.0 0.0 0.0 0.0 0.0 0.0 0.0 0.0 0.0 0.0 0.0 
1.728 1.373271389971712 -1.0792115760166046 -1.6473029155370933 3.0978851680460213 0.4327184566787259 2.3479184972603515 0.2649397363164027 -0.5149616975741318 0.24450110099161138 0.062316890216380996 0.24687900967116583 0.2292762983019026 200.0 47.95000000000002 350.0 2.0 -2.0 2.0 0.0 150.0 0.0 0.0 0.0 0.0 0.0 0.0 0.0 0.0 0.0 0.0 
1.736 1.3753851785455367 -1.0836744115841594 -1.6450815775130363 3.0974624951162584 0.43420315979922525 2.351169424853592 0.25994163535349407 -0.515514331557766 0.2463389470679046 0.06714456351683072 0.24247207914613256 0.22269575040363324 200.0 49.150000000000006 350.0 2.0 -2.0 2.0 0.0 150.0 0.0 0.0 0.0 0.0 0.0 0.0 0.0 0.0 0.0 0.0 
1.744 1.3774590979921406 -1.088132963176533 -1.6428516603908556 3.09710106831529 0.43566458890981447 2.3543366697552903 0.25506629972666256 -0.5160953569117558 0.24824921719741144 0.07168573432377502 0.23816169524305028 0.21637173756801184 200.0 50.35000000000002 350.0 2.0 -2.0 2.0 0.0 150.0 0.0 0.0 0.0 0.0 0.0 0.0 0.0 0.0 0.0 0.0 
1.752 1.3794941286987095 -1.0925877319230795 -1.6406123692345769 3.0967978720723144 0.4371031221282081 2.3574231385014137 0.2503103919910568 -0.5167020463171599 0.2502280171089432 0.07595323034700006 0.23394594143906236 0.21029209120084263 200.0 51.55000000000001 350.0 2.0 -2.0 2.0 0.0 150.0 0.0 0.0 0.0 0.0 0.0 0.0 0.0 0.0 0.0 0.0 
1.76 1.3814912242972672 -1.097039188057952 -1.6383629490943707 3.0965500186273327 0.43851913779986873 2.3604316161514034 0.24567065614134972 -0.5173318736439135 0.25227169876528344 0.07995919571513445 0.22982289368497222 0.20444530152212376 200.0 52.75000000000003 350.0 2.0 -2.0 2.0 0.0 150.0 0.0 0.0 0.0 0.0 0.0 0.0 0.0 0.0 0.0 0.0 
1.768 1.3834513123260188 -1.1014877727673693 -1.6361026826639784 3.0963547417910857 0.4399130137541014 2.3633647719657325 0.24114391719044884 -0.5179825002848851 0.25437684374361436 0.08371513188677361 0.22579062618802503 0.19882047878436437 200.0 53.95000000000002 350.0 2.0 -2.0 2.0 0.0 150.0 0.0 0.0 0.0 0.0 0.0 0.0 0.0 0.0 0.0 0.0 
1.776 1.3853752948864133 -1.105933899932202 -1.6338308880834642 3.0962093910344164 0.4412851266375071 2.366225164806864 0.23672708056613306 -0.5186517624024493 0.2565402478316284 0.08723193592743678 0.22184721654389128 0.19340731685119839 200.0 55.150000000000006 350.0 2.0 -2.0 2.0 0.0 150.0 0.0 0.0 0.0 0.0 0.0 0.0 0.0 0.0 0.0 0.0 
1.784 1.3872640492945307 -1.110377957771334 -1.63154691687778 3.0961114258894677 0.44263585131833244 2.3690152482761015 0.23241713134730677 -0.519337659031825 0.2587589067478725 0.09051993632484787 0.21799075027698123 0.1881960589991263 200.0 56.35000000000002 350.0 2.0 -2.0 2.0 0.0 150.0 0.0 0.0 0.0 0.0 0.0 0.0 0.0 0.0 0.0 0.0 
1.792 1.3891184287255878 -1.1148203103910768 -1.6292501520222418 3.0960584106459175 0.44396556035567303 2.371737375598516 0.22821113335973015 -0.520038340987848 0.2610300029016244 0.09358892650456352 0.21421932484331294 0.1831774658112465 200.0 57.55000000000001 350.0 2.0 -2.0 2.0 0.0 150.0 0.0 0.0 0.0 0.0 0.0 0.0 0.0 0.0 0.0 0.0 
1.8 1.3909392628504949 -1.1192612992457156 -1.6269400061265686 3.0960480093262857 0.4452746235280286 2.3743938042677493 0.22410622814941952 -0.5207521005243083 0.2633508931139051 0.09644819619788995 0.21053105314565634 0.17834278503801598 200.0 58.75000000000003 350.0 2.0 -2.0 2.0 0.0 150.0 0.0 0.0 0.0 0.0 0.0 0.0 0.0 0.0 0.0 0.0 
1.808 1.3927273584635418 -1.1237012445140584 -1.6246159197297227 3.0960779809251484 0.4465634074160958 2.3769867004621092 0.22009963385033118 -0.5214773616975262 0.26571909722712683 0.09910656080443173 0.20692406660650364 0.17368372330626494 200.0 59.95000000000002 350.0 2.0 -2.0 2.0 0.0 150.0 0.0 0.0 0.0 0.0 0.0 0.0 0.0 0.0 0.0 0.0 
1.816 1.3944835001004257 -1.1281404463966465 -1.6222773596982438 3.0961461748978136 0.4478322750350951 2.3795181432429815 0.21618864396147028 -0.5222126713883691 0.26813228753634705 0.10157238888248016 0.2033965178405636 0.1691924195638282 200.0 61.150000000000034 350.0 2.0 -2.0 2.0 0.0 150.0 0.0 0.0 0.0 0.0 0.0 0.0 0.0 0.0 0.0 0.0 
1.824 1.3962084506459442 -1.1325791863380963 -1.619923817721304 3.096250526884819 0.4490815855123008 2.3819901285461533 0.21237062604718912 -0.5229566909394313 0.2705882789802308 0.10385362789178584 0.19994658296491516 0.16486142015317026 200.0 62.35000000000002 350.0 2.0 -2.0 2.0 0.0 150.0 0.0 0.0 0.0 0.0 0.0 0.0 0.0 0.0 0.0 0.0 
1.832 1.397902951930781 -1.1370177281787925 -1.6175548088961293 3.09638905465929 0.4503116938058169 2.384404572976224 0.208643020373196 -0.5237081883665491 0.27308502003452445 0.10595782830506678 0.19657246358171154 0.1606836554133055 200.0 63.55000000000001 350.0 2.0 -2.0 2.0 0.0 150.0 0.0 0.0 0.0 0.0 0.0 0.0 0.0 0.0 0.0 0.0 
1.84 1.39956772531692 -1.1414563192399854 -1.6151698703978679 3.0965598542848776 0.45152295046089985 2.3867633174138705 0.2050033384895872 -0.5244660311062287 0.27562058425525915 0.10789216619690666 0.19327238846528377 0.15665241771496438 200.0 64.75000000000003 350.0 2.0 -2.0 2.0 0.0 150.0 0.0 0.0 0.0 0.0 0.0 0.0 0.0 0.0 0.0 0.0 
1.848 1.4012034722712963 -1.1458951913461224 -1.6127685602283783 3.096761096472696 0.45271570140048695 2.389068130445299 0.20144916177114233 -0.5252291792628789 0.27819316242296843 0.1096634644114046 0.19004461498274017 0.15276134083949555 200.0 65.95000000000002 350.0 2.0 -2.0 2.0 0.0 150.0 0.0 0.0 0.0 0.0 0.0 0.0 0.0 0.0 0.0 0.0 
1.856 1.4028108749273844 -1.15033456178805 -1.6103504560387865 3.096991023126259 0.45389028774681234 2.391320711622823 0.197978139924112 -0.5259966793219689 0.2808010552429512 0.11127821240315013 0.18688743027460558 0.14900438061724722 200.0 67.15000000000003 350.0 2.0 -2.0 2.0 0.0 150.0 0.0 0.0 0.0 0.0 0.0 0.0 0.0 0.0 0.0 0.0 
1.864 1.4043905966344847 -1.1547746342305265 -1.6079151540209962 3.0972479440640535 0.45504704567128873 2.393522694565071 0.19458798946780664 -0.5267676582973556 0.28344266656010264 0.11274258483967722 0.18379915221971616 0.145375796746229 200.0 68.35000000000002 350.0 2.0 -2.0 2.0 0.0 150.0 0.0 0.0 0.0 0.0 0.0 0.0 0.0 0.0 0.0 0.0 
1.872 1.4059432824945395 -1.1592155995673137 -1.6054622678636727 3.0975302339099464 0.4561863062700297 2.3956756499049767 0.1912764921984235 -0.5275413182830674 0.286116497050042 0.11406245904758508 0.18077813020641714 0.14187013571664953 200.0 69.55000000000001 350.0 2.0 -2.0 2.0 0.0 150.0 0.0 0.0 0.0 0.0 0.0 0.0 0.0 0.0 0.0 0.0 
1.88 1.4074695598863651 -1.1636576367269167 -1.602991427768517 3.0978363291421624 0.45730839546260726 2.3977810880932617 0.18804149364178757 -0.5283169313817567 0.2888211383512273 0.11524343137889241 0.1778227457301735 0.13848221477152134 200.0 70.75000000000006 350.0 2.0 -2.0 2.0 0.0 150.0 0.0 0.0 0.0 0.0 0.0 0.0 0.0 0.0 0.0 0.0 
1.888 1.4089700389772393 -1.1681009134318954 -1.6005022795229202 3.09816472529209 0.4584136339118649 2.3998404620648213 0.18488090150093925 -0.5290938349838584 0.2915552676054905 0.11629083256898365 0.17493141283586713 0.13520710683782208 200.0 71.95000000000005 350.0 2.0 -2.0 2.0 0.0 150.0 0.0 0.0 0.0 0.0 0.0 0.0 0.0 0.0 0.0 0.0 
1.896 1.4104453132218215 -1.172545586914484 -1.5979944836253672 3.09851397428468 0.45950233696275405 2.401855169774978 0.18179268410386054 -0.5298714273732301 0.2943176423769415 0.11720974215259604 0.17210257842142884 0.13204012636684256 200.0 73.15000000000003 350.0 2.0 -2.0 2.0 0.0 150.0 0.0 0.0 0.0 0.0 0.0 0.0 0.0 0.0 0.0 0.0 
1.904 1.411895959848438 -1.1769918045911159 -1.5954677144601868 3.0988826819126185 0.46057481459835264 2.403826556612308 0.17877486885601857 -0.5306491636366596 0.2971070959215102 0.11800500199977557 0.16933472241791975 0.12897681602618094 200.0 74.35000000000002 350.0 2.0 -2.0 2.0 0.0 150.0 0.0 0.0 0.0 0.0 0.0 0.0 0.0 0.0 0.0 0.0 
1.912 1.4133225403327807 -1.1814397046982916 -1.5929216595184843 3.0992695054369674 0.4616313714113585 2.405755917694333 0.17582554070185383 -0.5314265518561865 0.29992253278155795 0.1186812290294371 0.1666263578598033 0.12601293418954027 200.0 75.55000000000001 350.0 2.0 -2.0 2.0 0.0 150.0 0.0 0.0 0.0 0.0 0.0 0.0 0.0 0.0 0.0 0.0 
1.92 1.4147256008591187 -1.1858894168920977 -1.5903560186623025 3.0996731513073135 0.46267230658953634 2.407644500052117 0.17294284059884527 -0.5322031495645922 0.3027629246819366 0.11924282715426417 0.16397603085787635 0.12314444317387478 200.0 76.75 350.0 2.0 -2.0 2.0 0.0 150.0 0.0 0.0 0.0 0.0 0.0 0.0 0.0 0.0 0.0 0.0 
1.928 1.4161056727691381 -1.1903410628135322 -1.5877705034292429 3.1000923729948853 0.4636979139136441 2.4094935047094523 0.1701249640073165 -0.5329785604457903 0.30562730670571386 0.11969399850695153 0.16138232048617154 0.12036749817670693 200.0 77.94999999999999 350.0 2.0 -2.0 2.0 0.0 150.0 0.0 0.0 0.0 0.0 0.0 0.0 0.0 0.0 0.0 0.0 
1.936 1.4174632729985475 -1.194794756621692 -1.5851648363749862 3.1005259689325033 0.46470848176660484 2.4113040886620483 0.167370159398745 -0.533752431263094 0.3085147737294527 0.1200387539943937 0.1588438385930845 0.11767843686944261 200.0 79.14999999999998 350.0 2.0 -2.0 2.0 0.0 150.0 0.0 0.0 0.0 0.0 0.0 0.0 0.0 0.0 0.0 0.0 
1.944 1.4187989045016178 -1.1992506054967298 -1.5825387504512984 3.100972780555512 0.46570429315267925 2.413077366761863 0.16467672678494366 -0.5345244489995364 0.3114244770994699 0.12028092322322527 0.15635922954601078 0.11507376960537782 200.0 80.35000000000002 350.0 2.0 -2.0 2.0 0.0 150.0 0.0 0.0 0.0 0.0 0.0 0.0 0.0 0.0 0.0 0.0 
1.952 1.420113056663833 -1.2037087101143897 -1.5798919884172808 3.10143169043822 0.46668562572559197 2.414814413511428 0.16204301627015877 -0.5352943381955081 0.31435562153192526 0.12042416383714959 0.15392716991790117 0.11255017020375561 200.0 81.55000000000001 350.0 2.0 -2.0 2.0 0.0 150.0 0.0 0.0 0.0 0.0 0.0 0.0 0.0 0.0 0.0 0.0 
1.96 1.4214062057028496 -1.2081691650938278 -1.5772243022817707 3.1019016205206897 0.46765275182458393 2.416516264772789 0.15946742662779956 -0.5360618584700304 0.31730746222091094 0.12047197030372876 0.15154636812332398 0.11010446727373879 200.0 82.75 350.0 2.0 -2.0 2.0 0.0 150.0 0.0 0.0 0.0 0.0 0.0 0.0 0.0 0.0 0.0 0.0 
1.968 1.4226788150579708 -1.2126320594203044 -1.5745354527749327 3.102381530420975 0.4686059385175224 2.4181839193954193 0.1569484039032583 -0.5368268022129229 0.32027930213989747 0.12042768218575076 0.14921556401090755 0.10773363604450523 200.0 83.94999999999999 350.0 2.0 -2.0 2.0 0.0 150.0 0.0 0.0 0.0 0.0 0.0 0.0 0.0 0.0 0.0 0.0 
1.976 1.423931335768356 -1.217097476844259 -1.5718252088472067 3.102870415828211 0.4695454476502107 2.419818340767257 0.15448444004400583 -0.5375889924360405 0.323270489523021 0.12029449192989641 0.1469335284183497 0.10543479066986639 200.0 85.15000000000003 350.0 2.0 -2.0 2.0 0.0 150.0 0.0 0.0 0.0 0.0 0.0 0.0 0.0 0.0 0.0 0.0 
1.984 1.425164206840193 -1.221565496258179 -1.5690933471939092 3.1033673069722276 0.47047153590116014 2.4214204582927756 0.15207407155793795 -0.5383482807725806 0.3262804155137172 0.12007545220320293 0.14469906269557894 0.10320517697786766 200.0 86.35000000000002 350.0 2.0 -2.0 2.0 0.0 150.0 0.0 0.0 0.0 0.0 0.0 0.0 0.0 0.0 0.0 0.0 
1.992 1.426377855603067 -1.2260361920525846 -1.566339651803886 3.1038712671655686 0.4713844548411313 2.4229911688018113 0.14971587820073468 -0.5391045456142461 0.329308511969144 0.11977348280577409 0.14251099820109425 0.10104216563773938 200.0 87.55000000000001 350.0 2.0 -2.0 2.0 0.0 150.0 0.0 0.0 0.0 0.0 0.0 0.0 0.0 0.0 0.0 0.0 
2.0 1.4275726980557661 -1.2305096344523865 -1.563563913530714 3.104381391414072 0.47228445099682786 2.4245313378926525 0.14740848169281884 -0.5398576903767716 0.3323542494097124 0.11939137718625391 0.14036819577600168 0.09894324571836557 200.0 88.75 350.0 2.0 -2.0 2.0 0.0 150.0 0.0 0.0 0.0 0.0 0.0 0.0 0.0 0.0 0.0 0.0 
2.008 1.428749139201769 -1.2349858898347839 -1.5607659296850667 3.1048968050923538 0.4731717659181561 2.426041801212738 0.14515054446633247 -0.540607641884998 0.33541713510384713 0.11893180858480035 0.13826954519981 0.09690601861411682 200.0 89.94999999999999 350.0 2.0 -2.0 2.0 0.0 150.0 0.0 0.0 0.0 0.0 0.0 0.0 0.0 0.0 0.0 0.0 
2.016 1.4299075733746585 -1.2394650210298097 -1.5579455036469134 3.1054166626807618 0.4740466362485511 2.427523365680099 0.14294076844240777 -0.5413543488693049 0.33849671127883374 0.11839733582663982 0.13621396463162036 0.09492819231545059 200.0 91.15000000000003 350.0 2.0 -2.0 2.0 0.0 150.0 0.0 0.0 0.0 0.0 0.0 0.0 0.0 0.0 0.0 0.0 
2.024 1.4310483845537108 -1.2439470876045564 -1.5551024444963464 3.1059401465605454 0.47490929379789626 2.4289768106485488 0.1407778938388834 -0.5420977805657947 0.34159255344929257 0.11779040878774212 0.13420040003997577 0.0930075760031523 200.0 92.35000000000002 350.0 2.0 -2.0 2.0 0.0 150.0 0.0 0.0 0.0 0.0 0.0 0.0 0.0 0.0 0.0 0.0 
2.032 1.4321719466699112 -1.2484321461320635 -1.5522365666618692 3.1064664658641847 0.47575996561759937 2.4304028890194376 0.13866069800849154 -0.5428379254131687 0.34470426885545924 0.11711337355270914 0.13222782462427413 0.09114207494645181 200.0 93.55000000000001 350.0 2.0 -2.0 2.0 0.0 150.0 0.0 0.0 0.0 0.0 0.0 0.0 0.0 0.0 0.0 0.0 
2.04 1.433278623902643 -1.252920250445774 -1.549347689585081 3.106994855377974 0.47659887407744933 2.4318023283026577 0.13658799430745588 -0.5435747898397295 0.34783149500401056 0.11636847728365493 0.13029523823034891 0.08932968568652704 200.0 94.75 350.0 2.0 -2.0 2.0 0.0 150.0 0.0 0.0 0.0 0.0 0.0 0.0 0.0 0.0 0.0 0.0 
2.048 1.4343687709672945 -1.257411451880433 -1.5464356374007404 3.107524574494139 0.47742623694390085 2.433175831629427 0.13455863099434082 -0.5443083971344249 0.3509738983047409 0.11555787281758985 0.12840166676252807 0.08756849148809773 200.0 95.95000000000005 350.0 2.0 -2.0 2.0 0.0 150.0 0.0 0.0 0.0 0.0 0.0 0.0 0.0 0.0 0.0 0.0 
2.056 1.4354427333940374 -1.261905799500231 -1.5435002386312635 3.108054906209902 0.4782422674594728 2.43452407871926 0.13257149015891662 -0.5450387863962721 0.35413117279686335 0.11468362300868844 0.12654616159422255 0.08585665804291964 200.0 97.15000000000003 350.0 2.0 -2.0 2.0 0.0 150.0 0.0 0.0 0.0 0.0 0.0 0.0 0.0 0.0 0.0 0.0 
2.064 1.4365008477980128 -1.266403340314958 -1.5405413258947707 3.1085851561710482 0.47904717442297307 2.4358477268034027 0.13062548668074309 -0.5457660115569105 0.35730303895918253 0.11374770483073261 0.12472779897886456 0.08419242941002937 200.0 98.35000000000002 350.0 2.0 -2.0 2.0 0.0 150.0 0.0 0.0 0.0 0.0 0.0 0.0 0.0 0.0 0.0 0.0 
2.072 1.4375434421411706 -1.2709041194848876 -1.537558735625839 3.1091146517577126 0.47984116227028784 2.437147411506873 0.12871956721710573 -0.5464901404714113 0.3604892425988112 0.11275201325401332 0.12294567946279797 0.08257412417856452 200.0 99.55000000000001 350.0 2.0 -2.0 2.0 0.0 150.0 0.0 0.0 0.0 0.0 0.0 0.0 0.0 0.0 0.0 0.0 
2.08 1.4385708359859999 -1.2754081805150568 -1.5345523078081882 3.1096427412101777 0.480624431155517 2.438423747691166 0.12685270921990116 -0.5472112540728036 0.36368955381347307 0.11169836491007322 0.12119892730153868 0.08100013183987423 200.0 100.75 350.0 2.0 -2.0 2.0 0.0 150.0 0.0 0.0 0.0 0.0 0.0 0.0 0.0 0.0 0.0 0.0 
2.088 1.4395833407413803 -1.2799155654395957 -1.5315218857185524 3.1101687927926642 0.48139717703223484 2.4396773302595416 0.1250239199810091 -0.5479294455861289 0.3669037660228386 0.11058850155675379 0.11948668988063675 0.07946890935649503 200.0 101.95000000000005 350.0 2.0 -2.0 2.0 0.0 150.0 0.0 0.0 0.0 0.0 0.0 0.0 0.0 0.0 0.0 0.0 
2.096 1.4405812599007906 -1.2844263149966832 -1.5284673156810495 3.1106921939931302 0.48215959173469625 2.4409087349267344 0.12323223570567103 -0.5486448197981032 0.3701316950646234 0.10942409335525609 0.11780813714222664 0.07797897791634334 200.0 103.15000000000003 350.0 2.0 -2.0 2.0 0.0 150.0 0.0 0.0 0.0 0.0 0.0 0.0 0.0 0.0 0.0 0.0 
2.104 1.4415648892730974 -1.288940468794709 -1.525388446831398 3.1112123507572655 0.4829118630588115 2.4421185189548225 0.12147672061334402 -0.5493574923787746 0.373373178351532 0.10820674197013029 0.11616246101819919 0.07652891986121875 200.0 104.35000000000002 350.0 2.0 -2.0 2.0 0.0 150.0 0.0 0.0 0.0 0.0 0.0 0.0 0.0 0.0 0.0 0.0 
2.112 1.442534517206146 -1.2934580654701655 -1.522285130890362 3.111728686754936 0.48365417484276974 2.44330722185689 0.11975646606549242 -0.550067589251804 0.3766280740853984 0.10693798350242383 0.11454887487080853 0.07511737577939515 200.0 105.55000000000001 350.0 2.0 -2.0 2.0 0.0 150.0 0.0 0.0 0.0 0.0 0.0 0.0 0.0 0.0 0.0 0.0 
2.12 1.4434904248033686 -1.29797914283777 -1.5191572219458502 3.1122406426774223 0.48438670704713693 2.444475366070054 0.11807058971974815 -0.5507752460102495 0.37989626052514136 0.10561929126556306 0.11296661294140689 0.07374304175272405 200.0 106.75000000000006 350.0 2.0 -2.0 2.0 0.0 150.0 0.0 0.0 0.0 0.0 0.0 0.0 0.0 0.0 0.0 0.0 
2.128 1.4444328861336309 -1.3025037380332898 -1.5160045762431202 3.1127476755639014 0.4851096358343432 2.445623457599327 0.1164182347098551 -0.5514806073749522 0.38317763530540605 0.10425207841292743 0.11141492980789493 0.07240466674926586 200.0 107.95000000000005 350.0 2.0 -2.0 2.0 0.0 150.0 0.0 0.0 0.0 0.0 0.0 0.0 0.0 0.0 0.0 0.0 
2.136 1.4453621684345115 -1.3070318876495184 -1.5128270519825742 3.1132492581556974 0.4858231336474433 2.446751986633717 0.11479856885080642 -0.552183826692833 0.38647211480299365 0.10283770042550257 0.10989309985138619 0.07110105015303352 200.0 109.15000000000003 350.0 2.0 -2.0 2.0 0.0 150.0 0.0 0.0 0.0 0.0 0.0 0.0 0.0 0.0 0.0 0.0 
2.144 1.4462785323092293 -1.3115636278658123 -1.5096245091246607 3.113744878276899 0.48652736928806234 2.4478614281358886 0.11321078386857183 -0.5528850654726013 0.38977963354837986 0.10137745746748376 0.10840041673249502 0.0698310394229499 200.0 110.35000000000002 350.0 2.0 -2.0 2.0 0.0 150.0 0.0 0.0 0.0 0.0 0.0 0.0 0.0 0.0 0.0 0.0 
2.152 1.4471822319174084 -1.3160989945715964 -1.5063968092014222 3.114234038240027 0.4872225079934445 2.448952242406656 0.11165409465380284 -0.5535844929555614 0.39310014367984847 0.09987259661717371 0.10693619287758496 0.06859352787361381 200.0 111.55000000000001 350.0 2.0 -2.0 2.0 0.0 150.0 0.0 0.0 0.0 0.0 0.0 0.0 0.0 0.0 0.0 0.0 
2.16 1.4480735151598778 -1.3206380234842066 -1.5031438151342529 3.1147162542754923 0.4879087115125377 2.4500248756254863 0.11012773853890612 -0.5542822857193629 0.39643361443792463 0.09832431398008887 0.10549975897524343 0.06738745257091946 200.0 112.75000000000006 350.0 2.0 -2.0 2.0 0.0 150.0 0.0 0.0 0.0 0.0 0.0 0.0 0.0 0.0 0.0 0.0 
2.168 1.4489526238576929 -1.325180750261418 -1.4998653910574555 3.115191055983656 0.4885861381810465 2.451079760368164 0.10863097459787345 -0.5549786273127021 0.39978003169797227 0.09673375669072783 0.1040904634831929 0.06621179233601392 200.0 113.95000000000005 350.0 2.0 -2.0 2.0 0.0 150.0 0.0 0.0 0.0 0.0 0.0 0.0 0.0 0.0 0.0 0.0 
2.176 1.449819793925558 -1.3297272106090023 -1.4965614021472053 3.1156579858083697 0.48925494299542205 2.452117316102672 0.1071630829682554 -0.5556737079191242 0.4031393975389931 0.09510202480906804 0.10270767214578816 0.06506556585145958 200.0 115.15000000000003 350.0 2.0 -2.0 2.0 0.0 150.0 0.0 0.0 0.0 0.0 0.0 0.0 0.0 0.0 0.0 0.0 
2.184 1.4506752555398346 -1.3342774403836266 -1.4932317144555571 3.116116598530922 0.48991527768571685 2.4531379496643284 0.10572336419467018 -0.5563677240482171 0.4065117298467946 0.09343017311746593 0.10135076752220806 0.063947829863858 200.0 116.35000000000002 350.0 2.0 -2.0 2.0 0.0 150.0 0.0 0.0 0.0 0.0 0.0 0.0 0.0 0.0 0.0 0.0 
2.192 1.4515192333013023 -1.3388314756913875 -1.489876194749133 3.1165664607833774 0.4905672907872915 2.4541420557111344 0.10431113859324717 -0.5570608782526012 0.4098970619498464 0.09171921282328929 0.10001914852539821 0.06285767747752945 200.0 117.55000000000001 350.0 2.0 -2.0 2.0 0.0 150.0 0.0 0.0 0.0 0.0 0.0 0.0 0.0 0.0 0.0 0.0 
2.2 1.4523519463928412 -1.3433893529822742 -1.4864947103521666 3.1170071505803527 0.49121112771133185 2.455130017160254 0.10292574563640705 -0.5577533788692506 0.41329544228626924 0.08997011317227444 0.09871222997179649 0.06179423653417772 200.0 118.75000000000006 350.0 2.0 -2.0 2.0 0.0 150.0 0.0 0.0 0.0 0.0 0.0 0.0 0.0 0.0 0.0 0.0 
2.208 1.4531736087322022 -1.3479511091408152 -1.483087128993583 3.117438256868305 0.4918469308141527 2.456102205606504 0.10156654335738931 -0.5584454397837814 0.4167069341005248 0.0881838029772942 0.09742944214182166 0.06075666807376702 200.0 119.95000000000005 350.0 2.0 -2.0 2.0 0.0 150.0 0.0 0.0 0.0 0.0 0.0 0.0 0.0 0.0 0.0 0.0 
2.216 1.453984429120021 -1.3525167815731833 -1.4796533186578 3.117859379091466 0.49247483946527415 2.457058981723676 0.10023290777394642 -0.5591372802164484 0.4201316151684906 0.08636117206692442 0.09617023035109287 0.05974416487213 200.0 121.15000000000003 350.0 2.0 -2.0 2.0 0.0 150.0 0.0 0.0 0.0 0.0 0.0 0.0 0.0 0.0 0.0 0.0 
2.224 1.454784611383229 -1.3570864082909773 -1.4761931474389793 3.118270126773605 0.4930949901142448 2.4580006956494844 0.09892423233063354 -0.5598291245286879 0.42356957754970526 0.08450307265793523 0.09493405453231098 0.05875595005109371 200.0 122.35000000000002 350.0 2.0 -2.0 2.0 0.0 150.0 0.0 0.0 0.0 0.0 0.0 0.0 0.0 0.0 0.0 0.0 
2.232 1.4555743545140105 -1.3616600279919306 -1.4727064833984391 3.1186701191148374 0.4937075163562238 2.4589276873548753 0.09763992735913288 -0.5605212020491316 0.42702092736567854 0.08261032065556415 0.09372038882771255 0.05779127575715671 200.0 123.55000000000007 350.0 2.0 -2.0 2.0 0.0 150.0 0.0 0.0 0.0 0.0 0.0 0.0 0.0 0.0 0.0 0.0 
2.24 1.4563538528044544 -1.3662376801377527 -1.4691931944249592 3.119058984602707 0.49431254899627686 2.4598402869984244 0.09637941955606152 -0.5612137469180971 0.43048578460324766 0.08068369688520083 0.09252872119198968 0.05684942190498955 200.0 124.75000000000006 350.0 2.0 -2.0 2.0 0.0 150.0 0.0 0.0 0.0 0.0 0.0 0.0 0.0 0.0 0.0 0.0 
2.248 1.457123295977032 -1.3708194050293183 -1.4656531480977346 3.1194363606368656 0.4949102161124334 2.4607388152664846 0.09514215147772576 -0.5619069979496474 0.43396428294205475 0.07872394825887846 0.09135855300554804 0.055929694982248104 200.0 125.95000000000005 350.0 2.0 -2.0 2.0 0.0 150.0 0.0 0.0 0.0 0.0 0.0 0.0 0.0 0.0 0.0 0.0 
2.256 1.4578828693110457 -1.375405243879399 -1.4620862115517272 3.1198018931666596 0.49550064311746234 2.4616235836997284 0.09392758105129008 -0.5626011985103786 0.4374565696053072 0.07673178887976191 0.09020939869796354 0.05503142691239942 200.0 127.15000000000003 350.0 2.0 -2.0 2.0 0.0 150.0 0.0 0.0 0.0 0.0 0.0 0.0 0.0 0.0 0.0 0.0 
2.264 1.4586327537651753 -1.3799952388831305 -1.4584922513451806 3.120155236340968 0.4960839528193868 2.462494895006699 0.09273518110185049 -0.563296596414159 0.44096280523305365 0.07470790108761775 0.08908078538148198 0.05415397397244549 200.0 128.35000000000002 350.0 2.0 -2.0 2.0 0.0 150.0 0.0 0.0 0.0 0.0 0.0 0.0 0.0 0.0 0.0 0.0 
2.272 1.4593731260962493 -1.3845894332863913 -1.4548711333290705 3.120496052169699 0.4966602654807454 2.4633530433649464 0.09156443889490425 -0.563993443832123 0.44448316377729785 0.07265293644806993 0.08797225249440034 0.05329671576262142 200.0 129.55000000000007 350.0 2.0 -2.0 2.0 0.0 150.0 0.0 0.0 0.0 0.0 0.0 0.0 0.0 0.0 0.0 0.0 
2.28 1.460104158974363 -1.389187871452272 -1.4512227225182754 3.1208240101963405 0.4972296988766094 2.4641983147103 0.0904148556937306 -0.5646919972172639 0.44801783241832577 0.07056751668826501 0.08688335145415436 0.05245905422530461 200.0 130.75000000000006 350.0 2.0 -2.0 2.0 0.0 150.0 0.0 0.0 0.0 0.0 0.0 0.0 0.0 0.0 0.0 0.0 
2.288 1.4608260210944701 -1.3937905989257984 -1.447546882964249 3.121138787181021 0.4977923683513435 2.465030987014806 0.08928594633119649 -0.5653925172430464 0.45156701150171574 0.0684522345814043 0.08581364531993067 0.051640412710537514 200.0 131.95000000000005 350.0 2.0 -2.0 2.0 0.0 150.0 0.0 0.0 0.0 0.0 0.0 0.0 0.0 0.0 0.0 0.0 
2.296 1.4615388772845523 -1.3983976624970658 -1.4438434776289937 3.121440066793533 0.49834838687415356 2.4658513305538214 0.08817723879552825 -0.5660952687554986 0.45513091449553933 0.06630765478244834 0.08476270846461809 0.05084023508571251 200.0 133.15000000000003 350.0 2.0 -2.0 2.0 0.0 150.0 0.0 0.0 0.0 0.0 0.0 0.0 0.0 0.0 0.0 0.0 
2.304 1.4622428886104863 -1.4030091102629427 -1.4401123682601342 3.12172753931583 0.4988978650934136 2.4666596081627477 0.08708827382959401 -0.5668005207383024 0.4587097679673461 0.06413431461714336 0.083730126255907 0.05005798488711099 200.0 134.35000000000008 350.0 2.0 -2.0 2.0 0.0 150.0 0.0 0.0 0.0 0.0 0.0 0.0 0.0 0.0 0.0 0.0 
2.312 1.4629382124777148 -1.4076249916874835 -1.436353415266894 3.1220009013534713 0.49944091138978725 2.4674560754838546 0.08601860454325347 -0.5675085462904471 0.46230381158056694 0.06193272482639495 0.08271549474633898 0.04929314451111281 200.0 135.55 350.0 2.0 -2.0 2.0 0.0 150.0 0.0 0.0 0.0 0.0 0.0 0.0 0.0 0.0 0.0 0.0 
2.32 1.4636250027298237 -1.412245357661205 -1.4325664775967817 3.122259855555597 0.49997763192816225 2.4682409812036186 0.08496779603834859 -0.568219622616061 0.4659132981100551 0.05970337026785443 0.08171842037210961 0.04854521444302829 200.0 136.75 350.0 2.0 -2.0 2.0 0.0 150.0 0.0 0.0 0.0 0.0 0.0 0.0 0.0 0.0 0.0 0.0 
2.328 1.4643034097441274 -1.4168702605593477 -1.4287514126128096 3.1225041103429474 0.5005081307084264 2.469014567280991 0.08393542504592125 -0.5689340310260693 0.46953849347650356 0.05744671057649573 0.08073851966042654 0.04781371252160791 200.0 137.95 350.0 2.0 -2.0 2.0 0.0 150.0 0.0 0.0 0.0 0.0 0.0 0.0 0.0 0.0 0.0 0.0 
2.336 1.4649735805243633 -1.4214997542992716 -1.424908075971051 3.1227333796435115 0.501032509615069 2.4697770691669905 0.08292107957524948 -0.5696520569513847 0.47317967679957323 0.055163180785806065 0.0797754189452173 0.047098173237401564 200.0 139.14999999999998 350.0 2.0 -2.0 2.0 0.0 150.0 0.0 0.0 0.0 0.0 0.0 0.0 0.0 0.0 0.0 0.0 
2.344 1.465635658790584 -1.4261338943971 -1.421036321498363 3.1229473826354015 0.5015508684656663 2.470528716015979 0.08192435857431234 -0.5703739899673594 0.47683714046958514 0.05285319191112867 0.07882875409099024 0.04639814706324097 200.0 140.34999999999997 350.0 2.0 -2.0 2.0 0.0 150.0 0.0 0.0 0.0 0.0 0.0 0.0 0.0 0.0 0.0 0.0 
2.352 1.4662897850663432 -1.4307727380237527 -1.4171360010700893 3.1231458434965385 0.5020633050582385 2.471269730888988 0.08094487160130741 -0.5711001238292813 0.48051119023770683 0.05051713149656774 0.07789817022464685 0.045713199815211804 200.0 141.55 350.0 2.0 -2.0 2.0 0.0 150.0 0.0 0.0 0.0 0.0 0.0 0.0 0.0 0.0 0.0 0.0 
2.36 1.4669360967632623 -1.4354163440604775 -1.4132069644875758 3.123328491160792 0.5025699152175036 2.4720003309494296 0.07998223850684194 -0.571830756518723 0.4842021453246017 0.04815536412678017 0.07698332147504096 0.045042912042575746 200.0 142.75 350.0 2.0 -2.0 2.0 0.0 150.0 0.0 0.0 0.0 0.0 0.0 0.0 0.0 0.0 0.0 0.0 
2.368 1.4675747282630596 -1.4400647731540057 -1.4092490593553175 3.1234950590801924 0.5030707928400787 2.4727207276515033 0.07903608912645585 -0.572566190300594 0.48791033854756205 0.04576823190487394 0.07608387072009522 0.044386878445186434 200.0 143.95 350.0 2.0 -2.0 2.0 0.0 150.0 0.0 0.0 0.0 0.0 0.0 0.0 0.0 0.0 0.0 0.0 
2.376 1.468205810997134 -1.4447180877714498 -1.4052621309575635 3.1236452849928624 0.503566029938575 2.4734311269216285 0.07810606298311376 -0.5733067317907823 0.49163611646620775 0.04335605489753668 0.07519948934126688 0.04374470731702236 200.0 145.14999999999998 350.0 2.0 -2.0 2.0 0.0 150.0 0.0 0.0 0.0 0.0 0.0 0.0 0.0 0.0 0.0 0.0 
2.384 1.4688294735237686 -1.449376352255055 -1.4012460221342107 3.1237789106963483 0.504055716684709 2.4741317293331653 0.07719180899934601 -0.5740526920342978 0.49537983954686443 0.040919131548437966 0.07432985698517847 0.04311602001453725 200.0 146.35000000000002 350.0 2.0 -2.0 2.0 0.0 150.0 0.0 0.0 0.0 0.0 0.0 0.0 0.0 0.0 0.0 0.0 
2.392 1.469445841603045 -1.454039632876917 -1.3972005731558057 3.1238956818259855 0.5045399414513465 2.4748227302747345 0.07629298521870588 -0.5748043865938735 0.49914188234580215 0.038457739060856005 0.07347466133221557 0.04250045044859809 200.0 147.55 350.0 2.0 -2.0 2.0 0.0 150.0 0.0 0.0 0.0 0.0 0.0 0.0 0.0 0.0 0.0 0.0 
2.4 1.470055038269535 -1.4587079978937876 -1.3931256215974883 3.1239953476380276 0.5050187908535679 2.475504320112376 0.07540925853622844 -0.5755621356490083 0.5029226337115655 0.03597213375039716 0.07263359787190052 0.04189764459884566 200.0 148.75 350.0 2.0 -2.0 2.0 0.0 150.0 0.0 0.0 0.0 0.0 0.0 0.0 0.0 0.0 0.0 0.0 
2.408 1.4706571839028415 -1.4633815176020577 -1.3890210022116944 3.1240776607971825 0.5054923497887676 2.4761766843458135 0.07454030443759727 -0.57632626410546 0.506722497006649 0.03346255136861184 0.0718063696848643 0.04130726004937985 200.0 149.95 350.0 2.0 -2.0 2.0 0.0 150.0 0.0 0.0 0.0 0.0 0.0 0.0 0.0 0.0 0.0 0.0 
2.416 1.4712523962960637 -1.468060264393054 -1.3848865467994491 3.1241423771682966 0.5059607014757574 2.4768400037590688 0.07368580674671002 -0.5770971017152479 0.5105418903488772 0.03092920739820282 0.07099268723122071 0.040728965544726034 200.0 151.14999999999998 350.0 2.0 -2.0 2.0 0.0 150.0 0.0 0.0 0.0 0.0 0.0 0.0 0.0 0.0 0.0 0.0 
