Fleaurent/UniversalRobot/csv/robot_movej_Dreieck_Zeit.csv
timestamp target_q_0 target_q_1 target_q_2 target_q_3 target_q_4 target_q_5 target_qd_0 target_qd_1 target_qd_2 target_qd_3 target_qd_4 target_qd_5 target_qdd_0 target_qdd_1 target_qdd_2 target_qdd_3 target_qdd_4 target_qdd_5 target_current_0 target_current_1 target_current_2 target_current_3 target_current_4 target_current_5 target_moment_0 target_moment_1 target_moment_2 target_moment_3 target_moment_4 target_moment_5 actual_q_0 actual_q_1 actual_q_2 actual_q_3 actual_q_4 actual_q_5 actual_qd_0 actual_qd_1 actual_qd_2 actual_qd_3 actual_qd_4 actual_qd_5 actual_current_0 actual_current_1 actual_current_2 actual_current_3 actual_current_4 actual_current_5 joint_control_output_0 joint_control_output_1 joint_control_output_2 joint_control_output_3 joint_control_output_4 joint_control_output_5 actual_TCP_pose_0 actual_TCP_pose_1 actual_TCP_pose_2 actual_TCP_pose_3 actual_TCP_pose_4 actual_TCP_pose_5 actual_TCP_speed_0 actual_TCP_speed_1 actual_TCP_speed_2 actual_TCP_speed_3 actual_TCP_speed_4 actual_TCP_speed_5 actual_TCP_force_0 actual_TCP_force_1 actual_TCP_force_2 actual_TCP_force_3 actual_TCP_force_4 actual_TCP_force_5 target_TCP_pose_0 target_TCP_pose_1 target_TCP_pose_2 target_TCP_pose_3 target_TCP_pose_4 target_TCP_pose_5 target_TCP_speed_0 target_TCP_speed_1 target_TCP_speed_2 target_TCP_speed_3 target_TCP_speed_4 target_TCP_speed_5
2367.768 1.7214759154467055e-16 -1.5707963267948966 -1.5707963267948966 0.0 1.5707963267948966 0.0 0.0 0.0 0.0 0.0 0.0 0.0 0.0 0.0 0.0 0.0 0.0 0.0 -1.8327750199862536e-26 0.555172973447796 0.7573864583558305 0.07057808899065858 -9.380070923910231e-28 0.0 -2.1032924999364705e-25 6.394759450000002 6.3947594500000005 0.2913103000000004 -3.894025929994733e-27 0.0 -1.1746083394825746e-05 -1.570796314870016 -1.5707476774798792 -4.0356312887013246e-05 1.5707435607910156 -5.990663637334137e-05 1.917476038215682e-05 0.0 -0.0 0.0 0.0 0.0 0.0403747595846653 0.5428162217140198 0.6740682125091553 -0.004475975409150124 -0.02349887043237686 -0.13204127550125122 0.0314025916159153 0.5630035996437073 0.6755932569503784 -0.007832957431674004 -0.02349887043237686 -0.12644630670547485 0.29580743431848805 -0.11304256244549182 0.48156363923177775 -1.2101471401575996 1.2098502719545328 -1.209071052127473 2.1675640478771407e-06 5.6720366723176e-06 0.0 0.0 0.0 1.917476038215682e-05 2.568381190773453 -4.30593231315689 2.055438073447328 0.6129826342399818 -0.39749221824479936 0.4638871716191481 0.29580949455060795 -0.11303468883756387 0.4815525763646191 -1.2101397425155387 1.2098370768821618 -1.2089754610298096 0.0 0.0 0.0 0.0 0.0 0.0
2367.776 1.7214759154467055e-16 -1.5707963267948966 -1.5707963267948966 0.0 1.5707963267948966 0.0 0.0 0.0 0.0 0.0 0.0 0.0 0.0 0.0 0.0 0.0 0.0 0.0 -1.8327750199862536e-26 0.555172973447796 0.7573864583558305 0.07057808899065858 -9.380070923910231e-28 0.0 -2.1032924999364705e-25 6.394759450000002 6.3947594500000005 0.2913103000000004 -3.894025929994733e-27 0.0 -1.1746083394825746e-05 -1.5707724730121058 -1.5707595984088343 -4.0356312887013246e-05 1.5707435607910156 -4.7985707418263246e-05 1.917476038215682e-05 0.0 -0.0 0.0 0.0 0.0 0.0314025916159153 0.5854340195655823 0.6740682125091553 -0.007832957431674004 -0.025736859068274498 -0.1197323426604271 0.0314025916159153 0.5585175156593323 0.6755932569503784 -0.008951950818300247 -0.02349887043237686 -0.12644630670547485 0.29580059644944084 -0.11304255723573244 0.48156716560318125 -1.2101295908628869 1.2098471214829327 -1.2090679165100324 2.167563947981485e-06 5.671905557817095e-06 0.0 0.0 0.0 1.917476038215682e-05 4.823005883920144 -5.007367143393369 1.9837108575692783 0.5559172270512769 -0.6113914239146985 0.5319191927681802 0.29580949455060795 -0.11303468883756387 0.4815525763646191 -1.2101397425155387 1.2098370768821618 -1.2089754610298096 0.0 0.0 0.0 0.0 0.0 0.0
2367.784 1.7214759154467055e-16 -1.5707963267948966 -1.5707963267948966 0.0 1.5707963267948966 0.0 0.0 0.0 0.0 0.0 0.0 0.0 0.0 0.0 0.0 0.0 0.0 0.0 -1.8327750199862536e-26 0.555172973447796 0.7573864583558305 0.07057808899065858 -9.380070923910231e-28 0.0 -2.1032924999364705e-25 6.394759450000002 6.3947594500000005 0.2913103000000004 -3.894025929994733e-27 0.0 -1.1746083394825746e-05 -1.5707243124591272 -1.5707715193377894 -6.467500795537262e-05 1.570719599723816 -5.990663637334137e-05 1.917476038215682e-05 0.0 -0.0 0.0 0.0 0.0 0.0358886756002903 0.5226288437843323 0.6694930791854858 -0.01342792622745037 -0.022379877045750618 -0.12756529450416565 0.0314025916159153 0.5585175156593323 0.6755932569503784 -0.008951950818300247 -0.02349887043237686 -0.12644630670547485 0.29578781526126646 -0.11304453268826307 0.48157588102082743 -1.2101182633060699 1.2098503511477579 -1.2090999769683441 2.167601826810624e-06 5.671660481596453e-06 0.0 0.0 0.0 1.917476038215682e-05 1.6789662011972342 -3.5408262716378447 2.0660447066875256 0.5921353845159026 -0.36212631900332803 0.39575466581838475 0.29580949455060795 -0.11303468883756387 0.4815525763646191 -1.2101397425155387 1.2098370768821618 -1.2089754610298096 0.0 0.0 0.0 0.0 0.0 0.0
2367.792 1.7214759154467055e-16 -1.5707963267948966 -1.5707963267948966 0.0 1.5707963267948966 0.0 0.0 0.0 0.0 0.0 0.0 0.0 0.0 0.0 0.0 0.0 0.0 0.0 -1.8327750199862536e-26 0.555172973447796 0.7573864583558305 0.07057808899065858 -9.380070923910231e-28 0.0 -2.1032924999364705e-25 6.394759450000002 6.3947594500000005 0.2913103000000004 -3.894025929994733e-27 0.0 -2.366701234990387e-05 -1.570796314870016 -1.5708192030536097 -5.2754079000294496e-05 1.5707316398620605 -9.614626039677887e-05 1.917476038215682e-05 0.0 -0.0 0.0 0.0 0.0 0.0314025916159153 0.5831909775733948 0.6664429903030396 -0.001118993852287531 -0.022379877045750618 -0.10742340981960297 0.0381317175924778 0.5585175156593323 0.6755932569503784 -0.008951950818300247 -0.022379877045750618 -0.12644630670547485 0.2958132714122443 -0.11304698856945732 0.4815414751350041 -1.210224542934988 1.2099122498415835 -1.2090754057793918 2.1676489177434155e-06 5.672148597191705e-06 0.0 0.0 0.0 1.917476038215682e-05 5.000349771303315 -5.027527437719304 2.467677378884737 0.49884286291982977 -0.555544842279078 0.517876778819265 0.29580949455060795 -0.11303468883756387 0.4815525763646191 -1.2101397425155387 1.2098370768821618 -1.2089754610298096 0.0 0.0 0.0 0.0 0.0 0.0
2367.7999999999997 1.7214759154467055e-16 -1.5707963267948966 -1.5707963267948966 0.0 1.5707963267948966 0.0 0.0 0.0 0.0 0.0 0.0 0.0 0.0 0.0 0.0 0.0 0.0 0.0 -1.8327750199862536e-26 0.555172973447796 0.7573864583558305 0.07057808899065858 -9.380070923910231e-28 0.0 -2.1032924999364705e-25 6.394759450000002 6.3947594500000005 0.2913103000000004 -3.894025929994733e-27 0.0 0.0 -1.5707724730121058 -1.5708192030536097 -5.2754079000294496e-05 1.5707435607910156 -4.7985707418263246e-05 1.917476038215682e-05 0.0 -0.0 0.0 0.0 0.0 0.0291595496237278 0.5383301377296448 0.660342812538147 -0.0033569815568625927 -0.02014188840985298 -0.10966140031814575 0.0314025916159153 0.5585175156593323 0.6755932569503784 -0.008951950818300247 -0.022379877045750618 -0.12644630670547485 0.29580808915327134 -0.11303901417866932 0.48154852526911884 -1.2101883186367506 1.2098912856293413 -1.2090250685733426 2.167496010711261e-06 5.672049228617659e-06 0.0 0.0 0.0 1.917476038215682e-05 2.8653999145367197 -3.713680261329692 2.691870996993697 0.5091259629326277 -0.36520025074285967 0.39943789178956596 0.29580949455060795 -0.11303468883756387 0.4815525763646191 -1.2101397425155387 1.2098370768821618 -1.2089754610298096 0.0 0.0 0.0 0.0 0.0 0.0
2367.808 1.7214759154467055e-16 -1.5707963267948966 -1.5707963267948966 0.0 1.5707963267948966 0.0 0.0 0.0 0.0 0.0 0.0 0.0 0.0 0.0 0.0 0.0 0.0 0.0 -1.8327750199862536e-26 0.555172973447796 0.7573864583558305 0.07057808899065858 -9.380070923910231e-28 0.0 -2.1032924999364705e-25 6.394759450000002 6.3947594500000005 0.2913103000000004 -3.894025929994733e-27 0.0 -4.7985707418263246e-05 -1.570796314870016 -1.5707715193377894 -5.2754079000294496e-05 1.5707675218582153 -4.7985707418263246e-05 1.917476038215682e-05 0.0 -0.0 0.0 0.0 0.0 0.0291595496237278 0.5383301377296448 0.681693434715271 -0.0055949692614376545 -0.022379877045750618 -0.13204127550125122 0.0314025916159153 0.5585175156593323 0.6755932569503784 -0.008951950818300247 -0.022379877045750618 -0.12644630670547485 0.2958064408201776 -0.11305128125345412 0.4815555700856418 -1.210159300915512 1.2098915683431635 -1.20905410516853 2.167731228930941e-06 5.672017622225557e-06 0.0 0.0 0.0 1.917476038215682e-05 2.0370543625543234 -3.3242457989514276 1.695656027752073 0.6129066620446856 -0.3869519992306284 0.37784492405582093 0.29580949455060795 -0.11303468883756387 0.4815525763646191 -1.2101397425155387 1.2098370768821618 -1.2089754610298096 0.0 0.0 0.0 0.0 0.0 0.0
2367.816 1.7214759154467055e-16 -1.5707963267948966 -1.5707963267948966 0.0 1.5707963267948966 0.0 0.0 0.0 0.0 0.0 0.0 0.0 0.0 0.0 0.0 0.0 0.0 0.0 -1.8327750199862536e-26 0.555172973447796 0.7573864583558305 0.07057808899065858 -9.380070923910231e-28 0.0 -2.1032924999364705e-25 6.394759450000002 6.3947594500000005 0.2913103000000004 -3.894025929994733e-27 0.0 -4.7985707418263246e-05 -1.5707839171039026 -1.5707834402667444 -4.0356312887013246e-05 1.5707675218582153 -9.614626039677887e-05 1.917476038215682e-05 0.0 -0.0 0.0 0.0 0.0 0.0314025916159153 0.5338440537452698 0.6694930791854858 -0.0055949692614376545 -0.021260883659124374 -0.11525636911392212 0.0358886756002903 0.5585175156593323 0.6755932569503784 -0.008951950818300247 -0.022379877045750618 -0.12644630670547485 0.2958023172415846 -0.11305127252727211 0.4815567331811237 -1.2101853225495138 1.2098592802282793 -1.2090956396521533 2.167731061608395e-06 5.671938553594121e-06 0.0 0.0 0.0 1.917476038215682e-05 2.2728447944095747 -3.5599904476890076 2.2368889514285675 0.535051262027324 -0.36250573889661597 0.392047351311744 0.29580949455060795 -0.11303468883756387 0.4815525763646191 -1.2101397425155387 1.2098370768821618 -1.2089754610298096 0.0 0.0 0.0 0.0 0.0 0.0
2367.824 1.7214759154467055e-16 -1.5707963267948966 -1.5707963267948966 0.0 1.5707963267948966 0.0 0.0 0.0 0.0 0.0 0.0 0.0 0.0 0.0 0.0 0.0 0.0 0.0 -1.8327750199862536e-26 0.555172973447796 0.7573864583558305 0.07057808899065858 -9.380070923910231e-28 0.0 -2.1032924999364705e-25 6.394759450000002 6.3947594500000005 0.2913103000000004 -3.894025929994733e-27 0.0 -1.1746083394825746e-05 -1.5707243124591272 -1.5707715193377894 -4.593526021778871e-06 1.5707556009292603 -5.990663637334137e-05 1.917476038215682e-05 0.0 -0.0 0.0 0.0 0.0 0.0336456336081028 0.5674896836280823 0.6694930791854858 -0.007832957431674004 -0.015665914863348007 -0.11189938336610794 0.0336456336081028 0.5585175156593323 0.6755932569503784 -0.008951950818300247 -0.025736859068274498 -0.12532731890678406 0.29578269027381754 -0.11304157079759466 0.48158082684206016 -1.2100910317866955 1.2097796255113489 -1.2091019400210086 2.1675450332667897e-06 5.6715622111901575e-06 0.0 0.0 0.0 1.917476038215682e-05 4.0514411231015375 -4.5151594774873605 2.1872230658641816 0.5194758999200275 -0.5287734816458314 0.44460538477565925 0.29580949455060795 -0.11303468883756387 0.4815525763646191 -1.2101397425155387 1.2098370768821618 -1.2089754610298096 0.0 0.0 0.0 0.0 0.0 0.0
2367.832 1.7214759154467055e-16 -1.5707963267948966 -1.5707963267948966 0.0 1.5707963267948966 0.0 0.0 0.0 0.0 0.0 0.0 0.0 0.0 0.0 0.0 0.0 0.0 0.0 -1.8327750199862536e-26 0.555172973447796 0.7573864583558305 0.07057808899065858 -9.380070923910231e-28 0.0 -2.1032924999364705e-25 6.394759450000002 6.3947594500000005 0.2913103000000004 -3.894025929994733e-27 0.0 -1.1746083394825746e-05 -1.5707600752459925 -1.5707834402667444 -4.0356312887013246e-05 1.5707556009292603 -4.7985707418263246e-05 1.917476038215682e-05 0.0 -0.0 0.0 0.0 0.0 0.0291595496237278 0.5652466416358948 0.6755932569503784 -0.006713963113725185 -0.017903901636600494 -0.10406643152236938 0.0269165076315403 0.5585175156593323 0.6755932569503784 -0.012308932840824127 -0.022379877045750618 -0.12532731890678406 0.295798553653854 -0.11304154283756088 0.4815637836580508 -1.2101437650381097 1.2098466148003093 -1.2090535996625922 2.1675444971394067e-06 5.671866387701208e-06 0.0 0.0 0.0 1.917476038215682e-05 3.697186013567375 -4.105487971601122 1.9419142997390415 0.48315282973205276 -0.5135128619927125 0.42126500443811743 0.29580949455060795 -0.11303468883756387 0.4815525763646191 -1.2101397425155387 1.2098370768821618 -1.2089754610298096 0.0 0.0 0.0 0.0 0.0 0.0
2367.8399999999997 1.7214759154467055e-16 -1.5707963267948966 -1.5707963267948966 0.0 1.5707963267948966 0.0 0.0 0.0 0.0 0.0 0.0 0.0 0.0 0.0 0.0 0.0 0.0 0.0 -1.8327750199862536e-26 0.555172973447796 0.7573864583558305 0.07057808899065858 -9.380070923910231e-28 0.0 -2.1032924999364705e-25 6.394759450000002 6.3947594500000005 0.2913103000000004 -3.894025929994733e-27 0.0 -1.1746083394825746e-05 -1.5707724730121058 -1.570735279713766 -4.0356312887013246e-05 1.570719599723816 -5.990663637334137e-05 1.917476038215682e-05 0.0 -0.0 0.0 0.0 0.0 0.0403747595846653 0.5473023056983948 0.681693434715271 -0.001118993852287531 -0.019022895023226738 -0.1186133474111557 0.0358886756002903 0.5585175156593323 0.6755932569503784 -0.007832957431674004 -0.02349887043237686 -0.12532731890678406 0.2957985102252515 -0.11304455831438279 0.48157435480692284 -1.2101090684624167 1.209841303751956 -1.2091058880706593 2.167602318184875e-06 5.671865554968161e-06 0.0 0.0 0.0 1.917476038215682e-05 2.5101383299181914 -4.177762086782851 1.7903053202398975 0.5506312889915844 -0.3988067157538252 0.4325150953892724 0.29580949455060795 -0.11303468883756387 0.4815525763646191 -1.2101397425155387 1.2098370768821618 -1.2089754610298096 0.0 0.0 0.0 0.0 0.0 0.0
2367.848 1.7214759154467055e-16 -1.5707963267948966 -1.5707963267948966 0.0 1.5707963267948966 0.0 0.0 0.0 0.0 0.0 0.0 0.0 0.0 0.0 0.0 0.0 0.0 0.0 -1.8327750199862536e-26 0.555172973447796 0.7573864583558305 0.07057808899065858 -9.380070923910231e-28 0.0 -2.1032924999364705e-25 6.394759450000002 6.3947594500000005 0.2913103000000004 -3.894025929994733e-27 0.0 -2.366701234990387e-05 -1.5707243124591272 -1.5707595984088343 -4.0356312887013246e-05 1.5707556009292603 -7.230440248662262e-05 1.917476038215682e-05 0.0 -0.0 0.0 0.0 0.0 0.0336456336081028 0.5764618515968323 0.6664429903030396 -0.0055949692614376545 -0.022379877045750618 -0.10630441457033157 0.0358886756002903 0.5585175156593323 0.6755932569503784 -0.008951950818300247 -0.02349887043237686 -0.12532731890678406 0.2957833738130029 -0.11304510852659273 0.48158140627784835 -1.2101120701780583 1.209800115098315 -1.209108561111537 2.1676128683721874e-06 5.671575317890249e-06 0.0 0.0 0.0 1.917476038215682e-05 4.644055633589547 -4.975230064792623 2.370871471343568 0.493586375124701 -0.5539045668803776 0.5136831970161716 0.29580949455060795 -0.11303468883756387 0.4815525763646191 -1.2101397425155387 1.2098370768821618 -1.2089754610298096 0.0 0.0 0.0 0.0 0.0 0.0
2367.8559999999998 1.7214759154467055e-16 -1.5707963267948966 -1.5707963267948966 0.0 1.5707963267948966 0.0 0.0 0.0 0.0 0.0 0.0 0.0 0.0 0.0 0.0 0.0 0.0 0.0 -1.8327750199862536e-26 0.555172973447796 0.7573864583558305 0.07057808899065858 -9.380070923910231e-28 0.0 -2.1032924999364705e-25 6.394759450000002 6.3947594500000005 0.2913103000000004 -3.894025929994733e-27 0.0 -3.5587941304981996e-05 -1.5707362333880823 -1.5707476774798792 -5.2754079000294496e-05 1.5707435607910156 -1.1746083394825746e-05 1.917476038215682e-05 0.0 -0.0 0.0 0.0 0.0 0.0269165076315403 0.5428162217140198 0.671018123626709 -0.006713963113725185 -0.01678490824997425 -0.13875523209571838 0.0314025916159153 0.5585175156593323 0.6755932569503784 -0.008951950818300247 -0.02349887043237686 -0.12532731890678406 0.2957859914781689 -0.11304963498017619 0.481580384723755 -1.2100652273343004 1.2098555719935116 -1.209075764561963 2.1676996620351792e-06 5.671625510992568e-06 0.0 0.0 0.0 1.917476038215682e-05 2.6883170165908647 -3.4122734538559114 2.145610177828519 0.6439964424460344 -0.4106764462052202 0.35905392856697277 0.29580949455060795 -0.11303468883756387 0.4815525763646191 -1.2101397425155387 1.2098370768821618 -1.2089754610298096 0.0 0.0 0.0 0.0 0.0 0.0
2367.864 1.7214759154467055e-16 -1.5707963267948966 -1.5707963267948966 0.0 1.5707963267948966 0.0 0.0 0.0 0.0 0.0 0.0 0.0 0.0 0.0 0.0 0.0 0.0 0.0 -1.8327750199862536e-26 0.555172973447796 0.7573864583558305 0.07057808899065858 -9.380070923910231e-28 0.0 -2.1032924999364705e-25 6.394759450000002 6.3947594500000005 0.2913103000000004 -3.894025929994733e-27 0.0 -1.1746083394825746e-05 -1.5707362333880823 -1.5708072821246546 -4.0356312887013246e-05 1.5707435607910156 -3.5587941304981996e-05 1.917476038215682e-05 0.0 -0.0 0.0 0.0 0.0 0.0269165076315403 0.5607605576515198 0.6725431680679321 -0.011189938522875309 -0.02014188840985298 -0.12980328500270844 0.0336456336081028 0.5585175156593323 0.6755932569503784 -0.008951950818300247 -0.02349887043237686 -0.12532731890678406 0.29579273605125006 -0.113042515671049 0.48156378621767765 -1.2101289743701529 1.2098612999447667 -1.209053311398107 2.1675631509886583e-06 5.671754836565279e-06 0.0 0.0 0.0 1.917476038215682e-05 3.578075251275904 -3.9561417231328475 1.9802227749517576 0.6025417308544176 -0.520923357379019 0.41938785608756646 0.29580949455060795 -0.11303468883756387 0.4815525763646191 -1.2101397425155387 1.2098370768821618 -1.2089754610298096 0.0 0.0 0.0 0.0 0.0 0.0
2367.872 1.7214759154467055e-16 -1.5707963267948966 -1.5707963267948966 0.0 1.5707963267948966 0.0 0.0 0.0 0.0 0.0 0.0 0.0 0.0 0.0 0.0 0.0 0.0 0.0 -1.8327750199862536e-26 0.555172973447796 0.7573864583558305 0.07057808899065858 -9.380070923910231e-28 0.0 -2.1032924999364705e-25 6.394759450000002 6.3947594500000005 0.2913103000000004 -3.894025929994733e-27 0.0 2.3968450477696024e-05 -1.5707839171039026 -1.5708072821246546 -1.6514454976856996e-05 1.570719599723816 -5.990663637334137e-05 1.917476038215682e-05 0.0 -0.0 0.0 0.0 0.0 0.0403747595846653 0.5809479355812073 0.6862685084342957 -0.008951950818300247 -0.01678490824997425 -0.13204127550125122 0.0336456336081028 0.5607605576515198 0.6755932569503784 -0.008951950818300247 -0.02349887043237686 -0.12532731890678406 0.29581045407509865 -0.11303390893855543 0.4815516495648264 -1.210170028799268 1.2098586468611086 -1.2090512520931287 2.16739811895569e-06 5.6720945754270204e-06 0.0 0.0 0.0 1.917476038215682e-05 4.111526620830065 -4.975979222511642 1.4158524712152005 0.6130021703050131 -0.6025172259255779 0.4877015204789471 0.29580949455060795 -0.11303468883756387 0.4815525763646191 -1.2101397425155387 1.2098370768821618 -1.2089754610298096 0.0 0.0 0.0 0.0 0.0 0.0
2367.88 1.7214759154467055e-16 -1.5707963267948966 -1.5707963267948966 0.0 1.5707963267948966 0.0 0.0 0.0 0.0 0.0 0.0 0.0 0.0 0.0 0.0 0.0 0.0 0.0 -1.8327750199862536e-26 0.555172973447796 0.7573864583558305 0.07057808899065858 -9.380070923910231e-28 0.0 -2.1032924999364705e-25 6.394759450000002 6.3947594500000005 0.2913103000000004 -3.894025929994733e-27 0.0 -3.5587941304981996e-05 -1.5707724730121058 -1.5708072821246546 -4.593526021778871e-06 1.5707675218582153 -2.366701234990387e-05 1.917476038215682e-05 0.0 -0.0 0.0 0.0 0.0 0.0314025916159153 0.5473023056983948 0.671018123626709 -0.008951950818300247 -0.025736859068274498 -0.13092228770256042 0.0314025916159153 0.5607605576515198 0.6755932569503784 -0.008951950818300247 -0.02349887043237686 -0.12532731890678406 0.2957989365985952 -0.11304758385324126 0.48155601414166305 -1.2101206125821269 1.2098671948983364 -1.2090442079126216 2.1676603321678448e-06 5.671873730574861e-06 0.0 0.0 0.0 1.917476038215682e-05 2.9249485500990136 -4.002849012749843 2.0955142713016444 0.6077716483481174 -0.44536830144854656 0.4493220386448025 0.29580949455060795 -0.11303468883756387 0.4815525763646191 -1.2101397425155387 1.2098370768821618 -1.2089754610298096 0.0 0.0 0.0 0.0 0.0 0.0
2367.888 1.7214759154467055e-16 -1.5707963267948966 -1.5707963267948966 0.0 1.5707963267948966 0.0 0.0 0.0 0.0 0.0 0.0 0.0 0.0 0.0 0.0 0.0 0.0 0.0 -1.8327750199862536e-26 0.555172973447796 0.7573864583558305 0.07057808899065858 -9.380070923910231e-28 0.0 -2.1032924999364705e-25 6.394759450000002 6.3947594500000005 0.2913103000000004 -3.894025929994733e-27 0.0 2.3968450477696024e-05 -1.5707362333880823 -1.5707953611956995 1.9073486328125e-05 1.5708035230636597 -3.5587941304981996e-05 1.917476038215682e-05 0.0 -0.0 0.0 0.0 0.0 0.0358886756002903 0.5652466416358948 0.6664429903030396 -0.01007094420492649 -0.02685585245490074 -0.12085133790969849 0.0336456336081028 0.5585175156593323 0.6755932569503784 -0.008951950818300247 -0.02349887043237686 -0.12532731890678406 0.2957906843810901 -0.11302702995653689 0.481572201775704 -1.2101216481517925 1.2097383428332062 -1.2090167036117732 2.1672662161235675e-06 5.671715496281578e-06 0.0 0.0 0.0 1.917476038215682e-05 4.050737219387457 -4.893720498719754 2.2729246252773945 0.5611325979880524 -0.5320179800619359 0.5278934867689836 0.29580949455060795 -0.11303468883756387 0.4815525763646191 -1.2101397425155387 1.2098370768821618 -1.2089754610298096 0.0 0.0 0.0 0.0 0.0 0.0
2367.8959999999997 1.7214759154467055e-16 -1.5707963267948966 -1.5707963267948966 0.0 1.5707963267948966 0.0 0.0 0.0 0.0 0.0 0.0 0.0 0.0 0.0 0.0 0.0 0.0 0.0 -1.8327750199862536e-26 0.555172973447796 0.7573864583558305 0.07057808899065858 -9.380070923910231e-28 0.0 -2.1032924999364705e-25 6.394759450000002 6.3947594500000005 0.2913103000000004 -3.894025929994733e-27 0.0 2.3968450477696024e-05 -1.5707724730121058 -1.5707834402667444 -4.0356312887013246e-05 1.57077956199646 -4.7985707418263246e-05 1.917476038215682e-05 0.0 -0.0 0.0 0.0 0.0 0.0336456336081028 0.5831909775733948 0.671018123626709 -0.007832957431674004 -0.01678490824997425 -0.12532731890678406 0.0358886756002903 0.5607605576515198 0.6755932569503784 -0.008951950818300247 -0.022379877045750618 -0.12644630670547485 0.29580667970898755 -0.11302900056380585 0.481560117032354 -1.2101811346829896 1.2098117590955375 -1.2090037941238219 2.1673040020457e-06 5.672022202861246e-06 0.0 0.0 0.0 1.917476038215682e-05 4.822500734467849 -4.94671871819861 2.1185495684258955 0.5818830783002849 -0.6001681313190281 0.4852706373080488 0.29580949455060795 -0.11303468883756387 0.4815525763646191 -1.2101397425155387 1.2098370768821618 -1.2089754610298096 0.0 0.0 0.0 0.0 0.0 0.0
2367.904 1.7214759154467055e-16 -1.5707963267948966 -1.5707963267948966 0.0 1.5707963267948966 0.0 0.0 0.0 0.0 0.0 0.0 0.0 0.0 0.0 0.0 0.0 0.0 0.0 -1.8327750199862536e-26 0.555172973447796 0.7573864583558305 0.07057808899065858 -9.380070923910231e-28 0.0 -2.1032924999364705e-25 6.394759450000002 6.3947594500000005 0.2913103000000004 -3.894025929994733e-27 0.0 -2.366701234990387e-05 -1.5707481543170374 -1.5707715193377894 -2.8912221090138246e-05 1.570719599723816 -4.7985707418263246e-05 1.917476038215682e-05 0.0 -0.0 0.0 0.0 0.0 0.0336456336081028 0.5495453476905823 0.6847434639930725 -0.022379877045750618 -0.031331829726696014 -0.11637535691261292 0.0314025916159153 0.5585175156593323 0.6755932569503784 -0.008951950818300247 -0.022379877045750618 -0.12644630670547485 0.2957912745305353 -0.11304805230491487 0.4815717756039103 -1.2100950639821892 1.2098559969349891 -1.2091056172962062 2.1676693146164205e-06 5.671726812255778e-06 0.0 0.0 0.0 1.917476038215682e-05 2.5111319057511867 -4.041347346443857 1.1949090746679492 0.5402670680696111 -0.5463535946361842 0.478597347457859 0.29580949455060795 -0.11303468883756387 0.4815525763646191 -1.2101397425155387 1.2098370768821618 -1.2089754610298096 0.0 0.0 0.0 0.0 0.0 0.0
2367.912 1.7214759154467055e-16 -1.5707963267948966 -1.5707963267948966 0.0 1.5707963267948966 0.0 0.0 0.0 0.0 0.0 0.0 0.0 0.0 0.0 0.0 0.0 0.0 0.0 -1.8327750199862536e-26 0.555172973447796 0.7573864583558305 0.07057808899065858 -9.380070923910231e-28 0.0 -2.1032924999364705e-25 6.394759450000002 6.3947594500000005 0.2913103000000004 -3.894025929994733e-27 0.0 -1.1746083394825746e-05 -1.5707724730121058 -1.5707595984088343 -1.6514454976856996e-05 1.5707075595855713 -7.230440248662262e-05 1.917476038215682e-05 0.0 -0.0 0.0 0.0 0.0 0.0448608435690403 0.5630035996437073 0.6740682125091553 -0.011189938522875309 -0.019022895023226738 -0.12197033315896988 0.0403747595846653 0.5562744736671448 0.6755932569503784 -0.008951950818300247 -0.022379877045750618 -0.12532731890678406 0.2957985578117271 -0.11304552348734857 0.48156912942702534 -1.2101129063870883 1.209844596095144 -1.2091236157226777 2.1676208251454617e-06 5.671866467427427e-06 0.0 0.0 0.0 1.917476038215682e-05 3.635123396886484 -5.043684696396431 1.908415535549782 0.5662495123266919 -0.531723048523165 0.5037544292981984 0.29580949455060795 -0.11303468883756387 0.4815525763646191 -1.2101397425155387 1.2098370768821618 -1.2089754610298096 0.0 0.0 0.0 0.0 0.0 0.0
2367.92 1.7214759154467055e-16 -1.5707963267948966 -1.5707963267948966 0.0 1.5707963267948966 0.0 0.0 0.0 0.0 0.0 0.0 0.0 0.0 0.0 0.0 0.0 0.0 0.0 -1.8327750199862536e-26 0.555172973447796 0.7573864583558305 0.07057808899065858 -9.380070923910231e-28 0.0 -2.1032924999364705e-25 6.394759450000002 6.3947594500000005 0.2913103000000004 -3.894025929994733e-27 0.0 -2.366701234990387e-05 -1.5707243124591272 -1.5707595984088343 -5.2754079000294496e-05 1.5707556009292603 -4.7985707418263246e-05 1.917476038215682e-05 0.0 -0.0 0.0 0.0 0.0 0.0336456336081028 0.5517883896827698 0.6725431680679321 -0.004475975409150124 -0.02014188840985298 -0.12644630670547485 0.0336456336081028 0.5607605576515198 0.6755932569503784 -0.008951950818300247 -0.022379877045750618 -0.12532731890678406 0.29578443207924304 -0.11304510789500298 0.48158038554384386 -1.2101032866621406 1.2098207437383244 -1.2090847872038852 2.1676128562616034e-06 5.671595609891824e-06 0.0 0.0 0.0 1.917476038215682e-05 3.102766458302222 -4.110526776887479 2.1248165044002687 0.5869697693410744 -0.4374089263283406 0.4321578952549904 0.29580949455060795 -0.11303468883756387 0.4815525763646191 -1.2101397425155387 1.2098370768821618 -1.2089754610298096 0.0 0.0 0.0 0.0 0.0 0.0
2367.928 1.7214759154467055e-16 -1.5707963267948966 -1.5707963267948966 0.0 1.5707963267948966 0.0 0.0 0.0 0.0 0.0 0.0 0.0 0.0 0.0 0.0 0.0 0.0 0.0 -1.8327750199862536e-26 0.555172973447796 0.7573864583558305 0.07057808899065858 -9.380070923910231e-28 0.0 -2.1032924999364705e-25 6.394759450000002 6.3947594500000005 0.2913103000000004 -3.894025929994733e-27 0.0 2.3968450477696024e-05 -1.5707600752459925 -1.5707953611956995 -2.8912221090138246e-05 1.5707075595855713 -3.5587941304981996e-05 1.917476038215682e-05 0.0 -0.0 0.0 0.0 0.0 0.0358886756002903 0.5428162217140198 0.6786433458328247 -0.021260883659124374 -0.024617865681648254 -0.14435020089149475 0.0336456336081028 0.5585175156593323 0.6755932569503784 -0.008951950818300247 -0.022379877045750618 -0.12532731890678406 0.29580263068437945 -0.11303492210749914 0.48156120313252276 -1.2101291663844684 1.2098618751541235 -1.209053311876706 2.167417546226984e-06 5.671944563784604e-06 0.0 0.0 0.0 1.917476038215682e-05 2.3913625127740157 -3.9663099477315953 1.4890159046017308 0.6700508434094399 -0.5066674894837722 0.4411567896111211 0.29580949455060795 -0.11303468883756387 0.4815525763646191 -1.2101397425155387 1.2098370768821618 -1.2089754610298096 0.0 0.0 0.0 0.0 0.0 0.0
2367.9359999999997 1.7214759154467055e-16 -1.5707963267948966 -1.5707963267948966 0.0 1.5707963267948966 0.0 0.0 0.0 0.0 0.0 0.0 0.0 0.0 0.0 0.0 0.0 0.0 0.0 -1.8327750199862536e-26 0.555172973447796 0.7573864583558305 0.07057808899065858 -9.380070923910231e-28 0.0 -2.1032924999364705e-25 6.394759450000002 6.3947594500000005 0.2913103000000004 -3.894025929994733e-27 0.0 0.0 -1.5707243124591272 -1.5708192030536097 -1.6514454976856996e-05 1.5707435607910156 -4.7985707418263246e-05 1.917476038215682e-05 0.0 -0.0 0.0 0.0 0.0 0.0381317175924778 0.5271149277687073 0.6725431680679321 -0.0055949692614376545 -0.02014188840985298 -0.11637535691261292 0.0358886756002903 0.5585175156593323 0.6755932569503784 -0.008951950818300247 -0.022379877045750618 -0.12868429720401764 0.2957891205751766 -0.11303903316591032 0.4815657503439633 -1.2101261199026754 1.2098292106800663 -1.2090650738542623 2.1674963747869937e-06 5.671685510677903e-06 0.0 0.0 0.0 1.917476038215682e-05 1.797866163850988 -3.6900946466704436 2.1002142618176842 0.540240810729413 -0.3331913493977239 0.39761885804521735 0.29580949455060795 -0.11303468883756387 0.4815525763646191 -1.2101397425155387 1.2098370768821618 -1.2089754610298096 0.0 0.0 0.0 0.0 0.0 0.0
2367.944 1.7214759154467055e-16 -1.5707963267948966 -1.5707963267948966 0.0 1.5707963267948966 0.0 0.0 0.0 0.0 0.0 0.0 0.0 0.0 0.0 0.0 0.0 0.0 0.0 -1.8327750199862536e-26 0.555172973447796 0.7573864583558305 0.07057808899065858 -9.380070923910231e-28 0.0 -2.1032924999364705e-25 6.394759450000002 6.3947594500000005 0.2913103000000004 -3.894025929994733e-27 0.0 3.5952674807049334e-05 -1.5707724730121058 -1.5707834402667444 -4.0356312887013246e-05 1.5707316398620605 -7.230440248662262e-05 1.917476038215682e-05 0.0 -0.0 0.0 0.0 0.0 0.0269165076315403 0.5854340195655823 0.6771183013916016 -0.011189938522875309 -0.025736859068274498 -0.12532731890678406 0.0314025916159153 0.5585175156593323 0.6755932569503784 -0.008951950818300247 -0.02349887043237686 -0.12868429720401764 0.2958080298087538 -0.11302940234736981 0.4815601181144816 -1.210182045999132 1.2098267241640959 -1.2090481530947355 2.167311706149245e-06 5.672048090700755e-06 0.0 0.0 0.0 1.917476038215682e-05 4.7055027876255835 -4.674303116440342 1.7763982552454622 0.5818784296586235 -0.6339065170282254 0.5045007270340847 0.29580949455060795 -0.11303468883756387 0.4815525763646191 -1.2101397425155387 1.2098370768821618 -1.2089754610298096 0.0 0.0 0.0 0.0 0.0 0.0
2367.9519999999998 1.7214759154467055e-16 -1.5707963267948966 -1.5707963267948966 0.0 1.5707963267948966 0.0 0.0 0.0 0.0 0.0 0.0 0.0 0.0 0.0 0.0 0.0 0.0 0.0 -1.8327750199862536e-26 0.555172973447796 0.7573864583558305 0.07057808899065858 -9.380070923910231e-28 0.0 -2.1032924999364705e-25 6.394759450000002 6.3947594500000005 0.2913103000000004 -3.894025929994733e-27 0.0 -1.1746083394825746e-05 -1.5707362333880823 -1.5707953611956995 -4.0356312887013246e-05 1.5707556009292603 -8.422533144170075e-05 1.917476038215682e-05 0.0 -0.0 0.0 0.0 0.0 0.0403747595846653 0.5562744736671448 0.6664429903030396 -0.002237987704575062 -0.02909383922815323 -0.13987423479557037 0.0358886756002903 0.5585175156593323 0.6755932569503784 -0.008951950818300247 -0.025736859068274498 -0.12532731890678406 0.29579171578302976 -0.11304153762756813 0.4815673098181853 -1.2101617012594506 1.2098206743007933 -1.2090859120412079 2.1675443972391e-06 5.671735273166629e-06 0.0 0.0 0.0 1.917476038215682e-05 3.5752883859018167 -4.961229923517004 2.441655047349979 0.6493948612084981 -0.4413136992713073 0.5438313877238401 0.29580949455060795 -0.11303468883756387 0.4815525763646191 -1.2101397425155387 1.2098370768821618 -1.2089754610298096 0.0 0.0 0.0 0.0 0.0 0.0
2367.96 1.7214759154467055e-16 -1.5707963267948966 -1.5707963267948966 0.0 1.5707963267948966 0.0 0.0 0.0 0.0 0.0 0.0 0.0 0.0 0.0 0.0 0.0 0.0 0.0 -1.8327750199862536e-26 0.555172973447796 0.7573864583558305 0.07057808899065858 -9.380070923910231e-28 0.0 -2.1032924999364705e-25 6.394759450000002 6.3947594500000005 0.2913103000000004 -3.894025929994733e-27 0.0 0.0 -1.5707600752459925 -1.5707595984088343 -2.8912221090138246e-05 1.5707075595855713 -5.990663637334137e-05 1.917476038215682e-05 0.0 -0.0 0.0 0.0 0.0 0.0314025916159153 0.5607605576515198 0.671018123626709 -0.008951950818300247 -0.02014188840985298 -0.12420831620693207 0.0269165076315403 0.5585175156593323 0.6755932569503784 -0.008951950818300247 -0.024617865681648254 -0.12756529450416565 0.295796856979859 -0.11304205274189216 0.48157177471447943 -1.2101093241787304 1.2098418114366176 -1.2091058488345752 2.1675542744328687e-06 5.6718338543839065e-06 0.0 0.0 0.0 1.917476038215682e-05 3.6367573419210695 -4.2576109590976365 2.0955671543077945 0.5765841555253608 -0.5060841286392661 0.44422334848161243 0.29580949455060795 -0.11303468883756387 0.4815525763646191 -1.2101397425155387 1.2098370768821618 -1.2089754610298096 0.0 0.0 0.0 0.0 0.0 0.0
2367.968 1.7214759154467055e-16 -1.5707963267948966 -1.5707963267948966 0.0 1.5707963267948966 0.0 0.0 0.0 0.0 0.0 0.0 0.0 0.0 0.0 0.0 0.0 0.0 0.0 -1.8327750199862536e-26 0.555172973447796 0.7573864583558305 0.07057808899065858 -9.380070923910231e-28 0.0 -2.1032924999364705e-25 6.394759450000002 6.3947594500000005 0.2913103000000004 -3.894025929994733e-27 0.0 0.0 -1.570808235798971 -1.5708072821246546 -2.8912221090138246e-05 1.57077956199646 -8.422533144170075e-05 1.917476038215682e-05 0.0 -0.0 0.0 0.0 0.0 0.0291595496237278 0.5203858017921448 0.6664429903030396 -0.0033569815568625927 -0.022379877045750618 -0.12980328500270844 0.0314025916159153 0.5585175156593323 0.6755932569503784 -0.008951950818300247 -0.024617865681648254 -0.13204127550125122 0.29581682473527254 -0.11303605133357499 0.4815434359574242 -1.2102320413847434 1.2098476291965095 -1.2090252424347496 2.1674391988665654e-06 5.6722167313093325e-06 0.0 0.0 0.0 1.917476038215682e-05 1.6798968616341818 -3.134895483817886 2.421335694831823 0.602546414933746 -0.28630509288784234 0.36226913153944407 0.29580949455060795 -0.11303468883756387 0.4815525763646191 -1.2101397425155387 1.2098370768821618 -1.2089754610298096 0.0 0.0 0.0 0.0 0.0 0.0
2367.976 1.7214759154467055e-16 -1.5707963267948966 -1.5707963267948966 0.0 1.5707963267948966 0.0 0.0 0.0 0.0 0.0 0.0 0.0 0.0 0.0 0.0 0.0 0.0 0.0 -1.8327750199862536e-26 0.555172973447796 0.7573864583558305 0.07057808899065858 -9.380070923910231e-28 0.0 -2.1032924999364705e-25 6.394759450000002 6.3947594500000005 0.2913103000000004 -3.894025929994733e-27 0.0 0.0 -1.5707600752459925 -1.5707595984088343 -5.2754079000294496e-05 1.570719599723816 -3.5587941304981996e-05 1.917476038215682e-05 0.0 -0.0 0.0 0.0 0.0 0.0336456336081028 0.5473023056983948 0.6694930791854858 -0.0055949692614376545 -0.024617865681648254 -0.12197033315896988 0.0336456336081028 0.5585175156593323 0.6755932569503784 -0.008951950818300247 -0.024617865681648254 -0.12644630670547485 0.2957988932422573 -0.11304105986885347 0.4815698114316079 -1.2101146700883714 1.2098619893068248 -1.2090677896288524 2.1675352363302572e-06 5.671872899227468e-06 0.0 0.0 0.0 1.917476038215682e-05 2.9840498758728344 -4.144863298497288 2.2358599385723656 0.5662401897037004 -0.4232872577547378 0.45580645172432677 0.29580949455060795 -0.11303468883756387 0.4815525763646191 -1.2101397425155387 1.2098370768821618 -1.2089754610298096 0.0 0.0 0.0 0.0 0.0 0.0
2367.984 1.7214759154467055e-16 -1.5707963267948966 -1.5707963267948966 0.0 1.5707963267948966 0.0 0.0 0.0 0.0 0.0 0.0 0.0 0.0 0.0 0.0 0.0 0.0 0.0 -1.8327750199862536e-26 0.555172973447796 0.7573864583558305 0.07057808899065858 -9.380070923910231e-28 0.0 -2.1032924999364705e-25 6.394759450000002 6.3947594500000005 0.2913103000000004 -3.894025929994733e-27 0.0 -1.1746083394825746e-05 -1.570796314870016 -1.5708192030536097 -4.0356312887013246e-05 1.57077956199646 -5.990663637334137e-05 1.917476038215682e-05 0.0 -0.0 0.0 0.0 0.0 0.0314025916159153 0.5607605576515198 0.6740682125091553 -0.004475975409150124 -0.02909383922815323 -0.11637535691261292 0.0314025916159153 0.5585175156593323 0.6755932569503784 -0.008951950818300247 -0.02685585245490074 -0.12756529450416565 0.29581356551589016 -0.11303951603182869 0.48154249492573314 -1.2102170189968875 1.2098761882165394 -1.2090105525469514 2.1675056336251696e-06 5.67215423655864e-06 0.0 0.0 0.0 1.917476038215682e-05 3.518623444555855 -4.389707342581669 2.056974704551128 0.5403824643106838 -0.47845289245904316 0.49673341310197155 0.29580949455060795 -0.11303468883756387 0.4815525763646191 -1.2101397425155387 1.2098370768821618 -1.2089754610298096 0.0 0.0 0.0 0.0 0.0 0.0
2367.9919999999997 1.7214759154467055e-16 -1.5707963267948966 -1.5707963267948966 0.0 1.5707963267948966 0.0 0.0 0.0 0.0 0.0 0.0 0.0 0.0 0.0 0.0 0.0 0.0 0.0 -1.8327750199862536e-26 0.555172973447796 0.7573864583558305 0.07057808899065858 -9.380070923910231e-28 0.0 -2.1032924999364705e-25 6.394759450000002 6.3947594500000005 0.2913103000000004 -3.894025929994733e-27 0.0 0.0 -1.5707724730121058 -1.5707715193377894 -1.6514454976856996e-05 1.5707316398620605 -5.990663637334137e-05 1.917476038215682e-05 0.0 -0.0 0.0 0.0 0.0 0.0381317175924778 0.5517883896827698 0.6786433458328247 -0.002237987704575062 -0.01678490824997425 -0.11525636911392212 0.0314025916159153 0.5585175156593323 0.6755932569503784 -0.008951950818300247 -0.02349887043237686 -0.12756529450416565 0.29580090946900206 -0.1130400522059125 0.48156560503484214 -1.2101295303518762 1.209832805938969 -1.2090824520282926 2.167515914634841e-06 5.671911559892176e-06 0.0 0.0 0.0 1.917476038215682e-05 2.8660162848000157 -4.18198975146949 1.9017767506262793 0.5350597647069418 -0.4251598205886296 0.42241980200875323 0.29580949455060795 -0.11303468883756387 0.4815525763646191 -1.2101397425155387 1.2098370768821618 -1.2089754610298096 0.0 0.0 0.0 0.0 0.0 0.0
2368.0 1.7214759154467055e-16 -1.5707963267948966 -1.5707963267948966 0.0 1.5707963267948966 0.0 0.0 0.0 0.0 0.0 0.0 0.0 0.0 0.0 0.0 0.0 0.0 0.0 -1.8327750199862536e-26 0.555172973447796 0.7573864583558305 0.07057808899065858 -9.380070923910231e-28 0.0 -2.1032924999364705e-25 6.394759450000002 6.3947594500000005 0.2913103000000004 -3.894025929994733e-27 0.0 -1.1746083394825746e-05 -1.5707362333880823 -1.5707715193377894 -7.659593691045075e-05 1.5707435607910156 -4.7985707418263246e-05 1.917476038215682e-05 0.0 -0.0 0.0 0.0 0.0 0.0426178015768528 0.5787048935890198 0.6694930791854858 -0.019022895023226738 -0.025736859068274498 -0.13092228770256042 0.0381317175924778 0.5585175156593323 0.6755932569503784 -0.012308932840824127 -0.024617865681648254 -0.12644630670547485 0.29579276489816975 -0.11304255448800501 0.48157137400365146 -1.2101383881962149 1.2098558756597995 -1.2090622626894914 2.167563895294347e-06 5.671755389698051e-06 0.0 0.0 0.0 1.917476038215682e-05 4.642639089926596 -5.588227192232205 1.9412821518475396 0.6078791658398343 -0.6512771082856686 0.579776874901425 0.29580949455060795 -0.11303468883756387 0.4815525763646191 -1.2101397425155387 1.2098370768821618 -1.2089754610298096 0.0 0.0 0.0 0.0 0.0 0.0
2368.008 1.7214759154467055e-16 -1.5707963267948966 -1.5707963267948966 0.0 1.5707963267948966 0.0 0.0 0.0 0.0 0.0 0.0 0.0 0.0 0.0 0.0 0.0 0.0 0.0 -1.8327750199862536e-26 0.555172973447796 0.7573864583558305 0.07057808899065858 -9.380070923910231e-28 0.0 -2.1032924999364705e-25 6.394759450000002 6.3947594500000005 0.2913103000000004 -3.894025929994733e-27 0.0 -3.5587941304981996e-05 -1.5707839171039026 -1.5707715193377894 -1.6514454976856996e-05 1.5707435607910156 -8.422533144170075e-05 1.917476038215682e-05 0.0 -0.0 0.0 0.0 0.0 0.0336456336081028 0.5652466416358948 0.6877935528755188 -0.0055949692614376545 -0.02909383922815323 -0.13875523209571838 0.0336456336081028 0.5585175156593323 0.6755932569503784 -0.011189938522875309 -0.025736859068274498 -0.12644630670547485 0.2958006600619894 -0.11304959336609252 0.48156222067760057 -1.210144691275924 1.20984715695609 -1.209112343527066 2.167698864095198e-06 5.671906777572472e-06 0.0 0.0 0.0 1.917476038215682e-05 3.222797487308156 -4.3689015515950205 1.422852482947846 0.6441301383209324 -0.5106647544169408 0.49506865332474 0.29580949455060795 -0.11303468883756387 0.4815525763646191 -1.2101397425155387 1.2098370768821618 -1.2089754610298096 0.0 0.0 0.0 0.0 0.0 0.0
2368.016 1.7214759154467055e-16 -1.5707963267948966 -1.5707963267948966 0.0 1.5707963267948966 0.0 0.0 0.0 0.0 0.0 0.0 0.0 0.0 0.0 0.0 0.0 0.0 0.0 -1.8327750199862536e-26 0.555172973447796 0.7573864583558305 0.07057808899065858 -9.380070923910231e-28 0.0 -2.1032924999364705e-25 6.394759450000002 6.3947594500000005 0.2913103000000004 -3.894025929994733e-27 0.0 1.1984225238848012e-05 -1.5707362333880823 -1.5707953611956995 -4.0356312887013246e-05 1.5707556009292603 -4.7985707418263246e-05 1.917476038215682e-05 0.0 -0.0 0.0 0.0 0.0 0.0358886756002903 0.5360870957374573 0.6862685084342957 -0.0055949692614376545 -0.024617865681648254 -0.13204127550125122 0.0336456336081028 0.5585175156593323 0.6755932569503784 -0.01007094420492649 -0.027974845841526985 -0.12644630670547485 0.2957943982103216 -0.11303451836702713 0.4815673098181853 -1.2101462243242318 1.2098203356570785 -1.20904177185379 2.1674098046003454e-06 5.6717867080671936e-06 0.0 0.0 0.0 1.917476038215682e-05 1.7401878483616426 -3.621804011171251 1.49114691386061 0.612942085744839 -0.3784218446379051 0.4128273909370954 0.29580949455060795 -0.11303468883756387 0.4815525763646191 -1.2101397425155387 1.2098370768821618 -1.2089754610298096 0.0 0.0 0.0 0.0 0.0 0.0
2368.024 1.7214759154467055e-16 -1.5707963267948966 -1.5707963267948966 0.0 1.5707963267948966 0.0 0.0 0.0 0.0 0.0 0.0 0.0 0.0 0.0 0.0 0.0 0.0 0.0 -1.8327750199862536e-26 0.555172973447796 0.7573864583558305 0.07057808899065858 -9.380070923910231e-28 0.0 -2.1032924999364705e-25 6.394759450000002 6.3947594500000005 0.2913103000000004 -3.894025929994733e-27 0.0 -1.1746083394825746e-05 -1.5707362333880823 -1.5707595984088343 -4.593526021778871e-06 1.5707075595855713 -7.230440248662262e-05 1.917476038215682e-05 0.0 -0.0 0.0 0.0 0.0 0.0426178015768528 0.5719757676124573 0.6801683902740479 -0.0055949692614376545 -0.038045790046453476 -0.12532731890678406 0.0336456336081028 0.5562744736671448 0.6755932569503784 -0.01007094420492649 -0.02685585245490074 -0.12644630670547485 0.29578559375083924 -0.11304553680890032 0.4815808268345041 -1.2100774107822876 1.209809178268049 -1.2091464450621432 2.1676210805829666e-06 5.671617884666324e-06 0.0 0.0 0.0 1.917476038215682e-05 3.873082521538957 -5.449680421093287 1.759071946400773 0.5819097375043814 -0.5385302210088815 0.625737751475939 0.29580949455060795 -0.11303468883756387 0.4815525763646191 -1.2101397425155387 1.2098370768821618 -1.2089754610298096 0.0 0.0 0.0 0.0 0.0 0.0
2368.0319999999997 1.7214759154467055e-16 -1.5707963267948966 -1.5707963267948966 0.0 1.5707963267948966 0.0 0.0 0.0 0.0 0.0 0.0 0.0 0.0 0.0 0.0 0.0 0.0 0.0 -1.8327750199862536e-26 0.555172973447796 0.7573864583558305 0.07057808899065858 -9.380070923910231e-28 0.0 -2.1032924999364705e-25 6.394759450000002 6.3947594500000005 0.2913103000000004 -3.894025929994733e-27 0.0 -1.1746083394825746e-05 -1.5707600752459925 -1.5707953611956995 -2.8912221090138246e-05 1.5707556009292603 -9.614626039677887e-05 1.917476038215682e-05 0.0 -0.0 0.0 0.0 0.0 0.0336456336081028 0.5809479355812073 0.6664429903030396 -0.0055949692614376545 -0.022379877045750618 -0.13987423479557037 0.0336456336081028 0.5607605576515198 0.6755932569503784 -0.01007094420492649 -0.022379877045750618 -0.12644630670547485 0.2957985982448205 -0.11304152986557679 0.4815612020477105 -1.2101796260737865 1.2098241447334364 -1.2090888041537469 2.167544248404887e-06 5.671867242722308e-06 0.0 0.0 0.0 1.917476038215682e-05 4.880840593586661 -5.099973776920523 2.369743450820877 0.6493684426000184 -0.5741775346676232 0.5239080426279334 0.29580949455060795 -0.11303468883756387 0.4815525763646191 -1.2101397425155387 1.2098370768821618 -1.2089754610298096 0.0 0.0 0.0 0.0 0.0 0.0
2368.04 1.7214759154467055e-16 -1.5707963267948966 -1.5707963267948966 0.0 1.5707963267948966 0.0 0.0 0.0 0.0 0.0 0.0 0.0 0.0 0.0 0.0 0.0 0.0 0.0 -1.8327750199862536e-26 0.555172973447796 0.7573864583558305 0.07057808899065858 -9.380070923910231e-28 0.0 -2.1032924999364705e-25 6.394759450000002 6.3947594500000005 0.2913103000000004 -3.894025929994733e-27 0.0 0.0 -1.5707009474383753 -1.5708072821246546 7.152557373046875e-06 1.5707556009292603 -7.230440248662262e-05 1.917476038215682e-05 0.0 -0.0 0.0 0.0 0.0 0.0291595496237278 0.5316010117530823 0.6694930791854858 -0.019022895023226738 -0.025736859068274498 -0.1186133474111557 0.0336456336081028 0.5585175156593323 0.6755932569503784 -0.006713963113725185 -0.024617865681648254 -0.12644630670547485 0.295778377744917 -0.11303806466770742 0.4815781311858791 -1.210106268185605 1.2097655003440206 -1.2091020664713537 2.1674778040660948e-06 5.671479519481849e-06 0.0 0.0 0.0 1.917476038215682e-05 2.1543792245022826 -3.4603118796631316 1.946073908956165 0.5506010546401451 -0.43849350048610214 0.40476178768645654 0.29580949455060795 -0.11303468883756387 0.4815525763646191 -1.2101397425155387 1.2098370768821618 -1.2089754610298096 0.0 0.0 0.0 0.0 0.0 0.0
2368.048 1.7214759154467055e-16 -1.5707963267948966 -1.5707963267948966 0.0 1.5707963267948966 0.0 0.0 0.0 0.0 0.0 0.0 0.0 0.0 0.0 0.0 0.0 0.0 0.0 -1.8327750199862536e-26 0.555172973447796 0.7573864583558305 0.07057808899065858 -9.380070923910231e-28 0.0 -2.1032924999364705e-25 6.394759450000002 6.3947594500000005 0.2913103000000004 -3.894025929994733e-27 0.0 3.5952674807049334e-05 -1.5707724730121058 -1.5707476774798792 -4.593526021778871e-06 1.5707556009292603 -2.366701234990387e-05 1.917476038215682e-05 0.0 -0.0 0.0 0.0 0.0 0.0314025916159153 0.5293579697608948 0.6679680347442627 -0.008951950818300247 -0.022379877045750618 -0.13204127550125122 0.0314025916159153 0.5585175156593323 0.6755932569503784 -0.008951950818300247 -0.024617865681648254 -0.12644630670547485 0.2958019150923152 -0.11302747179511581 0.48157363365418354 -1.2101047754589598 1.209779557939797 -1.2090286536549757 2.1672746882723737e-06 5.67193084247824e-06 0.0 0.0 0.0 1.917476038215682e-05 2.0947562290774595 -3.4901952631741033 2.2315855528491655 0.6129123649900026 -0.36324436873514493 0.3915833660857484 0.29580949455060795 -0.11303468883756387 0.4815525763646191 -1.2101397425155387 1.2098370768821618 -1.2089754610298096 0.0 0.0 0.0 0.0 0.0 0.0
2368.056 1.7214759154467055e-16 -1.5707963267948966 -1.5707963267948966 0.0 1.5707963267948966 0.0 0.0 0.0 0.0 0.0 0.0 0.0 0.0 0.0 0.0 0.0 0.0 0.0 -1.8327750199862536e-26 0.555172973447796 0.7573864583558305 0.07057808899065858 -9.380070923910231e-28 0.0 -2.1032924999364705e-25 6.394759450000002 6.3947594500000005 0.2913103000000004 -3.894025929994733e-27 0.0 0.0 -1.5707243124591272 -1.5707715193377894 -4.0356312887013246e-05 1.5707675218582153 -5.990663637334137e-05 1.917476038215682e-05 0.0 -0.0 0.0 0.0 0.0 0.0336456336081028 0.5405731797218323 0.6755932569503784 -0.008951950818300247 -0.021260883659124374 -0.11078038811683655 0.0291595496237278 0.5585175156593323 0.6755932569503784 -0.008951950818300247 -0.024617865681648254 -0.12532731890678406 0.29578707191097386 -0.1130371128151494 0.4815778821850576 -1.2101285786155245 1.209788498400758 -1.2090675741654784 2.16745955252127e-06 5.671646228032712e-06 0.0 0.0 0.0 1.917476038215682e-05 2.3918636018011528 -3.758557254162147 1.8929176131852112 0.5142871993493421 -0.41650710523643164 0.40844392508168487 0.29580949455060795 -0.11303468883756387 0.4815525763646191 -1.2101397425155387 1.2098370768821618 -1.2089754610298096 0.0 0.0 0.0 0.0 0.0 0.0
2368.064 1.7214759154467055e-16 -1.5707963267948966 -1.5707963267948966 0.0 1.5707963267948966 0.0 0.0 0.0 0.0 0.0 0.0 0.0 0.0 0.0 0.0 0.0 0.0 0.0 -1.8327750199862536e-26 0.555172973447796 0.7573864583558305 0.07057808899065858 -9.380070923910231e-28 0.0 -2.1032924999364705e-25 6.394759450000002 6.3947594500000005 0.2913103000000004 -3.894025929994733e-27 0.0 0.0 -1.5707724730121058 -1.5707834402667444 -2.8912221090138246e-05 1.5707075595855713 -3.5587941304981996e-05 1.917476038215682e-05 0.0 -0.0 0.0 0.0 0.0 0.0381317175924778 0.5809479355812073 0.6664429903030396 -0.004475975409150124 -0.025736859068274498 -0.12756529450416565 0.0314025916159153 0.5585175156593323 0.6755932569503784 -0.01007094420492649 -0.02685585245490074 -0.12644630670547485 0.29580298672796385 -0.11304202119086493 0.48156106093288453 -1.2101181589454422 1.2098799146397825 -1.209070740884909 2.167553669449457e-06 5.6719513908350205e-06 0.0 0.0 0.0 1.917476038215682e-05 4.880463563183456 -5.443255006746246 2.393109657775649 0.5922894386745461 -0.5670391151832834 0.5677916835776905 0.29580949455060795 -0.11303468883756387 0.4815525763646191 -1.2101397425155387 1.2098370768821618 -1.2089754610298096 0.0 0.0 0.0 0.0 0.0 0.0
2368.072 1.7214759154467055e-16 -1.5707963267948966 -1.5707963267948966 0.0 1.5707963267948966 0.0 0.0 0.0 0.0 0.0 0.0 0.0 0.0 0.0 0.0 0.0 0.0 0.0 -1.8327750199862536e-26 0.555172973447796 0.7573864583558305 0.07057808899065858 -9.380070923910231e-28 0.0 -2.1032924999364705e-25 6.394759450000002 6.3947594500000005 0.2913103000000004 -3.894025929994733e-27 0.0 -2.366701234990387e-05 -1.5707600752459925 -1.5708192030536097 -1.6514454976856996e-05 1.57077956199646 -3.5587941304981996e-05 1.917476038215682e-05 0.0 -0.0 0.0 0.0 0.0 0.0314025916159153 0.5473023056983948 0.6725431680679321 -0.007832957431674004 -0.025736859068274498 -0.11301837861537933 0.0381317175924778 0.5585175156593323 0.6755932569503784 -0.008951950818300247 -0.024617865681648254 -0.12756529450416565 0.2957982374749411 -0.11304305617172779 0.4815551745339068 -1.2101491849840889 1.2098522930526863 -1.2090299081783622 2.1675735149594788e-06 5.671860325046316e-06 0.0 0.0 0.0 1.917476038215682e-05 2.86613872544606 -3.971681505501696 2.0524904820238112 0.5247261120268638 -0.4386874708088605 0.4467612319950946 0.29580949455060795 -0.11303468883756387 0.4815525763646191 -1.2101397425155387 1.2098370768821618 -1.2089754610298096 0.0 0.0 0.0 0.0 0.0 0.0
2368.08 1.7214759154467055e-16 -1.5707963267948966 -1.5707963267948966 0.0 1.5707963267948966 0.0 0.0 0.0 0.0 0.0 0.0 0.0 0.0 0.0 0.0 0.0 0.0 0.0 -1.8327750199862536e-26 0.555172973447796 0.7573864583558305 0.07057808899065858 -9.380070923910231e-28 0.0 -2.1032924999364705e-25 6.394759450000002 6.3947594500000005 0.2913103000000004 -3.894025929994733e-27 0.0 -1.1746083394825746e-05 -1.5707362333880823 -1.5707834402667444 -4.0356312887013246e-05 1.5707675218582153 -5.990663637334137e-05 1.917476038215682e-05 0.0 -0.0 0.0 0.0 0.0 0.0314025916159153 0.5540314316749573 0.6832184791564941 -0.002237987704575062 -0.02685585245490074 -0.1186133474111557 0.0336456336081028 0.5585175156593323 0.6755932569503784 -0.008951950818300247 -0.024617865681648254 -0.12868429720401764 0.29579069544954856 -0.11304056940198418 0.481570833409255 -1.2101406165468611 1.209814659946483 -1.2090649021720492 2.167525831745623e-06 5.671715708516618e-06 0.0 0.0 0.0 1.917476038215682e-05 2.807958409440924 -3.965449364691728 1.7001031087506775 0.5506708007113359 -0.436853406896522 0.4514717316842652 0.29580949455060795 -0.11303468883756387 0.4815525763646191 -1.2101397425155387 1.2098370768821618 -1.2089754610298096 0.0 0.0 0.0 0.0 0.0 0.0
2368.0879999999997 1.7214759154467055e-16 -1.5707963267948966 -1.5707963267948966 0.0 1.5707963267948966 0.0 0.0 0.0 0.0 0.0 0.0 0.0 0.0 0.0 0.0 0.0 0.0 0.0 -1.8327750199862536e-26 0.555172973447796 0.7573864583558305 0.07057808899065858 -9.380070923910231e-28 0.0 -2.1032924999364705e-25 6.394759450000002 6.3947594500000005 0.2913103000000004 -3.894025929994733e-27 0.0 2.3968450477696024e-05 -1.5707481543170374 -1.5707834402667444 -5.2754079000294496e-05 1.5707675218582153 -4.7985707418263246e-05 1.917476038215682e-05 0.0 -0.0 0.0 0.0 0.0 0.0336456336081028 0.5607605576515198 0.6755932569503784 -0.008951950818300247 -0.02349887043237686 -0.1197323426604271 0.0358886756002903 0.5607605576515198 0.6755932569503784 -0.008951950818300247 -0.024617865681648254 -0.12868429720401764 0.2957997203659038 -0.11303000030228993 0.48156628763801135 -1.2101666476045647 1.209811868609328 -1.2090183142330206 2.1673231717915297e-06 5.671888759125198e-06 0.0 0.0 0.0 1.917476038215682e-05 3.459172269446547 -4.371815564003996 1.8920105655978603 0.5559027626284434 -0.5076575511322156 0.46927221472102365 0.29580949455060795 -0.11303468883756387 0.4815525763646191 -1.2101397425155387 1.2098370768821618 -1.2089754610298096 0.0 0.0 0.0 0.0 0.0 0.0
2368.096 1.7214759154467055e-16 -1.5707963267948966 -1.5707963267948966 0.0 1.5707963267948966 0.0 0.0 0.0 0.0 0.0 0.0 0.0 0.0 0.0 0.0 0.0 0.0 0.0 -1.8327750199862536e-26 0.555172973447796 0.7573864583558305 0.07057808899065858 -9.380070923910231e-28 0.0 -2.1032924999364705e-25 6.394759450000002 6.3947594500000005 0.2913103000000004 -3.894025929994733e-27 0.0 1.1984225238848012e-05 -1.5707481543170374 -1.5707476774798792 -5.2754079000294496e-05 1.5707556009292603 -2.366701234990387e-05 1.917476038215682e-05 0.0 -0.0 0.0 0.0 0.0 0.0358886756002903 0.5809479355812073 0.6771183013916016 -0.007832957431674004 -0.02909383922815323 -0.1365172564983368 0.0358886756002903 0.5562744736671448 0.6755932569503784 -0.008951950818300247 -0.024617865681648254 -0.12868429720401764 0.2957953001161042 -0.11303456779001131 0.48157685948914086 -1.2101109978529678 1.209814770845447 -1.2090350078960956 2.1674107522739654e-06 5.671804001894462e-06 0.0 0.0 0.0 1.917476038215682e-05 4.466692350223307 -5.162506994828984 1.8471956245820766 0.6338234395895509 -0.5922250272165548 0.5603740149532087 0.29580949455060795 -0.11303468883756387 0.4815525763646191 -1.2101397425155387 1.2098370768821618 -1.2089754610298096 0.0 0.0 0.0 0.0 0.0 0.0
2368.104 1.7214759154467055e-16 -1.5707963267948966 -1.5707963267948966 0.0 1.5707963267948966 0.0 0.0 0.0 0.0 0.0 0.0 0.0 0.0 0.0 0.0 0.0 0.0 0.0 -1.8327750199862536e-26 0.555172973447796 0.7573864583558305 0.07057808899065858 -9.380070923910231e-28 0.0 -2.1032924999364705e-25 6.394759450000002 6.3947594500000005 0.2913103000000004 -3.894025929994733e-27 0.0 -1.1746083394825746e-05 -1.5707123915301722 -1.5707476774798792 -5.2754079000294496e-05 1.5707435607910156 -4.7985707418263246e-05 1.917476038215682e-05 0.0 -0.0 0.0 0.0 0.0 0.0336456336081028 0.5764618515968323 0.6740682125091553 -0.008951950818300247 -0.03245082125067711 -0.13875523209571838 0.0314025916159153 0.5607605576515198 0.6755932569503784 -0.008951950818300247 -0.027974845841526985 -0.12868429720401764 0.2957808269608252 -0.11304259121690133 0.48158743450885444 -1.2100856338002437 1.2098033234975905 -1.2090961936616136 2.167564599562248e-06 5.671526482610013e-06 0.0 0.0 0.0 1.917476038215682e-05 4.347833542219231 -5.038145621303012 1.9589324425851153 0.6441711285536676 -0.5781139396664303 0.565777144484385 0.29580949455060795 -0.11303468883756387 0.4815525763646191 -1.2101397425155387 1.2098370768821618 -1.2089754610298096 0.0 0.0 0.0 0.0 0.0 0.0
2368.112 1.7214759154467055e-16 -1.5707963267948966 -1.5707963267948966 0.0 1.5707963267948966 0.0 0.0 0.0 0.0 0.0 0.0 0.0 0.0 0.0 0.0 0.0 0.0 0.0 -1.8327750199862536e-26 0.555172973447796 0.7573864583558305 0.07057808899065858 -9.380070923910231e-28 0.0 -2.1032924999364705e-25 6.394759450000002 6.3947594500000005 0.2913103000000004 -3.894025929994733e-27 0.0 -2.366701234990387e-05 -1.5707123915301722 -1.5707834402667444 -6.467500795537262e-05 1.57077956199646 -3.5587941304981996e-05 1.917476038215682e-05 0.0 -0.0 0.0 0.0 0.0 0.0314025916159153 0.5876770615577698 0.6786433458328247 -0.012308932840824127 -0.02014188840985298 -0.12420831620693207 0.0314025916159153 0.5652466416358948 0.6755932569503784 -0.008951950818300247 -0.025736859068274498 -0.12868429720401764 0.2957835653130048 -0.11304311090735933 0.4815758807242593 -1.2101231017854155 1.2098264425793597 -1.2090466948730807 2.1675745645022552e-06 5.671578989856898e-06 0.0 0.0 0.0 1.917476038215682e-05 4.763972779755367 -4.854611813981701 1.6837518394379627 0.5766491830539429 -0.6517637364993815 0.49332201104102186 0.29580949455060795 -0.11303468883756387 0.4815525763646191 -1.2101397425155387 1.2098370768821618 -1.2089754610298096 0.0 0.0 0.0 0.0 0.0 0.0
2368.12 1.7214759154467055e-16 -1.5707963267948966 -1.5707963267948966 0.0 1.5707963267948966 0.0 0.0 0.0 0.0 0.0 0.0 0.0 0.0 0.0 0.0 0.0 0.0 0.0 -1.8327750199862536e-26 0.555172973447796 0.7573864583558305 0.07057808899065858 -9.380070923910231e-28 0.0 -2.1032924999364705e-25 6.394759450000002 6.3947594500000005 0.2913103000000004 -3.894025929994733e-27 0.0 -1.1746083394825746e-05 -1.570796314870016 -1.5707595984088343 -6.467500795537262e-05 1.5707675218582153 -7.230440248662262e-05 1.917476038215682e-05 0.0 -0.0 0.0 0.0 0.0 0.0358886756002903 0.5562744736671448 0.681693434715271 -0.002237987704575062 -0.027974845841526985 -0.1186133474111557 0.0314025916159153 0.5607605576515198 0.6755932569503784 -0.008951950818300247 -0.02685585245490074 -0.12644630670547485 0.2958105337028896 -0.11304057421232913 0.48155811243485674 -1.210194338313466 1.2098533837508936 -1.209045348453411 2.1675259239827887e-06 5.672096102270831e-06 0.0 0.0 0.0 1.917476038215682e-05 2.985121421138225 -4.353512645902431 1.766491884556958 0.5507358482131292 -0.4464922913848922 0.4885944080523802 0.29580949455060795 -0.11303468883756387 0.4815525763646191 -1.2101397425155387 1.2098370768821618 -1.2089754610298096 0.0 0.0 0.0 0.0 0.0 0.0
2368.1279999999997 1.7214759154467055e-16 -1.5707963267948966 -1.5707963267948966 0.0 1.5707963267948966 0.0 0.0 0.0 0.0 0.0 0.0 0.0 0.0 0.0 0.0 0.0 0.0 0.0 -1.8327750199862536e-26 0.555172973447796 0.7573864583558305 0.07057808899065858 -9.380070923910231e-28 0.0 -2.1032924999364705e-25 6.394759450000002 6.3947594500000005 0.2913103000000004 -3.894025929994733e-27 0.0 -3.5587941304981996e-05 -1.5707362333880823 -1.5707834402667444 -7.659593691045075e-05 1.5707435607910156 -5.990663637334137e-05 1.917476038215682e-05 0.0 -0.0 0.0 0.0 0.0 0.0403747595846653 0.5405731797218323 0.6801683902740479 -0.012308932840824127 -0.024617865681648254 -0.14211222529411316 0.0336456336081028 0.5585175156593323 0.6755932569503784 -0.008951950818300247 -0.02685585245490074 -0.12756529450416565 0.2957910911563443 -0.11304959316246056 0.4815678501187629 -1.2101447012228304 1.209876544548125 -1.2090829195292854 2.1676988601905385e-06 5.671723296099607e-06 0.0 0.0 0.0 1.917476038215682e-05 2.212821805150789 -4.142523325893632 1.6147221453656964 0.6596855699102272 -0.43970697812541326 0.4556596627503122 0.29580949455060795 -0.11303468883756387 0.4815525763646191 -1.2101397425155387 1.2098370768821618 -1.2089754610298096 0.0 0.0 0.0 0.0 0.0 0.0
2368.136 1.7214759154467055e-16 -1.5707963267948966 -1.5707963267948966 0.0 1.5707963267948966 0.0 0.0 0.0 0.0 0.0 0.0 0.0 0.0 0.0 0.0 0.0 0.0 0.0 -1.8327750199862536e-26 0.555172973447796 0.7573864583558305 0.07057808899065858 -9.380070923910231e-28 0.0 -2.1032924999364705e-25 6.394759450000002 6.3947594500000005 0.2913103000000004 -3.894025929994733e-27 0.0 -2.366701234990387e-05 -1.5707009474383753 -1.5707715193377894 -4.0356312887013246e-05 1.57077956199646 -9.614626039677887e-05 1.917476038215682e-05 0.0 -0.0 0.0 0.0 0.0 0.0358886756002903 0.5630035996437073 0.6862685084342957 -0.002237987704575062 -0.03021283447742462 -0.14211222529411316 0.0336456336081028 0.5585175156593323 0.6755932569503784 -0.008951950818300247 -0.02685585245490074 -0.12756529450416565 0.2957766952437731 -0.11304312966693 0.4815847906357634 -1.2101325609898237 1.2097627393750743 -1.2091138832518993 2.167574924212532e-06 5.671447257925572e-06 0.0 0.0 0.0 1.917476038215682e-05 3.1628982522642604 -4.4974462187779025 1.563054082039047 0.6597164918427094 -0.47849083052147023 0.5109152106973905 0.29580949455060795 -0.11303468883756387 0.4815525763646191 -1.2101397425155387 1.2098370768821618 -1.2089754610298096 0.0 0.0 0.0 0.0 0.0 0.0
2368.144 1.7214759154467055e-16 -1.5707963267948966 -1.5707963267948966 0.0 1.5707963267948966 0.0 0.0 0.0 0.0 0.0 0.0 0.0 0.0 0.0 0.0 0.0 0.0 0.0 -1.8327750199862536e-26 0.555172973447796 0.7573864583558305 0.07057808899065858 -9.380070923910231e-28 0.0 -2.1032924999364705e-25 6.394759450000002 6.3947594500000005 0.2913103000000004 -3.894025929994733e-27 0.0 0.0 -1.570796314870016 -1.5707953611956995 -2.8912221090138246e-05 1.57077956199646 -3.5587941304981996e-05 1.917476038215682e-05 0.0 -0.0 0.0 0.0 0.0 0.0269165076315403 0.6033783555030823 0.6786433458328247 -0.008951950818300247 -0.02349887043237686 -0.12756529450416565 0.0291595496237278 0.5585175156593323 0.6755932569503784 -0.008951950818300247 -0.02685585245490074 -0.12756529450416565 0.2958118740863227 -0.11303606913717164 0.4815504851151597 -1.2101786105361834 1.2098531411389402 -1.2090007627267485 2.1674395402462296e-06 5.672121803801982e-06 0.0 0.0 0.0 1.917476038215682e-05 5.594973086015935 -5.096236726082429 1.7565608908149772 0.5923015864750034 -0.7011193192635056 0.5287580714186206 0.29580949455060795 -0.11303468883756387 0.4815525763646191 -1.2101397425155387 1.2098370768821618 -1.2089754610298096 0.0 0.0 0.0 0.0 0.0 0.0
2368.152 1.7214759154467055e-16 -1.5707963267948966 -1.5707963267948966 0.0 1.5707963267948966 0.0 0.0 0.0 0.0 0.0 0.0 0.0 0.0 0.0 0.0 0.0 0.0 0.0 -1.8327750199862536e-26 0.555172973447796 0.7573864583558305 0.07057808899065858 -9.380070923910231e-28 0.0 -2.1032924999364705e-25 6.394759450000002 6.3947594500000005 0.2913103000000004 -3.894025929994733e-27 0.0 -2.366701234990387e-05 -1.5707600752459925 -1.5707953611956995 -4.593526021778871e-06 1.5707675218582153 -8.422533144170075e-05 1.917476038215682e-05 0.0 -0.0 0.0 0.0 0.0 0.0291595496237278 0.5630035996437073 0.671018123626709 -0.0055949692614376545 -0.02909383922815323 -0.134279265999794 0.0314025916159153 0.5585175156593323 0.6755932569503784 -0.008951950818300247 -0.02685585245490074 -0.12756529450416565 0.2957951760754993 -0.11304407549845995 0.4815632040741701 -1.2101529267725326 1.2098118971276905 -1.2090915509806617 2.167593060305517e-06 5.671801623445585e-06 0.0 0.0 0.0 1.917476038215682e-05 3.7553743628489893 -4.3804593637447375 2.1683396043577914 0.6233802848860727 -0.4947348356043414 0.4959991373178336 0.29580949455060795 -0.11303468883756387 0.4815525763646191 -1.2101397425155387 1.2098370768821618 -1.2089754610298096 0.0 0.0 0.0 0.0 0.0 0.0
2368.16 1.7214759154467055e-16 -1.5707963267948966 -1.5707963267948966 0.0 1.5707963267948966 0.0 0.0 0.0 0.0 0.0 0.0 0.0 0.0 0.0 0.0 0.0 0.0 0.0 -1.8327750199862536e-26 0.555172973447796 0.7573864583558305 0.07057808899065858 -9.380070923910231e-28 0.0 -2.1032924999364705e-25 6.394759450000002 6.3947594500000005 0.2913103000000004 -3.894025929994733e-27 0.0 3.5952674807049334e-05 -1.5707481543170374 -1.5707953611956995 -4.0356312887013246e-05 1.5707556009292603 -3.5587941304981996e-05 1.917476038215682e-05 0.0 -0.0 0.0 0.0 0.0 0.0358886756002903 0.5495453476905823 0.6694930791854858 -0.0055949692614376545 -0.02349887043237686 -0.12644630670547485 0.0314025916159153 0.5585175156593323 0.6755932569503784 -0.008951950818300247 -0.02685585245490074 -0.12756529450416565 0.29580103704169963 -0.11302742423564721 0.4815637848192565 -1.2101572136522003 1.2098173049402607 -1.2090093529012509 2.167273776331024e-06 5.671914006068084e-06 0.0 0.0 0.0 1.917476038215682e-05 3.1023791377915493 -4.318118151108162 2.235122385832967 0.58704928384911 -0.43340763498173357 0.4648692525440629 0.29580949455060795 -0.11303468883756387 0.4815525763646191 -1.2101397425155387 1.2098370768821618 -1.2089754610298096 0.0 0.0 0.0 0.0 0.0 0.0
2368.168 1.7214759154467055e-16 -1.5707963267948966 -1.5707963267948966 0.0 1.5707963267948966 0.0 0.0 0.0 0.0 0.0 0.0 0.0 0.0 0.0 0.0 0.0 0.0 0.0 -1.8327750199862536e-26 0.555172973447796 0.7573864583558305 0.07057808899065858 -9.380070923910231e-28 0.0 -2.1032924999364705e-25 6.394759450000002 6.3947594500000005 0.2913103000000004 -3.894025929994733e-27 0.0 0.0 -1.570808235798971 -1.5707953611956995 -4.0356312887013246e-05 1.5707075595855713 -8.422533144170075e-05 1.917476038215682e-05 0.0 -0.0 0.0 0.0 0.0 0.0291595496237278 0.5809479355812073 0.6755932569503784 -0.007832957431674004 -0.021260883659124374 -0.14099322259426117 0.0314025916159153 0.5585175156593323 0.6755932569503784 -0.008951950818300247 -0.022379877045750618 -0.12756529450416565 0.2958167733387402 -0.11304199433160696 0.4815460191967332 -1.2101975972453616 1.2099003548352352 -1.2090784951368205 2.1675531544297188e-06 5.6722157457931374e-06 0.0 0.0 0.0 1.917476038215682e-05 4.526836553173358 -4.617149452655238 1.9160858878992957 0.6545199787973367 -0.5916196389936365 0.4789108326495536 0.29580949455060795 -0.11303468883756387 0.4815525763646191 -1.2101397425155387 1.2098370768821618 -1.2089754610298096 0.0 0.0 0.0 0.0 0.0 0.0
2368.176 1.7214759154467055e-16 -1.5707963267948966 -1.5707963267948966 0.0 1.5707963267948966 0.0 0.0 0.0 0.0 0.0 0.0 0.0 0.0 0.0 0.0 0.0 0.0 0.0 -1.8327750199862536e-26 0.555172973447796 0.7573864583558305 0.07057808899065858 -9.380070923910231e-28 0.0 -2.1032924999364705e-25 6.394759450000002 6.3947594500000005 0.2913103000000004 -3.894025929994733e-27 0.0 -3.5587941304981996e-05 -1.5707481543170374 -1.5707834402667444 -4.593526021778871e-06 1.5707075595855713 -8.422533144170075e-05 1.917476038215682e-05 0.0 -0.0 0.0 0.0 0.0 0.0358886756002903 0.5787048935890198 0.6877935528755188 -0.01007094420492649 -0.024617865681648254 -0.12532731890678406 0.0381317175924778 0.5585175156593323 0.6755932569503784 -0.008951950818300247 -0.024617865681648254 -0.12644630670547485 0.2957888713399716 -0.11305255768574372 0.48157025427327027 -1.2101013190298069 1.209847352449589 -1.2091557858299893 2.167755704214081e-06 5.671680731652569e-06 0.0 0.0 0.0 1.917476038215682e-05 3.9341607028307157 -4.7834278785403574 1.3252403693498291 0.5817968873775795 -0.6001320260686971 0.5083371518525406 0.29580949455060795 -0.11303468883756387 0.4815525763646191 -1.2101397425155387 1.2098370768821618 -1.2089754610298096 0.0 0.0 0.0 0.0 0.0 0.0
2368.1839999999997 1.7214759154467055e-16 -1.5707963267948966 -1.5707963267948966 0.0 1.5707963267948966 0.0 0.0 0.0 0.0 0.0 0.0 0.0 0.0 0.0 0.0 0.0 0.0 0.0 -1.8327750199862536e-26 0.555172973447796 0.7573864583558305 0.07057808899065858 -9.380070923910231e-28 0.0 -2.1032924999364705e-25 6.394759450000002 6.3947594500000005 0.2913103000000004 -3.894025929994733e-27 0.0 -2.366701234990387e-05 -1.5707362333880823 -1.5707715193377894 -4.0356312887013246e-05 1.5707316398620605 -5.990663637334137e-05 1.917476038215682e-05 0.0 -0.0 0.0 0.0 0.0 0.0336456336081028 0.5585175156593323 0.6679680347442627 -0.0033569815568625927 -0.019022895023226738 -0.12868429720401764 0.0291595496237278 0.5585175156593323 0.6755932569503784 -0.008951950818300247 -0.024617865681648254 -0.12644630670547485 0.295788322836186 -0.11304706424314064 0.481574358067374 -1.2101091906302424 1.2098411398906805 -1.2091057577221602 2.1676503687685316e-06 5.6716702142239115e-06 0.0 0.0 0.0 1.917476038215682e-05 3.635924548677613 -4.368216607591428 2.351805687770294 0.5973591585225315 -0.4590454816453249 0.44811750416562096 0.29580949455060795 -0.11303468883756387 0.4815525763646191 -1.2101397425155387 1.2098370768821618 -1.2089754610298096 0.0 0.0 0.0 0.0 0.0 0.0
2368.192 1.7214759154467055e-16 -1.5707963267948966 -1.5707963267948966 0.0 1.5707963267948966 0.0 0.0 0.0 0.0 0.0 0.0 0.0 0.0 0.0 0.0 0.0 0.0 0.0 -1.8327750199862536e-26 0.555172973447796 0.7573864583558305 0.07057808899065858 -9.380070923910231e-28 0.0 -2.1032924999364705e-25 6.394759450000002 6.3947594500000005 0.2913103000000004 -3.894025929994733e-27 0.0 0.0 -1.5707123915301722 -1.5707953611956995 -5.2754079000294496e-05 1.5707316398620605 -4.7985707418263246e-05 1.917476038215682e-05 0.0 -0.0 0.0 0.0 0.0 0.0336456336081028 0.5630035996437073 0.671018123626709 -0.008951950818300247 -0.022379877045750618 -0.12644630670547485 0.0336456336081028 0.5540314316749573 0.6755932569503784 -0.008951950818300247 -0.024617865681648254 -0.12644630670547485 0.2957862400484908 -0.11304004442025802 0.4815733394572739 -1.2101207785058972 1.2098384095482009 -1.2090736624986522 2.1675157653468726e-06 5.671630277268929e-06 0.0 0.0 0.0 1.917476038215682e-05 3.7548697609240125 -4.504340870017889 2.094911524732802 0.5870130210250206 -0.5162241917345706 0.4749520413307477 0.29580949455060795 -0.11303468883756387 0.4815525763646191 -1.2101397425155387 1.2098370768821618 -1.2089754610298096 0.0 0.0 0.0 0.0 0.0 0.0
2368.2 1.7214759154467055e-16 -1.5707963267948966 -1.5707963267948966 0.0 1.5707963267948966 0.0 0.0 0.0 0.0 0.0 0.0 0.0 0.0 0.0 0.0 0.0 0.0 0.0 -1.8327750199862536e-26 0.555172973447796 0.7573864583558305 0.07057808899065858 -9.380070923910231e-28 0.0 -2.1032924999364705e-25 6.394759450000002 6.3947594500000005 0.2913103000000004 -3.894025929994733e-27 0.0 1.1984225238848012e-05 -1.5707123915301722 -1.5707715193377894 -4.0356312887013246e-05 1.5707435607910156 -9.614626039677887e-05 1.917476038215682e-05 0.0 -0.0 0.0 0.0 0.0 0.0336456336081028 0.5316010117530823 0.671018123626709 -0.01342792622745037 -0.024617865681648254 -0.12420831620693207 0.0336456336081028 0.5652466416358948 0.6755932569503784 -0.008951950818300247 -0.024617865681648254 -0.12644630670547485 0.2957844944599893 -0.11303554570218491 0.4815814076068347 -1.2101408228355595 1.2097714053453796 -1.2091087188792342 2.167429503505829e-06 5.671596806027684e-06 0.0 0.0 0.0 1.917476038215682e-05 2.0946277860846614 -3.674523973173592 1.998709759174491 0.5765812278777463 -0.4031484458869004 0.4171804570017668 0.29580949455060795 -0.11303468883756387 0.4815525763646191 -1.2101397425155387 1.2098370768821618 -1.2089754610298096 0.0 0.0 0.0 0.0 0.0 0.0
2368.208 1.7214759154467055e-16 -1.5707963267948966 -1.5707963267948966 0.0 1.5707963267948966 0.0 0.0 0.0 0.0 0.0 0.0 0.0 0.0 0.0 0.0 0.0 0.0 0.0 -1.8327750199862536e-26 0.555172973447796 0.7573864583558305 0.07057808899065858 -9.380070923910231e-28 0.0 -2.1032924999364705e-25 6.394759450000002 6.3947594500000005 0.2913103000000004 -3.894025929994733e-27 0.0 2.3968450477696024e-05 -1.5707362333880823 -1.5707595984088343 -4.0356312887013246e-05 1.5707675218582153 -7.230440248662262e-05 1.917476038215682e-05 0.0 -0.0 0.0 0.0 0.0 0.0314025916159153 0.5652466416358948 0.6740682125091553 -0.0055949692614376545 -0.021260883659124374 -0.12308932095766068 0.0336456336081028 0.5630035996437073 0.6755932569503784 -0.008951950818300247 -0.024617865681648254 -0.12644630670547485 0.29579268936726943 -0.11303003250948568 0.481577881093199 -1.210149029134639 1.2097649944595157 -1.2090590710217783 2.167323789356744e-06 5.6717539414111356e-06 0.0 0.0 0.0 1.917476038215682e-05 3.7557733125913653 -4.3450133007060225 2.033042320569373 0.5714417521642323 -0.505842951617828 0.45664991372436037 0.29580949455060795 -0.11303468883756387 0.4815525763646191 -1.2101397425155387 1.2098370768821618 -1.2089754610298096 0.0 0.0 0.0 0.0 0.0 0.0
2368.216 1.7214759154467055e-16 -1.5707963267948966 -1.5707963267948966 0.0 1.5707963267948966 0.0 0.0 0.0 0.0 0.0 0.0 0.0 0.0 0.0 0.0 0.0 0.0 0.0 -1.8327750199862536e-26 0.555172973447796 0.7573864583558305 0.07057808899065858 -9.380070923910231e-28 0.0 -2.1032924999364705e-25 6.394759450000002 6.3947594500000005 0.2913103000000004 -3.894025929994733e-27 0.0 2.3968450477696024e-05 -1.5707600752459925 -1.5707476774798792 -2.8912221090138246e-05 1.5707435607910156 -8.422533144170075e-05 1.917476038215682e-05 0.0 -0.0 0.0 0.0 0.0 0.0269165076315403 0.5674896836280823 0.6893185973167419 -0.0055949692614376545 -0.017903901636600494 -0.11413737386465073 0.0291595496237278 0.5540314316749573 0.6755932569503784 -0.008951950818300247 -0.024617865681648254 -0.12644630670547485 0.2957985482683902 -0.11303201150750608 0.48157529773812546 -1.210146807844295 1.2097773780807068 -1.2090852687152966 2.16736173616955e-06 5.6718662844362295e-06 0.0 0.0 0.0 1.917476038215682e-05 3.2839210252148727 -3.7515221620746977 1.3576427214335978 0.5298375383183511 -0.5211566639915483 0.39217110948673073 0.29580949455060795 -0.11303468883756387 0.4815525763646191 -1.2101397425155387 1.2098370768821618 -1.2089754610298096 0.0 0.0 0.0 0.0 0.0 0.0
2368.2239999999997 1.7214759154467055e-16 -1.5707963267948966 -1.5707963267948966 0.0 1.5707963267948966 0.0 0.0 0.0 0.0 0.0 0.0 0.0 0.0 0.0 0.0 0.0 0.0 0.0 -1.8327750199862536e-26 0.555172973447796 0.7573864583558305 0.07057808899065858 -9.380070923910231e-28 0.0 -2.1032924999364705e-25 6.394759450000002 6.3947594500000005 0.2913103000000004 -3.894025929994733e-27 0.0 1.1984225238848012e-05 -1.5707724730121058 -1.5707953611956995 -5.2754079000294496e-05 1.5707556009292603 -4.7985707418263246e-05 1.917476038215682e-05 0.0 -0.0 0.0 0.0 0.0 0.0336456336081028 0.5652466416358948 0.6771183013916016 -0.004475975409150124 -0.027974845841526985 -0.1186133474111557 0.0314025916159153 0.5585175156593323 0.6755932569503784 -0.008951950818300247 -0.02685585245490074 -0.12756529450416565 0.29580740240962355 -0.11303450471168196 0.481555572853372 -1.2101820699927601 1.2098561041435378 -1.2090187152692502 2.167409542762143e-06 5.672036060472769e-06 0.0 0.0 0.0 1.917476038215682e-05 3.637246366251668 -4.56342789765759 1.921127708622916 0.55075501718197 -0.4997559867667769 0.5058420470246597 0.29580949455060795 -0.11303468883756387 0.4815525763646191 -1.2101397425155387 1.2098370768821618 -1.2089754610298096 0.0 0.0 0.0 0.0 0.0 0.0
2368.232 1.7214759154467055e-16 -1.5707963267948966 -1.5707963267948966 0.0 1.5707963267948966 0.0 0.0 0.0 0.0 0.0 0.0 0.0 0.0 0.0 0.0 0.0 0.0 0.0 -1.8327750199862536e-26 0.555172973447796 0.7573864583558305 0.07057808899065858 -9.380070923910231e-28 0.0 -2.1032924999364705e-25 6.394759450000002 6.3947594500000005 0.2913103000000004 -3.894025929994733e-27 0.0 0.0 -1.5707839171039026 -1.5707595984088343 7.152557373046875e-06 1.5707675218582153 -9.614626039677887e-05 1.917476038215682e-05 0.0 -0.0 0.0 0.0 0.0 0.0291595496237278 0.5203858017921448 0.6679680347442627 -0.008951950818300247 -0.024617865681648254 -0.11637535691261292 0.0314025916159153 0.5585175156593323 0.6755932569503784 -0.008951950818300247 -0.02685585245490074 -0.12868429720401764 0.2958016437828774 -0.1130371077877012 0.48156769258739196 -1.2101554007419504 1.2097714850309464 -1.209094163558062 2.1674594561213e-06 5.671925640184781e-06 0.0 0.0 0.0 1.917476038215682e-05 1.620855239126014 -3.153011246296233 2.232598972690452 0.5402178389607578 -0.32273701503962 0.37425233267325947 0.29580949455060795 -0.11303468883756387 0.4815525763646191 -1.2101397425155387 1.2098370768821618 -1.2089754610298096 0.0 0.0 0.0 0.0 0.0 0.0
2368.24 1.7214759154467055e-16 -1.5707963267948966 -1.5707963267948966 0.0 1.5707963267948966 0.0 0.0 0.0 0.0 0.0 0.0 0.0 0.0 0.0 0.0 0.0 0.0 0.0 -1.8327750199862536e-26 0.555172973447796 0.7573864583558305 0.07057808899065858 -9.380070923910231e-28 0.0 -2.1032924999364705e-25 6.394759450000002 6.3947594500000005 0.2913103000000004 -3.894025929994733e-27 0.0 1.1984225238848012e-05 -1.5707243124591272 -1.5707834402667444 -4.0356312887013246e-05 1.5707556009292603 -3.5587941304981996e-05 1.917476038215682e-05 0.0 -0.0 0.0 0.0 0.0 0.0336456336081028 0.5383301377296448 0.6771183013916016 -0.0055949692614376545 -0.02014188840985298 -0.11189938336610794 0.0314025916159153 0.5562744736671448 0.6755932569503784 -0.008951950818300247 -0.02349887043237686 -0.12980328500270844 0.2957894469923631 -0.11303453622953055 0.48157435861830655 -1.210119495696908 1.2098086969057125 -1.209043963900536 2.1674101471094577e-06 5.671691769649238e-06 0.0 0.0 0.0 1.917476038215682e-05 2.214205036868508 -3.6400044121579 1.8981383307763855 0.5194712490456244 -0.3853588225882885 0.3934738887209807 0.29580949455060795 -0.11303468883756387 0.4815525763646191 -1.2101397425155387 1.2098370768821618 -1.2089754610298096 0.0 0.0 0.0 0.0 0.0 0.0
2368.248 1.7214759154467055e-16 -1.5707963267948966 -1.5707963267948966 0.0 1.5707963267948966 0.0 0.0 0.0 0.0 0.0 0.0 0.0 0.0 0.0 0.0 0.0 0.0 0.0 -1.8327750199862536e-26 0.555172973447796 0.7573864583558305 0.07057808899065858 -9.380070923910231e-28 0.0 -2.1032924999364705e-25 6.394759450000002 6.3947594500000005 0.2913103000000004 -3.894025929994733e-27 0.0 0.0 -1.5707123915301722 -1.5707715193377894 -1.6514454976856996e-05 1.5707316398620605 -2.366701234990387e-05 1.917476038215682e-05 0.0 -0.0 0.0 0.0 0.0 0.0381317175924778 0.5630035996437073 0.6847434639930725 0.004475975409150124 -0.024617865681648254 -0.12532731890678406 0.0314025916159153 0.5585175156593323 0.6755932569503784 -0.008951950818300247 -0.025736859068274498 -0.12420831620693207 0.29578110347378805 -0.11304007349714529 0.48158337078901065 -1.2100585442275027 1.2098057747735034 -1.2090842626022567 2.1675163228893076e-06 5.6715317846798176e-06 0.0 0.0 0.0 1.917476038215682e-05 3.22218435994071 -4.541850771901429 1.7762957572705016 0.5818147625222552 -0.43487984954045616 0.48851573684802296 0.29580949455060795 -0.11303468883756387 0.4815525763646191 -1.2101397425155387 1.2098370768821618 -1.2089754610298096 0.0 0.0 0.0 0.0 0.0 0.0
2368.256 1.7214759154467055e-16 -1.5707963267948966 -1.5707963267948966 0.0 1.5707963267948966 0.0 0.0 0.0 0.0 0.0 0.0 0.0 0.0 0.0 0.0 0.0 0.0 0.0 -1.8327750199862536e-26 0.555172973447796 0.7573864583558305 0.07057808899065858 -9.380070923910231e-28 0.0 -2.1032924999364705e-25 6.394759450000002 6.3947594500000005 0.2913103000000004 -3.894025929994733e-27 0.0 2.3968450477696024e-05 -1.5707243124591272 -1.5707715193377894 -1.6514454976856996e-05 1.5707435607910156 -7.230440248662262e-05 1.917476038215682e-05 0.0 -0.0 0.0 0.0 0.0 0.0426178015768528 0.5630035996437073 0.6771183013916016 -0.01007094420492649 -0.03021283447742462 -0.12420831620693207 0.0358886756002903 0.5607605576515198 0.6755932569503784 -0.008951950818300247 -0.024617865681648254 -0.12756529450416565 0.2957877437649884 -0.11303199793909012 0.4815798456633337 -1.2101201446572778 1.2097650811057277 -1.2090879930261385 2.167361475998451e-06 5.671659110672452e-06 0.0 0.0 0.0 1.917476038215682e-05 3.5171764010655093 -5.09028618421433 1.797727995759668 0.5767042350427874 -0.525609399520856 0.5597262749532848 0.29580949455060795 -0.11303468883756387 0.4815525763646191 -1.2101397425155387 1.2098370768821618 -1.2089754610298096 0.0 0.0 0.0 0.0 0.0 0.0
2368.2639999999997 1.7214759154467055e-16 -1.5707963267948966 -1.5707963267948966 0.0 1.5707963267948966 0.0 0.0 0.0 0.0 0.0 0.0 0.0 0.0 0.0 0.0 0.0 0.0 0.0 -1.8327750199862536e-26 0.555172973447796 0.7573864583558305 0.07057808899065858 -9.380070923910231e-28 0.0 -2.1032924999364705e-25 6.394759450000002 6.3947594500000005 0.2913103000000004 -3.894025929994733e-27 0.0 -3.5587941304981996e-05 -1.5707724730121058 -1.5708192030536097 -5.2754079000294496e-05 1.5707075595855713 -1.1746083394825746e-05 1.917476038215682e-05 0.0 -0.0 0.0 0.0 0.0 0.0403747595846653 0.5607605576515198 0.6771183013916016 -0.004475975409150124 -0.019022895023226738 -0.11189938336610794 0.0381317175924778 0.5630035996437073 0.6755932569503784 -0.008951950818300247 -0.024617865681648254 -0.12756529450416565 0.29580406250096414 -0.11305250632058542 0.48154852608231963 -1.2101277441163405 1.2099611831292532 -1.2090510936825436 2.1677547192996675e-06 5.671972018524527e-06 0.0 0.0 0.0 1.917476038215682e-05 3.3990382594535 -4.64797999404199 1.919919219637587 0.5195387071852132 -0.479524889820837 0.47111834320696794 0.29580949455060795 -0.11303468883756387 0.4815525763646191 -1.2101397425155387 1.2098370768821618 -1.2089754610298096 0.0 0.0 0.0 0.0 0.0 0.0
2368.272 1.7214759154467055e-16 -1.5707963267948966 -1.5707963267948966 0.0 1.5707963267948966 0.0 0.0 0.0 0.0 0.0 0.0 0.0 0.0 0.0 0.0 0.0 0.0 0.0 -1.8327750199862536e-26 0.555172973447796 0.7573864583558305 0.07057808899065858 -9.380070923910231e-28 0.0 -2.1032924999364705e-25 6.394759450000002 6.3947594500000005 0.2913103000000004 -3.894025929994733e-27 0.0 -4.7985707418263246e-05 -1.5707362333880823 -1.5707595984088343 -2.8912221090138246e-05 1.5707435607910156 -3.5587941304981996e-05 1.917476038215682e-05 0.0 -0.0 0.0 0.0 0.0 0.0358886756002903 0.5697327256202698 0.6679680347442627 -0.001118993852287531 -0.019022895023226738 -0.12756529450416565 0.0336456336081028 0.5607605576515198 0.6694930791854858 -0.008951950818300247 -0.024617865681648254 -0.13092228770256042 0.2957835763715844 -0.11305328969245547 0.48157882385007983 -1.21006817098865 1.2098446255796724 -1.2091080694955978 2.167769740267087e-06 5.671579201902513e-06 0.0 0.0 0.0 1.917476038215682e-05 4.228461556843948 -4.817341532111728 2.3995872444014545 0.5921811338454119 -0.4953731284164181 0.4850683659568373 0.29580949455060795 -0.11303468883756387 0.4815525763646191 -1.2101397425155387 1.2098370768821618 -1.2089754610298096 0.0 0.0 0.0 0.0 0.0 0.0
2368.2799999999997 1.7214759154467055e-16 -1.5707963267948966 -1.5707963267948966 0.0 1.5707963267948966 0.0 0.0 0.0 0.0 0.0 0.0 0.0 0.0 0.0 0.0 0.0 0.0 0.0 -1.8327750199862536e-26 0.555172973447796 0.7573864583558305 0.07057808899065858 -9.380070923910231e-28 0.0 -2.1032924999364705e-25 6.394759450000002 6.3947594500000005 0.2913103000000004 -3.894025929994733e-27 0.0 1.1984225238848012e-05 -1.5707600752459925 -1.5707595984088343 -4.0356312887013246e-05 1.5707435607910156 -3.5587941304981996e-05 1.917476038215682e-05 0.0 -0.0 0.0 0.0 0.0 0.0269165076315403 0.5697327256202698 0.6801683902740479 -0.0055949692614376545 -0.022379877045750618 -0.13092228770256042 0.0336456336081028 0.5607605576515198 0.6771183013916016 -0.008951950818300247 -0.024617865681648254 -0.12532731890678406 0.2957991920176562 -0.11303554220699039 0.48157083166247444 -1.210122543025409 1.2098263843200439 -1.2090472027821408 2.167429436486311e-06 5.671878628174151e-06 0.0 0.0 0.0 1.917476038215682e-05 3.7569469242314892 -4.099443647243951 1.763071754007066 0.6077563230745597 -0.5281756772534246 0.44160808521342393 0.29580949455060795 -0.11303468883756387 0.4815525763646191 -1.2101397425155387 1.2098370768821618 -1.2089754610298096 0.0 0.0 0.0 0.0 0.0 0.0
2368.288 1.7214759154467055e-16 -1.5707963267948966 -1.5707963267948966 0.0 1.5707963267948966 0.0 0.0 0.0 0.0 0.0 0.0 0.0 0.0 0.0 0.0 0.0 0.0 0.0 -1.8327750199862536e-26 0.555172973447796 0.7573864583558305 0.07057808899065858 -9.380070923910231e-28 0.0 -2.1032924999364705e-25 6.394759450000002 6.3947594500000005 0.2913103000000004 -3.894025929994733e-27 0.0 -1.1746083394825746e-05 -1.5707724730121058 -1.5708192030536097 -5.2754079000294496e-05 1.570719599723816 -0.000108067189351857 1.917476038215682e-05 0.0 -0.0 0.0 0.0 0.0 0.0403747595846653 0.5787048935890198 0.6725431680679321 -0.004475975409150124 -0.019022895023226738 -0.12644630670547485 0.0336456336081028 0.5607605576515198 0.671018123626709 -0.008951950818300247 -0.024617865681648254 -0.12868429720401764 0.29580675900400016 -0.11304446215984966 0.4815485258103539 -1.2102156956068357 1.2098891623228931 -1.209095575022879 2.167600474444935e-06 5.672023723324112e-06 0.0 0.0 0.0 1.917476038215682e-05 4.525027340139097 -5.243742319403894 2.1220220804273078 0.5870828647236975 -0.5589757667597092 0.520101911487288 0.29580949455060795 -0.11303468883756387 0.4815525763646191 -1.2101397425155387 1.2098370768821618 -1.2089754610298096 0.0 0.0 0.0 0.0 0.0 0.0
2368.296 1.7214759154467055e-16 -1.5707963267948966 -1.5707963267948966 0.0 1.5707963267948966 0.0 0.0 0.0 0.0 0.0 0.0 0.0 0.0 0.0 0.0 0.0 0.0 0.0 -1.8327750199862536e-26 0.555172973447796 0.7573864583558305 0.07057808899065858 -9.380070923910231e-28 0.0 -2.1032924999364705e-25 6.394759450000002 6.3947594500000005 0.2913103000000004 -3.894025929994733e-27 0.0 -3.5587941304981996e-05 -1.570796314870016 -1.5707595984088343 -4.0356312887013246e-05 1.5707075595855713 -5.990663637334137e-05 1.917476038215682e-05 0.0 -0.0 0.0 0.0 0.0 0.0314025916159153 0.5203858017921448 0.6786433458328247 -0.01678490824997425 -0.024617865681648254 -0.14211222529411316 0.0336456336081028 0.5540314316749573 0.6755932569503784 -0.008951950818300247 -0.024617865681648254 -0.12868429720401764 0.29580575684453075 -0.11305256648231776 0.48156011615963296 -1.2101276335414481 1.2099031044908517 -1.2091094386965804 2.1677558728867116e-06 5.672004507156422e-06 0.0 0.0 0.0 1.917476038215682e-05 1.2060335710169652 -3.0685309606664317 1.5879477920619527 0.6595909910206271 -0.37668127992073697 0.3672858565459031 0.29580949455060795 -0.11303468883756387 0.4815525763646191 -1.2101397425155387 1.2098370768821618 -1.2089754610298096 0.0 0.0 0.0 0.0 0.0 0.0
2368.304 1.7214759154467055e-16 -1.5707963267948966 -1.5707963267948966 0.0 1.5707963267948966 0.0 0.0 0.0 0.0 0.0 0.0 0.0 0.0 0.0 0.0 0.0 0.0 0.0 -1.8327750199862536e-26 0.555172973447796 0.7573864583558305 0.07057808899065858 -9.380070923910231e-28 0.0 -2.1032924999364705e-25 6.394759450000002 6.3947594500000005 0.2913103000000004 -3.894025929994733e-27 0.0 2.3968450477696024e-05 -1.5707481543170374 -1.5707595984088343 -4.0356312887013246e-05 1.5707316398620605 -3.5587941304981996e-05 0.0 0.0 -0.0 0.0 0.0 0.0 0.0358886756002903 0.5899201035499573 0.6679680347442627 -0.0055949692614376545 -0.025736859068274498 -0.12420831620693207 0.0336456336081028 0.5585175156593323 0.6755932569503784 -0.008951950818300247 -0.024617865681648254 -0.12756529450416565 0.2957966157665391 -0.11303298338577812 0.4815743569408168 -1.210113784030891 1.2098175695744773 -1.2090528096220865 0.0 0.0 0.0 0.0 0.0 0.0 5.296141824283108 -5.528184182880436 2.30175075556341 0.5767246718154624 -0.6152174899371788 0.5747988101219166 0.29580949455060795 -0.11303468883756387 0.4815525763646191 -1.2101397425155387 1.2098370768821618 -1.2089754610298096 0.0 0.0 0.0 0.0 0.0 0.0
2368.312 1.7214759154467055e-16 -1.5707963267948966 -1.5707963267948966 0.0 1.5707963267948966 0.0 0.0 0.0 0.0 0.0 0.0 0.0 0.0 0.0 0.0 0.0 0.0 0.0 -1.8327750199862536e-26 0.555172973447796 0.7573864583558305 0.07057808899065858 -9.380070923910231e-28 0.0 -2.1032924999364705e-25 6.394759450000002 6.3947594500000005 0.2913103000000004 -3.894025929994733e-27 0.0 -1.1746083394825746e-05 -1.5707839171039026 -1.5707476774798792 -4.593526021778871e-06 1.5707556009292603 -5.990663637334137e-05 0.0 0.0 -0.0 0.0 0.0 0.0 0.0426178015768528 0.5742188096046448 0.6725431680679321 -0.008951950818300247 -0.024617865681648254 -0.13875523209571838 0.0336456336081028 0.5607605576515198 0.6755932569503784 -0.008951950818300247 -0.024617865681648254 -0.12868429720401764 0.2958002960271657 -0.11304157703927423 0.4815702496010911 -1.2101173497975322 1.2098059743002652 -1.209085011173154 0.0 0.0 0.0 0.0 0.0 0.0 4.287264313453462 -5.375616946219934 2.0243862688160466 0.6441841453750597 -0.5675186550314705 0.5571054499666042 0.29580949455060795 -0.11303468883756387 0.4815525763646191 -1.2101397425155387 1.2098370768821618 -1.2089754610298096 0.0 0.0 0.0 0.0 0.0 0.0
2368.3199999999997 1.7214759154467055e-16 -1.5707963267948966 -1.5707963267948966 0.0 1.5707963267948966 0.0 0.0 0.0 0.0 0.0 0.0 0.0 0.0 0.0 0.0 0.0 0.0 0.0 -1.8327750199862536e-26 0.555172973447796 0.7573864583558305 0.07057808899065858 -9.380070923910231e-28 0.0 -2.1032924999364705e-25 6.394759450000002 6.3947594500000005 0.2913103000000004 -3.894025929994733e-27 0.0 0.0 -1.570808235798971 -1.5707834402667444 -4.593526021778871e-06 1.570719599723816 -7.230440248662262e-05 0.0 0.0 -0.0 0.0 0.0 0.0 0.0314025916159153 0.5652466416358948 0.6771183013916016 -0.01007094420492649 -0.027974845841526985 -0.14211222529411316 0.0314025916159153 0.5585175156593323 0.6755932569503784 -0.008951950818300247 -0.025736859068274498 -0.12980328500270844 0.2958127008615292 -0.11304101819484783 0.48155248753882096 -1.2101593523138814 1.2098620756453355 -1.2090834676646316 0.0 0.0 0.0 0.0 0.0 0.0 3.637154630301435 -4.428167189430629 1.79971092415439 0.6597183705562883 -0.5356682359107001 0.4947023572229125 0.29580949455060795 -0.11303468883756387 0.4815525763646191 -1.2101397425155387 1.2098370768821618 -1.2089754610298096 0.0 0.0 0.0 0.0 0.0 0.0
2368.328 1.7214759154467055e-16 -1.5707963267948966 -1.5707963267948966 0.0 1.5707963267948966 0.0 0.0 0.0 0.0 0.0 0.0 0.0 0.0 0.0 0.0 0.0 0.0 0.0 -1.8327750199862536e-26 0.555172973447796 0.7573864583558305 0.07057808899065858 -9.380070923910231e-28 0.0 -2.1032924999364705e-25 6.394759450000002 6.3947594500000005 0.2913103000000004 -3.894025929994733e-27 0.0 0.0 -1.5707839171039026 -1.5707834402667444 -1.6514454976856996e-05 1.5707435607910156 -4.7985707418263246e-05 0.0 0.0 -0.0 0.0 0.0 0.0 0.0358886756002903 0.5697327256202698 0.6740682125091553 -0.002237987704575062 -0.03245082125067711 -0.12756529450416565 0.0314025916159153 0.5562744736671448 0.6740682125091553 -0.008951950818300247 -0.02349887043237686 -0.12756529450416565 0.29580570445418797 -0.113039052779258 0.4815586968051396 -1.2101436304883995 1.2098468194361616 -1.2090538103045854 0.0 0.0 0.0 0.0 0.0 0.0 3.992178132084743 -4.98424869552614 2.104049971071782 0.5923090644646141 -0.5046828857723006 0.5613165103027633 0.29580949455060795 -0.11303468883756387 0.4815525763646191 -1.2101397425155387 1.2098370768821618 -1.2089754610298096 0.0 0.0 0.0 0.0 0.0 0.0
2368.336 1.7214759154467055e-16 -1.5707963267948966 -1.5707963267948966 0.0 1.5707963267948966 0.0 0.0 0.0 0.0 0.0 0.0 0.0 0.0 0.0 0.0 0.0 0.0 0.0 -1.8327750199862536e-26 0.555172973447796 0.7573864583558305 0.07057808899065858 -9.380070923910231e-28 0.0 -2.1032924999364705e-25 6.394759450000002 6.3947594500000005 0.2913103000000004 -3.894025929994733e-27 0.0 -3.5587941304981996e-05 -1.5707600752459925 -1.5707476774798792 -2.8912221090138246e-05 1.5707435607910156 -5.990663637334137e-05 0.0 0.0 -0.0 0.0 0.0 0.0 0.0291595496237278 0.5517883896827698 0.6664429903030396 -0.0055949692614376545 -0.022379877045750618 -0.1376362442970276 0.0314025916159153 0.5585175156593323 0.6755932569503784 -0.008951950818300247 -0.02349887043237686 -0.12532731890678406 0.29579181596503945 -0.11304962800124578 0.48157529773812546 -1.2101007193915336 1.2098327742747617 -1.2091112053771493 0.0 0.0 0.0 0.0 0.0 0.0 3.339763419047168 -4.0142339518163945 2.3719148328037756 0.6388730149903896 -0.4424968517199801 0.434621749707092 0.29580949455060795 -0.11303468883756387 0.4815525763646191 -1.2101397425155387 1.2098370768821618 -1.2089754610298096 0.0 0.0 0.0 0.0 0.0 0.0
2368.344 1.7214759154467055e-16 -1.5707963267948966 -1.5707963267948966 0.0 1.5707963267948966 0.0 0.0 0.0 0.0 0.0 0.0 0.0 0.0 0.0 0.0 0.0 0.0 0.0 -1.8327750199862536e-26 0.555172973447796 0.7573864583558305 0.07057808899065858 -9.380070923910231e-28 0.0 -2.1032924999364705e-25 6.394759450000002 6.3947594500000005 0.2913103000000004 -3.894025929994733e-27 0.0 -1.1746083394825746e-05 -1.5707724730121058 -1.570723835621969 -1.6514454976856996e-05 1.5707435607910156 -0.000108067189351857 0.0 0.0 -0.0 0.0 0.0 0.0 0.0291595496237278 0.5473023056983948 0.6847434639930725 -0.0055949692614376545 -0.03021283447742462 -0.12308932095766068 0.0291595496237278 0.5585175156593323 0.6755932569503784 -0.008951950818300247 -0.025736859068274498 -0.12756529450416565 0.29579549674981886 -0.11304259917470451 0.4815797000870222 -1.2101298697813292 1.2097749309029522 -1.2091404322233015 0.0 0.0 0.0 0.0 0.0 0.0 2.3933232211777886 -3.6840326135492547 1.5602192160509014 0.5713976946725456 -0.4285409448638217 0.4439759909065223 0.29580949455060795 -0.11303468883756387 0.4815525763646191 -1.2101397425155387 1.2098370768821618 -1.2089754610298096 0.0 0.0 0.0 0.0 0.0 0.0
2368.352 1.7214759154467055e-16 -1.5707963267948966 -1.5707963267948966 0.0 1.5707963267948966 0.0 0.0 0.0 0.0 0.0 0.0 0.0 0.0 0.0 0.0 0.0 0.0 0.0 -1.8327750199862536e-26 0.555172973447796 0.7573864583558305 0.07057808899065858 -9.380070923910231e-28 0.0 -2.1032924999364705e-25 6.394759450000002 6.3947594500000005 0.2913103000000004 -3.894025929994733e-27 0.0 1.1984225238848012e-05 -1.5707481543170374 -1.5707834402667444 -4.593526021778871e-06 1.5707675218582153 -5.990663637334137e-05 0.0 0.0 -0.0 0.0 0.0 0.0 0.0403747595846653 0.5787048935890198 0.6771183013916016 -0.001118993852287531 -0.0335698164999485 -0.1197323426604271 0.0381317175924778 0.5585175156593323 0.6755932569503784 -0.008951950818300247 -0.02349887043237686 -0.12756529450416565 0.29579425492867256 -0.11303354782502915 0.4815702529195928 -1.210134277883626 1.209779627038081 -1.2090587280820289 0.0 0.0 0.0 0.0 0.0 0.0 4.347748822804753 -5.4676308897514545 1.991938479665751 0.5560026772360488 -0.5391022131300623 0.6063491036222399 0.29580949455060795 -0.11303468883756387 0.4815525763646191 -1.2101397425155387 1.2098370768821618 -1.2089754610298096 0.0 0.0 0.0 0.0 0.0 0.0
2368.3599999999997 1.7214759154467055e-16 -1.5707963267948966 -1.5707963267948966 0.0 1.5707963267948966 0.0 0.0 0.0 0.0 0.0 0.0 0.0 0.0 0.0 0.0 0.0 0.0 0.0 -1.8327750199862536e-26 0.555172973447796 0.7573864583558305 0.07057808899065858 -9.380070923910231e-28 0.0 -2.1032924999364705e-25 6.394759450000002 6.3947594500000005 0.2913103000000004 -3.894025929994733e-27 0.0 0.0 -1.5707600752459925 -1.5707595984088343 -4.593526021778871e-06 1.5707675218582153 -2.366701234990387e-05 0.0 0.0 -0.0 0.0 0.0 0.0 0.0403747595846653 0.5652466416358948 0.6679680347442627 -0.0055949692614376545 -0.02685585245490074 -0.12644630670547485 0.0358886756002903 0.5585175156593323 0.6755932569503784 -0.008951950818300247 -0.02685585245490074 -0.12756529450416565 0.29579478698964873 -0.11303711561467553 0.4815737755822452 -1.2100930802680023 1.2097968928964191 -1.2090465536342667 0.0 0.0 0.0 0.0 0.0 0.0 3.990841911222091 -5.132411889513721 2.3012510770955115 0.5870835054684205 -0.50388043128814 0.5475241959401117 0.29580949455060795 -0.11303468883756387 0.4815525763646191 -1.2101397425155387 1.2098370768821618 -1.2089754610298096 0.0 0.0 0.0 0.0 0.0 0.0
2368.368 1.7214759154467055e-16 -1.5707963267948966 -1.5707963267948966 0.0 1.5707963267948966 0.0 0.0 0.0 0.0 0.0 0.0 0.0 0.0 0.0 0.0 0.0 0.0 0.0 -1.8327750199862536e-26 0.555172973447796 0.7573864583558305 0.07057808899065858 -9.380070923910231e-28 0.0 -2.1032924999364705e-25 6.394759450000002 6.3947594500000005 0.2913103000000004 -3.894025929994733e-27 0.0 2.3968450477696024e-05 -1.5707362333880823 -1.5707834402667444 -2.8912221090138246e-05 1.5707316398620605 -4.7985707418263246e-05 0.0 0.0 -0.0 0.0 0.0 0.0 0.0336456336081028 0.5809479355812073 0.6832184791564941 -0.011189938522875309 -0.021260883659124374 -0.12532731890678406 0.0314025916159153 0.5585175156593323 0.6755932569503784 -0.008951950818300247 -0.02349887043237686 -0.12756529450416565 0.29579375223271664 -0.11303296112764145 0.4815717764586524 -1.2101233150643107 1.2098119974457198 -1.2090616782314367 0.0 0.0 0.0 0.0 0.0 0.0 4.230741862918513 -4.7315913512426775 1.504541764070287 0.5818328036130387 -0.6157874806617609 0.48844251534212896 0.29580949455060795 -0.11303468883756387 0.4815525763646191 -1.2101397425155387 1.2098370768821618 -1.2089754610298096 0.0 0.0 0.0 0.0 0.0 0.0
2368.3759999999997 1.7214759154467055e-16 -1.5707963267948966 -1.5707963267948966 0.0 1.5707963267948966 0.0 0.0 0.0 0.0 0.0 0.0 0.0 0.0 0.0 0.0 0.0 0.0 0.0 -1.8327750199862536e-26 0.555172973447796 0.7573864583558305 0.07057808899065858 -9.380070923910231e-28 0.0 -2.1032924999364705e-25 6.394759450000002 6.3947594500000005 0.2913103000000004 -3.894025929994733e-27 0.0 2.3968450477696024e-05 -1.5707724730121058 -1.5707834402667444 -6.467500795537262e-05 1.5707316398620605 -2.366701234990387e-05 0.0 0.0 -0.0 0.0 0.0 0.0 0.0381317175924778 0.5562744736671448 0.6679680347442627 -0.008951950818300247 -0.022379877045750618 -0.12868429720401764 0.0358886756002903 0.5585175156593323 0.6755932569503784 -0.008951950818300247 -0.024617865681648254 -0.12868429720401764 0.29580875089161324 -0.11303294603100879 0.48155811574369406 -1.2101584581802403 1.2098764634097914 -1.2090096531923653 0.0 0.0 0.0 0.0 0.0 0.0 3.516910010169908 -4.648101859719629 2.229139019749206 0.5974514449057801 -0.48481026205928046 0.4867805663559993 0.29580949455060795 -0.11303468883756387 0.4815525763646191 -1.2101397425155387 1.2098370768821618 -1.2089754610298096 0.0 0.0 0.0 0.0 0.0 0.0
2368.384 1.7214759154467055e-16 -1.5707963267948966 -1.5707963267948966 0.0 1.5707963267948966 0.0 0.0 0.0 0.0 0.0 0.0 0.0 0.0 0.0 0.0 0.0 0.0 0.0 -1.8327750199862536e-26 0.555172973447796 0.7573864583558305 0.07057808899065858 -9.380070923910231e-28 0.0 -2.1032924999364705e-25 6.394759450000002 6.3947594500000005 0.2913103000000004 -3.894025929994733e-27 0.0 2.3968450477696024e-05 -1.5707600752459925 -1.5707476774798792 -6.467500795537262e-05 1.57077956199646 -3.5587941304981996e-05 0.0 0.0 -0.0 0.0 0.0 0.0 0.0314025916159153 0.5360870957374573 0.6801683902740479 -0.006713963113725185 -0.03021283447742462 -0.1197323426604271 0.0314025916159153 0.5585175156593323 0.6755932569503784 -0.008951950818300247 -0.024617865681648254 -0.12868429720401764 0.2958016042452096 -0.11302904452724886 0.4815723524268756 -1.2101543578391412 1.20980018195488 -1.20900602141404 0.0 0.0 0.0 0.0 0.0 0.0 1.977584914163855 -3.5988870642524833 1.7387395864933086 0.5558762376859476 -0.38348233508339413 0.43697395757620344 0.29580949455060795 -0.11303468883756387 0.4815525763646191 -1.2101397425155387 1.2098370768821618 -1.2089754610298096 0.0 0.0 0.0 0.0 0.0 0.0
2368.392 1.7214759154467055e-16 -1.5707963267948966 -1.5707963267948966 0.0 1.5707963267948966 0.0 0.0 0.0 0.0 0.0 0.0 0.0 0.0 0.0 0.0 0.0 0.0 0.0 -1.8327750199862536e-26 0.555172973447796 0.7573864583558305 0.07057808899065858 -9.380070923910231e-28 0.0 -2.1032924999364705e-25 6.394759450000002 6.3947594500000005 0.2913103000000004 -3.894025929994733e-27 0.0 -1.1746083394825746e-05 -1.5707600752459925 -1.5707715193377894 -1.6514454976856996e-05 1.5707556009292603 -7.230440248662262e-05 0.0 0.0 -0.0 0.0 0.0 0.0 0.0269165076315403 0.5495453476905823 0.6740682125091553 -0.004475975409150124 -0.027974845841526985 -0.12420831620693207 0.0314025916159153 0.5585175156593323 0.6755932569503784 -0.008951950818300247 -0.02685585245490074 -0.12868429720401764 0.29579549714656667 -0.11304155764330127 0.4815692705406164 -1.2101353094744745 1.2098088264175317 -1.2090884613524486 0.0 0.0 0.0 0.0 0.0 0.0 2.9261337104868805 -3.7819109317938575 2.0585455053889286 0.5766075665309109 -0.4277949597581113 0.44156201098815745 0.29580949455060795 -0.11303468883756387 0.4815525763646191 -1.2101397425155387 1.2098370768821618 -1.2089754610298096 0.0 0.0 0.0 0.0 0.0 0.0
2368.4 1.7214759154467055e-16 -1.5707963267948966 -1.5707963267948966 0.0 1.5707963267948966 0.0 0.0 0.0 0.0 0.0 0.0 0.0 0.0 0.0 0.0 0.0 0.0 0.0 -1.8327750199862536e-26 0.555172973447796 0.7573864583558305 0.07057808899065858 -9.380070923910231e-28 0.0 -2.1032924999364705e-25 6.394759450000002 6.3947594500000005 0.2913103000000004 -3.894025929994733e-27 0.0 -2.366701234990387e-05 -1.5707481543170374 -1.5707953611956995 -2.8912221090138246e-05 1.570719599723816 -3.5587941304981996e-05 0.0 0.0 -0.0 0.0 0.0 0.0 0.0336456336081028 0.5742188096046448 0.6679680347442627 -0.0055949692614376545 -0.019022895023226738 -0.12308932095766068 0.0291595496237278 0.5585175156593323 0.6755932569503784 -0.008951950818300247 -0.02349887043237686 -0.12644630670547485 0.29579331747150694 -0.11304802519584319 0.48156472789473437 -1.2101035438069077 1.2098793432394477 -1.2090851612573261 0.0 0.0 0.0 0.0 0.0 0.0 4.466150166721914 -4.8075008888131485 2.302752634162309 0.5714316550455659 -0.5442949108046545 0.4842178161317822 0.29580949455060795 -0.11303468883756387 0.4815525763646191 -1.2101397425155387 1.2098370768821618 -1.2089754610298096 0.0 0.0 0.0 0.0 0.0 0.0
