Fleaurent/UniversalRobot/csv/robot_movej_Trapez.csv
timestamp target_q_0 target_q_1 target_q_2 target_q_3 target_q_4 target_q_5 target_qd_0 target_qd_1 target_qd_2 target_qd_3 target_qd_4 target_qd_5 target_qdd_0 target_qdd_1 target_qdd_2 target_qdd_3 target_qdd_4 target_qdd_5 target_current_0 target_current_1 target_current_2 target_current_3 target_current_4 target_current_5 target_moment_0 target_moment_1 target_moment_2 target_moment_3 target_moment_4 target_moment_5 actual_q_0 actual_q_1 actual_q_2 actual_q_3 actual_q_4 actual_q_5 actual_qd_0 actual_qd_1 actual_qd_2 actual_qd_3 actual_qd_4 actual_qd_5 actual_current_0 actual_current_1 actual_current_2 actual_current_3 actual_current_4 actual_current_5 joint_control_output_0 joint_control_output_1 joint_control_output_2 joint_control_output_3 joint_control_output_4 joint_control_output_5 actual_TCP_pose_0 actual_TCP_pose_1 actual_TCP_pose_2 actual_TCP_pose_3 actual_TCP_pose_4 actual_TCP_pose_5 actual_TCP_speed_0 actual_TCP_speed_1 actual_TCP_speed_2 actual_TCP_speed_3 actual_TCP_speed_4 actual_TCP_speed_5 actual_TCP_force_0 actual_TCP_force_1 actual_TCP_force_2 actual_TCP_force_3 actual_TCP_force_4 actual_TCP_force_5 target_TCP_pose_0 target_TCP_pose_1 target_TCP_pose_2 target_TCP_pose_3 target_TCP_pose_4 target_TCP_pose_5 target_TCP_speed_0 target_TCP_speed_1 target_TCP_speed_2 target_TCP_speed_3 target_TCP_speed_4 target_TCP_speed_5
2336.352 0.0 -1.5707963267948966 -1.5707963267948966 0.0 1.5707963267948966 0.0 0.0 0.0 0.0 0.0 0.0 0.0 0.0 0.0 0.0 0.0 0.0 0.0 -1.8327750199862536e-26 0.555172973447796 0.7573864583558305 0.07057808899065858 -9.380070923910231e-28 0.0 -2.1032924999364705e-25 6.394759450000002 6.3947594500000005 0.2913103000000004 -3.894025929994733e-27 0.0 0.0 -1.5707481543170374 -1.5707476774798792 -1.6514454976856996e-05 1.5707435607910156 0.0 0.0 0.0 -0.0 0.0 0.0 0.0 0.0448608435690403 0.5764618515968323 0.6938937306404114 -0.006713963113725185 -0.024617865681648254 -0.1376362442970276 0.0403747595846653 0.5607605576515198 0.6832184791564941 -0.008951950818300247 -0.02685585245490074 -0.12980328500270844 0.29579085091124446 -0.1130391061889815 0.48157984344490823 -1.2100554928490874 1.2098170085203532 -1.2090524418059667 0.0 0.0 0.0 0.0 0.0 0.0 3.5777503343068378 -5.135554175158596 1.125239260435297 0.6389608560432325 -0.5706217588841256 0.5373984368027893 0.29580949455060795 -0.11303468883756389 0.4815525763646191 -1.210139742515539 1.2098370768821622 -1.20897546102981 0.0 0.0 0.0 0.0 0.0 0.0
2336.3599999999997 0.0 -1.5707963267948966 -1.5707963267948966 0.0 1.5707963267948966 0.0 0.0 0.0 0.0 0.0 0.0 0.0 0.0 0.0 0.0 0.0 0.0 0.0 -1.8327750199862536e-26 0.555172973447796 0.7573864583558305 0.07057808899065858 -9.380070923910231e-28 0.0 -2.1032924999364705e-25 6.394759450000002 6.3947594500000005 0.2913103000000004 -3.894025929994733e-27 0.0 -2.366701234990387e-05 -1.5707362333880823 -1.5708192030536097 -2.8912221090138246e-05 1.5707316398620605 -3.5587941304981996e-05 0.0 0.0 -0.0 0.0 0.0 0.0 0.0426178015768528 0.5787048935890198 0.6893185973167419 -0.0055949692614376545 -0.024617865681648254 -0.1365172564983368 0.0403747595846653 0.5607605576515198 0.6832184791564941 -0.008951950818300247 -0.02685585245490074 -0.13204127550125122 0.29579143186800944 -0.11304701060807114 0.481561204876552 -1.210118069654505 1.2098791873626837 -1.2090706184614841 0.0 0.0 0.0 0.0 0.0 0.0 3.8739434669668196 -5.15695480742945 1.3527790349750437 0.6337897519146549 -0.5719867041639324 0.5390808034859697 0.29580949455060795 -0.11303468883756389 0.4815525763646191 -1.210139742515539 1.2098370768821622 -1.20897546102981 0.0 0.0 0.0 0.0 0.0 0.0
2336.368 0.0 -1.5707963267948966 -1.5707963267948966 0.0 1.5707963267948966 0.0 0.0 0.0 0.0 0.0 0.0 0.0 0.0 0.0 0.0 0.0 0.0 0.0 -1.8327750199862536e-26 0.555172973447796 0.7573864583558305 0.07057808899065858 -9.380070923910231e-28 0.0 -2.1032924999364705e-25 6.394759450000002 6.3947594500000005 0.2913103000000004 -3.894025929994733e-27 0.0 -3.5587941304981996e-05 -1.5707243124591272 -1.5707715193377894 -1.6514454976856996e-05 1.5707556009292603 -8.422533144170075e-05 0.0 0.0 -0.0 0.0 0.0 0.0 0.0403747595846653 0.5517883896827698 0.6740682125091553 -0.001118993852287531 -0.03021283447742462 -0.13316026329994202 0.0403747595846653 0.5607605576515198 0.6862685084342957 -0.008951950818300247 -0.02685585245490074 -0.13092228770256042 0.295781012656016 -0.11304862217917656 0.4815798453915594 -1.2101064557771906 1.2097944580676832 -1.2091317408747209 0.0 0.0 0.0 0.0 0.0 0.0 3.0424394004311206 -4.704079641695866 2.1279753109966397 0.6181928375671443 -0.41652942005197485 0.5279306306099163 0.29580949455060795 -0.11303468883756389 0.4815525763646191 -1.210139742515539 1.2098370768821622 -1.20897546102981 0.0 0.0 0.0 0.0 0.0 0.0
2336.3759999999997 0.0 -1.5707963267948966 -1.5707963267948966 0.0 1.5707963267948966 0.0 0.0 0.0 0.0 0.0 0.0 0.0 0.0 0.0 0.0 0.0 0.0 0.0 -1.8327750199862536e-26 0.555172973447796 0.7573864583558305 0.07057808899065858 -9.380070923910231e-28 0.0 -2.1032924999364705e-25 6.394759450000002 6.3947594500000005 0.2913103000000004 -3.894025929994733e-27 0.0 -1.1746083394825746e-05 -1.5707481543170374 -1.5707715193377894 -5.2754079000294496e-05 1.5706956386566162 -4.7985707418263246e-05 0.0 0.0 -0.0 0.0 0.0 0.0 0.0381317175924778 0.5809479355812073 0.681693434715271 -0.008951950818300247 -0.02685585245490074 -0.12532731890678406 0.0403747595846653 0.5607605576515198 0.6847434639930725 -0.008951950818300247 -0.02685585245490074 -0.12868429720401764 0.2957946548048896 -0.11304649835356283 0.4815698131338354 -1.2101069307949939 1.2098824053783528 -1.2091031867534403 0.0 0.0 0.0 0.0 0.0 0.0 4.289043524660237 -5.154961054956575 1.6195582430934998 0.5818628744162492 -0.6009831797886217 0.5493066346254872 0.29580949455060795 -0.11303468883756389 0.4815525763646191 -1.210139742515539 1.2098370768821622 -1.20897546102981 0.0 0.0 0.0 0.0 0.0 0.0
2336.384 0.0 -1.5707963267948966 -1.5707963267948966 0.0 1.5707963267948966 0.0 0.0 0.0 0.0 0.0 0.0 0.0 0.0 0.0 0.0 0.0 0.0 0.0 -1.8327750199862536e-26 0.555172973447796 0.7573864583558305 0.07057808899065858 -9.380070923910231e-28 0.0 -2.1032924999364705e-25 6.394759450000002 6.3947594500000005 0.2913103000000004 -3.894025929994733e-27 0.0 -1.1746083394825746e-05 -1.5707243124591272 -1.5707715193377894 -4.593526021778871e-06 1.57077956199646 -4.7985707418263246e-05 0.0 0.0 -0.0 0.0 0.0 0.0 0.0426178015768528 0.5876770615577698 0.6954187750816345 -0.006713963113725185 -0.01678490824997425 -0.13092228770256042 0.0403747595846653 0.5630035996437073 0.681693434715271 -0.006713963113725185 -0.02685585245490074 -0.13092228770256042 0.2957826925665538 -0.11303959739502649 0.4815808263012264 -1.2100935876774837 1.209767613673941 -1.209075526231437 0.0 0.0 0.0 0.0 0.0 0.0 4.111978238153027 -5.1125368261376325 1.058123023658729 0.6077820182082802 -0.6217377026429646 0.49901902886574157 0.29580949455060795 -0.11303468883756389 0.4815525763646191 -1.210139742515539 1.2098370768821622 -1.20897546102981 0.0 0.0 0.0 0.0 0.0 0.0
2336.392 0.0 -1.5707963267948966 -1.5707963267948966 0.0 1.5707963267948966 0.0 0.0 0.0 0.0 0.0 0.0 0.0 0.0 0.0 0.0 0.0 0.0 0.0 -1.8327750199862536e-26 0.555172973447796 0.7573864583558305 0.07057808899065858 -9.380070923910231e-28 0.0 -2.1032924999364705e-25 6.394759450000002 6.3947594500000005 0.2913103000000004 -3.894025929994733e-27 0.0 -2.366701234990387e-05 -1.5707362333880823 -1.5707476774798792 -5.2754079000294496e-05 1.5707316398620605 -3.5587941304981996e-05 0.0 0.0 -0.0 0.0 0.0 0.0 0.0448608435690403 0.5719757676124573 0.6862685084342957 -0.011189938522875309 -0.03245082125067711 -0.1365172564983368 0.0403747595846653 0.5607605576515198 0.681693434715271 -0.007832957431674004 -0.027974845841526985 -0.13204127550125122 0.29578733793198897 -0.11304709072062968 0.48158038499284384 -1.210082791951713 1.2098442883691463 -1.209093314858194 0.0 0.0 0.0 0.0 0.0 0.0 3.6359970841246136 -5.337333729024693 1.3664329044000068 0.6338122555969705 -0.5764932293323706 0.5904510405230342 0.29580949455060795 -0.11303468883756389 0.4815525763646191 -1.210139742515539 1.2098370768821622 -1.20897546102981 0.0 0.0 0.0 0.0 0.0 0.0
2336.4 0.0 -1.5707963267948966 -1.5707963267948966 0.0 1.5707963267948966 0.0 0.0 0.0 0.0 0.0 0.0 0.0 0.0 0.0 0.0 0.0 0.0 0.0 -1.8327750199862536e-26 0.555172973447796 0.7573864583558305 0.07057808899065858 -9.380070923910231e-28 0.0 -2.1032924999364705e-25 6.394759450000002 6.3947594500000005 0.2913103000000004 -3.894025929994733e-27 0.0 -2.366701234990387e-05 -1.5707481543170374 -1.5707595984088343 -1.6514454976856996e-05 1.5707075595855713 -3.5587941304981996e-05 0.0 0.0 -0.0 0.0 0.0 0.0 0.0448608435690403 0.5719757676124573 0.681693434715271 -0.007832957431674004 -0.022379877045750618 -0.1376362442970276 0.0403747595846653 0.5607605576515198 0.6832184791564941 -0.007832957431674004 -0.027974845841526985 -0.13092228770256042 0.2957891935133209 -0.11304905810120215 0.48157632044597354 -1.2100622890404618 1.2098528719677344 -1.2091168946839708 0.0 0.0 0.0 0.0 0.0 0.0 3.813482402633968 -5.21161774181393 1.6423934893227305 0.6389320543145959 -0.5533580749113665 0.5332038124367828 0.29580949455060795 -0.11303468883756389 0.4815525763646191 -1.210139742515539 1.2098370768821622 -1.20897546102981 0.0 0.0 0.0 0.0 0.0 0.0
2336.408 0.0 -1.5707963267948966 -1.5707963267948966 0.0 1.5707963267948966 0.0 0.0 0.0 0.0 0.0 0.0 0.0 0.0 0.0 0.0 0.0 0.0 0.0 -1.8327750199862536e-26 0.555172973447796 0.7573864583558305 0.07057808899065858 -9.380070923910231e-28 0.0 -2.1032924999364705e-25 6.394759450000002 6.3947594500000005 0.2913103000000004 -3.894025929994733e-27 0.0 1.1984225238848012e-05 -1.5707243124591272 -1.5707715193377894 -2.8912221090138246e-05 1.5707556009292603 -2.366701234990387e-05 0.0 0.0 -0.0 0.0 0.0 0.0 0.0403747595846653 0.5450592637062073 0.6938937306404114 -0.007832957431674004 -0.027974845841526985 -0.12197033315896988 0.0403747595846653 0.5607605576515198 0.6877935528755188 -0.007832957431674004 -0.027974845841526985 -0.12868429720401764 0.2957874485675882 -0.1130345504383327 0.4815788246701706 -1.21009347321613 1.2097971783499102 -1.209046276753988 0.0 0.0 0.0 0.0 0.0 0.0 1.918370575583789 -4.060040009749012 1.1031249527958424 0.5662460187353806 -0.43595853672959933 0.4645634928376819 0.29580949455060795 -0.11303468883756389 0.4815525763646191 -1.210139742515539 1.2098370768821622 -1.20897546102981 0.0 0.0 0.0 0.0 0.0 0.0
2336.4159999999997 0.0 -1.5707963267948966 -1.5707963267948966 0.0 1.5707963267948966 0.0 0.0 0.0 0.0 0.0 0.0 0.0 0.0 0.0 0.0 0.0 0.0 0.0 -1.8327750199862536e-26 0.555172973447796 0.7573864583558305 0.07057808899065858 -9.380070923910231e-28 0.0 -2.1032924999364705e-25 6.394759450000002 6.3947594500000005 0.2913103000000004 -3.894025929994733e-27 0.0 -1.1746083394825746e-05 -1.5707362333880823 -1.5707715193377894 -4.593526021778871e-06 1.5707435607910156 -4.7985707418263246e-05 0.0 0.0 -0.0 0.0 0.0 0.0 0.0426178015768528 0.5742188096046448 0.6938937306404114 -0.002237987704575062 -0.03245082125067711 -0.12980328500270844 0.0403747595846653 0.5607605576515198 0.6847434639930725 -0.011189938522875309 -0.03245082125067711 -0.13204127550125122 0.2957866189194448 -0.11304255822962078 0.4815773022224978 -1.210085337399401 1.2098029022559453 -1.209096377169305 0.0 0.0 0.0 0.0 0.0 0.0 3.459519035641676 -5.108684848964959 1.2228906557314536 0.6026518858443463 -0.5318113667042296 0.5716432216904296 0.29580949455060795 -0.11303468883756389 0.4815525763646191 -1.210139742515539 1.2098370768821622 -1.20897546102981 0.0 0.0 0.0 0.0 0.0 0.0
2336.424 0.0 -1.5707963267948966 -1.5707963267948966 0.0 1.5707963267948966 0.0 0.0 0.0 0.0 0.0 0.0 0.0 0.0 0.0 0.0 0.0 0.0 0.0 -1.8327750199862536e-26 0.555172973447796 0.7573864583558305 0.07057808899065858 -9.380070923910231e-28 0.0 -2.1032924999364705e-25 6.394759450000002 6.3947594500000005 0.2913103000000004 -3.894025929994733e-27 0.0 -5.990663637334137e-05 -1.5707481543170374 -1.5707834402667444 -5.2754079000294496e-05 1.57077956199646 -7.230440248662262e-05 0.0 0.0 -0.0 0.0 0.0 0.0 0.0515899695456028 0.5719757676124573 0.6771183013916016 -0.008951950818300247 -0.03245082125067711 -0.11749435216188431 0.0403747595846653 0.5607605576515198 0.6847434639930725 -0.008951950818300247 -0.02909383922815323 -0.13204127550125122 0.295790240118131 -0.11305381852171277 0.4815662873661484 -1.210150588738879 1.2098533013958583 -1.2090890847366034 0.0 0.0 0.0 0.0 0.0 0.0 3.9899051915270713 -5.9302690255756865 1.8195489405188272 0.5456476912119155 -0.5590501735300235 0.6392320157860005 0.29580949455060795 -0.11303468883756389 0.4815525763646191 -1.210139742515539 1.2098370768821622 -1.20897546102981 0.0 0.0 0.0 0.0 0.0 0.0
2336.432 0.0 -1.5707963267948966 -1.5707963267948966 0.0 1.5707963267948966 0.0 0.0 0.0 0.0 0.0 0.0 0.0 0.0 0.0 0.0 0.0 0.0 0.0 -1.8327750199862536e-26 0.555172973447796 0.7573864583558305 0.07057808899065858 -9.380070923910231e-28 0.0 -2.1032924999364705e-25 6.394759450000002 6.3947594500000005 0.2913103000000004 -3.894025929994733e-27 0.0 -2.366701234990387e-05 -1.5707724730121058 -1.5707834402667444 -1.6514454976856996e-05 1.5707435607910156 -5.990663637334137e-05 0.0 0.0 -0.0 0.0 0.0 0.0 0.0381317175924778 0.5719757676124573 0.6923686861991882 -0.001118993852287531 -0.02349887043237686 -0.1353982537984848 0.0403747595846653 0.5607605576515198 0.6847434639930725 -0.006713963113725185 -0.027974845841526985 -0.12868429720401764 0.29579925666543977 -0.11304605755123544 0.4815620809049323 -1.2101327838555904 1.2098502043960426 -1.2090854303138794 0.0 0.0 0.0 0.0 0.0 0.0 3.4006891682581872 -4.611448294773158 1.3159138740189265 0.6285564488402067 -0.5139090862933999 0.48898653490708227 0.29580949455060795 -0.11303468883756389 0.4815525763646191 -1.210139742515539 1.2098370768821622 -1.20897546102981 0.0 0.0 0.0 0.0 0.0 0.0
2336.44 0.0 -1.5707963267948966 -1.5707963267948966 0.0 1.5707963267948966 0.0 0.0 0.0 0.0 0.0 0.0 0.0 0.0 0.0 0.0 0.0 0.0 0.0 -1.8327750199862536e-26 0.555172973447796 0.7573864583558305 0.07057808899065858 -9.380070923910231e-28 0.0 -2.1032924999364705e-25 6.394759450000002 6.3947594500000005 0.2913103000000004 -3.894025929994733e-27 0.0 -2.366701234990387e-05 -1.5707724730121058 -1.5707715193377894 -4.593526021778871e-06 1.5707435607910156 -2.366701234990387e-05 0.0 0.0 -0.0 0.0 0.0 0.0 0.0426178015768528 0.5540314316749573 0.7015189528465271 -0.012308932840824127 -0.027974845841526985 -0.1197323426604271 0.0403747595846653 0.5630035996437073 0.6847434639930725 -0.011189938522875309 -0.027974845841526985 -0.13092228770256042 0.29579721770749906 -0.11304607171313065 0.48156658626519866 -1.2100884913034946 1.2098498420872583 -1.2090700701145864 0.0 0.0 0.0 0.0 0.0 0.0 2.0966549346226198 -4.2894707574322455 0.6668431028507038 0.555863237894785 -0.507838555781611 0.4834303965121987 0.29580949455060795 -0.11303468883756389 0.4815525763646191 -1.210139742515539 1.2098370768821622 -1.20897546102981 0.0 0.0 0.0 0.0 0.0 0.0
2336.448 0.0 -1.5707963267948966 -1.5707963267948966 0.0 1.5707963267948966 0.0 0.0 0.0 0.0 0.0 0.0 0.0 0.0 0.0 0.0 0.0 0.0 0.0 -1.8327750199862536e-26 0.555172973447796 0.7573864583558305 0.07057808899065858 -9.380070923910231e-28 0.0 -2.1032924999364705e-25 6.394759450000002 6.3947594500000005 0.2913103000000004 -3.894025929994733e-27 0.0 -5.990663637334137e-05 -1.570808235798971 -1.5707595984088343 -4.593526021778871e-06 1.5707075595855713 -4.7985707418263246e-05 0.0 0.0 -0.0 0.0 0.0 0.0 0.0471038855612278 0.5697327256202698 0.6862685084342957 -0.011189938522875309 -0.03021283447742462 -0.1353982537984848 0.0403747595846653 0.5585175156593323 0.6847434639930725 -0.008951950818300247 -0.02909383922815323 -0.13204127550125122 0.29580388451998896 -0.11305975778107344 0.4815595355687236 -1.210089782292285 1.2099091206836334 -1.2091298564062247 0.0 0.0 0.0 0.0 0.0 0.0 3.517020050117368 -5.3603828482091105 1.3657385024365152 0.6286009444858506 -0.5664114609104471 0.5819015436924877 0.29580949455060795 -0.11303468883756389 0.4815525763646191 -1.210139742515539 1.2098370768821622 -1.20897546102981 0.0 0.0 0.0 0.0 0.0 0.0
2336.4559999999997 0.0 -1.5707963267948966 -1.5707963267948966 0.0 1.5707963267948966 0.0 0.0 0.0 0.0 0.0 0.0 0.0 0.0 0.0 0.0 0.0 0.0 0.0 -1.8327750199862536e-26 0.555172973447796 0.7573864583558305 0.07057808899065858 -9.380070923910231e-28 0.0 -2.1032924999364705e-25 6.394759450000002 6.3947594500000005 0.2913103000000004 -3.894025929994733e-27 0.0 -2.366701234990387e-05 -1.5707481543170374 -1.5707715193377894 -2.8912221090138246e-05 1.570719599723816 -9.614626039677887e-05 0.0 0.0 -0.0 0.0 0.0 0.0 0.0448608435690403 0.5585175156593323 0.681693434715271 -0.01007094420492649 -0.024617865681648254 -0.13092228770256042 0.0403747595846653 0.5607605576515198 0.681693434715271 -0.008951950818300247 -0.02909383922815323 -0.13204127550125122 0.2957912745305353 -0.11304805230491487 0.4815717756039103 -1.2101305497708001 1.2098332080721688 -1.209141065478119 0.0 0.0 0.0 0.0 0.0 0.0 3.1020185929883457 -4.883733690343458 1.5942515153645036 0.6077953907549788 -0.5069398943661405 0.5166628499726293 0.29580949455060795 -0.11303468883756389 0.4815525763646191 -1.210139742515539 1.2098370768821622 -1.20897546102981 0.0 0.0 0.0 0.0 0.0 0.0
2336.464 0.0 -1.5707963267948966 -1.5707963267948966 0.0 1.5707963267948966 0.0 0.0 0.0 0.0 0.0 0.0 0.0 0.0 0.0 0.0 0.0 0.0 0.0 -1.8327750199862536e-26 0.555172973447796 0.7573864583558305 0.07057808899065858 -9.380070923910231e-28 0.0 -2.1032924999364705e-25 6.394759450000002 6.3947594500000005 0.2913103000000004 -3.894025929994733e-27 0.0 0.0 -1.5707243124591272 -1.5707953611956995 -4.593526021778871e-06 1.570719599723816 -7.230440248662262e-05 0.0 0.0 -0.0 0.0 0.0 0.0 0.0448608435690403 0.5787048935890198 0.6877935528755188 -0.01007094420492649 -0.03245082125067711 -0.1197323426604271 0.0403747595846653 0.5607605576515198 0.6847434639930725 -0.004475975409150124 -0.02909383922815323 -0.12980328500270844 0.2957860577063517 -0.11304103435719615 0.48157378004367757 -1.2101063007911759 1.2098091059123437 -1.209117591873873 0.0 0.0 0.0 0.0 0.0 0.0 3.9330310733619793 -5.494521021014282 1.3230593205399699 0.5559527871410365 -0.6002145362801747 0.6033830084878589 0.29580949455060795 -0.11303468883756389 0.4815525763646191 -1.210139742515539 1.2098370768821622 -1.20897546102981 0.0 0.0 0.0 0.0 0.0 0.0
2336.4719999999998 0.0 -1.5707963267948966 -1.5707963267948966 0.0 1.5707963267948966 0.0 0.0 0.0 0.0 0.0 0.0 0.0 0.0 0.0 0.0 0.0 0.0 0.0 -1.8327750199862536e-26 0.555172973447796 0.7573864583558305 0.07057808899065858 -9.380070923910231e-28 0.0 -2.1032924999364705e-25 6.394759450000002 6.3947594500000005 0.2913103000000004 -3.894025929994733e-27 0.0 1.1984225238848012e-05 -1.5707243124591272 -1.5707834402667444 -1.6514454976856996e-05 1.57077956199646 -5.990663637334137e-05 0.0 0.0 -0.0 0.0 0.0 0.0 0.0358886756002903 0.5944061875343323 0.6771183013916016 -0.0055949692614376545 -0.02909383922815323 -0.1353982537984848 0.0403747595846653 0.5607605576515198 0.681693434715271 -0.007832957431674004 -0.02909383922815323 -0.12868429720401764 0.2957874141220465 -0.11303256411416589 0.4815763210390546 -1.2101311854206036 1.209761995849922 -1.2090555202635187 0.0 0.0 0.0 0.0 0.0 0.0 5.178232980319674 -5.539359039771494 1.895348085206418 0.6286595587804258 -0.6386552366522978 0.5913830832462106 0.29580949455060795 -0.11303468883756389 0.4815525763646191 -1.210139742515539 1.2098370768821622 -1.20897546102981 0.0 0.0 0.0 0.0 0.0 0.0
2336.48 0.0 -1.5707963267948966 -1.5707963267948966 0.0 1.5707963267948966 0.0 0.0 0.0 0.0 0.0 0.0 0.0 0.0 0.0 0.0 0.0 0.0 0.0 -1.8327750199862536e-26 0.555172973447796 0.7573864583558305 0.07057808899065858 -9.380070923910231e-28 0.0 -2.1032924999364705e-25 6.394759450000002 6.3947594500000005 0.2913103000000004 -3.894025929994733e-27 0.0 1.1984225238848012e-05 -1.5707481543170374 -1.570723835621969 -4.0356312887013246e-05 1.5707675218582153 -5.990663637334137e-05 0.0 0.0 -0.0 0.0 0.0 0.0 0.0381317175924778 0.5899201035499573 0.6862685084342957 -0.008951950818300247 -0.031331829726696014 -0.12308932095766068 0.0403747595846653 0.5585175156593323 0.6832184791564941 -0.007832957431674004 -0.03021283447742462 -0.12980328500270844 0.29579219973211807 -0.11303361384888001 0.48158492760190236 -1.2101165904860203 1.2097622389846474 -1.2090701109393003 0.0 0.0 0.0 0.0 0.0 0.0 4.5861517297976295 -5.409943885940771 1.4164721061573564 0.5715409512434827 -0.6430862215151586 0.5911879593622312 0.29580949455060795 -0.11303468883756389 0.4815525763646191 -1.210139742515539 1.2098370768821622 -1.20897546102981 0.0 0.0 0.0 0.0 0.0 0.0
2336.488 0.0 -1.5707963267948966 -1.5707963267948966 0.0 1.5707963267948966 0.0 0.0 0.0 0.0 0.0 0.0 0.0 0.0 0.0 0.0 0.0 0.0 0.0 -1.8327750199862536e-26 0.555172973447796 0.7573864583558305 0.07057808899065858 -9.380070923910231e-28 0.0 -2.1032924999364705e-25 6.394759450000002 6.3947594500000005 0.2913103000000004 -3.894025929994733e-27 0.0 -8.374849428349762e-05 -1.5707481543170374 -1.570735279713766 -6.467500795537262e-05 1.57077956199646 -3.5587941304981996e-05 0.0 0.0 -0.0 0.0 0.0 0.0 0.0381317175924778 0.5899201035499573 0.6862685084342957 -0.0033569815568625927 -0.02909383922815323 -0.134279265999794 0.0403747595846653 0.5674896836280823 0.6847434639930725 -0.007832957431674004 -0.02909383922815323 -0.12980328500270844 0.29578443518182324 -0.11306092464488328 0.4815795422508721 -1.2100854596782193 1.209861705299787 -1.209096850354512 0.0 0.0 0.0 0.0 0.0 0.0 4.58552022022178 -5.361306601274353 1.5376596379886378 0.6234117674111882 -0.6072434986787135 0.5767059494093205 0.29580949455060795 -0.11303468883756389 0.4815525763646191 -1.210139742515539 1.2098370768821622 -1.20897546102981 0.0 0.0 0.0 0.0 0.0 0.0
2336.496 0.0 -1.5707963267948966 -1.5707963267948966 0.0 1.5707963267948966 0.0 0.0 0.0 0.0 0.0 0.0 0.0 0.0 0.0 0.0 0.0 0.0 0.0 -1.8327750199862536e-26 0.555172973447796 0.7573864583558305 0.07057808899065858 -9.380070923910231e-28 0.0 -2.1032924999364705e-25 6.394759450000002 6.3947594500000005 0.2913103000000004 -3.894025929994733e-27 0.0 -1.1746083394825746e-05 -1.5707481543170374 -1.5707834402667444 -1.6514454976856996e-05 1.5707556009292603 -7.230440248662262e-05 0.0 0.0 -0.0 0.0 0.0 0.0 0.0471038855612278 0.5405731797218323 0.6908436417579651 -0.0033569815568625927 -0.02685585245490074 -0.12644630670547485 0.0403747595846653 0.5562744736671448 0.6847434639930725 -0.007832957431674004 -0.02909383922815323 -0.12980328500270844 0.29579258893013644 -0.1130415482549841 0.48156927170182195 -1.2101353303293374 1.2098088006028822 -1.2090884478678499 0.0 0.0 0.0 0.0 0.0 0.0 1.7983699681511194 -4.377650998712353 1.3339621639275152 0.5870365724639045 -0.3860123823570547 0.48549910646199934 0.29580949455060795 -0.11303468883756389 0.4815525763646191 -1.210139742515539 1.2098370768821622 -1.20897546102981 0.0 0.0 0.0 0.0 0.0 0.0
2336.504 0.0 -1.5707963267948966 -1.5707963267948966 0.0 1.5707963267948966 0.0 0.0 0.0 0.0 0.0 0.0 0.0 0.0 0.0 0.0 0.0 0.0 0.0 -1.8327750199862536e-26 0.555172973447796 0.7573864583558305 0.07057808899065858 -9.380070923910231e-28 0.0 -2.1032924999364705e-25 6.394759450000002 6.3947594500000005 0.2913103000000004 -3.894025929994733e-27 0.0 -3.5587941304981996e-05 -1.5707243124591272 -1.5707476774798792 -2.8912221090138246e-05 1.5707556009292603 -4.7985707418263246e-05 0.0 0.0 -0.0 0.0 0.0 0.0 0.0426178015768528 0.5517883896827698 0.6847434639930725 -0.0055949692614376545 -0.025736859068274498 -0.12308932095766068 0.0403747595846653 0.5630035996437073 0.6862685084342957 -0.007832957431674004 -0.02909383922815323 -0.12980328500270844 0.29578002765735134 -0.11304864864479106 0.481585872282065 -1.2100712743425466 1.2098032472227132 -1.2091105233275181 0.0 0.0 0.0 0.0 0.0 0.0 2.6283881314385718 -4.522589844551158 1.5570382572974355 0.5714290957901594 -0.4488866846094353 0.4921915080541314 0.29580949455060795 -0.11303468883756389 0.4815525763646191 -1.210139742515539 1.2098370768821622 -1.20897546102981 0.0 0.0 0.0 0.0 0.0 0.0
2336.5119999999997 0.0 -1.5707963267948966 -1.5707963267948966 0.0 1.5707963267948966 0.0 0.0 0.0 0.0 0.0 0.0 0.0 0.0 0.0 0.0 0.0 0.0 0.0 -1.8327750199862536e-26 0.555172973447796 0.7573864583558305 0.07057808899065858 -9.380070923910231e-28 0.0 -2.1032924999364705e-25 6.394759450000002 6.3947594500000005 0.2913103000000004 -3.894025929994733e-27 0.0 0.0 -1.5707600752459925 -1.5707715193377894 -7.659593691045075e-05 1.5707316398620605 -3.5587941304981996e-05 0.0 0.0 -0.0 0.0 0.0 0.0 0.0403747595846653 0.5450592637062073 0.6847434639930725 -0.0055949692614376545 -0.02909383922815323 -0.1197323426604271 0.0403747595846653 0.5630035996437073 0.681693434715271 -0.007832957431674004 -0.03021283447742462 -0.13092228770256042 0.295801950890187 -0.11304005341691163 0.4815643242031227 -1.2101467415769391 1.209879399858837 -1.2090419641316137 0.0 0.0 0.0 0.0 0.0 0.0 2.2731894966417103 -4.2717470676421945 1.5576052445432422 0.5559118517122689 -0.4184593729586371 0.4871264270478038 0.29580949455060795 -0.11303468883756389 0.4815525763646191 -1.210139742515539 1.2098370768821622 -1.20897546102981 0.0 0.0 0.0 0.0 0.0 0.0
2336.52 0.0 -1.5707963267948966 -1.5707963267948966 0.0 1.5707963267948966 0.0 0.0 0.0 0.0 0.0 0.0 0.0 0.0 0.0 0.0 0.0 0.0 0.0 -1.8327750199862536e-26 0.555172973447796 0.7573864583558305 0.07057808899065858 -9.380070923910231e-28 0.0 -2.1032924999364705e-25 6.394759450000002 6.3947594500000005 0.2913103000000004 -3.894025929994733e-27 0.0 0.0 -1.5707839171039026 -1.5707476774798792 -1.6514454976856996e-05 1.5707675218582153 -2.366701234990387e-05 0.0 0.0 -0.0 0.0 0.0 0.0 0.0426178015768528 0.5697327256202698 0.6786433458328247 -0.014546919614076614 -0.02685585245490074 -0.12532731890678406 0.0403747595846653 0.5607605576515198 0.6847434639930725 -0.007832957431674004 -0.02909383922815323 -0.12980328500270844 0.295802642489797 -0.11303712011281421 0.48156926784509535 -1.210110628856467 1.2098144550145775 -1.2090352672264508 0.0 0.0 0.0 0.0 0.0 0.0 3.813768846960668 -5.173711568552 1.6326774837114848 0.5819024961823122 -0.585227050059503 0.5509355913443771 0.29580949455060795 -0.11303468883756389 0.4815525763646191 -1.210139742515539 1.2098370768821622 -1.20897546102981 0.0 0.0 0.0 0.0 0.0 0.0
2336.528 0.0 -1.5707963267948966 -1.5707963267948966 0.0 1.5707963267948966 0.0 0.0 0.0 0.0 0.0 0.0 0.0 0.0 0.0 0.0 0.0 0.0 0.0 -1.8327750199862536e-26 0.555172973447796 0.7573864583558305 0.07057808899065858 -9.380070923910231e-28 0.0 -2.1032924999364705e-25 6.394759450000002 6.3947594500000005 0.2913103000000004 -3.894025929994733e-27 0.0 -2.366701234990387e-05 -1.5707600752459925 -1.5707834402667444 -1.6514454976856996e-05 1.5707556009292603 -2.366701234990387e-05 0.0 0.0 -0.0 0.0 0.0 0.0 0.0426178015768528 0.5697327256202698 0.699993908405304 -0.01007094420492649 -0.041402772068977356 -0.13204127550125122 0.0403747595846653 0.5630035996437073 0.6877935528755188 -0.007832957431674004 -0.027974845841526985 -0.12756529450416565 0.29579517102668446 -0.11304507023786735 0.48156574669248425 -1.2101026414624547 1.209849366193452 -1.209055770856041 0.0 0.0 0.0 0.0 0.0 0.0 2.985621629218431 -5.052823168495843 0.78203466044028 0.6130943553584673 -0.5639326130815484 0.6087263716372199 0.29580949455060795 -0.11303468883756389 0.4815525763646191 -1.210139742515539 1.2098370768821622 -1.20897546102981 0.0 0.0 0.0 0.0 0.0 0.0
2336.536 0.0 -1.5707963267948966 -1.5707963267948966 0.0 1.5707963267948966 0.0 0.0 0.0 0.0 0.0 0.0 0.0 0.0 0.0 0.0 0.0 0.0 0.0 -1.8327750199862536e-26 0.555172973447796 0.7573864583558305 0.07057808899065858 -9.380070923910231e-28 0.0 -2.1032924999364705e-25 6.394759450000002 6.3947594500000005 0.2913103000000004 -3.894025929994733e-27 0.0 -3.5587941304981996e-05 -1.570796314870016 -1.570735279713766 -4.593526021778871e-06 1.5707556009292603 -4.7985707418263246e-05 0.0 0.0 -0.0 0.0 0.0 0.0 0.0471038855612278 0.5517883896827698 0.6938937306404114 -0.004475975409150124 -0.041402772068977356 -0.12756529450416565 0.0403747595846653 0.5607605576515198 0.6847434639930725 -0.007832957431674004 -0.0335698164999485 -0.12868429720401764 0.2958006253666852 -0.11304863927160562 0.4815702482845499 -1.2100972672035524 1.2098292114943971 -1.2090937995950979 0.0 0.0 0.0 0.0 0.0 0.0 2.2728701486239826 -4.945946859151214 1.173661866437701 0.5923145401402881 -0.4449734079604065 0.5999822060796519 0.29580949455060795 -0.11303468883756389 0.4815525763646191 -1.210139742515539 1.2098370768821622 -1.20897546102981 0.0 0.0 0.0 0.0 0.0 0.0
2336.544 0.0 -1.5707963267948966 -1.5707963267948966 0.0 1.5707963267948966 0.0 0.0 0.0 0.0 0.0 0.0 0.0 0.0 0.0 0.0 0.0 0.0 0.0 -1.8327750199862536e-26 0.555172973447796 0.7573864583558305 0.07057808899065858 -9.380070923910231e-28 0.0 -2.1032924999364705e-25 6.394759450000002 6.3947594500000005 0.2913103000000004 -3.894025929994733e-27 0.0 1.1984225238848012e-05 -1.5707123915301722 -1.5707595984088343 -1.6514454976856996e-05 1.57077956199646 -3.5587941304981996e-05 0.0 0.0 -0.0 0.0 0.0 0.0 0.0448608435690403 0.5697327256202698 0.6908436417579651 -0.0033569815568625927 -0.025736859068274498 -0.11525636911392212 0.0403747595846653 0.5607605576515198 0.6847434639930725 -0.01007094420492649 -0.02685585245490074 -0.12980328500270844 0.29578144101839693 -0.11303259556732563 0.48158689349463624 -1.210086866941849 1.2097472580709774 -1.2090546027032714 0.0 0.0 0.0 0.0 0.0 0.0 3.340628087546889 -5.03466019703707 1.3340870477766695 0.5351512547577527 -0.5176431059500649 0.5343333819462656 0.29580949455060795 -0.11303468883756389 0.4815525763646191 -1.210139742515539 1.2098370768821622 -1.20897546102981 0.0 0.0 0.0 0.0 0.0 0.0
2336.5519999999997 0.0 -1.5707963267948966 -1.5707963267948966 0.0 1.5707963267948966 0.0 0.0 0.0 0.0 0.0 0.0 0.0 0.0 0.0 0.0 0.0 0.0 0.0 -1.8327750199862536e-26 0.555172973447796 0.7573864583558305 0.07057808899065858 -9.380070923910231e-28 0.0 -2.1032924999364705e-25 6.394759450000002 6.3947594500000005 0.2913103000000004 -3.894025929994733e-27 0.0 -2.366701234990387e-05 -1.5707481543170374 -1.5707715193377894 -4.593526021778871e-06 1.5707675218582153 -8.422533144170075e-05 0.0 0.0 -0.0 0.0 0.0 0.0 0.0403747595846653 0.5607605576515198 0.6893185973167419 -0.014546919614076614 -0.031331829726696014 -0.13092228770256042 0.0403747595846653 0.5607605576515198 0.6847434639930725 -0.008951950818300247 -0.03021283447742462 -0.12980328500270844 0.2957892034396503 -0.11304410673891555 0.4815737767434409 -1.210126525366761 1.2097856517456411 -1.2091085346576491 0.0 0.0 0.0 0.0 0.0 0.0 2.9255381528390236 -4.666433737300227 1.1596703961768002 0.6078155793198092 -0.5483995063837356 0.5300626436985726 0.29580949455060795 -0.11303468883756389 0.4815525763646191 -1.210139742515539 1.2098370768821622 -1.20897546102981 0.0 0.0 0.0 0.0 0.0 0.0
2336.56 0.0 -1.5707963267948966 -1.5707963267948966 0.0 1.5707963267948966 0.0 0.0 0.0 0.0 0.0 0.0 0.0 0.0 0.0 0.0 0.0 0.0 0.0 -1.8327750199862536e-26 0.555172973447796 0.7573864583558305 0.07057808899065858 -9.380070923910231e-28 0.0 -2.1032924999364705e-25 6.394759450000002 6.3947594500000005 0.2913103000000004 -3.894025929994733e-27 0.0 2.3968450477696024e-05 -1.5707481543170374 -1.5707715193377894 -4.0356312887013246e-05 1.5707675218582153 -3.5587941304981996e-05 0.0 0.0 -0.0 0.0 0.0 0.0 0.0426178015768528 0.5495453476905823 0.6862685084342957 -0.0033569815568625927 -0.02685585245490074 -0.13204127550125122 0.0403747595846653 0.5607605576515198 0.6847434639930725 -0.008951950818300247 -0.027974845841526985 -0.12868429720401764 0.29579764066895303 -0.1130300145876139 0.4815708322827278 -1.2101395710514653 1.209799874633454 -1.2090207284898304 0.0 0.0 0.0 0.0 0.0 0.0 2.450840351469707 -4.452321847840014 1.5376767551882813 0.6130207223989034 -0.42489696861386567 0.4916032625344653 0.29580949455060795 -0.11303468883756389 0.4815525763646191 -1.210139742515539 1.2098370768821622 -1.20897546102981 0.0 0.0 0.0 0.0 0.0 0.0
2336.5679999999998 0.0 -1.5707963267948966 -1.5707963267948966 0.0 1.5707963267948966 0.0 0.0 0.0 0.0 0.0 0.0 0.0 0.0 0.0 0.0 0.0 0.0 0.0 -1.8327750199862536e-26 0.555172973447796 0.7573864583558305 0.07057808899065858 -9.380070923910231e-28 0.0 -2.1032924999364705e-25 6.394759450000002 6.3947594500000005 0.2913103000000004 -3.894025929994733e-27 0.0 -2.366701234990387e-05 -1.5707600752459925 -1.5708072821246546 -4.0356312887013246e-05 1.5707075595855713 -9.614626039677887e-05 0.0 0.0 -0.0 0.0 0.0 0.0 0.0381317175924778 0.5450592637062073 0.6877935528755188 -0.007832957431674004 -0.02685585245490074 -0.12756529450416565 0.0403747595846653 0.5607605576515198 0.6847434639930725 -0.008951950818300247 -0.02685585245490074 -0.12868429720401764 0.2957992440372499 -0.11304899853671489 0.4815567369616961 -1.2101684945629168 1.2098854825876602 -1.2091218577658447 0.0 0.0 0.0 0.0 0.0 0.0 2.155030429010735 -4.025294365396463 1.3740805081065337 0.5921961893301829 -0.43385813365536313 0.45641305908669105 0.29580949455060795 -0.11303468883756389 0.4815525763646191 -1.210139742515539 1.2098370768821622 -1.20897546102981 0.0 0.0 0.0 0.0 0.0 0.0
2336.576 0.0 -1.5707963267948966 -1.5707963267948966 0.0 1.5707963267948966 0.0 0.0 0.0 0.0 0.0 0.0 0.0 0.0 0.0 0.0 0.0 0.0 0.0 -1.8327750199862536e-26 0.555172973447796 0.7573864583558305 0.07057808899065858 -9.380070923910231e-28 0.0 -2.1032924999364705e-25 6.394759450000002 6.3947594500000005 0.2913103000000004 -3.894025929994733e-27 0.0 1.1984225238848012e-05 -1.5707600752459925 -1.5707953611956995 -4.0356312887013246e-05 1.5707316398620605 -3.5587941304981996e-05 0.0 0.0 -0.0 0.0 0.0 0.0 0.0403747595846653 0.5383301377296448 0.699993908405304 -0.01342792622745037 -0.02685585245490074 -0.12756529450416565 0.0403747595846653 0.5607605576515198 0.6847434639930725 -0.008951950818300247 -0.02909383922815323 -0.12980328500270844 0.2958022551840555 -0.11303648322631699 0.4815602603145668 -1.210143324321589 1.209861386055899 -1.2090389827517811 0.0 0.0 0.0 0.0 0.0 0.0 1.3259840679341537 -3.721678813038292 0.7110891963730461 0.5921904319183191 -0.44354559903983637 0.4314931829709936 0.29580949455060795 -0.11303468883756389 0.4815525763646191 -1.210139742515539 1.2098370768821622 -1.20897546102981 0.0 0.0 0.0 0.0 0.0 0.0
2336.584 0.0 -1.5707963267948966 -1.5707963267948966 0.0 1.5707963267948966 0.0 0.0 0.0 0.0 0.0 0.0 0.0 0.0 0.0 0.0 0.0 0.0 0.0 -1.8327750199862536e-26 0.555172973447796 0.7573864583558305 0.07057808899065858 -9.380070923910231e-28 0.0 -2.1032924999364705e-25 6.394759450000002 6.3947594500000005 0.2913103000000004 -3.894025929994733e-27 0.0 -3.5587941304981996e-05 -1.5707362333880823 -1.5707715193377894 -4.0356312887013246e-05 1.57077956199646 -9.614626039677887e-05 0.0 0.0 -0.0 0.0 0.0 0.0 0.0381317175924778 0.5517883896827698 0.6923686861991882 -0.004475975409150124 -0.03245082125067711 -0.1365172564983368 0.0403747595846653 0.5607605576515198 0.6847434639930725 -0.004475975409150124 -0.031331829726696014 -0.12868429720401764 0.29578697991579217 -0.11304664350171821 0.4815743569855025 -1.2101529307224792 1.2097974706973018 -1.2091059267896314 0.0 0.0 0.0 0.0 0.0 0.0 2.333172712674487 -4.242010274678348 1.2435650622929901 0.6337660097871208 -0.44432926714501414 0.5003321246320427 0.29580949455060795 -0.11303468883756389 0.4815525763646191 -1.210139742515539 1.2098370768821622 -1.20897546102981 0.0 0.0 0.0 0.0 0.0 0.0
2336.592 0.0 -1.5707963267948966 -1.5707963267948966 0.0 1.5707963267948966 0.0 0.0 0.0 0.0 0.0 0.0 0.0 0.0 0.0 0.0 0.0 0.0 0.0 -1.8327750199862536e-26 0.555172973447796 0.7573864583558305 0.07057808899065858 -9.380070923910231e-28 0.0 -2.1032924999364705e-25 6.394759450000002 6.3947594500000005 0.2913103000000004 -3.894025929994733e-27 0.0 -3.5587941304981996e-05 -1.5707600752459925 -1.5707834402667444 1.9073486328125e-05 1.5707435607910156 -3.5587941304981996e-05 0.0 0.0 -0.0 0.0 0.0 0.0 0.0448608435690403 0.5630035996437073 0.6908436417579651 -0.006713963113725185 -0.027974845841526985 -0.12197033315896988 0.0403747595846653 0.5607605576515198 0.6847434639930725 -0.007832957431674004 -0.03021283447742462 -0.12868429720401764 0.2957907844780336 -0.11304958977023699 0.4815686770296501 -1.2100738678916354 1.2098351970138044 -1.2090990447538967 0.0 0.0 0.0 0.0 0.0 0.0 2.98453330959159 -4.894849905613451 1.2610230692591429 0.5662746752085347 -0.508839433672425 0.5332254245678497 0.29580949455060795 -0.11303468883756389 0.4815525763646191 -1.210139742515539 1.2098370768821622 -1.20897546102981 0.0 0.0 0.0 0.0 0.0 0.0
2336.6 0.0 -1.5707963267948966 -1.5707963267948966 0.0 1.5707963267948966 0.0 0.0 0.0 0.0 0.0 0.0 0.0 0.0 0.0 0.0 0.0 0.0 0.0 -1.8327750199862536e-26 0.555172973447796 0.7573864583558305 0.07057808899065858 -9.380070923910231e-28 0.0 -2.1032924999364705e-25 6.394759450000002 6.3947594500000005 0.2913103000000004 -3.894025929994733e-27 0.0 -1.1746083394825746e-05 -1.5707243124591272 -1.5707834402667444 -4.0356312887013246e-05 1.5707075595855713 -9.614626039677887e-05 0.0 0.0 -0.0 0.0 0.0 0.0 0.0403747595846653 0.5428162217140198 0.6786433458328247 -0.015665914863348007 -0.0335698164999485 -0.1365172564983368 0.0381317175924778 0.5607605576515198 0.681693434715271 -0.011189938522875309 -0.031331829726696014 -0.12868429720401764 0.29578675982565156 -0.11304551199545032 0.4815743597029097 -1.210130157213051 1.209832921531457 -1.2091413711395564 0.0 0.0 0.0 0.0 0.0 0.0 2.3906171384390316 -4.4320619842684685 1.6094008526843333 0.6337608285363117 -0.4708782980135092 0.5211934881301786 0.29580949455060795 -0.11303468883756389 0.4815525763646191 -1.210139742515539 1.2098370768821622 -1.20897546102981 0.0 0.0 0.0 0.0 0.0 0.0
2336.6079999999997 0.0 -1.5707963267948966 -1.5707963267948966 0.0 1.5707963267948966 0.0 0.0 0.0 0.0 0.0 0.0 0.0 0.0 0.0 0.0 0.0 0.0 0.0 -1.8327750199862536e-26 0.555172973447796 0.7573864583558305 0.07057808899065858 -9.380070923910231e-28 0.0 -2.1032924999364705e-25 6.394759450000002 6.3947594500000005 0.2913103000000004 -3.894025929994733e-27 0.0 0.0 -1.5707724730121058 -1.5707834402667444 -4.593526021778871e-06 1.5707556009292603 -7.230440248662262e-05 0.0 0.0 -0.0 0.0 0.0 0.0 0.0448608435690403 0.5248718857765198 0.6862685084342957 -0.0033569815568625927 -0.022379877045750618 -0.11749435216188431 0.0403747595846653 0.5585175156593323 0.6847434639930725 -0.006713963113725185 -0.027974845841526985 -0.12868429720401764 0.2958009156748381 -0.11303806585614862 0.48156306214471684 -1.2101500276896537 1.2098092560560998 -1.2090739201831024 0.0 0.0 0.0 0.0 0.0 0.0 1.1462117063202815 -3.7994423593592295 1.5382002399972439 0.5454569615203323 -0.31349311540575814 0.4170871719973261 0.29580949455060795 -0.11303468883756389 0.4815525763646191 -1.210139742515539 1.2098370768821622 -1.20897546102981 0.0 0.0 0.0 0.0 0.0 0.0
2336.616 0.0 -1.5707963267948966 -1.5707963267948966 0.0 1.5707963267948966 0.0 0.0 0.0 0.0 0.0 0.0 0.0 0.0 0.0 0.0 0.0 0.0 0.0 -1.8327750199862536e-26 0.555172973447796 0.7573864583558305 0.07057808899065858 -9.380070923910231e-28 0.0 -2.1032924999364705e-25 6.394759450000002 6.3947594500000005 0.2913103000000004 -3.894025929994733e-27 0.0 1.1984225238848012e-05 -1.5707123915301722 -1.5707715193377894 -5.2754079000294496e-05 1.5707316398620605 -7.230440248662262e-05 0.0 0.0 -0.0 0.0 0.0 0.0 0.0336456336081028 0.5742188096046448 0.6893185973167419 -0.008951950818300247 -0.03245082125067711 -0.11413737386465073 0.0358886756002903 0.5630035996437073 0.681693434715271 -0.007832957431674004 -0.027974845841526985 -0.12868429720401764 0.2957855515794466 -0.11303652682516221 0.48158038714195234 -1.2101267501943742 1.209800590957151 -1.2090940719475367 0.0 0.0 0.0 0.0 0.0 0.0 3.638489436527487 -4.662411682024039 1.2827360595459252 0.5299559860909477 -0.5731898174549582 0.5348724383213636 0.29580949455060795 -0.11303468883756389 0.4815525763646191 -1.210139742515539 1.2098370768821622 -1.20897546102981 0.0 0.0 0.0 0.0 0.0 0.0
2336.624 0.0 -1.5707963267948966 -1.5707963267948966 0.0 1.5707963267948966 0.0 0.0 0.0 0.0 0.0 0.0 0.0 0.0 0.0 0.0 0.0 0.0 0.0 -1.8327750199862536e-26 0.555172973447796 0.7573864583558305 0.07057808899065858 -9.380070923910231e-28 0.0 -2.1032924999364705e-25 6.394759450000002 6.3947594500000005 0.2913103000000004 -3.894025929994733e-27 0.0 0.0 -1.5707362333880823 -1.570735279713766 -1.6514454976856996e-05 1.5707075595855713 -5.990663637334137e-05 0.0 0.0 -0.0 0.0 0.0 0.0 0.0426178015768528 0.5697327256202698 0.6771183013916016 -0.0055949692614376545 -0.03021283447742462 -0.11301837861537933 0.0426178015768528 0.5607605576515198 0.681693434715271 -0.006713963113725185 -0.03245082125067711 -0.12868429720401764 0.29578585499154814 -0.11304208954788157 0.48158703392176117 -1.2100646478675834 1.2097973298415996 -1.2091345827681736 0.0 0.0 0.0 0.0 0.0 0.0 3.873065246746057 -5.27881165474057 1.894982437488588 0.5247607410901086 -0.5273006127686231 0.5752139153124477 0.29580949455060795 -0.11303468883756389 0.4815525763646191 -1.210139742515539 1.2098370768821622 -1.20897546102981 0.0 0.0 0.0 0.0 0.0 0.0
2336.632 0.0 -1.5707963267948966 -1.5707963267948966 0.0 1.5707963267948966 0.0 0.0 0.0 0.0 0.0 0.0 0.0 0.0 0.0 0.0 0.0 0.0 0.0 -1.8327750199862536e-26 0.555172973447796 0.7573864583558305 0.07057808899065858 -9.380070923910231e-28 0.0 -2.1032924999364705e-25 6.394759450000002 6.3947594500000005 0.2913103000000004 -3.894025929994733e-27 0.0 3.5952674807049334e-05 -1.5707362333880823 -1.5707595984088343 -2.8912221090138246e-05 1.570719599723816 -5.990663637334137e-05 0.0 0.0 -0.0 0.0 0.0 0.0 0.0448608435690403 0.5674896836280823 0.6847434639930725 -0.006713963113725185 -0.02349887043237686 -0.12644630670547485 0.0403747595846653 0.5607605576515198 0.6832184791564941 -0.011189938522875309 -0.02909383922815323 -0.12868429720401764 0.29579306257016086 -0.11303043510190737 0.4815788243909436 -1.210114454029954 1.2097889159000306 -1.2090818256383564 0.0 0.0 0.0 0.0 0.0 0.0 3.458512576623192 -5.047822331609031 1.5317126658168292 0.5870544532890624 -0.5269278903270315 0.5249678428247754 0.29580949455060795 -0.11303468883756389 0.4815525763646191 -1.210139742515539 1.2098370768821622 -1.20897546102981 0.0 0.0 0.0 0.0 0.0 0.0
2336.64 0.0 -1.5707963267948966 -1.5707963267948966 0.0 1.5707963267948966 0.0 0.0 0.0 0.0 0.0 0.0 0.0 0.0 0.0 0.0 0.0 0.0 0.0 -1.8327750199862536e-26 0.555172973447796 0.7573864583558305 0.07057808899065858 -9.380070923910231e-28 0.0 -2.1032924999364705e-25 6.394759450000002 6.3947594500000005 0.2913103000000004 -3.894025929994733e-27 0.0 0.0 -1.5707243124591272 -1.570735279713766 -4.0356312887013246e-05 1.57077956199646 -2.366701234990387e-05 0.0 0.0 -0.0 0.0 0.0 0.0 0.0426178015768528 0.5271149277687073 0.6801683902740479 -0.007832957431674004 -0.03021283447742462 -0.12756529450416565 0.0403747595846653 0.5607605576515198 0.6832184791564941 -0.0055949692614376545 -0.02909383922815323 -0.12756529450416565 0.29578396723377465 -0.11303616248409451 0.48158859429962647 -1.2100808013483764 1.2097702072585668 -1.209049258825493 0.0 0.0 0.0 0.0 0.0 0.0 1.5013085963784474 -4.023487029842332 1.7119384940107039 0.5922079862847757 -0.350260769779647 0.47201627848448385 0.29580949455060795 -0.11303468883756389 0.4815525763646191 -1.210139742515539 1.2098370768821622 -1.20897546102981 0.0 0.0 0.0 0.0 0.0 0.0
2336.6479999999997 8e-08 -1.5707963267948966 -1.5707963267948966 0.0 1.5707963267948966 0.0 4e-05 0.0 0.0 0.0 0.0 0.0 0.005 0.0 0.0 0.0 0.0 0.0 0.0013109712957003255 0.5551219325860387 0.7573793957277107 0.07056364167807708 9.330778854813005e-06 0.0 0.004097498353716706 6.39417153587473 6.394699818873232 0.29125066887336465 3.873562908258041e-05 0.0 -5.990663637334137e-05 -1.5707481543170374 -1.5708192030536097 -4.0356312887013246e-05 1.5707316398620605 -1.1746083394825746e-05 0.0 0.0 -0.0 0.0 0.0 0.0 0.0403747595846653 0.5854340195655823 0.6847434639930725 -0.006713963113725185 -0.031331829726696014 -0.14323121309280396 0.0403747595846653 0.5607605576515198 0.6832184791564941 -0.0055949692614376545 -0.02909383922815323 -0.12756529450416565 0.2957922412682517 -0.11305772536720417 0.48155673757909545 -1.21010057638783 1.2099343605839508 -1.2090686691501908 0.0 0.0 0.0 0.0 0.0 0.0 4.409696635476393 -5.372963300543215 1.5317777513197284 0.6649728880555379 -0.6081465118565041 0.5880956650922361 0.2958095035933821 -0.11303466517281063 0.4815525763646191 -1.2101397803581078 1.209837017928298 -1.2089754021466752 4.521386606912344e-06 1.1832380143735285e-05 0.0 0.0 0.0 4e-05
2336.656 7.200000000000001e-07 -1.5707963267948966 -1.5707963267948966 0.0 1.5707963267948966 0.0 0.00018000000000000004 0.0 0.0 0.0 0.0 0.0 0.017500000000000005 0.0 0.0 0.0 0.0 0.0 0.005542584585483733 0.5549943308593689 0.7573617392373017 0.07052752356004646 3.2657747507745e-05 0.0 0.014341244238008475 6.392701755488285 6.394550741730841 0.2911015917313025 0.0001355747911097532 0.0 2.3968450477696024e-05 -1.5707600752459925 -1.5707715193377894 -6.467500795537262e-05 1.5707435607910156 -8.422533144170075e-05 0.0 0.0 -0.0 0.0 0.0 0.0 0.0448608435690403 0.5697327256202698 0.6725431680679321 -0.011189938522875309 -0.024617865681648254 -0.13204127550125122 0.0448608435690403 0.5607605576515198 0.6862685084342957 -0.008951950818300247 -0.02909383922815323 -0.13092228770256042 0.2958036438418172 -0.11303198233357485 0.4815653054819474 -1.2101907738876336 1.2098211675539314 -1.209056993190497 0.0 0.0 0.0 0.0 0.0 0.0 4.059272697558765 -5.056366696335218 1.9768729153216018 0.6130578476959238 -0.5620193766408588 0.5309548509149749 0.2958095759355072 -0.11303447585470981 0.4815525763646191 -1.210140083098583 1.2098365462973695 -1.2089749310815816 2.0346205653848556e-05 5.32457236683913e-05 0.0 0.0 0.0 0.00018000000000000004
2336.6639999999998 2.8800000000000004e-06 -1.5707963267948966 -1.5707963267948966 0.0 1.5707963267948966 0.0 0.00048000000000000007 0.0 0.0 0.0 0.0 0.0 0.037500000000000006 0.0 0.0 0.0 0.0 0.0 0.014127138621356663 0.5547901704702419 0.7573334892959773 0.07046973547807397 6.998101674962169e-05 0.0 0.030731237652875297 6.390350134209645 6.394312222046138 0.2908630720471261 0.00029051794601657807 0.0 1.1984225238848012e-05 -1.5707481543170374 -1.5707715193377894 -5.2754079000294496e-05 1.5707556009292603 -2.366701234990387e-05 0.0 0.0 -0.0 0.0 0.0 0.0 0.0471038855612278 0.5360870957374573 0.6832184791564941 -0.006713963113725185 -0.02685585245490074 -0.134279265999794 0.0493469275534153 0.5630035996437073 0.6847434639930725 -0.006713963113725185 -0.02909383922815323 -0.12868429720401764 0.29579734317706324 -0.11303454060800547 0.48156981178001296 -1.2101286124810704 1.2098322506471362 -1.2090236771902345 0.0 0.0 0.0 0.0 0.0 0.0 1.877008653767506 -3.5689574474125103 1.6027968919379454 0.6233304571779482 -0.38559273195356325 0.4192085405863479 0.29580982008928497 -0.11303383690575189 0.4815525763646191 -1.2101411048466784 1.209834954542775 -1.20897334123668 5.425624171476108e-05 0.00014198871364285681 0.0 0.0 0.0 0.00048000000000000007
2336.672 8e-06 -1.5707963267948966 -1.5707963267948966 0.0 1.5707963267948966 0.0 0.001 0.0 0.0 0.0 0.0 0.0 0.06499999999999999 0.0 0.0 0.0 0.0 0.0 0.028499713764136313 0.5545094578728095 0.7572946471092431 0.07039027989814178 0.00012130091124573216 0.0 0.05326747859831717 6.387116746380954 6.393984269997436 0.29053511999915005 0.0005035664416127514 0.0 -5.990663637334137e-05 -1.5707724730121058 -1.5707715193377894 -2.8912221090138246e-05 1.5707435607910156 -1.1746083394825746e-05 0.0 0.0 -0.0 0.0 0.0 0.0 0.0560760572552681 0.5652466416358948 0.6908436417579651 -0.0033569815568625927 -0.027974845841526985 -0.13316026329994202 0.0560760572552681 0.5630035996437073 0.6847434639930725 -0.007832957431674004 -0.02909383922815323 -0.13092228770256042 0.29579519653550124 -0.11305679005503766 0.4815645839933629 -1.210080481868392 1.2099000803297033 -1.209076447487628 0.0 0.0 0.0 0.0 0.0 0.0 3.136959616091108 -3.9359965872133356 1.3377015123720069 0.6181241058389135 -0.4991349282673639 0.4547686710661918 0.2958103988186527 -0.113032322357993 0.4815525763646191 -1.210143526761872 1.2098311814935458 -1.208969572714131 0.00011303232235799655 0.0002958103988186527 0.0 0.0 0.0 0.001
2336.68 1.8e-05 -1.5707963267948966 -1.5707963267948966 0.0 1.5707963267948966 0.0 0.0018 0.0 0.0 0.0 0.0 0.0 0.09999999999999999 0.0 0.0 0.0 0.0 0.0 0.05010055263964002 0.5541522074117604 0.757245215356398 0.07028916230102325 0.00018661815258154134 0.0 0.0819499670743341 6.383001757231495 6.39356690820657 0.2901177582092073 0.0007747232734753148 0.0 -5.990663637334137e-05 -1.5707481543170374 -1.5707114378558558 -4.0356312887013246e-05 1.5707675218582153 -5.990663637334137e-05 0.0 0.0 -0.0 0.0 0.0 0.0 0.0897216871380806 0.5607605576515198 0.6877935528755188 -0.0055949692614376545 -0.027974845841526985 -0.12308932095766068 0.0874786451458931 0.5607605576515198 0.6847434639930725 -0.007832957431674004 -0.02909383922815323 -0.13092228770256042 0.2957830103247626 -0.11305489237104437 0.4815885923529696 -1.2100734267078919 1.2098061264130804 -1.2091289190383923 0.0 0.0 0.0 0.0 0.0 0.0 3.0333286687473437 -4.609165332124488 1.4221478711766444 0.571433837205697 -0.49325452764338107 0.5105738400066308 0.29581152912708575 -0.11302936424836185 0.4815525763646191 -1.2101482570397668 1.209823812251495 -1.2089622123132484 0.00020345285564705157 0.0005324607524287543 0.0 0.0 0.0 0.0018
2336.688 3.5279999999999994e-05 -1.5707963267948966 -1.5707963267948966 0.0 1.5707963267948966 0.0 0.0029399999999999995 0.0 0.0 0.0 0.0 0.0 0.14249999999999993 0.0 0.0 0.0 0.0 0.0 0.0803781925810397 0.5537184461102654 0.7571851990848252 0.0701663930116465 0.00026593410011231027 0.0 0.11677870308092607 6.37800547802764 6.393060179289569 0.28961102929332716 0.0011039940848074784 0.0 0.0 -1.5707481543170374 -1.5707595984088343 -1.6514454976856996e-05 1.57077956199646 -2.366701234990387e-05 0.0 0.0 -0.0 0.0 0.0 0.0 0.1457977443933487 0.5562744736671448 0.6938937306404114 -0.008951950818300247 -0.031331829726696014 -0.12308932095766068 0.1390686184167862 0.5607605576515198 0.6847434639930725 -0.007832957431674004 -0.027974845841526985 -0.13092228770256042 0.2957918759263311 -0.11303612759749726 0.48157631882068913 -1.2100987746288687 1.2097880275002924 -1.2090376938448248 0.0 0.0 0.0 0.0 0.0 0.0 2.5767155087706946 -5.997292455685955 1.0723563078274543 0.5716042238954446 -0.49799862513796844 0.64093313255815 0.2958134822303354 -0.1130242526082545 0.4815525763646191 -1.2101564308813437 1.2098110781847804 -1.2089494935240672 0.00033229130266828504 0.0008696916377571861 0.0 0.0 0.0 0.0029399999999999995
2336.696 6.272e-05 -1.5707963267948966 -1.5707963267948966 0.0 1.5707963267948966 0.0 0.00448 0.0 0.0 0.0 0.0 0.0 0.1925 0.0 0.0 0.0 0.0 0.0 0.12079334985738147 0.553208219607032 0.7571146068189154 0.07002198946750546 0.0003592510496166273 0.0 0.1577536866180932 6.372128434458805 6.392464155219501 0.2890150052245775 0.0014913884062635679 0.0 0.0 -1.5707481543170374 -1.5707715193377894 -4.593526021778871e-06 1.5707556009292603 -7.230440248662262e-05 0.00510048633441329 0.0 -0.0 0.0 0.0 0.0 0.1906585842370987 0.5562744736671448 0.6740682125091553 -0.007832957431674004 -0.04028377681970596 -0.12085133790969849 0.1951446682214737 0.5607605576515198 0.6801683902740479 -0.008951950818300247 -0.031331829726696014 -0.13092228770256042 0.29579187763807263 -0.1130380880528446 0.4815737770125386 -1.2101232953907268 1.2097826344645155 -1.2090911158632098 0.000576549223381762 0.0015086824297234375 0.0 0.0 0.0 0.00510048633441329 3.3689687170940297 -6.881880019952216 1.9749596548581747 0.5613191487910469 -0.48550175834916853 0.7558243906959751 0.2958165835044597 -0.11301613544376032 0.4815525763646191 -1.2101694104343623 1.2097908569156508 -1.2089292965150762 0.0005063122867880806 0.0013252582940999793 0.0 0.0 0.0 0.00448
2336.7039999999997 0.00010368 -1.5707963267948966 -1.5707963267948966 0.0 1.5707963267948966 0.0 0.006479999999999999 0.0 0.0 0.0 0.0 0.0 0.2499999999999999 0.0 0.0 0.0 0.0 0.0 0.17282355568827 0.5526215992424653 0.7570334518836178 0.06985597892611774 0.00046657258975384564 0.0 0.2048749176858352 6.36537144825939 6.391778948501474 0.2883297985080678 0.0019369211357400794 0.0 9.624831000110134e-05 -1.5707724730121058 -1.5707834402667444 -1.6514454976856996e-05 1.5707316398620605 -5.990663637334137e-05 0.009338107891380787 0.0 -0.0 0.0 0.0 0.0 0.1143951565027237 0.5674896836280823 0.6832184791564941 -0.004475975409150124 -0.038045790046453476 -0.11637535691261292 0.1121521145105362 0.5540314316749573 0.6832184791564941 -0.007832957431674004 -0.02909383922815323 -0.12868429720401764 0.29581280942914523 -0.11301156766772624 0.4815620811740935 -1.2101838640035818 1.2097706166781146 -1.2090059439115368 0.0010553142118553001 0.0027623319301018213 0.0 0.0 0.0 0.009338107891380787 3.6537315409377125 0.7485985819740596 1.6722591961843642 0.5399937327978093 -0.5182975923875793 0.11744096354058756 0.29582121239721726 -0.11300401870168741 0.4815525763646191 -1.2101887846934474 1.2097606722995382 -1.2088991481123088 0.0007322660411869433 0.0019169214563339674 0.0 0.0 0.0 0.006479999999999999
2336.712 0.00016199999999999998 -1.5707963267948966 -1.5707963267948966 0.0 1.5707963267948966 0.0 0.008999999999999998 0.0 0.0 0.0 0.0 0.0 0.31499999999999984 0.0 0.0 0.0 0.0 0.0 0.23796854404471843 0.5519586902939367 0.7569417539426234 0.06966840161153028 0.000587904016325434 0.0 0.25814239628415236 6.357735732066711 6.391004725159809 0.2875555751681173 0.00244061425813287 0.0 0.00013220097753219306 -1.5707600752459925 -1.5707953611956995 -2.8912221090138246e-05 1.5707316398620605 -7.230440248662262e-05 0.005177185405045748 0.0 -0.0 0.0 0.0 0.0 0.2198181450366974 0.5540314316749573 0.6923686861991882 -0.002237987704575062 -0.021260883659124374 -0.12085133790969849 0.2243042290210724 0.5674896836280823 0.6832184791564941 -0.007832957431674004 -0.02909383922815323 -0.12980328500270844 0.2958148651205472 -0.11300092275855592 0.4815612025887697 -1.2102188079918508 1.209746998246769 -1.208982945440526 0.0005850267280623283 0.0015314884022976736 0.0 0.0 0.0 0.005177185405045748 2.6132710323469706 -0.7653062781108343 1.3059133844233741 0.5608244710327798 -0.44834137244024447 0.1646286568630658 0.29582780228850736 -0.11298676621641274 0.4815525763646191 -1.210216369342732 1.2097176943921477 -1.2088562217664145 0.0010168808959477571 0.0026624502205965656 0.0 0.0 0.0 0.008999999999999998
2336.72 0.00024199999999999997 -1.5707963267948966 -1.5707963267948966 0.0 1.5707963267948966 0.0 0.012099999999999998 0.0 0.0 0.0 0.0 0.0 0.3875 0.0 0.0 0.0 0.0 0.0 0.2680808883939314 0.5512196413601588 0.7568395407511755 0.06945931429987189 0.0007232528043402318 0.0 0.3175561224130447 6.349222997514921 6.390141719537364 0.28669256954758454 0.0030024988050604455 0.0 0.0002400590165052563 -1.5707481543170374 -1.5707834402667444 -4.593526021778871e-06 1.5707316398620605 -5.990663637334137e-05 0.01852281764149666 0.0 -0.0 0.0 0.0 0.0 0.1143951565027237 0.5585175156593323 0.6771183013916016 -0.0033569815568625927 -0.034688808023929596 -0.13204127550125122 0.1211242824792862 0.5630035996437073 0.6755932569503784 -0.007832957431674004 -0.031331829726696014 -0.12980328500270844 0.2958200245957258 -0.11296903686838261 0.48157025372964657 -1.2102251705067462 1.2096379872231178 -1.2089172672659656 0.0020925048690485755 0.005479420370289685 0.0 0.0 0.0 0.01852281764149666 3.494539782213508 6.642750154404796 1.9901038989386137 0.6122585399344127 -0.4715312276457548 -0.3823544444070316 0.295836840283146 -0.11296309963071055 0.4815525763646191 -1.2102542065222293 1.209658739400588 -1.2087973375037728 0.0013668535055316635 0.0035796257674260666 0.0 0.0 0.0 0.012099999999999998
2336.728 0.00034847999999999997 -1.5707963267948966 -1.5707963267948966 0.0 1.5707963267948966 0.0 0.01584 0.0 0.0 0.0 0.0 0.0 0.46750000000000025 0.0 0.0 0.0 0.0 0.0 0.2753776278465779 0.5504046548946678 0.7567268501235138 0.06922879434395306 0.000872629137883616 0.0 0.3831160960725122 6.339835576564917 6.389190250907028 0.28574110091935934 0.0036226170545533816 0.0 0.0003718854859471321 -1.5707123915301722 -1.5707476774798792 -4.593526021778871e-06 1.570719599723816 -4.7985707418263246e-05 0.02124563418328762 0.0 -0.0 0.0 0.0 0.0 0.2422485649585724 0.5742188096046448 0.6847434639930725 -0.012308932840824127 -0.02909383922815323 -0.1197323426604271 0.2422485649585724 0.5607605576515198 0.6801683902740479 -0.01007094420492649 -0.02909383922815323 -0.12980328500270844 0.29582005917248194 -0.11293108952106859 0.48159140003700285 -1.2102202426847137 1.2095028459411465 -1.2088542641121833 0.002399292615884826 0.006284884761257049 0.0 0.0 0.0 0.02124563418328762 4.0522504911407315 -0.8001422541269921 1.4288245258917758 0.5557903128890791 -0.6055498830231273 0.20534569917481463 0.29584886691687434 -0.1129315982836304 0.4815525763646191 -1.21030456449643 1.2095802696140738 -1.208718961857164 0.0017888365168126402 0.004686246051963289 0.0 0.0 0.0 0.01584
2336.736 0.00048671999999999995 -1.5707963267948966 -1.5707963267948966 0.0 1.5707963267948966 0.0 0.02028 0.0 0.0 0.0 0.0 0.0 0.5549999999999999 0.0 0.0 0.0 0.0 0.0 0.28350721226326786 0.5495139988884146 0.7566037321149447 0.06897694413691344 0.0010360464977905754 0.0 0.4548223172625543 6.329576556070248 6.3881507418953785 0.2847015919100196 0.00430102497070985 0.0 0.0005640076124109328 -1.5707839171039026 -1.570735279713766 -2.8912221090138246e-05 1.5707556009292603 -4.7985707418263246e-05 0.017602430656552315 0.0 -0.0 0.0 0.0 0.0 0.1794433742761612 0.5764618515968323 0.6801683902740479 -0.007832957431674004 -0.02909383922815323 -0.12085133790969849 0.1816864162683487 0.5630035996437073 0.6832184791564941 -0.008951950818300247 -0.02909383922815323 -0.12868429720401764 0.29586634455119887 -0.11287126246105081 0.4815719121572235 -1.2103896096701858 1.2093961208475408 -1.2086468133183057 0.0019868085705883063 0.005207966813570092 0.0 0.0 0.0 0.017602430656552315 4.398824471914492 3.2891998337264057 1.7455868200703732 0.5608039079557673 -0.5871815413334694 -0.1306719179004972 0.2958644757540914 -0.11289069905732038 0.4815525763646191 -1.2103699372009324 1.2094783933091404 -1.2086172077709474 0.002289423376882405 0.006000131568292974 0.0 0.0 0.0 0.02028
2336.7439999999997 0.00066248 -1.5707963267948966 -1.5707963267948966 0.0 1.5707963267948966 0.0 0.025480000000000003 0.0 0.0 0.0 0.0 0.0 0.6500000000000004 0.0 0.0 0.0 0.0 0.0 0.29249549908655187 0.5485480197014602 0.7564702514185453 0.06870389601491603 0.0012135223071227008 0.0 0.5326747859831721 6.318449925579002 6.387023738718499 0.2835745887356487 0.005037794883317295 0.0 0.0007201770204119384 -1.5707243124591272 -1.5708072821246546 -1.6514454976856996e-05 1.5707675218582153 -3.5587941304981996e-05 0.025349033996462822 0.0 -0.0 0.0 0.0 0.0 0.1457977443933487 0.5316010117530823 0.6847434639930725 -0.012308932840824127 -0.02909383922815323 -0.12868429720401764 0.1457977443933487 0.5630035996437073 0.6832184791564941 -0.008951950818300247 -0.02909383922815323 -0.12868429720401764 0.2958694313966194 -0.11282402425325135 0.48156927365107377 -1.2104600826902874 1.2092779556892828 -1.2085138701329243 0.002859980026413298 0.007500004274987029 0.0 0.0 0.0 0.025349033996462822 1.8981367368262534 7.176522671025407 1.4567826075547372 0.5968235791120314 -0.4171021631136524 -0.44990475369866817 0.2958843128533954 -0.11283869617365057 0.4815525763646191 -1.2104530436402416 1.2093488646237855 -1.2084878344751497 0.002875129978504313 0.0075391322915045154 0.0 0.0 0.0 0.025480000000000003
2336.752 0.0008820000000000001 -1.5707963267948966 -1.5707963267948966 0.0 1.5707963267948966 0.0 0.03150000000000001 0.0 0.0 0.0 0.0 0.0 0.7525000000000005 0.0 0.0 0.0 0.0 0.0 0.3023684747716262 0.5475071560437816 0.7563264899764952 0.06840981759888905 0.0014050786344490683 0.0 0.6166735022343647 6.3064607383716975 6.385809933229962 0.2823607832498175 0.005833018407440163 0.0 0.0008759719785302877 -1.5707362333880823 -1.5707834402667444 -4.0356312887013246e-05 1.5707435607910156 -5.990663637334137e-05 0.03002767451107502 0.0 -0.0 0.0 0.0 0.0 0.2624359428882599 0.5450592637062073 0.6908436417579651 -0.0055949692614376545 -0.02909383922815323 -0.13092228770256042 0.2624359428882599 0.5607605576515198 0.6862685084342957 -0.008951950818300247 -0.02909383922815323 -0.13204127550125122 0.29589092647914556 -0.1127799195569436 0.4815708339502374 -1.2105490538428105 1.2091780991848449 -1.208429117220732 0.003386518715841235 0.008884916431096212 0.0 0.0 0.0 0.03002767451107502 2.411918629998007 0.4671755347451266 1.3057857398030044 0.6078145622619386 -0.4404938719538659 0.1035640793420988 0.29590907607459144 -0.112773740931008 0.4815525763646191 -1.2105568271072114 1.2091870833944087 -1.2083262473223388 0.003552372839326659 0.009321135896349635 0.0 0.0 0.0 0.03150000000000001
2336.7599999999998 0.001152 -1.5707963267948966 -1.5707963267948966 0.0 1.5707963267948966 0.0 0.03840000000000001 0.0 0.0 0.0 0.0 0.0 0.8625000000000004 0.0 0.0 0.0 0.0 0.0 0.3131522759227892 0.5463919541051818 0.756172549806038 0.06809491757531484 0.0016107429549310518 0.0 0.7068184660161321 6.293615285735141 6.3845101867809655 0.28106103680372785 0.00668680960297383 0.0 0.0011879362864419818 -1.570796314870016 -1.5707595984088343 -5.2754079000294496e-05 1.5707435607910156 -1.1746083394825746e-05 0.03376675397157669 0.0 -0.0 0.0 0.0 0.0 0.1973877102136612 0.5652466416358948 0.6954187750816345 0.002237987704575062 -0.02909383922815323 -0.13987423479557037 0.1973877102136612 0.5540314316749573 0.6847434639930725 -0.008951950818300247 -0.02909383922815323 -0.13092228770256042 0.2959449161550811 -0.11268758951332128 0.4815590945365604 -1.210696870638609 1.2090067907959394 -1.2081410140633326 0.0038050941107464135 0.009993099172947516 0.0 0.0 0.0 0.03376675397157669 3.3608812268982216 4.531082136918975 1.2900366629969016 0.6491933167688194 -0.4852271378691067 -0.23013423223164328 0.2959395141983871 -0.11269384137083419 0.4815525763646191 -1.210684454191928 1.208988094948877 -1.2081274975806024 0.004327443508639696 0.01136407734521807 0.0 0.0 0.0 0.03840000000000001
2336.768 0.0014796800000000001 -1.5707963267948966 -1.5707963267948966 0.0 1.5707963267948966 0.0 0.04624000000000002 0.0 0.0 0.0 0.0 0.0 0.9800000000000009 0.0 0.0 0.0 0.0 0.0 0.32487321203519764 0.5452030838343094 0.7560085560400756 0.0677594519160662 0.0018305489692110302 0.0 0.803109677328475 6.279921284472307 6.3831255558926525 0.27967640591851983 0.0075993083741645925 0.0 0.0014639480505138636 -1.5707724730121058 -1.5707953611956995 -4.593526021778871e-06 1.570719599723816 -5.990663637334137e-05 0.042759716510772705 0.0 -0.0 0.0 0.0 0.0 0.2287903130054474 0.5674896836280823 0.6862685084342957 -0.008951950818300247 -0.03021283447742462 -0.12197033315896988 0.2220611870288849 0.5630035996437073 0.6801683902740479 -0.008951950818300247 -0.02909383922815323 -0.13092228770256042 0.29596710270843135 -0.11260785764937471 0.4815595390967738 -1.2108247938683903 1.2087714776622314 -1.2080080392087476 0.004815080069972585 0.01265546940832727 0.0 0.0 0.0 0.042759716510772705 3.888985273549553 3.038111997223884 1.4486365960885146 0.5665027864825416 -0.567362180126363 -0.1008099986081663 0.2959764258275351 -0.11259686186235379 0.4815525763646191 -1.2108393135452096 1.2087465898485348 -1.2078862821754512 0.005206478892515456 0.01368594993026523 0.0 0.0 0.0 0.04624000000000002
2336.776 0.0018727200000000002 -1.5707963267948966 -1.5707963267948966 0.0 1.5707963267948966 0.0 0.05508000000000002 0.0 0.0 0.0 0.0 0.0 1.105 0.0 0.0 0.0 0.0 0.0 0.3375577898419229 0.5439413563667836 0.7558346601823889 0.06740373053728972 0.002064537480105004 0.0 0.905547136171392 6.2653880776481765 6.381657319740568 0.2782081697697414 0.008570684109095771 0.0 0.001860176445916295 -1.5707839171039026 -1.5707595984088343 -1.6514454976856996e-05 1.5707316398620605 -9.614626039677887e-05 0.048416268080472946 0.0 -0.0 0.0 0.0 0.0 0.2377624809741974 0.5674896836280823 0.6847434639930725 -0.006713963113725185 -0.02909383922815323 -0.12868429720401764 0.2355194389820099 0.5607605576515198 0.6832184791564941 -0.007832957431674004 -0.027974845841526985 -0.13092228770256042 0.2960134230601191 -0.11248961947070757 0.48156574480701286 -1.2110351538371584 1.2084443651339454 -1.207740082566943 0.005446327572564028 0.01433186524629718 0.0 0.0 0.0 0.048416268080472946 4.007021233884386 3.219643347729536 1.5656991518952703 0.5978442914121027 -0.5556486778777359 -0.11973674789039651 0.29602065803569794 -0.11248052259393826 0.4815525763646191 -1.211025014359236 1.2084569035714734 -1.2075969433729592 0.006195427184474019 0.016304817844606245 0.0 0.0 0.0 0.05508000000000002
2336.784 0.00233928 -1.5707963267948966 -1.5707963267948966 0.0 1.5707963267948966 0.0 0.06498000000000002 0.0 0.0 0.0 0.0 0.0 1.2375000000000007 0.0 0.0 0.0 0.0 0.0 0.3512327392663095 0.5426077426024286 0.7556510435774921 0.06702812439733688 0.002312757327099138 0.0 1.0141308425448852 6.2500268485715935 6.380107009451301 0.27665785948398136 0.009601139559140014 0.0 0.002279998967424035 -1.5707600752459925 -1.5707476774798792 -1.6514454976856996e-05 1.5707675218582153 -5.990663637334137e-05 0.058636415749788284 0.0 -0.0 0.0 0.0 0.0 0.2377624809741974 0.5450592637062073 0.6694930791854858 -0.0033569815568625927 -0.025736859068274498 -0.14099322259426117 0.2400055229663849 0.5630035996437073 0.6832184791564941 -0.008951950818300247 -0.027974845841526985 -0.13204127550125122 0.2960517384927259 -0.11236242354070695 0.4815763179312716 -1.211197317847857 1.20809942181783 -1.2073948576196583 0.00658852978138779 0.01735941282170708 0.0 0.0 0.0 0.058636415749788284 3.473579608247061 4.392564110989084 2.319017931124431 0.654826017595842 -0.43078383197117365 -0.23070089114618064 0.296073104727789 -0.11234239895845699 0.4815525763646191 -1.2112453845252422 1.2081130161288776 -1.2072534683959475 0.0073000090843199856 0.01923883034521174 0.0 0.0 0.0 0.06498000000000002
2336.792 0.002888000000000001 -1.5707963267948966 -1.5707963267948966 0.0 1.5707963267948966 0.0 0.07600000000000001 0.0 0.0 0.0 0.0 0.0 1.3774999999999984 0.0 0.0 0.0 0.0 0.0 0.36592504097963097 0.5412033929316126 0.7554579210951141 0.06663307303374172 0.0025752663786501773 0.0 1.1288607964489512 6.233850848013093 6.3784764392112745 0.2750272892476642 0.010690914958377555 0.0 0.0027601169422268867 -1.5707362333880823 -1.5707715193377894 -4.0356312887013246e-05 1.5707316398620605 -9.614626039677887e-05 0.06697744131088257 0.0 -0.0 0.0 0.0 0.0 0.3050537407398224 0.5697327256202698 0.6755932569503784 -0.0055949692614376545 -0.021260883659124374 -0.1186133474111557 0.3117828667163849 0.5585175156593323 0.6832184791564941 -0.008951950818300247 -0.027974845841526985 -0.13092228770256042 0.2961018749351529 -0.11222321649339904 0.481574358067374 -1.2114513523998307 1.2077722455290443 -1.2070831817284926 0.0075164238964047 0.019832145950511488 0.0 0.0 0.0 0.06697744131088257 4.609040850825773 0.7216615145720953 1.9870053123482876 0.5518109808924401 -0.5628458065177194 0.05230610592870128 0.29613470467298897 -0.11217992081978218 0.4815525763646191 -1.211504468425588 1.2077085516058197 -1.2068494889645878 0.008525673982304246 0.022506237555147166 0.0 0.0 0.0 0.07600000000000001
2336.7999999999997 0.0035280000000000016 -1.5707963267948966 -1.5707963267948966 0.0 1.5707963267948966 0.0 0.08400000000000002 0.0 0.0 0.0 0.0 0.0 1.0000000000000009 0.0 0.0 0.0 0.0 0.0 0.34237949596005385 0.5450774084946494 0.7559949655237433 0.06773165115497455 0.0018718202971437915 0.0 0.8194996707433418 6.278473693173091 6.3830108085509405 0.27956165857738813 0.00777064142957447 0.0 0.0033597026485949755 -1.5707362333880823 -1.5707953611956995 -2.8912221090138246e-05 1.5707435607910156 -2.366701234990387e-05 0.08133932948112488 0.0 -0.0 0.0 0.0 0.0 0.3342132866382599 0.5517883896827698 0.671018123626709 -0.014546919614076614 -0.027974845841526985 -0.13204127550125122 0.3476715385913849 0.5562744736671448 0.6832184791564941 -0.01007094420492649 -0.027974845841526985 -0.13092228770256042 0.29617017308191124 -0.11204464595615642 0.4815682523409721 -1.211695864076565 1.207364912610278 -1.206573694591621 0.009113636374022448 0.024090283290791357 0.0 0.0 0.0 0.08133932948112488 3.654680658660468 -2.0774026679574873 1.9832153112053532 0.6145873674352369 -0.5269396141360381 0.31085216440667535 0.29620643916902695 -0.11199037164728878 0.4815525763646191 -1.2118065243149803 1.2072367776174235 -1.2063782807523378 0.009407191218373226 0.024881340890198268 0.0 0.0 0.0 0.08400000000000002
2336.808 0.004232000000000002 -1.5707963267948966 -1.5707963267948966 0.0 1.5707963267948966 0.0 0.09200000000000003 0.0 0.0 0.0 0.0 0.0 1.0000000000000009 0.0 0.0 0.0 0.0 0.0 0.3457940322675161 0.5450998799243081 0.7559991627337825 0.06774023696815047 0.001872950684698657 0.0 0.8194996707433418 6.278732530317617 6.383046246402074 0.27959709642853703 0.007775334100328555 0.0 0.004019958432763815 -1.5707243124591272 -1.5707595984088343 -1.6514454976856996e-05 1.5707435607910156 -3.5587941304981996e-05 0.08762865513563156 0.0 -0.0 0.0 0.0 0.0 0.3409424126148224 0.5540314316749573 0.681693434715271 -0.01007094420492649 -0.034688808023929596 -0.12085133790969849 0.3588867485523224 0.5607605576515198 0.6832184791564941 -0.01007094420492649 -0.027974845841526985 -0.13092228770256042 0.29623603417122263 -0.11184915146646834 0.48158336946273117 -1.2119717127676004 1.206828520216906 -1.206124765707633 0.00980119072106843 0.02595876527713724 0.0 0.0 0.0 0.08762865513563156 3.360151503072821 -2.2656510792153584 1.606071493744264 0.5629893336115308 -0.5118427224804921 0.3577633298411676 0.29628520698183197 -0.11178181457922887 0.4815525763646191 -1.2121386280878734 1.2067177933209572 -1.2058599187960182 0.010283926941289103 0.02725823904232855 0.0 0.0 0.0 0.09200000000000003
2336.816 0.005000000000000004 -1.5707963267948966 -1.5707963267948966 0.0 1.5707963267948966 0.0 0.10000000000000003 0.0 0.0 0.0 0.0 0.0 1.0000000000000009 0.0 0.0 0.0 0.0 0.0 0.34921142244244224 0.5451243942112085 0.756003741508371 0.0677496033097969 0.0018741838347585101 0.0 0.8194996707433418 6.279014898111646 6.383084905876039 0.27963575590251744 0.0077804533775148324 0.0 0.0048120408318936825 -1.5707600752459925 -1.5707595984088343 -4.593526021778871e-06 1.5707316398620605 -8.422533144170075e-05 0.09391797333955765 0.0 -0.0 0.0 0.0 0.0 0.3633728325366974 0.5360870957374573 0.6801683902740479 -0.012308932840824127 -0.03021283447742462 -0.12308932095766068 0.3499145805835724 0.5607605576515198 0.6832184791564941 -0.01007094420492649 -0.027974845841526985 -0.13092228770256042 0.29633531020839654 -0.11161539096597181 0.4815737763921989 -1.2123929390645904 1.2062477517017847 -1.205574825641278 0.01048269131302519 0.027831211763721733 0.0 0.0 0.0 0.09391797333955765 2.4712823531477506 -2.8428626892913447 1.6210722289249078 0.5734888805726667 -0.44422819299688726 0.3843921678502943 0.2963709680289308 -0.11155423459684431 0.4815525763646191 -1.2125007347112142 1.2061515893394725 -1.205294393714774 0.01115542345968302 0.02963709680289309 0.0 0.0 0.0 0.10000000000000003
2336.824 0.005832000000000005 -1.5707963267948966 -1.5707963267948966 0.0 1.5707963267948966 0.0 0.10800000000000004 0.0 0.0 0.0 0.0 0.0 1.0000000000000009 0.0 0.0 0.0 0.0 0.0 0.3526316664848322 0.5451509513553507 0.7560087018475082 0.06775975017991388 0.0018755197473233516 0.0 0.8194996707433418 6.279320796555177 6.383126786972834 0.2796776369993297 0.007785999261133301 0.0 0.00560412323102355 -1.5707600752459925 -1.5707834402667444 -4.593526021778871e-06 1.5707675218582153 -4.7985707418263246e-05 0.10490511357784271 0.0 -0.0 0.0 0.0 0.0 0.3454284965991974 0.5473023056983948 0.6771183013916016 -0.01007094420492649 -0.02909383922815323 -0.13204127550125122 0.3476715385913849 0.5585175156593323 0.6832184791564941 -0.01007094420492649 -0.027974845841526985 -0.13092228770256042 0.296425655520284 -0.11137764021984196 0.481566727922372 -1.2127741689484042 1.2056719659675268 -1.2049271206594945 0.011684083997294188 0.03109656705974187 0.0 0.0 0.0 0.10490511357784271 3.1812696943883676 -1.901850181298833 1.8095341648159606 0.6155090314419861 -0.4785581178909247 0.3021182754459232 0.2964636785638649 -0.11130761536963604 0.4815525763646191 -1.2128927950696708 1.2055381554552338 -1.204681695286598 0.012021222459920761 0.032018077284897424 0.0 0.0 0.0 0.10800000000000004
2336.832 0.006728000000000006 -1.5707963267948966 -1.5707963267948966 0.0 1.5707963267948966 0.0 0.11600000000000005 0.0 0.0 0.0 0.0 0.0 1.0000000000000009 0.0 0.0 0.0 0.0 0.0 0.3560547643946859 0.5451795513567345 0.7560140437511945 0.06777067757850141 0.0018769584223931805 0.0 0.8194996707433418 6.279650225648209 6.383171889692458 0.27972273971897366 0.007791971751183957 0.0 0.006504063960164785 -1.5707243124591272 -1.570831600819723 -4.0356312887013246e-05 1.5707435607910156 -3.5587941304981996e-05 0.11132866144180298 0.0 -0.0 0.0 0.0 0.0 0.3386993706226349 0.5405731797218323 0.6832184791564941 -0.008951950818300247 -0.024617865681648254 -0.12980328500270844 0.3207550346851349 0.5585175156593323 0.6832184791564941 -0.008951950818300247 -0.02685585245490074 -0.12980328500270844 0.29652116928540095 -0.11111278891324572 0.4815601224693762 -1.2132133181152367 1.2050671592433944 -1.2042500882956673 0.012370038058777842 0.03301130486570195 0.0 0.0 0.0 0.11132866144180298 2.5842356236156823 -0.879753920953082 1.565928577268079 0.6052255601705578 -0.4424213549763621 0.1970363995640195 0.29656329117100744 -0.11104193926941693 0.4815525763646191 -1.2133147559686595 1.2048774806127471 -1.2040218124513584 0.012880864955254055 0.03440134177583689 0.0 0.0 0.0 0.11600000000000005
2336.8399999999997 0.0076880000000000065 -1.5707963267948966 -1.5707963267948966 0.0 1.5707963267948966 0.0 0.12400000000000005 0.0 0.0 0.0 0.0 0.0 1.0000000000000009 0.0 0.0 0.0 0.0 0.0 0.35948071617200356 0.5452101942153601 0.75601976721943 0.06778238550555947 0.0018784998599679973 0.0 0.8194996707433418 6.280003185390744 6.383220214034914 0.2797710640614493 0.007798370847666804 0.0 0.007511862087994814 -1.5707481543170374 -1.5707715193377894 -4.593526021778871e-06 1.5707675218582153 -7.230440248662262e-05 0.12158715724945068 0.0 -0.0 0.0 0.0 0.0 0.2489776909351349 0.5652466416358948 0.6862685084342957 -0.002237987704575062 -0.025736859068274498 -0.11637535691261292 0.2646789848804474 0.5562744736671448 0.6832184791564941 -0.007832957431674004 -0.027974845841526985 -0.13092228770256042 0.2966326444969881 -0.11081199013907847 0.4815737767434409 -1.2136725637565635 1.204236225269795 -1.203551231510981 0.013473314870165426 0.03606671999177569 0.0 0.0 0.0 0.12158715724945068 3.746528732785116 4.08818255139768 1.5982491541738528 0.5435057270710655 -0.5109101378195833 -0.20600300849031192 0.2966697547599781 -0.11075718738550534 0.4815525763646191 -1.2137665601376137 1.2041695529220413 -1.20331473331408 0.013733891235803083 0.0367870495902373 0.0 0.0 0.0 0.12400000000000005
2336.848 0.008712000000000008 -1.5707963267948966 -1.5707963267948966 0.0 1.5707963267948966 0.0 0.13200000000000006 0.0 0.0 0.0 0.0 0.0 1.0000000000000009 0.0 0.0 0.0 0.0 0.0 0.362909521816785 0.5452428799312273 0.7560258722522142 0.06779487396108805 0.0018801440600478014 0.0 0.8194996707433418 6.280379675782782 6.383271760000199 0.27982261002675657 0.007805196550581839 0.0 0.00845973938703537 -1.5707123915301722 -1.5707834402667444 -1.6514454976856996e-05 1.5707556009292603 -5.990663637334137e-05 0.12927623093128204 0.0 -0.0 0.0 0.0 0.0 0.3319702446460724 0.5428162217140198 0.6877935528755188 -0.012308932840824127 -0.02349887043237686 -0.12644630670547485 0.3229980766773224 0.5652466416358948 0.6893185973167419 -0.008951950818300247 -0.02685585245490074 -0.13092228770256042 0.29672780468153925 -0.11053183176392287 0.48157984644875923 -1.2140948746868465 1.203543138867114 -1.2028582739601688 0.014289138608372507 0.038359852201743025 0.0 0.0 0.0 0.12927623093128204 2.5188680219320703 -0.0006495757870787779 1.2935406611783424 0.5907098130045433 -0.4743645097290877 0.11987424628311925 0.2967830145596614 -0.110453339541065 0.4815525763646191 -1.2142481462335057 1.203414359662196 -1.2025604451484662 0.014579840819420776 0.03917535792187533 0.0 0.0 0.0 0.13200000000000006
2336.8559999999998 0.00980000000000001 -1.5707963267948966 -1.5707963267948966 0.0 1.5707963267948966 0.0 0.14000000000000007 0.0 0.0 0.0 0.0 0.0 1.0000000000000009 0.0 0.0 0.0 0.0 0.0 0.3663411813290302 0.5452776085043363 0.7560323588495476 0.06780814294508719 0.0018818910226325934 0.0 0.8194996707433418 6.280779696824323 6.3833265275883155 0.2798773776148957 0.007812448859929064 0.0 0.00956378597766161 -1.5707481543170374 -1.5707595984088343 -5.2754079000294496e-05 1.5707435607910156 -5.990663637334137e-05 0.13581483066082 0.0 -0.0 0.0 0.0 0.0 0.3050537407398224 0.5764618515968323 0.6847434639930725 -0.008951950818300247 -0.01678490824997425 -0.13987423479557037 0.3072967827320099 0.5607605576515198 0.6847434639930725 -0.008951950818300247 -0.02685585245490074 -0.12868429720401764 0.2968625035583419 -0.11020504449149408 0.4815733359124825 -1.214643707313618 1.2027730337171456 -1.2020311688400118 0.014967479455580395 0.0403183306503233 0.0 0.0 0.0 0.13581483066082 4.409347465737361 0.9908000934190326 1.5079061713015023 0.6546368424465588 -0.6021133503195059 0.00852358299126138 0.29690301211183384 -0.11013037431069131 0.4815525763646191 -1.2147594488446045 1.202611887285114 -1.20175893440067 0.015418252403496717 0.04156642169565677 0.0 0.0 0.0 0.14000000000000007
2336.864 0.010952000000000012 -1.5707963267948966 -1.5707963267948966 0.0 1.5707963267948966 0.0 0.14800000000000008 0.0 0.0 0.0 0.0 0.0 1.0000000000000009 0.0 0.0 0.0 0.0 0.0 0.36977569470873933 0.5453143799346869 0.7560392270114299 0.06782219245755687 0.0018837407477223739 0.0 0.8194996707433418 6.281203248515364 6.3833845167992616 0.27993536682586645 0.007820127775708481 0.0 0.010739738121628761 -1.5707362333880823 -1.5708072821246546 7.152557373046875e-06 1.5707075595855713 -5.990663637334137e-05 0.1432354599237442 0.0 -0.0 0.0 0.0 0.0 0.3050537407398224 0.5562744736671448 0.6801683902740479 -0.006713963113725185 -0.03021283447742462 -0.12308932095766068 0.3117828667163849 0.5585175156593323 0.6801683902740479 -0.007832957431674004 -0.02685585245490074 -0.12868429720401764 0.2969869649846669 -0.109858843478909 0.4815676986552927 -1.2151612814985944 1.201914383276294 -1.201202606244531 0.015735681972391658 0.04253906452093567 0.0 0.0 0.0 0.1432354599237442 3.513150339463295 1.3720917977161402 1.760731165219779 0.5763523672409049 -0.49507643177278365 0.03933528630314152 0.2970296852644126 -0.10978826903916325 0.4815525763646191 -1.2153003984944863 1.2017621214195418 -1.200910186693314 0.016248663817795918 0.04396039341913308 0.0 0.0 0.0 0.14800000000000008
2336.872 0.012168000000000012 -1.5707963267948966 -1.5707963267948966 0.0 1.5707963267948966 0.0 0.15600000000000008 0.0 0.0 0.0 0.0 0.0 1.0000000000000009 0.0 0.0 0.0 0.0 0.0 0.37321306195591225 0.5453531942222792 0.7560464767378613 0.06783702249849706 0.0018856932353171413 0.0 0.8194996707433418 6.281650330855909 6.383445727633038 0.2799965776596689 0.007828233297920085 0.0 0.011951268650591373 -1.5707600752459925 -1.5707476774798792 -1.6514454976856996e-05 1.5707435607910156 -7.230440248662262e-05 0.15286119282245636 0.0 -0.0 0.0 0.0 0.0 0.2871094048023224 0.5383301377296448 0.6832184791564941 -0.006713963113725185 -0.02909383922815323 -0.12756529450416565 0.2848663628101349 0.5540314316749573 0.6862685084342957 -0.011189938522875309 -0.02685585245490074 -0.12980328500270844 0.2971245848803469 -0.10949599047851244 0.48157631847211657 -1.2157466723928845 1.2009794540533674 -1.2002982718874284 0.016737687713821104 0.04541881846168699 0.0 0.0 0.0 0.15286119282245636 2.423450042146871 3.2408050198781884 1.6311020232718845 0.5966313830711882 -0.41390224897113953 -0.12038260267456082 0.2971629681643274 -0.10942699986136653 0.4815525763646191 -1.2158709216462802 1.2008650468753312 -1.200014186829745 0.01707061197837379 0.0463574230336351 0.0 0.0 0.0 0.15600000000000008
2336.88 0.013448000000000015 -1.5707963267948966 -1.5707963267948966 0.0 1.5707963267948966 0.0 0.1640000000000001 0.0 0.0 0.0 0.0 0.0 1.0000000000000009 0.0 0.0 0.0 0.0 0.0 0.37665328307054896 0.5453940513671134 0.7560541080288418 0.06785263306790783 0.0018877484854168969 0.0 0.8194996707433418 6.282120943845957 6.383510160089646 0.28006101011630313 0.00783676542656388 0.0 0.013175157830119133 -1.5707123915301722 -1.5707834402667444 -4.593526021778871e-06 1.5707435607910156 -3.5587941304981996e-05 0.16058862209320068 0.0 -0.0 0.0 0.0 0.0 0.2444916069507599 0.5697327256202698 0.6801683902740479 -0.014546919614076614 -0.019022895023226738 -0.12308932095766068 0.2489776909351349 0.5562744736671448 0.6847434639930725 -0.008951950818300247 -0.02685585245490074 -0.12980328500270844 0.2972447021128624 -0.10913241791882818 0.48158082817103137 -1.2162759774831635 1.2000765587880449 -1.1993804524461853 0.017525424619283327 0.04773411713680851 0.0 0.0 0.0 0.16058862209320068 4.175640548518549 5.319630373591826 1.6069973501221066 0.578669894866451 -0.6039261211481901 -0.33640149499712424 0.29730279125003223 -0.10904654172340669 0.4815525763646191 -1.2164709407071583 1.1999206476479458 -1.1990709187985402 0.017883632842637807 0.04875765776500529 0.0 0.0 0.0 0.1640000000000001
2336.888 0.014792000000000017 -1.5707963267948966 -1.5707963267948966 0.0 1.5707963267948966 0.0 0.1720000000000001 0.0 0.0 0.0 0.0 0.0 1.0000000000000009 0.0 0.0 0.0 0.0 0.0 0.3800963580526496 0.5454369513691891 0.7560621208843712 0.06786902416578909 0.0018899064980216404 0.0 0.8194996707433418 6.282615087485506 6.383577814169083 0.280128664195769 0.007845724161639867 0.0 0.014459342695772648 -1.5707481543170374 -1.5707834402667444 -4.0356312887013246e-05 1.570719599723816 -4.7985707418263246e-05 0.17063619196414948 0.0 -0.0 0.0 0.0 0.0 0.3185119926929474 0.5562744736671448 0.6908436417579651 -0.004475975409150124 -0.022379877045750618 -0.13204127550125122 0.3072967827320099 0.5585175156593323 0.6847434639930725 -0.007832957431674004 -0.027974845841526985 -0.13204127550125122 0.2973994695490324 -0.10875235495588026 0.48156730950450943 -1.21692838340925 1.1991929455117276 -1.1984272262316493 0.018557087716804626 0.05074711297600491 0.0 0.0 0.0 0.17063619196414948 3.0851180132066967 1.5829610486039647 1.3349706749080015 0.6195127000054687 -0.48135582137629807 -0.013877772720700562 0.2974490812436592 -0.10864686840492364 0.4815525763646191 -1.2171003740330648 1.198928906923208 -1.1980803657782488 0.01868726136564703 0.0511612419739094 0.0 0.0 0.0 0.1720000000000001
2336.8959999999997 0.01620000000000002 -1.5707963267948966 -1.5707963267948966 0.0 1.5707963267948966 0.0 0.1800000000000001 0.0 0.0 0.0 0.0 0.0 1.0000000000000009 0.0 0.0 0.0 0.0 0.0 0.383542286902214 0.5454818942285066 0.7560705153044498 0.06788619579214089 0.0018921672731313714 0.0 0.8194996707433418 6.283132761774558 6.383648689871351 0.28019953989806656 0.00785510950314804 0.0 0.015875352546572685 -1.5707724730121058 -1.5707715193377894 -4.0356312887013246e-05 1.5707075595855713 -8.422533144170075e-05 0.17447113990783691 0.0 -0.0 0.0 0.0 0.0 0.3364563286304474 0.5405731797218323 0.681693434715271 -0.006713963113725185 -0.021260883659124374 -0.1197323426604271 0.3342132866382599 0.5585175156593323 0.6847434639930725 -0.008951950818300247 -0.02685585245490074 -0.12868429720401764 0.29756017454929945 -0.1083320109091975 0.4815636425432012 -1.2176210653584492 1.1981485253280308 -1.1974132923960115 0.018900809431836054 0.0519156628447912 0.0 0.0 0.0 0.17447113990783691 2.6131040941851347 0.9837680559092108 1.689595366803969 0.56219618277071 -0.4217104110255647 0.030043403709795486 0.2976017611428298 -0.10822795254267852 0.4815525763646191 -1.2177591359336801 1.1978898070822839 -1.1970425101423752 0.01948103145767986 0.05356831700570939 0.0 0.0 0.0 0.1800000000000001
2336.904 0.01767200000000002 -1.5707963267948966 -1.5707963267948966 0.0 1.5707963267948966 0.0 0.1880000000000001 0.0 0.0 0.0 0.0 0.0 1.0000000000000009 0.0 0.0 0.0 0.0 0.0 0.38699106961924223 0.5455288799450657 0.7560792912890772 0.06790414794696326 0.0018945308107460904 0.0 0.8194996707433418 6.283673966713112 6.383722787196449 0.28027363722319587 0.007864921451088405 0.0 0.01737525314092636 -1.5707481543170374 -1.5707953611956995 -4.593526021778871e-06 1.5707316398620605 -9.614626039677887e-05 0.18306143581867218 0.0 -0.0 0.0 0.0 0.0 0.3364563286304474 0.5473023056983948 0.6786433458328247 -0.011189938522875309 -0.025736859068274498 -0.12532731890678406 0.3297272026538849 0.5585175156593323 0.6847434639930725 -0.008951950818300247 -0.027974845841526985 -0.12868429720401764 0.29771326981188545 -0.10788373575653977 0.4815667298936914 -1.2183153360906966 1.1969914982889163 -1.1963155588362073 0.01974935156907452 0.05449981863403553 0.0 0.0 0.0 0.18306143581867218 3.086170037232275 0.8561622499305651 1.7282019545184224 0.5898211596426047 -0.47836103107774997 0.06239359301193505 0.2977607502121313 -0.1077897656551923 0.4815525763646191 -1.2184471366776248 1.19680332970691 -1.1959573334646005 0.020264475943175913 0.0559790210398807 0.0 0.0 0.0 0.1880000000000001
2336.912 0.019208000000000024 -1.5707963267948966 -1.5707963267948966 0.0 1.5707963267948966 0.0 0.19600000000000012 0.0 0.0 0.0 0.0 0.0 1.0000000000000009 0.0 0.0 0.0 0.0 0.0 0.3904427062037343 0.5455779085188667 0.7560884488382538 0.06792288063025613 0.001896997110865797 0.0 0.8194996707433418 6.2842387023011685 6.383800106144378 0.28035095617115685 0.007875160005460959 0.0 0.018887139856815338 -1.5707724730121058 -1.5707476774798792 -5.2754079000294496e-05 1.5707556009292603 -3.5587941304981996e-05 0.19186265766620636 0.0 -0.0 0.0 0.0 0.0 0.3723450005054474 0.5360870957374573 0.6923686861991882 -0.01342792622745037 -0.02909383922815323 -0.12868429720401764 0.3947754204273224 0.5585175156593323 0.6847434639930725 -0.008951950818300247 -0.027974845841526985 -0.12980328500270844 0.2978840434269063 -0.10743142206131744 0.48156966841969706 -1.2190066965016644 1.195905029426039 -1.1951269930236887 0.020612078153543264 0.0571528242482419 0.0 0.0 0.0 0.19186265766620636 1.9799386944180977 -0.5897537902729447 1.0631585333773172 0.605669166810793 -0.44575650065272604 0.1958343292618328 0.29792596397427057 -0.10733227816875063 0.4815525763646191 -1.2191642824978934 1.1956694555848533 -1.1948248165242412 0.021037126521076595 0.05839348893895708 0.0 0.0 0.0 0.19600000000000012
2336.92 0.020808000000000024 -1.5707963267948966 -1.5707963267948966 0.0 1.5707963267948966 0.0 0.20400000000000013 0.0 0.0 0.0 0.0 0.0 1.0000000000000009 0.0 0.0 0.0 0.0 0.0 0.3938971966556902 0.5456289799499091 0.7560979879519792 0.06794239384201958 0.0018995661734904912 0.0 0.8194996707433418 6.284826968538727 6.383880646715136 0.28043149674194967 0.007885825166265702 0.0 0.020483287051320076 -1.5707600752459925 -1.5707953611956995 -7.659593691045075e-05 1.5707556009292603 -8.422533144170075e-05 0.1995709091424942 0.0 -0.0 0.0 0.0 0.0 0.3970184624195099 0.5540314316749573 0.6893185973167419 -0.008951950818300247 -0.027974845841526985 -0.12197033315896988 0.3947754204273224 0.5607605576515198 0.6847434639930725 -0.01007094420492649 -0.02909383922815323 -0.12980328500270844 0.29805717260816045 -0.10695572580187249 0.4815572758313482 -1.2198307438460791 1.194746090915735 -1.193958179340968 0.02134525143627298 0.059483540913851864 0.0 0.0 0.0 0.1995709091424942 3.0795769745870376 -2.3809817788381213 1.2900576287622634 0.5764484758390797 -0.49671642773559554 0.34012888754317794 0.29809731420091595 -0.10685545944448872 0.4815525763646191 -1.2199104755975227 1.1944881647156103 -1.1936449393119393 0.021798513726675267 0.06081185209698687 0.0 0.0 0.0 0.20400000000000013
2336.928 0.022472000000000027 -1.5707963267948966 -1.5707963267948966 0.0 1.5707963267948966 0.0 0.21200000000000013 0.0 0.0 0.0 0.0 0.0 1.0000000000000009 0.0 0.0 0.0 0.0 0.0 0.3973545409751099 0.5456820942381934 0.7561079086302538 0.06796268758225352 0.0019022379986201737 0.0 0.8194996707433418 6.285438765425788 6.383964408908725 0.280515258935574 0.007896916933502637 0.0 0.022151341661810875 -1.5707724730121058 -1.5707834402667444 7.152557373046875e-06 1.5707675218582153 -4.7985707418263246e-05 0.2107497900724411 0.0 -0.0 0.0 0.0 0.0 0.3611297905445099 0.5248718857765198 0.6679680347442627 -0.006713963113725185 -0.02685585245490074 -0.12980328500270844 0.3499145805835724 0.5607605576515198 0.6801683902740479 -0.012308932840824127 -0.03021283447742462 -0.12980328500270844 0.29823106364084184 -0.10645752407068088 0.48156402897941614 -1.2205251284636722 1.1934625061738349 -1.1927313353668412 0.02243590084952912 0.06285213405538824 0.0 0.0 0.0 0.2107497900724411 2.3116716412660017 0.3798685776324376 2.29605370151449 0.609964449480679 -0.34125244882079425 0.10672148712401648 0.2982747089032413 -0.10635927780678503 0.4815525763646191 -1.2206856141554903 1.1932594363163338 -1.1924176810355906 0.022548166895035887 0.06323423828748719 0.0 0.0 0.0 0.21200000000000013
2336.9359999999997 0.02420000000000003 -1.5707963267948966 -1.5707963267948966 0.0 1.5707963267948966 0.0 0.22000000000000014 0.0 0.0 0.0 0.0 0.0 1.0000000000000009 0.0 0.0 0.0 0.0 0.0 0.4008147391619935 0.5457372513837193 0.7561182108730773 0.06798376185095803 0.001905012586254844 0.0 0.8194996707433418 6.286074092962351 6.384051392725144 0.2806022427520302 0.00790843530717176 0.0 0.023854974657297134 -1.5707481543170374 -1.5707953611956995 -2.8912221090138246e-05 1.57077956199646 -4.7985707418263246e-05 0.21761435270309448 0.0 -0.0 0.0 0.0 0.0 0.3117828667163849 0.5495453476905823 0.6893185973167419 -0.006713963113725185 -0.031331829726696014 -0.1365172564983368 0.3117828667163849 0.5585175156593323 0.681693434715271 -0.01007094420492649 -0.03021283447742462 -0.12868429720401764 0.29840805708479046 -0.10594838874564017 0.4815647265408089 -1.2213411594804582 1.1922126271759894 -1.1914547527824588 0.02305589003681727 0.06493787618389472 0.0 0.0 0.0 0.21761435270309448 2.725008255069595 3.22544089646486 1.3605203009442632 0.6442925938320396 -0.4576669807005277 -0.10563204595216302 0.2984580523221825 -0.1058437005727961 0.4815525763646191 -1.2214895923328388 1.1919832488279978 -1.1911430201265003 0.023285614126016152 0.06566077151088019 0.0 0.0 0.0 0.22000000000000014
2336.944 0.025992000000000032 -1.5707963267948966 -1.5707963267948966 0.0 1.5707963267948966 0.0 0.22800000000000015 0.0 0.0 0.0 0.0 0.0 1.0000000000000009 0.0 0.0 0.0 0.0 0.0 0.4042777912163409 0.5457944513864871 0.75612889468045 0.06800561664813307 0.001907889936394501 0.0 0.8194996707433418 6.286732951148418 6.384141598164395 0.280692448191318 0.007920380287273071 0.0 0.02557096630334854 -1.5707481543170374 -1.5707953611956995 -6.467500795537262e-05 1.570719599723816 -5.990663637334137e-05 0.22585950791835785 0.0 -0.0 0.0 0.0 0.0 0.3207550346851349 0.5517883896827698 0.6694930791854858 -0.004475975409150124 -0.02909383922815323 -0.1376362442970276 0.3252411186695099 0.5585175156593323 0.6832184791564941 -0.006713963113725185 -0.027974845841526985 -0.12980328500270844 0.298592596164478 -0.10544102428183155 0.48156178328716165 -1.2221461792155832 1.1910095892661816 -1.190225189031457 0.02381485785870312 0.06743997683777395 0.0 0.0 0.0 0.22585950791835785 3.6222582269205454 2.501862773868732 2.2873118533149728 0.6500035776848714 -0.4452913730208278 -0.05428253701478212 0.2986472449184234 -0.1053086940832897 0.4815525763646191 -1.2223223002790287 1.190659579921786 -1.1898209342457704 0.024010382250990423 0.06809157184140055 0.0 0.0 0.0 0.22800000000000015
2336.9519999999998 0.027848000000000036 -1.5707963267948966 -1.5707963267948966 0.0 1.5707963267948966 0.0 0.23600000000000015 0.0 0.0 0.0 0.0 0.0 1.0000000000000009 0.0 0.0 0.0 0.0 0.0 0.4077436971381521 0.5458536942464964 0.7561399600523716 0.06802825197377864 0.0019108700490391472 0.0 0.8194996707433418 6.287415339983986 6.3842350252264755 0.28078587525343757 0.007932751873806576 0.0 0.027454735711216927 -1.5707600752459925 -1.5707715193377894 -4.0356312887013246e-05 1.5707556009292603 -2.366701234990387e-05 0.23362527787685394 0.0 -0.0 0.0 0.0 0.0 0.2893524467945099 0.5697327256202698 0.6954187750816345 -0.007832957431674004 -0.025736859068274498 -0.134279265999794 0.2871094048023224 0.5562744736671448 0.6832184791564941 -0.008951950818300247 -0.031331829726696014 -0.12980328500270844 0.2987904267519153 -0.10487542333996401 0.4815673075304425 -1.2229839903617084 1.1895826591677023 -1.1887987997589093 0.024501549920250106 0.06980499647686 0.0 0.0 0.0 0.23362527787685394 3.5030228443050166 4.7099975478181255 1.0722527189442794 0.6381362086087782 -0.5555168057435601 -0.25133945713569367 0.29884218336211815 -0.10475422373467018 0.4815525763646191 -1.223183624138512 1.1892884065057128 -1.1884514002909146 0.024721996801382977 0.07052675527345995 0.0 0.0 0.0 0.23600000000000015
2336.96 0.02976800000000004 -1.5707963267948966 -1.5707963267948966 0.0 1.5707963267948966 0.0 0.24400000000000016 0.0 0.0 0.0 0.0 0.0 1.0000000000000009 0.0 0.0 0.0 0.0 0.0 0.4112124569274272 0.5459149799637475 0.7561514069888422 0.06805166782789475 0.0019139529241887809 0.0 0.8194996707433418 6.288121259469056 6.384331673911386 0.28088252393838886 0.007945550066772271 0.0 0.029338881373405457 -1.5707600752459925 -1.570735279713766 -1.6514454976856996e-05 1.5707435607910156 -4.7985707418263246e-05 0.24148693680763245 0.0 -0.0 0.0 0.0 0.0 0.2826233208179474 0.5854340195655823 0.6801683902740479 -0.012308932840824127 -0.034688808023929596 -0.1376362442970276 0.2758941948413849 0.5607605576515198 0.6832184791564941 -0.008951950818300247 -0.031331829726696014 -0.13204127550125122 0.2989823876770061 -0.10431345737063387 0.4815799832359021 -1.2238245746891756 1.1881442129816437 -1.1874630727296962 0.025190337288247183 0.07220034095955219 0.0 0.0 0.0 0.24148693680763245 4.923237272861629 4.426235648314044 1.6536264178922826 0.6575753835960946 -0.648038473998769 -0.18236618187253387 0.2990427605223723 -0.10418025401223226 0.4815525763646191 -1.2240734460575313 1.187869704731467 -1.1870343944026962 0.025419981978983472 0.07296643356745887 0.0 0.0 0.0 0.24400000000000016
2336.968 0.031752000000000044 -1.5707963267948966 -1.5707963267948966 0.0 1.5707963267948966 0.0 0.25200000000000017 0.0 0.0 0.0 0.0 0.0 1.0000000000000009 0.0 0.0 0.0 0.0 0.0 0.41468407058416606 0.5459783085382403 0.756163235489862 0.06807586421048141 0.001917138561843401 0.0 0.819499670743342 6.288850709603629 6.384431544219127 0.2809823942461719 0.00795877486617015 0.0 0.03131889924407005 -1.5707362333880823 -1.5707834402667444 -5.2754079000294496e-05 1.570719599723816 -7.230440248662262e-05 0.24915683269500732 0.0 -0.0 0.0 0.0 0.0 0.2803802788257599 0.5271149277687073 0.6877935528755188 -0.008951950818300247 -0.0335698164999485 -0.13092228770256042 0.2758941948413849 0.5540314316749573 0.6832184791564941 -0.008951950818300247 -0.031331829726696014 -0.13092228770256042 0.2991877631179808 -0.10372320702431385 0.4815698137194109 -1.2247930115075896 1.186730556950887 -1.18600904766263 0.025843345739146976 0.07454467543958017 0.0 0.0 0.0 0.24915683269500732 1.4675718557357684 6.487562741581274 1.391248142983029 0.6187077538770958 -0.36539398770599985 -0.3651297786314928 0.2992488654564955 -0.10358674852457794 0.4815525763646191 -1.2249916441911317 1.1864034500014826 -1.1855698919721949 0.026103860628194798 0.07541071409503688 0.0 0.0 0.0 0.25200000000000017
2336.976 0.033800000000000045 -1.5707963267948966 -1.5707963267948966 0.0 1.5707963267948966 0.0 0.2600000000000002 0.0 0.0 0.0 0.0 0.0 1.0000000000000009 0.0 0.0 0.0 0.0 0.0 0.4181585381083688 0.5460436799699749 0.7561754455554307 0.06810084112153862 0.0019204269620030107 0.0 0.819499670743342 6.289603690387706 6.384534636149699 0.28108548617678664 0.007972426272000224 0.0 0.03334685415029526 -1.5707362333880823 -1.5707595984088343 -1.6514454976856996e-05 1.5707556009292603 -8.422533144170075e-05 0.25790053606033325 0.0 -0.0 0.0 0.0 0.0 0.3117828667163849 0.5562744736671448 0.6862685084342957 -0.008951950818300247 -0.031331829726696014 -0.12197033315896988 0.3095398247241974 0.5630035996437073 0.6801683902740479 -0.008951950818300247 -0.02685585245490074 -0.12868429720401764 0.2993922657519147 -0.10311349169471945 0.48157984429969103 -1.225710755435836 1.1851558371809783 -1.1845219415035342 0.0265930247831199 0.07721342582973643 0.0 0.0 0.0 0.25790053606033325 3.130096597233067 4.066415445279806 1.451684412178259 0.5825198998685455 -0.49666442148967677 -0.17146960936323413 0.2994603833990359 -0.10297367003946274 0.4815525763646191 -1.2259380927103964 1.184889616976226 -1.1840578676480906 0.026773154210260677 0.07785969968374942 0.0 0.0 0.0 0.2600000000000002
2336.984 0.03591200000000005 -1.5707963267948966 -1.5707963267948966 0.0 1.5707963267948966 0.0 0.2680000000000002 0.0 0.0 0.0 0.0 0.0 1.0000000000000009 0.0 0.0 0.0 0.0 0.0 0.4216358595000353 0.546111094258951 0.7561880371855484 0.06812659856106631 0.001923818124667607 0.0 0.8194996707433418 6.290380201821283 6.3846409497031 0.28119179973023295 0.007986504284262485 0.0 0.03544671833515167 -1.5707600752459925 -1.5707595984088343 -1.6514454976856996e-05 1.5707556009292603 -1.1746083394825746e-05 0.26543620228767395 0.0 -0.0 0.0 0.0 0.0 0.3656158745288849 0.5293579697608948 0.6801683902740479 -0.021260883659124374 -0.02909383922815323 -0.12197033315896988 0.3611297905445099 0.5562744736671448 0.6832184791564941 -0.011189938522875309 -0.031331829726696014 -0.12980328500270844 0.29961598417561414 -0.10248429474382692 0.48157279437657136 -1.2266454370732514 1.1836559512134577 -1.1829068096622606 0.027203041990930796 0.07952892898425885 0.0 0.0 0.0 0.26543620228767395 2.0086935101453967 1.6784706819489794 1.4439128088843525 0.5821607768343017 -0.4510074902917269 0.012054622447607808 0.29967719575061974 -0.10234098052069732 0.4815525763646191 -1.2269126618098873 1.1833281795817092 -1.1824982953441674 0.027427382779547257 0.0803134884611662 0.0 0.0 0.0 0.2680000000000002
2336.9919999999997 0.03808800000000005 -1.5707963267948966 -1.5707963267948966 0.0 1.5707963267948966 0.0 0.2760000000000002 0.0 0.0 0.0 0.0 0.0 1.0000000000000009 0.0 0.0 0.0 0.0 0.0 0.4251160347591657 0.546180551405169 0.7562010103802153 0.06815313652906459 0.0019273120498371915 0.0 0.8194996707433418 6.291180243904363 6.384750484879333 0.28130133490651105 0.008001008902956937 0.0 0.037642452865839005 -1.5707362333880823 -1.5707715193377894 -1.6514454976856996e-05 1.57077956199646 -5.990663637334137e-05 0.27343207597732544 0.0 -0.0 0.0 0.0 0.0 0.3723450005054474 0.5674896836280823 0.6893185973167419 -0.007832957431674004 -0.031331829726696014 -0.12197033315896988 0.3633728325366974 0.5585175156593323 0.6847434639930725 -0.007832957431674004 -0.02909383922815323 -0.12980328500270844 0.29983338471245163 -0.10182445118030536 0.48157631994720623 -1.2276942691556278 1.1819825682468446 -1.1813084823779847 0.027842071071477514 0.08198406482923372 0.0 0.0 0.0 0.27343207597732544 3.703750436393878 0.624008568994718 1.3274371958098234 0.5866045157420616 -0.5387515795033905 0.11477550355929177 0.29989918006660576 -0.10168864116641284 0.4815525763646191 -1.2279152177153065 1.1817191110172167 -1.1808911482470361 0.028066064961927796 0.08277217369838333 0.0 0.0 0.0 0.2760000000000002
