Fleaurent/UniversalRobot/csv/robot_movel_x400.csv
timestamp target_q_0 target_q_1 target_q_2 target_q_3 target_q_4 target_q_5 target_qd_0 target_qd_1 target_qd_2 target_qd_3 target_qd_4 target_qd_5 target_qdd_0 target_qdd_1 target_qdd_2 target_qdd_3 target_qdd_4 target_qdd_5 target_current_0 target_current_1 target_current_2 target_current_3 target_current_4 target_current_5 target_moment_0 target_moment_1 target_moment_2 target_moment_3 target_moment_4 target_moment_5 actual_q_0 actual_q_1 actual_q_2 actual_q_3 actual_q_4 actual_q_5 actual_qd_0 actual_qd_1 actual_qd_2 actual_qd_3 actual_qd_4 actual_qd_5 actual_current_0 actual_current_1 actual_current_2 actual_current_3 actual_current_4 actual_current_5 joint_control_output_0 joint_control_output_1 joint_control_output_2 joint_control_output_3 joint_control_output_4 joint_control_output_5 actual_TCP_pose_0 actual_TCP_pose_1 actual_TCP_pose_2 actual_TCP_pose_3 actual_TCP_pose_4 actual_TCP_pose_5 actual_TCP_speed_0 actual_TCP_speed_1 actual_TCP_speed_2 actual_TCP_speed_3 actual_TCP_speed_4 actual_TCP_speed_5 actual_TCP_force_0 actual_TCP_force_1 actual_TCP_force_2 actual_TCP_force_3 actual_TCP_force_4 actual_TCP_force_5 target_TCP_pose_0 target_TCP_pose_1 target_TCP_pose_2 target_TCP_pose_3 target_TCP_pose_4 target_TCP_pose_5 target_TCP_speed_0 target_TCP_speed_1 target_TCP_speed_2 target_TCP_speed_3 target_TCP_speed_4 target_TCP_speed_5
7472.496 2.0040668895952227 -1.2681436964003545 1.6023884899835643 -3.4883903221882977 -0.43647794646519067 0.013533932858068809 0.0 0.0 0.0 0.0 0.0 -0.0 0.0 -2.1372448179472046e-24 -5.55192332018469e-25 -1.1595167288173339e-24 -8.930244094484684e-23 1.5918788988848136e-24 -1.3191994784386653e-17 -0.8076160409877992 -0.6959134328121296 -0.026664347127374085 -0.0007982540588437365 2.7472493860286564e-26 -1.5139132401209612e-16 -9.302524721268599 -5.875730879210599 -0.11005680476851082 -0.003313857676638181 1.1367129653266789e-25 2.0040347576141357 -1.2681601683246058 1.6024508476257324 -3.488499466572897 -0.4365299383746546 0.013490118086338043 0.00155315559823066 0.00013422331539914012 -0.00014381069922819734 -0.0005033374764025211 -0.0004074636672157794 0.00016777915880084038 0.0964508131146431 -0.6908569931983948 -0.8189471364021301 -0.1678490787744522 0.02014188840985298 0.17232505977153778 0.0942077711224556 -0.6841278672218323 -0.8433477878570557 -0.17568203806877136 0.015665914863348007 0.17456303536891937 0.2999882770789447 -0.20000259839631293 0.399994158957704 -1.2091133340717168 1.2090423192856539 -1.2091977742212403 0.00030551881279382266 0.00044338485399049926 1.0007236299436331e-05 -0.0002965063353370199 -0.00022249821322937365 0.001148918156114433 -12.35021372370215 6.433829966821831 1.297155932211098 -0.7997787397491887 5.594778089190596 -0.7010341996987888 0.3000000000000108 -0.19999999999999457 0.4000000000000003 -1.209098722231301 1.2090487305533746 -1.209048730553376 0.0 0.0 0.0 0.0 0.0 0.0
7472.504 2.0040668895952227 -1.2681436964003545 1.6023884899835643 -3.4883903221882977 -0.43647794646519067 0.013533932858068809 0.0 0.0 0.0 0.0 0.0 -0.0 0.0 0.0 0.0 0.0 0.0 0.0 -1.3191994784386653e-17 -0.8076160409877992 -0.6959134328121296 -0.026664347127374085 -0.0007982540588437365 0.0 -1.5139132401209612e-16 -9.302524721268599 -5.875730879210599 -0.11005680476851082 -0.003313857676638181 0.0 2.0040228366851807 -1.2681601683246058 1.6024508476257324 -3.4884875456439417 -0.4365299383746546 0.013454165309667587 0.00155315559823066 0.00011504856229294091 -0.00014381069922819734 -0.0004793690168298781 -0.0003834952076431364 0.00016777915880084038 0.0785064771771431 -0.6886139512062073 -0.8402976989746094 -0.17344404757022858 0.02014188840985298 0.17680102586746216 0.0762634351849556 -0.6818848252296448 -0.8433477878570557 -0.17568203806877136 0.017903901636600494 0.17456303536891937 0.29998632354444155 -0.20000710312830297 0.3999937555503589 -1.2091298949388514 1.2090429689188105 -1.209222743783018 0.00030440265479949225 0.00044781040790753727 1.5067128321488292e-05 -0.0002922204714866866 -0.0002200838770621316 0.001172770800404129 -12.477030761051799 7.632159018392627 0.8154655134305049 -0.8204848820287469 5.892210606848234 -0.8041937130256718 0.3000000000000108 -0.19999999999999457 0.4000000000000003 -1.209098722231301 1.2090487305533746 -1.209048730553376 0.0 0.0 0.0 0.0 0.0 0.0
7472.512 2.0040668895952227 -1.2681436964003545 1.6023884899835643 -3.4883903221882977 -0.43647794646519067 0.013533932858068809 0.0 0.0 0.0 0.0 0.0 -0.0 0.0 0.0 0.0 0.0 0.0 0.0 -1.3191994784386653e-17 -0.8076160409877992 -0.6959134328121296 -0.026664347127374085 -0.0007982540588437365 0.0 -1.5139132401209612e-16 -9.302524721268599 -5.875730879210599 -0.11005680476851082 -0.003313857676638181 0.0 2.0040228366851807 -1.2681601683246058 1.602402687072754 -3.4884875456439417 -0.43649417558778936 0.013454165309667587 0.00155315559823066 0.00011504856229294091 -0.00014381069922819734 -0.00045540055725723505 -0.00035952674807049334 0.00016777915880084038 0.0583190992474556 -0.6975861191749573 -0.8357225656509399 -0.18127700686454773 0.014546919614076614 0.17568203806877136 0.0650482252240181 -0.6796417832374573 -0.8433477878570557 -0.17680102586746216 0.01678490824997425 0.17456303536891937 0.2999860471506837 -0.2000034690337208 0.4000050366553482 -1.2091644884793338 1.2089812666569038 -1.209237846817402 0.0003052655815436412 0.0004479177040435128 1.4227593450050523e-05 -0.00027051913564303786 -0.0002096379373709505 0.00119660442784193 -11.124159223898129 7.4599577304087346 0.9529306723992432 -0.8154898939245626 5.8314847461370665 -0.763406373540812 0.3000000000000108 -0.19999999999999457 0.4000000000000003 -1.209098722231301 1.2090487305533746 -1.209048730553376 0.0 0.0 0.0 0.0 0.0 0.0
7472.5199999999995 2.0040668895952227 -1.2681436964003545 1.6023884899835643 -3.4883903221882977 -0.43647794646519067 0.013533932858068809 0.0 0.0 0.0 0.0 0.0 -0.0 0.0 0.0 0.0 0.0 0.0 0.0 -1.3191994784386653e-17 -0.8076160409877992 -0.6959134328121296 -0.026664347127374085 -0.0007982540588437365 0.0 -1.5139132401209612e-16 -9.302524721268599 -5.875730879210599 -0.11005680476851082 -0.003313857676638181 0.0 2.0040347576141357 -1.2681363264666956 1.6024866104125977 -3.4884632269488733 -0.4364703337298792 0.013478133827447891 0.0013614079216495156 0.00011504856229294091 -0.00014381069922819734 -0.00043143212678842247 -0.00035952674807049334 0.00016777915880084038 0.0672912672162056 -0.6482391953468323 -0.8204721808433533 -0.18239599466323853 0.019022895023226738 0.17680102586746216 0.0650482252240181 -0.6796417832374573 -0.8433477878570557 -0.17680102586746216 0.01678490824997425 0.17456303536891937 0.2999922739349482 -0.2000063976873109 0.3999771274405234 -1.2091165369261252 1.209064425137607 -1.2090795429770427 0.0002677873783628805 0.0003885350942214066 1.3416646052853233e-05 -0.0002488162208530903 -0.00019946054120050695 0.0010047104245100133 -12.77786201403179 8.563484805557305 2.2903410816737497 -0.820982362034277 6.305382455763873 -0.8791638559374282 0.3000000000000108 -0.19999999999999457 0.4000000000000003 -1.209098722231301 1.2090487305533746 -1.209048730553376 0.0 0.0 0.0 0.0 0.0 0.0
7472.527999999999 2.0040668895952227 -1.2681436964003545 1.6023884899835643 -3.4883903221882977 -0.43647794646519067 0.013533932858068809 0.0 0.0 0.0 0.0 0.0 -0.0 0.0 0.0 0.0 0.0 0.0 0.0 -1.3191994784386653e-17 -0.8076160409877992 -0.6959134328121296 -0.026664347127374085 -0.0007982540588437365 0.0 -1.5139132401209612e-16 -9.302524721268599 -5.875730879210599 -0.11005680476851082 -0.003313857676638181 0.0 2.0040106773376465 -1.2680886427508753 1.6024270057678223 -3.4884751478778284 -0.43650609651674444 0.013490118086338043 0.001035437104292214 0.00011504856229294091 -0.00014381069922819734 -0.0004074636672157794 -0.00033555831760168076 0.00016777915880084038 0.0672912672162056 -0.6751556992530823 -0.8113219141960144 -0.1678490787744522 0.019022895023226738 0.17456303536891937 0.0650482252240181 -0.6818848252296448 -0.8433477878570557 -0.17232505977153778 0.014546919614076614 0.17456303536891937 0.299991629488582 -0.20002553353744948 0.3999769151119585 -1.2090875778474213 1.2090960069333794 -1.2091355147591814 0.0002034769495681038 0.00029085338386530775 1.2578710281909463e-05 -0.00022712256830913422 -0.00018901431161651492 0.0007025715016755172 -11.44030773263819 7.303765382302388 1.7921543716033224 -0.8101835487609981 5.738540153979271 -0.7685535482685169 0.3000000000000108 -0.19999999999999457 0.4000000000000003 -1.209098722231301 1.2090487305533746 -1.209048730553376 0.0 0.0 0.0 0.0 0.0 0.0
7472.536 2.0040668895952227 -1.2681436964003545 1.6023884899835643 -3.4883903221882977 -0.43647794646519067 0.013533932858068809 0.0 0.0 0.0 0.0 0.0 -0.0 0.0 0.0 0.0 0.0 0.0 0.0 -1.3191994784386653e-17 -0.8076160409877992 -0.6959134328121296 -0.026664347127374085 -0.0007982540588437365 0.0 -1.5139132401209612e-16 -9.302524721268599 -5.875730879210599 -0.11005680476851082 -0.003313857676638181 0.0 2.0040106773376465 -1.2681244055377405 1.6024746894836426 -3.4884513060199183 -0.43644601503481084 0.01346614956855774 0.0008436894277110696 0.00011504856229294091 -0.00014381069922819734 -0.0003834952076431364 -0.0003115898580290377 0.00016777915880084038 0.0740203931927681 -0.7334747910499573 -0.8585981726646423 -0.17232505977153778 0.01678490824997425 0.17456303536891937 0.0672912672162056 -0.6818848252296448 -0.8433477878570557 -0.17344404757022858 0.01342792622745037 0.17456303536891937 0.2999890588387273 -0.2000150638929236 0.39997583296898914 -1.209121447721735 1.2090676546326178 -1.2090777574315197 0.00016598350840214238 0.00023343449696475985 1.1740626917702488e-05 -0.00020543250564274373 -0.000178540154397427 0.0005346510992495245 -11.297956216508299 6.722282043792624 -0.531426885745874 -0.8105100923400804 5.483691555416555 -0.7092722201460102 0.3000000000000108 -0.19999999999999457 0.4000000000000003 -1.209098722231301 1.2090487305533746 -1.209048730553376 0.0 0.0 0.0 0.0 0.0 0.0
7472.544 2.0040668895952227 -1.2681436964003545 1.6023884899835643 -3.4883903221882977 -0.43647794646519067 0.013533932858068809 0.0 0.0 0.0 0.0 0.0 -0.0 0.0 0.0 0.0 0.0 0.0 0.0 -1.3191994784386653e-17 -0.8076160409877992 -0.6959134328121296 -0.026664347127374085 -0.0007982540588437365 0.0 -1.5139132401209612e-16 -9.302524721268599 -5.875730879210599 -0.11005680476851082 -0.003313857676638181 0.0 2.0040228366851807 -1.2681005636798304 1.6024627685546875 -3.4884513060199183 -0.43649417558778936 0.013478133827447891 0.0007094661123119295 0.00011504856229294091 -0.00014381069922819734 -0.00035952674807049334 -0.0003115898580290377 0.00014381069922819734 0.0740203931927681 -0.6796417832374573 -0.8494479656219482 -0.17568203806877136 0.02014188840985298 0.17792002856731415 0.0672912672162056 -0.6818848252296448 -0.8433477878570557 -0.17344404757022858 0.02014188840985298 0.17456303536891937 0.29999389341651017 -0.20002058547480217 0.3999713550466398 -1.2090907975778533 1.2091081618097377 -1.2090853701831719 0.00014000570189489936 0.0001913053582931335 1.0930319087389998e-05 -0.00020767982956712019 -0.00016841630016120745 0.00040028842618335467 -12.986464661347847 8.376559474764074 0.7469730841300707 -0.8259369363080288 6.102638917831763 -0.8677790165433162 0.3000000000000108 -0.19999999999999457 0.4000000000000003 -1.209098722231301 1.2090487305533746 -1.209048730553376 0.0 0.0 0.0 0.0 0.0 0.0
7472.552 2.0040668895952227 -1.2681436964003545 1.6023884899835643 -3.4883903221882977 -0.43647794646519067 0.013533932858068809 0.0 0.0 0.0 0.0 0.0 -0.0 0.0 0.0 0.0 0.0 0.0 0.0 -1.3191994784386653e-17 -0.8076160409877992 -0.6959134328121296 -0.026664347127374085 -0.0007982540588437365 0.0 -1.5139132401209612e-16 -9.302524721268599 -5.875730879210599 -0.11005680476851082 -0.003313857676638181 0.0 2.0040106773376465 -1.2681487242328089 1.6024627685546875 -3.4884513060199183 -0.43650609651674444 0.013490118086338043 0.0005944175645709038 9.58738019107841e-05 -0.00014381069922819734 -0.00035952674807049334 -0.00028762139845639467 0.00014381069922819734 0.0672912672162056 -0.6818848252296448 -0.8494479656219482 -0.17232505977153778 0.017903901636600494 0.17792002856731415 0.0672912672162056 -0.6818848252296448 -0.8433477878570557 -0.17344404757022858 0.014546919614076614 0.17232505977153778 0.299986460137682 -0.2000143601827595 0.39998618083561144 -1.2090877957739914 1.2090958484070442 -1.2091360438935028 0.00011500027051676138 0.00016308326948819083 1.6802599424743463e-05 -0.00022510504980963373 -0.0001761572071445015 0.00030923286869897674 -12.663436743147308 8.427495992073158 0.6370965453585993 -0.8257685372814505 6.038802512558749 -0.8611042204739832 0.3000000000000108 -0.19999999999999457 0.4000000000000003 -1.209098722231301 1.2090487305533746 -1.209048730553376 0.0 0.0 0.0 0.0 0.0 0.0
7472.5599999999995 2.0040668895952227 -1.2681436964003545 1.6023884899835643 -3.4883903221882977 -0.43647794646519067 0.013533932858068809 0.0 0.0 0.0 0.0 0.0 -0.0 0.0 0.0 0.0 0.0 0.0 0.0 -1.3191994784386653e-17 -0.8076160409877992 -0.6959134328121296 -0.026664347127374085 -0.0007982540588437365 0.0 -1.5139132401209612e-16 -9.302524721268599 -5.875730879210599 -0.11005680476851082 -0.003313857676638181 0.0 2.0040228366851807 -1.2681363264666956 1.6024627685546875 -3.488523308430807 -0.4365299383746546 0.01346614956855774 0.0005368932615965605 9.58738019107841e-05 -0.00011984225420746952 -0.00035952674807049334 -0.00028762139845639467 0.00014381069922819734 0.0672912672162056 -0.6729126572608948 -0.8479229211807251 -0.17792002856731415 0.015665914863348007 0.170087069272995 0.0695343092083931 -0.6818848252296448 -0.8433477878570557 -0.17680102586746216 0.015665914863348007 0.17344404757022858 0.2999875760269213 -0.20000986157111714 0.3999848308149129 -1.209121036014928 1.2090484884127908 -1.2092138298340838 0.00010363032351321669 0.0001454854319555615 1.1168134036450532e-05 -0.0002033566902667928 -0.0001660843916498551 0.0002516344524773794 -12.963028387021726 8.659001715983067 0.9554601663598681 -0.7893436792945868 6.115490240237062 -0.8706981502429454 0.3000000000000108 -0.19999999999999457 0.4000000000000003 -1.209098722231301 1.2090487305533746 -1.209048730553376 0.0 0.0 0.0 0.0 0.0 0.0
7472.567999999999 2.0040668895952227 -1.2681436964003545 1.6023884899835643 -3.4883903221882977 -0.43647794646519067 0.013533932858068809 0.0 0.0 0.0 0.0 0.0 -0.0 0.0 0.0 0.0 0.0 0.0 0.0 -1.3191994784386653e-17 -0.8076160409877992 -0.6959134328121296 -0.026664347127374085 -0.0007982540588437365 0.0 -1.5139132401209612e-16 -9.302524721268599 -5.875730879210599 -0.11005680476851082 -0.003313857676638181 0.0 2.0040347576141357 -1.2681244055377405 1.6024985313415527 -3.4884875456439417 -0.43654185930360967 0.01350247673690319 0.0004793690168298781 9.58738019107841e-05 -0.00011984225420746952 -0.00035952674807049334 -0.0002636529679875821 0.00014381069922819734 0.0785064771771431 -0.7065582871437073 -0.8402976989746094 -0.17344404757022858 0.022379877045750618 0.17456303536891937 0.0740203931927681 -0.6818848252296448 -0.8433477878570557 -0.17344404757022858 0.015665914863348007 0.17232505977153778 0.29999269630143927 -0.2000132506602766 0.39997156057209454 -1.2090641904858261 1.2091274835055004 -1.2091150394429506 9.212896206239208e-05 0.00013020398673743515 1.114271255309285e-05 -0.00020339040896696683 -0.0001657466319135307 0.000218071106487197 -11.738082846861474 6.986637018952468 0.5034880970991361 -0.8101192010895417 5.663349275165898 -0.7583131372269868 0.3000000000000108 -0.19999999999999457 0.4000000000000003 -1.209098722231301 1.2090487305533746 -1.209048730553376 0.0 0.0 0.0 0.0 0.0 0.0
7472.576 2.0040668895952227 -1.2681436964003545 1.6023884899835643 -3.4883903221882977 -0.43647794646519067 0.013533932858068809 0.0 0.0 0.0 0.0 0.0 -0.0 0.0 0.0 0.0 0.0 0.0 0.0 -1.3191994784386653e-17 -0.8076160409877992 -0.6959134328121296 -0.026664347127374085 -0.0007982540588437365 0.0 -1.5139132401209612e-16 -9.302524721268599 -5.875730879210599 -0.11005680476851082 -0.003313857676638181 0.0 2.0039987564086914 -1.2681487242328089 1.6024389266967773 -3.488511387501852 -0.4365180174456995 0.013538429513573647 0.0004218447138555348 9.58738019107841e-05 -0.00011984225420746952 -0.00035952674807049334 -0.0002636529679875821 0.00014381069922819734 0.0717773512005806 -0.6908569931983948 -0.8585981726646423 -0.17232505977153778 0.02014188840985298 0.17680102586746216 0.0717773512005806 -0.6841278672218323 -0.8433477878570557 -0.17344404757022858 0.017903901636600494 0.17344404757022858 0.29998176596740145 -0.2000138969022066 0.3999938315784638 -1.2090709469044154 1.2090737547309476 -1.2091905480775376 8.062293356315956e-05 0.00011294413559754787 1.1141288074753014e-05 -0.00020338445039129777 -0.0001657615064264797 0.00016055371506491553 -12.825518416242655 8.360725280489993 0.20991899537339753 -0.8204020836360362 5.994809832681938 -0.8663445195367717 0.3000000000000108 -0.19999999999999457 0.4000000000000003 -1.209098722231301 1.2090487305533746 -1.209048730553376 0.0 0.0 0.0 0.0 0.0 0.0
7472.584 2.0040668895952227 -1.2681436964003545 1.6023884899835643 -3.4883903221882977 -0.43647794646519067 0.013533932858068809 0.0 0.0 0.0 0.0 0.0 -0.0 0.0 0.0 0.0 0.0 0.0 0.0 -1.3191994784386653e-17 -0.8076160409877992 -0.6959134328121296 -0.026664347127374085 -0.0007982540588437365 0.0 -1.5139132401209612e-16 -9.302524721268599 -5.875730879210599 -0.11005680476851082 -0.003313857676638181 0.0 2.0040106773376465 -1.2681363264666956 1.6024627685546875 -3.488499466572897 -0.4364703337298792 0.013490118086338043 0.0003834952076431364 9.58738019107841e-05 -0.00011984225420746952 -0.00035952674807049334 -0.0002636529679875821 0.00014381069922819734 0.0560760572552681 -0.6886139512062073 -0.8601232171058655 -0.1667300909757614 0.017903901636600494 0.17344404757022858 0.0628051832318306 -0.6818848252296448 -0.8433477878570557 -0.17344404757022858 0.01678490824997425 0.17344404757022858 0.29998601026564503 -0.20001045790035307 0.3999839581161775 -1.20911789865764 1.2090431852063104 -1.2091403363236006 7.295268589559301e-05 0.00010144088916178273 1.1140225454159307e-05 -0.00020338780448457585 -0.00016574562259891081 0.0001222010069317211 -12.371438332079299 8.819613803225847 0.08680536889174702 -0.8051927573707436 5.936305390844022 -0.8928760004419112 0.3000000000000108 -0.19999999999999457 0.4000000000000003 -1.209098722231301 1.2090487305533746 -1.209048730553376 0.0 0.0 0.0 0.0 0.0 0.0
7472.592 2.0040668895952227 -1.2681436964003545 1.6023884899835643 -3.4883903221882977 -0.43647794646519067 0.013533932858068809 0.0 0.0 0.0 0.0 0.0 -0.0 0.0 0.0 0.0 0.0 0.0 0.0 -1.3191994784386653e-17 -0.8076160409877992 -0.6959134328121296 -0.026664347127374085 -0.0007982540588437365 0.0 -1.5139132401209612e-16 -9.302524721268599 -5.875730879210599 -0.11005680476851082 -0.003313857676638181 0.0 2.004046678543091 -1.2681244055377405 1.6024508476257324 -3.4884513060199183 -0.4364703337298792 0.013478133827447891 0.0003451456723269075 9.58738019107841e-05 -0.00011984225420746952 -0.00035952674807049334 -0.00023968450841493905 0.00014381069922819734 0.0740203931927681 -0.6729126572608948 -0.846397876739502 -0.1667300909757614 0.01678490824997425 0.17568203806877136 0.0695343092083931 -0.6841278672218323 -0.8433477878570557 -0.17344404757022858 0.015665914863348007 0.17344404757022858 0.2999961194945748 -0.20000592578861606 0.3999814640579002 -1.2091264576829481 1.2090468147844295 -1.2090810731269053 6.528336946793e-05 9.191325417827756e-05 1.1114205189278521e-05 -0.00020341291557821956 -0.00016542099945518625 0.0001078146809735605 -13.2345318004283 8.528477276382548 0.7702400497757604 -0.8158233317033373 6.033818608844956 -0.8639478940734113 0.3000000000000108 -0.19999999999999457 0.4000000000000003 -1.209098722231301 1.2090487305533746 -1.209048730553376 0.0 0.0 0.0 0.0 0.0 0.0
7472.599999999999 2.0040668895952227 -1.2681436964003545 1.6023884899835643 -3.4883903221882977 -0.43647794646519067 0.013533932858068809 0.0 0.0 0.0 0.0 0.0 -0.0 0.0 0.0 0.0 0.0 0.0 0.0 -1.3191994784386653e-17 -0.8076160409877992 -0.6959134328121296 -0.026664347127374085 -0.0007982540588437365 0.0 -1.5139132401209612e-16 -9.302524721268599 -5.875730879210599 -0.11005680476851082 -0.003313857676638181 0.0 2.0040347576141357 -1.2681124846087855 1.6024389266967773 -3.4884632269488733 -0.4365180174456995 0.01350247673690319 0.00032597093377262354 9.58738019107841e-05 -0.00011984225420746952 -0.00035952674807049334 -0.00023968450841493905 0.00014381069922819734 0.0717773512005806 -0.6706696152687073 -0.8128469586372375 -0.17792002856731415 0.03021283447742462 0.17344404757022858 0.0717773512005806 -0.6818848252296448 -0.8433477878570557 -0.17344404757022858 0.017903901636600494 0.17344404757022858 0.29999446941249797 -0.20001501668115165 0.39998105571797804 -1.209084120008845 1.2090928680992026 -1.209117573903726 6.145008857297671e-05 8.61606494304319e-05 1.1115122493169546e-05 -0.00020341366983455433 -0.00016542801568297048 8.864078838183898e-05 -11.639863469102819 7.469508989880762 2.0322839303062703 -0.8050684820611679 5.903436640125871 -0.8362252036028599 0.3000000000000108 -0.19999999999999457 0.4000000000000003 -1.209098722231301 1.2090487305533746 -1.209048730553376 0.0 0.0 0.0 0.0 0.0 0.0
7472.607999999999 2.0040668895952227 -1.2681436964003545 1.6023884899835643 -3.4883903221882977 -0.43647794646519067 0.013533932858068809 0.0 0.0 0.0 0.0 0.0 -0.0 0.0 0.0 0.0 0.0 0.0 0.0 -1.3191994784386653e-17 -0.8076160409877992 -0.6959134328121296 -0.026664347127374085 -0.0007982540588437365 0.0 -1.5139132401209612e-16 -9.302524721268599 -5.875730879210599 -0.11005680476851082 -0.003313857676638181 0.0 2.0040228366851807 -1.2681244055377405 1.6024389266967773 -3.488439385090963 -0.4365299383746546 0.013526445254683495 0.0003067961661145091 7.669904152862728e-05 -0.00011984225420746952 -0.00035952674807049334 -0.00023968450841493905 0.00011984225420746952 0.0650482252240181 -0.7312317490577698 -0.8509729504585266 -0.170087069272995 0.021260883659124374 0.17568203806877136 0.0695343092083931 -0.6818848252296448 -0.8433477878570557 -0.17344404757022858 0.01678490824997425 0.17344404757022858 0.299991707707524 -0.20001874491112281 0.3999839284367549 -1.2090508100472501 1.2091305688345322 -1.209107293099623 5.5624825881281916e-05 8.472915076415731e-05 1.7013539243802427e-05 -0.0002447888160610298 -0.00017347545273068205 6.948610211258074e-05 -10.646130120004962 6.745984162372589 -0.31517551520243675 -0.8152945414312799 5.435015025880702 -0.7312911644233105 0.3000000000000108 -0.19999999999999457 0.4000000000000003 -1.209098722231301 1.2090487305533746 -1.209048730553376 0.0 0.0 0.0 0.0 0.0 0.0
7472.616 2.0040668895952227 -1.2681436964003545 1.6023884899835643 -3.4883903221882977 -0.43647794646519067 0.013533932858068809 0.0 0.0 0.0 0.0 0.0 -0.0 0.0 0.0 0.0 0.0 0.0 0.0 -1.3191994784386653e-17 -0.8076160409877992 -0.6959134328121296 -0.026664347127374085 -0.0007982540588437365 0.0 -1.5139132401209612e-16 -9.302524721268599 -5.875730879210599 -0.11005680476851082 -0.003313857676638181 0.0 2.0040347576141357 -1.2681005636798304 1.6024866104125977 -3.4884875456439417 -0.43650609651674444 0.013490118086338043 0.00028762139845639467 7.669904152862728e-05 -0.00011984225420746952 -0.00035952674807049334 -0.00021571606339421123 0.00011984225420746952 0.0695343092083931 -0.6953430771827698 -0.8448728322982788 -0.1678490787744522 0.019022895023226738 0.17344404757022858 0.0695343092083931 -0.6773987412452698 -0.8433477878570557 -0.17232505977153778 0.01678490824997425 0.17344404757022858 0.2999951055795381 -0.200015508648849 0.39996699037650296 -1.2090862803406381 1.2091044293996707 -1.2090872704937456 5.1791402332313006e-05 8.095087371328135e-05 1.6986218545484142e-05 -0.0002448145250495584 -0.00017315051371303333 7.427629185196842e-05 -12.060053163533832 7.74678386513011 0.4472692772502885 -0.8051389947671325 5.753830359620588 -0.8064995913019148 0.3000000000000108 -0.19999999999999457 0.4000000000000003 -1.209098722231301 1.2090487305533746 -1.209048730553376 0.0 0.0 0.0 0.0 0.0 0.0
7472.624 2.0040668895952227 -1.2681436964003545 1.6023884899835643 -3.4883903221882977 -0.43647794646519067 0.013533932858068809 0.0 0.0 0.0 0.0 0.0 -0.0 0.0 0.0 0.0 0.0 0.0 0.0 -1.3191994784386653e-17 -0.8076160409877992 -0.6959134328121296 -0.026664347127374085 -0.0007982540588437365 0.0 -1.5139132401209612e-16 -9.302524721268599 -5.875730879210599 -0.11005680476851082 -0.003313857676638181 0.0 2.0040106773376465 -1.2681363264666956 1.6024627685546875 -3.488511387501852 -0.4364822546588343 0.013514460995793343 0.00026844663079828024 7.669904152862728e-05 -0.00011984225420746952 -0.00035952674807049334 -0.00021571606339421123 0.00011984225420746952 0.0672912672162056 -0.6661835312843323 -0.8402976989746094 -0.170087069272995 0.022379877045750618 0.17232505977153778 0.0762634351849556 -0.6841278672218323 -0.8433477878570557 -0.17232505977153778 0.01678490824997425 0.17344404757022858 0.29998557862645503 -0.20001051100138031 0.39998437467503967 -1.2090984891711372 1.209054490258786 -1.2091415404233925 4.795448048523014e-05 7.519744280015908e-05 1.6984781310437882e-05 -0.0002448111528850648 -0.0001731579766481582 5.510598696854033e-05 -12.867573505347144 8.711100686494191 1.1360170609802085 -0.799938259938611 6.068014854883449 -0.905393355641831 0.3000000000000108 -0.19999999999999457 0.4000000000000003 -1.209098722231301 1.2090487305533746 -1.209048730553376 0.0 0.0 0.0 0.0 0.0 0.0
7472.632 2.004067013217679 -1.2681439243343604 1.6023888001284612 -3.4883904009178925 -0.4364780698161619 0.013533929653293381 6.181124302529357e-05 -0.00011396699141670544 0.00015507241831970588 -3.936477888037399e-05 -6.167550018865182e-05 -1.602387722309221e-06 0.007726405378161696 -0.01424587392708818 0.019384052289963236 -0.004920597360046749 -0.007709437523581477 -0.00020029846528865262 0.0022292298752881333 -0.8114558649543329 -0.6928216381339745 -0.027565595249466338 -0.00215236068875821 -3.4567317662934225e-06 0.008605075412422045 -9.31503935632846 -5.871279696753134 -0.1108890856570617 -0.003716324419864945 -1.4302712510866816e-05 2.004046678543091 -1.2681244055377405 1.6024746894836426 -3.488499466572897 -0.4364822546588343 0.013478133827447891 0.00024927189224399626 7.669904152862728e-05 -0.00011984225420746952 -0.00035952674807049334 -0.00021571606339421123 0.00011984225420746952 0.0762634351849556 -0.6818848252296448 -0.8296223878860474 -0.18015800416469574 0.015665914863348007 0.1712060570716858 0.0672912672162056 -0.6751556992530823 -0.8433477878570557 -0.17232505977153778 0.01678490824997425 0.17344404757022858 0.2999945166031242 -0.20000349676410809 0.3999775027254199 -1.209129405274365 1.2090373249774236 -1.2091108655352372 4.4118044490584956e-05 6.944674364001351e-05 1.6985156618757826e-05 -0.00024480815493927664 -0.00017315983854690047 3.5929321965621286e-05 -12.42358916420214 7.781051862224948 1.3452645980136413 -0.7949929967676426 5.96616276630873 -0.8021119288725667 0.3000000000000053 -0.19999991999999234 0.4000000000000004 -1.2090987222313008 1.2090487305533746 -1.2090487305533761 -1.086948897710384e-18 3.999999999999998e-05 -4.60577099179821e-20 5.969679762733945e-20 3.4532977481427894e-20 -1.412496007083992e-20
7472.639999999999 2.004068002199465 -1.2681457478047449 1.602391281283295 -3.4883910307519685 -0.4364790566260561 0.013533904015088725 0.00027815166076954143 -0.0005128506296838075 0.0006978237115714551 -0.00017714016278954427 -0.0002775408147664793 -7.210745368523995e-06 0.027042552218030983 -0.049860454783387756 0.06784391165646865 -0.017221922988646284 -0.026983164322228432 -0.0007010447057768466 0.009282113115441443 -0.8238085601511473 -0.6825250195326437 -0.030518225987655533 -0.006794371998894409 -1.2098562515485928e-05 0.03011780807730595 -9.3463113948171 -5.860151057027887 -0.11296997736965139 -0.00472249448081412 -5.0059499305407285e-05 2.0040347576141357 -1.2680886427508753 1.6024270057678223 -3.4884751478778284 -0.43649417558778936 0.013526445254683495 0.00023009712458588183 7.669904152862728e-05 -0.00011984225420746952 -0.00035952674807049334 -0.00021571606339421123 0.00011984225420746952 0.0717773512005806 -0.6818848252296448 -0.8448728322982788 -0.16113510727882385 0.019022895023226738 0.17344404757022858 0.0740203931927681 -0.6953430771827698 -0.8433477878570557 -0.15554013848304749 0.019022895023226738 0.17344404757022858 0.2999964470223437 -0.20001732789340762 0.3999769019747355 -1.2090779760961023 1.2090867850130897 -1.2090821831618745 4.0285874659034854e-05 6.369505393328136e-05 1.6985141181667944e-05 -0.00024481133296326037 -0.00017315594787591554 1.6753896940475397e-05 -13.418708573347237 9.560818793998056 0.3471931008790513 -0.8052680814025087 6.07832628045463 -0.9883655152372012 0.2999999999999979 -0.19999927999999728 0.40000000000000047 -1.209098722231301 1.2090487305533741 -1.2090487305533761 4.116792526247626e-15 0.00017999999999833487 -8.33766766844593e-17 -5.012113234484083e-17 3.08431285347561e-21 5.01243572237714e-17
7472.647999999999 2.004071340041004 -1.2681519019954592 1.6023996551238744 -3.4883931564067434 -0.43648238713737797 0.013533817486131791 0.0007417473664685071 -0.001367594194105026 0.0018608436933553437 -0.00047236168802584455 -0.0007401184146509076 -1.9228659874799567e-05 0.057949463212370704 -0.10684294555265232 0.14537749772298608 -0.03690269065453754 -0.05782219998555354 -0.0015022393132844466 0.023380062144049186 -0.8488069640414291 -0.6611634685622533 -0.036570898643889106 -0.016607878569864565 -0.00046788360405297907 0.0645386704276904 -9.396308681722616 -5.842343699789426 -0.11629983077241425 -0.006332426546933639 -0.00010727040264370247 2.0040106773376465 -1.2681363264666956 1.6024389266967773 -3.488523308430807 -0.43650609651674444 0.01350247673690319 0.00023009712458588183 7.669904152862728e-05 -9.58738019107841e-05 -0.00035952674807049334 -0.0001917476038215682 0.00011984225420746952 0.0740203931927681 -0.7514191269874573 -0.8265722990036011 -0.15889713168144226 0.011189938522875309 0.17344404757022858 0.0785064771771431 -0.7177734971046448 -0.8250472545623779 -0.1544211506843567 0.01342792622745037 0.17344404757022858 0.2999850078283219 -0.20001120493673316 0.39999040869480446 -1.209108632611272 1.209039609780361 -1.2091989545141564 4.0424517285127443e-05 6.532475492875246e-05 1.1324330476315523e-05 -0.00022309550785433877 -0.0001627510106220959 4.064672657310873e-05 -11.29290988793226 8.322909235265877 -0.6939055075155042 -0.8071004686328727 5.500135911993969 -0.8896301173209129 0.2999999999999967 -0.19999711999999623 0.40000000000000036 -1.2090987222313005 1.2090487305533748 -1.2090487305533761 1.2921220460733172e-14 0.00048000000000271995 -1.6690417981912792e-16 7.83819804842998e-19 1.3365429436571257e-16 6.672786957855007e-17
7472.656 2.004079252134334 -1.2681664895722369 1.6024195038762792 -3.4883981947787097 -0.4364902818548533 0.013533612380356235 0.001545354443819803 -0.002849117607766057 0.003876661213869997 -0.0009840271995896917 -0.0015419606502909068 -4.005973550091838e-05 0.100450884668912 -0.18519042670762886 0.2519771900643316 -0.0639581889454809 -0.1002302794549999 -0.0026038844532648513 0.04674937002414751 -0.8905932223296046 -0.6248516474896405 -0.046770368148255276 -0.03347250720989903 -0.0009656761577590541 0.11186960455606193 -9.464981780795405 -5.817856512850561 -0.1208789762102735 -0.008546365443624493 -0.00018593557715428324 2.004082679748535 -1.2681363264666956 1.6024150848388672 -3.4884513060199183 -0.4365180174456995 0.013526445254683495 0.0002109223569277674 7.669904152862728e-05 -7.190534961409867e-05 -0.00035952674807049334 -0.0001917476038215682 0.00011984225420746952 0.1031799390912056 -0.7402039170265198 -0.7914963960647583 -0.14994516968727112 0.0055949692614376545 0.17456303536891937 0.0986938551068306 -0.7738495469093323 -0.7853962182998657 -0.1533021628856659 0.0055949692614376545 0.17456303536891937 0.3000018709640067 -0.1999958541455454 0.3999935896994252 -1.209101998445475 1.2090424838771483 -1.209095598245866 3.672541030952624e-05 5.9232495247435e-05 5.691401917447432e-06 -0.00020134935893092011 -0.0001526643819388862 2.1391445768260218e-05 -13.609672567534847 10.370650204326822 -0.20235398289179798 -0.8149752521123265 5.918060642524588 -1.1154301778194935 0.29999999999999644 -0.19999199999999118 0.40000000000000036 -1.209098722231301 1.2090487305533746 -1.209048730553376 1.75977879502805e-14 0.0010000000000020817 -6.979249751192417e-17 -1.675571260977548e-16 -8.403963164932962e-17 8.284405209173297e-17
7472.664 2.004094706141979 -1.268194980387345 1.602458269546239 -3.488408034468197 -0.4365057019231573 0.013533211782733631 0.0027818047553856743 -0.005128281744770918 0.006977651002100995 -0.0017710392576642537 -0.0027756954211491263 -7.210762020868562e-05 0.1545562889457339 -0.28489551712560757 0.3876237235288748 -0.09837650725932025 -0.15421684635727742 -0.004005985588470905 0.08162591780879017 -0.9533275174120215 -0.5696582124814976 -0.062159345433525866 -0.059260947024340684 -0.0017264441044857616 0.17211578650469572 -9.552262380324192 -5.786689662767052 -0.12670745137714517 -0.011364955379274781 -0.0002860554129159419 2.0040347576141357 -1.2681005636798304 1.6024746894836426 -3.488511387501852 -0.43650609651674444 0.013490118086338043 0.0002109223569277674 7.669904152862728e-05 -7.190534961409867e-05 -0.00035952674807049334 -0.0001917476038215682 0.00011984225420746952 0.1525268703699112 -0.8501129746437073 -0.7426950335502625 -0.17568203806877136 -0.0033569815568625927 0.17568203806877136 0.1525268703699112 -0.8703004121780396 -0.7152442932128906 -0.170087069272995 -0.02014188840985298 0.17680102586746216 0.2999941751706608 -0.200013481250688 0.3999705994866813 -1.209099117443734 1.2090778536701325 -1.2091181512476172 3.6729178839727295e-05 5.923099997888259e-05 5.69104913019456e-06 -0.0002013594474830749 -0.00015264724693324672 2.138949291756923e-05 -12.301625537510485 8.655976540796418 -0.9994056492886063 -0.8234712963867283 5.559468677377389 -1.0485362499579918 0.30000000000000754 -0.19998200000000174 0.40000000000000036 -1.2090987222313012 1.2090487305533741 -1.2090487305533753 2.1518048909758888e-14 0.0017999999999949205 -8.485266392528243e-17 1.0855587486900914e-18 1.5557461265343408e-18 2.2036677572645477e-19
7472.672 2.004121412850884 -1.2682442108142435 1.6025252521826234 -3.4884250347058057 -0.4365323499782585 0.013532519548782302 0.004544085133918298 -0.008375826747441296 0.011395872695635795 -0.0028921056285377642 -0.004534105127086618 -0.00011777605085308497 0.22028504731657797 -0.40594312533379723 0.5522777116918499 -0.1401332963591888 -0.2198012132421865 -0.0057085538305499195 0.13026184574178756 -1.0411991773482339 -0.5143640997001316 -0.08377326094414672 -0.09583541336164975 -0.0028054099988392193 0.2452881163634194 -9.658061097508256 -5.748846197341686 -0.13378462089147403 -0.014789536520943908 -0.0004076307033780781 2.0040946006774902 -1.2681601683246058 1.6024866104125977 -3.488499466572897 -0.43654185930360967 0.01346614956855774 0.008839564397931099 -0.013556555844843388 0.003499393817037344 -0.00035952674807049334 -0.0001917476038215682 0.00011984225420746952 0.0807495191693306 -0.9331055879592896 -0.5978161692619324 -0.19246694445610046 -0.06154466047883034 0.1712060570716858 0.0807495191693306 -0.930862545967102 -0.5901909470558167 -0.19358593225479126 -0.06154466047883034 0.17568203806877136 0.3000004516905567 -0.19998613882541158 0.3999857656017391 -1.2091406590972475 1.209022102305497 -1.2091492803222565 0.00036728696532870546 0.0056694951534844796 0.003359238002244394 -0.009335831750105933 -0.004372200151889711 0.008655125086497635 -4.195233532464849 7.807908996745658 1.6214601321398816 -0.8077626254191462 4.835576208580588 -0.8663110979996249 0.29999999999999644 -0.19996471999999152 0.40000000000000036 -1.2090987222313003 1.2090487305533746 -1.2090487305533755 5.652264184437912e-15 0.0029400000000125302 -9.942892384199694e-17 1.1888881655767455e-16 2.3290695435171473e-16 -3.5074784602786685e-16
7472.679999999999 2.004163827800705 -1.2683223824792735 1.6026316065675765 -3.4884520233063006 -0.4365746717707726 0.01353142030363761 0.006925459366718565 -0.012762277074499086 0.01736282311627315 -0.004405586171668522 -0.006910248283785029 -0.0001794689216191229 0.2976717791000334 -0.5483062908822238 0.7458688025796694 -0.1891850678913447 -0.2970178945873014 -0.007711608845754741 0.1949344304857862 -1.092498291190549 -0.5069762964724821 -0.11263573362813269 -0.14504372192786497 -0.004257781974011481 0.33140643750582965 -9.782264683875262 -5.704334120210397 -0.14210868790752185 -0.018822525337298557 -0.0005506628528488088 2.0041306018829346 -1.268280331288473 1.6026067733764648 -3.488523308430807 -0.4366973082171839 0.01350247673690319 0.0036815539933741093 -0.0070946612395346165 0.019462382420897484 -0.00035952674807049334 -0.019750002771615982 0.00011984225420746952 0.1727142482995987 -0.9465638399124146 -0.6344171166419983 -0.22379876673221588 -0.012308932840824127 0.17568203806877136 0.1727142482995987 -0.917404294013977 -0.6328920722007751 -0.23386971652507782 -0.01007094420492649 0.17456303536891937 0.29999499385834344 -0.1999609173324933 0.3999954539486483 -1.2090644006354687 1.2091082887262714 -1.2092320780330876 9.740526465393041e-05 0.0008268770769675567 -0.002359182436671408 0.011028037026893887 0.004802324370783298 -0.016119225710701363 -7.039504029611071 10.967864528384572 1.0206066261193734 -0.8345763046578049 5.686912126411624 -1.596771026336913 0.30000000000001387 -0.19993727999999217 0.4000000000000003 -1.2090987222313008 1.2090487305533744 -1.2090487305533764 2.863273162681929e-14 0.004479999999993893 -1.1525619521585632e-16 -3.985036303994001e-16 -6.75795162488594e-19 -2.7131700108826634e-16
7472.688 2.00422715406133 -1.268439060099272 1.6027903365745497 -3.4884922931812663 -0.43663785893508056 0.013529779440486518 0.010019642473635106 -0.018457806003766886 0.025109082923531003 -0.006369274507087458 -0.009997633275290286 -0.0002595903788244174 0.3867728883645675 -0.711941116158475 0.9682824759072316 -0.24546104192736706 -0.3859231239381571 -0.01001518215066181 0.277491903004169 -1.107180520597575 -0.49816591101427066 -0.14975255771798784 -0.2087151307980296 -0.006138749053558125 0.43050349152930223 -9.92473263544251 -5.653168937255125 -0.15167609842087168 -0.023467879546446885 -0.0007151541118323079 2.0042262077331543 -1.2683518568622034 1.6026782989501953 -3.4886072317706507 -0.4366853872882288 0.013526445254683495 0.016106799244880676 -0.02665291726589203 0.010522149503231049 -0.015243934467434883 -0.008077368140220642 0.00011984225420746952 0.0762634351849556 -1.0452576875686646 -0.5124138593673706 -0.268558531999588 -0.004475975409150124 0.1712060570716858 0.0762634351849556 -0.930862545967102 -0.5154639482498169 -0.2562496066093445 -0.017903901636600494 0.17232505977153778 0.30000406195343465 -0.19990961838495017 0.4000034640717139 -1.2091278414408269 1.2089782678932919 -1.2092076887731038 -3.949983870450461e-05 0.011211080526694367 0.006247718351072359 -0.028329961275046996 -0.013316687887703784 0.008115275634149861 9.510349766054594 7.763840411506015 3.0269362947604415 -0.8228827151171105 3.899895678907759 -1.6411813980930774 0.3000000000000098 -0.19989631999999752 0.4000000000000002 -1.2090987222313012 1.2090487305533741 -1.2090487305533764 -7.044277065237497e-15 0.006479999999994566 -8.302923560201345e-18 -1.520018093902379e-16 1.508315003946291e-16 3.044719595091065e-16
7472.696 2.004317346611056 -1.268605168075764 1.6030162862848756 -3.488549596849314 -0.4367278533542889 0.01352744311815102 0.01392103694414201 -0.025632052302439087 0.034863838888485585 -0.008840102969835882 -0.013890453882395983 -0.000360544943077321 0.4876743088133631 -0.896780787334025 1.2193444956193227 -0.308853557843553 -0.48660257588821215 -0.012619320531612951 0.28867032668693976 -1.1240362628913105 -0.48785158414708735 -0.19610403440074234 -0.21060175737272196 -0.008503475969205247 0.5426296210198117 -10.085293211004222 -5.595376674408678 -0.16248083930809748 -0.02873164919266078 -0.000901107821200886 2.0043344497680664 -1.268543545399801 1.6029295921325684 -3.488751236592428 -0.4367573896991175 0.013538429513573647 0.006883739028126001 -0.019040536135435104 0.032165661454200745 -0.015195997431874275 -0.025670209899544716 9.58738019107841e-05 0.2714081108570099 -1.083389401435852 -0.6725431680679321 -0.12308932095766068 -0.16561108827590942 0.17232505977153778 0.2758941948413849 -1.0856324434280396 -0.681693434715271 -0.12420831620693207 -0.18351499736309052 0.1712060570716858 0.30000202606860443 -0.19983224624604115 0.4000082908295223 -1.2091656917970304 1.208894024753571 -1.2092455588953388 -0.0009678372443397516 0.004966583482014396 -0.0011635490157887894 -0.0017524027062907476 -0.001220087343047075 -0.018779021276772383 -7.739798824595107 9.301697080853327 -6.299019275482856 -0.8391035392654488 2.8548082449697025 -1.0217531432731572 0.30000000000001115 -0.199837999999993 0.3999999999999993 -1.2090987222313012 1.2090487305533741 -1.209048730553376 2.2524422314854566e-15 0.009000000000007348 2.748912506589473e-16 1.7446348202508665e-16 3.2860173314599735e-16 3.2436425051717133e-16
7472.704 2.0044411188450164 -1.2688329854381237 1.6033261268042067 -3.488628138291368 -0.4368513536490628 0.013524238257610224 0.018725040856064017 -0.03445388178273059 0.046854263238438595 -0.011873759564475903 -0.01868389648399969 -0.00048473765601839597 0.6005004889902508 -1.1027286850364375 1.4988030437441262 -0.37920707433000256 -0.5991803252004633 -0.015524089117634369 0.30131708294301013 -1.1431176804053258 -0.47595294330158966 -0.21965930316152804 -0.2127250795497173 -0.01140709741126111 0.6678582391879756 -10.26373886456937 -5.530997364757204 -0.17451363189469515 -0.034622616210020045 -0.0011085286316229173 2.0044541358947754 -1.2687705198871058 1.6031813621520996 -3.488751236592428 -0.43699723878969365 0.013526445254683495 0.01696966215968132 -0.027669178321957588 0.05162804201245308 -0.006471481639891863 -0.024208135902881622 9.58738019107841e-05 0.0538330152630806 -0.9286195039749146 -0.6100164651870728 -0.21708481013774872 0.017903901636600494 0.1678490787744522 0.0426178015768528 -0.926376461982727 -0.6145915985107422 -0.23275071382522583 0.022379877045750618 0.170087069272995 0.3000037909767635 -0.19976853324537602 0.4000191584926735 -1.2091063422206327 1.2089934475662185 -1.209323059632894 0.0005771409891050353 0.009100096846166328 -0.003384086793660383 0.01596892283694125 0.007070886143144544 -0.007333537545120428 0.5021074061016088 19.43485083038195 -0.3774613720350417 -0.8311822860700828 5.218444774838656 -2.7464493589575607 0.30000000000000576 -0.199757999999984 0.399999999999998 -1.2090987222313003 1.209048730553374 -1.2090487305533761 -1.2348147235276556e-15 0.012099999999995647 2.7405516090143487e-15 1.859390579247083e-16 3.595565601973309e-16 5.012396118621349e-18
7472.7119999999995 2.004605951824233 -1.2691361386697224 1.6037383375726397 -3.488732561409294 -0.4370158243989781 0.013519972537289869 0.024528438205031356 -0.04509108643828742 0.06130473179850229 -0.015524205934841887 -0.02447452923706094 -0.0006345742436819155 0.7254246686209174 -1.3296505819446043 1.8063085700079622 -0.456305796295748 -0.7238290941326562 -0.018729573457939942 0.3154766439301052 -1.164473557239407 -0.46239102509856184 -0.22312220818810177 -0.215150468869663 -0.014904711515307504 0.8062920969537752 -10.459821096728035 -5.460089002325117 -0.18776102358818036 -0.04115302619580475 -0.0013374226519111175 2.0045979022979736 -1.269057575856344 1.6035170555114746 -3.488955322896139 -0.4370692412005823 0.013538429513573647 0.0326162688434124 -0.041436657309532166 0.05069327354431152 -0.033004555851221085 -0.008988169021904469 9.58738019107841e-05 0.2938385307788849 -1.1304932832717896 -0.5505398511886597 -0.24058367311954498 -0.17568203806877136 0.1678490787744522 0.2893524467945099 -1.029556393623352 -0.5566400289535522 -0.23163172602653503 -0.18351499736309052 0.168968066573143 0.29999721784790956 -0.19965553495155694 0.40003547585389676 -1.2091864573005333 1.208830384418085 -1.2093962258439817 0.0013024614702983922 0.020230311734895784 0.0019468743852352798 -0.02142744800693975 -0.010133881695953728 0.023702387801211748 -3.0755075299962633 5.150804836757813 -1.6888771081505747 -0.8479605297303531 3.0724636675752754 -0.6527667768968496 0.3000000000000091 -0.19965151999998032 0.3999999999999954 -1.2090987222313 1.209048730553374 -1.2090487305533768 1.4727685894280377e-14 0.015839999999968272 6.8243225716035136e-15 -5.937045568509707e-16 6.035091674321153e-16 2.019483351716423e-16
7472.719999999999 2.004820106960218 -1.2695295918926428 1.6042731808176176 -3.488867934259751 -0.43722950878936384 0.013514434387040116 0.03142988234339985 -0.05771001384004711 0.07843586307555869 -0.019843085806749674 -0.03136078411325909 -0.0008124612804519707 0.8626805172960617 -1.5773659252199612 2.14139140963205 -0.5398599839884733 -0.8607818595247692 -0.022235879596256895 0.3311975440351664 -1.1881487805821742 -0.4470887918289224 -0.22692187744715697 -0.21789730525905918 -0.019051372197001572 0.9580703901977803 -10.67324473188385 -5.382731957588624 -0.20220438133055751 -0.04833941759627916 -0.001587797454329916 2.0047898292541504 -1.269381348286764 1.604032039642334 -3.4890878836261194 -0.4373686949359339 0.013490118086338043 0.024447819218039513 -0.04887646436691284 0.06720753759145737 -0.014381070621311665 -0.03446663171052933 9.58738019107841e-05 0.2198181450366974 -1.034042477607727 -0.564265251159668 -0.17792002856731415 -0.04252176731824875 0.16449210047721863 0.2108459621667862 -1.0632020235061646 -0.5657902956008911 -0.17232505977153778 -0.04252176731824875 0.16449210047721863 0.30000001380623903 -0.19954667100856707 0.40001874592169023 -1.2091469885900816 1.2089277313594762 -1.20946215138169 -0.0003404693018970767 0.01567284675222391 -0.00025388007994643587 0.00369866591443119 0.0012394978708444822 -0.010092680587675148 -3.3826666551645808 13.695965845670429 -1.8562213292664838 -0.8509573067247385 3.917246380887615 -2.0006680475693046 0.3000000000000258 -0.19951327999997556 0.39999999999999064 -1.2090987222312992 1.2090487305533741 -1.2090487305533775 5.042395614395264e-15 0.02027999999995373 1.5866178502391163e-14 -8.799021137120627e-16 6.330874781983922e-16 8.810086613739274e-16
7472.728 2.005092642920042 -1.2700296338277548 1.604952667657732 -3.4890397281529077 -0.4375014454664905 0.013507392980886273 0.0395304842384104 -0.07247511941923954 0.09846336097594961 -0.024879013966655865 -0.03944354348542094 -0.0010208063270171746 1.0125752368763188 -1.845638197399053 2.503437237548865 -0.6294910199882738 -1.0103449215202305 -0.02604313082065049 0.3485333360385419 -1.2141837510267908 -0.42997175341470356 -0.2310559787119487 -0.22098689382914277 -0.02390207969851642 1.1233767687241127 -10.90366162712425 -5.29903384824999 -0.21781879196766135 -0.056203555691968936 -0.0018596618425101895 2.0050649642944336 -1.2698238531695765 1.6046428680419922 -3.4892314116107386 -0.43761998811830694 0.013514460995793343 0.03627864643931389 -0.06157015636563301 0.08585499227046967 -0.026437200605869293 -0.0318780392408371 9.58738019107841e-05 0.1480407863855362 -1.1349793672561646 -0.44988715648651123 -0.3021283447742462 -0.17792002856731415 0.14211222529411316 0.1502838283777237 -1.1304932832717896 -0.4483621120452881 -0.31555625796318054 -0.170087069272995 0.14435020089149475 0.30000716216964596 -0.19938262686488556 0.400016253043693 -1.2091288540111462 1.208938279941283 -1.20940696130699 0.0003605447779241898 0.022969945676608552 -0.0003373674972611488 -0.0018360745415359203 -0.0013015006555713166 0.004349828691303932 5.8148951538340725 7.6613336239647065 2.2001990366929203 -0.7700126988341958 3.4974126871744353 -0.8781004563561393 0.30000000000002697 -0.19933751999994737 0.3999999999999822 -1.2090987222312983 1.2090487305533733 -1.2090487305533768 -5.3140362536182465e-14 0.025479999999933448 3.3789121903313756e-14 -1.83780907972355e-15 4.727172498223848e-16 1.6447390385396719e-15
7472.736 2.005433437634199 -1.2706538608877205 1.6058005142295801 -3.4892537906289576 -0.4378414904812358 0.013498598228900607 0.04893451834520153 -0.08954843418271122 0.12159664456570028 -0.03067673665077845 -0.04882684404791322 -0.0012620180011807562 1.1755042633488912 -2.1341643454339603 2.8916604487188335 -0.7247153355153233 -1.1729125703115357 -0.030151459270447697 0.367543682446118 -1.2426137177701109 -0.4109687078255319 -0.23552018799328434 -0.22444288371612828 -0.02951176836812471 1.302448329375765 -11.150663818018787 -5.209134856417353 -0.23457187638547528 -0.06477348125641923 -0.0021530252521248586 2.005352735519409 -1.2703865210162562 1.6053977012634277 -3.489483658467428 -0.4379800001727503 0.013514460995793343 0.04302816092967987 -0.07100413739681244 0.10066749155521393 -0.030200248584151268 -0.04388623312115669 9.58738019107841e-05 0.2467346489429474 -1.128250241279602 -0.3690599799156189 -0.22939373552799225 -0.1533021628856659 0.13204127550125122 0.2557068169116974 -1.1439515352249146 -0.36753493547439575 -0.22491776943206787 -0.14323121309280396 0.1365172564983368 0.30000111267638474 -0.19919024397786173 0.4000205714047245 -1.2091124347421174 1.2089440318160602 -1.2095144325365859 0.0006574350674235143 0.026215224312529234 -0.0007891781441240523 -0.0003588914693691976 -0.0007790854093115482 -0.0009230347157811014 3.4506687923622064 5.653453196728388 3.0649224241988775 -0.7491042256082213 2.510610335800676 -0.8289283966679941 0.3000000000000409 -0.19911799999991897 0.39999999999996816 -1.2090987222312959 1.209048730553373 -1.209048730553377 -6.142637515893595e-14 0.031499999999822954 6.782436298710593e-14 -2.9716362656107237e-15 1.4970051726364626e-15 1.052834769968646e-15
7472.744 2.005853216396953 -1.2714211557003487 1.6068420860801986 -3.4895163112560277 -0.43826034530863467 0.013487780768937436 0.05975026032841563 -0.10908894025456561 0.14803724916864835 -0.03727615527176932 -0.05961871230023334 -0.0015385059216804792 1.3519677479017622 -2.4425632589817994 3.3050755753685093 -0.8249273276238587 -1.348983531540015 -0.03456099006246538 0.3882955980768534 -1.2734680337968738 -0.39001261462488424 -0.24030782324194272 -0.22829174692989132 -0.03593529025799704 1.4955857029614181 -11.4137761033826 -5.113213481405661 -0.25242252630025275 -0.07408468694192027 -0.0024678966173904654 2.0057601928710938 -1.2710807959186 1.6063199043273926 -3.4896515051471155 -0.43832713762392217 0.013454165309667587 0.05273059010505676 -0.09606555104255676 0.1317306011915207 -0.033435989171266556 -0.05524728074669838 9.58738019107841e-05 0.1996307522058487 -1.1798402070999146 -0.3965107202529907 -0.29877135157585144 -0.15889713168144226 0.12532731890678406 0.2063598781824112 -1.1977845430374146 -0.3965107202529907 -0.3077233135700226 -0.15665914118289948 0.12420831620693207 0.30000907449961234 -0.1989401782883439 0.4000229866567277 -1.2091603145465648 1.2089134767101042 -1.2094650179709885 1.5858349147458852e-05 0.033649977842916685 -0.0002890409101358165 0.002147165871452237 0.00026648544629597826 -0.0026328004774104365 5.604821067294001 7.718439513799845 2.5912802792497036 -0.7478818608987542 3.3641134298695032 -1.0030698390001787 0.3000000000000696 -0.19884799999986305 0.39999999999994557 -1.2090987222312923 1.2090487305533715 -1.2090487305533784 -1.2138982924166008e-13 0.03839999999969759 1.285514454106614e-13 -6.119258343210987e-15 1.8097034902572905e-15 1.3704378444075061e-15
7472.7519999999995 2.0063635871692065 -1.272351660297943 1.6081043289456012 -3.4898337791331278 -0.43876959205111365 0.013474651959534411 0.07209097273245198 -0.13125184637014897 0.1779769841430426 -0.044711206741708226 -0.07193214769825412 -0.0018526804415410212 1.5425890505045436 -2.7703632644479197 3.742466871799282 -0.9293814337423631 -1.5391794247525976 -0.039271814982567745 0.41086486397368466 -1.3067693249207082 -0.36704161835070387 -0.24540944943831033 -0.23256332581422068 -0.04322739257627449 1.7031643777120906 -11.692448064123242 -5.011492716151771 -0.2713195749375036 -0.08418143830956461 -0.002804282492460215 2.0062034130096436 -1.2719305197345179 1.6075658798217773 -3.490000073109762 -0.4387462774859827 0.013490118086338043 0.06377525627613068 -0.11834661662578583 0.16413594782352448 -0.03875698521733284 -0.06059224531054497 9.58738019107841e-05 0.3185119926929474 -1.119278073310852 -0.3949856758117676 -0.2842244505882263 -0.21148984134197235 0.11301837861537933 0.3162689507007599 -1.1260071992874146 -0.40413591265678406 -0.2864624261856079 -0.21820379793643951 0.11078038811683655 0.300003026531069 -0.19864078239646205 0.40000307163559184 -1.209123855256006 1.2089451100874629 -1.2093824372690705 -0.00015249354089951189 0.04150215931502313 -0.0009052174914907021 0.006494277431869285 0.002251201371504832 0.0030191622008563413 -3.9304926346024742 9.754458813005956 3.2190585928756668 -0.724737961102986 4.335502054089223 -0.9573039044343453 0.3000000000001099 -0.19852031999977665 0.3999999999999101 -1.2090987222312877 1.2090487305533695 -1.2090487305533797 -2.5135539766262364e-13 0.04623999999944099 2.325816719848096e-13 -1.1022478070861074e-14 3.974308132280881e-15 3.103728859806478e-15
7472.759999999999 2.006977084331018 -1.273466743143894 1.6096156839230213 -3.4902129309336787 -0.4393817370703159 0.013458903876055273 0.08607605707269403 -0.15618775502828322 0.21159583389649061 -0.053008595312943683 -0.08588627196100246 -0.0022069520577646727 1.7481355425302565 -3.116988582266781 4.202356219181 -1.0371735714044321 -1.744265532843542 -0.04428395202795644 0.43533763750572085 -1.3425325650103086 -0.3420002406767978 -0.2508124569971593 -0.23729145979748448 -0.05144268634177656 1.9256474411474382 -11.986045502395385 -4.904246633980073 -0.291200415722374 -0.0951182609626536 -0.0031621841624602854 2.0067667961120605 -1.2730315367328089 1.6091108322143555 -3.490347687398092 -0.4393814245807093 0.01350247673690319 0.07882744073867798 -0.1418740451335907 0.18870361149311066 -0.050213903188705444 -0.0763874500989914 9.58738019107841e-05 0.3499145805835724 -1.060958981513977 -0.36448484659194946 -0.31443727016448975 -0.17456303536891937 0.09511447697877884 0.3476715385913849 -1.051986813545227 -0.35990971326828003 -0.31108027696609497 -0.17456303536891937 0.09511447697877884 0.29999602269446946 -0.19827077761248457 0.3999899318358702 -1.2090399510920253 1.2090708148154405 -1.209347265260285 5.1136054856691434e-05 0.050565966409044344 0.0009069736422939529 -0.0029329136563443245 -0.0023528520107240097 0.002291163851635946 -6.960232114930333 13.049243022855304 5.54445998729958 -0.6793487284839307 5.545071675093421 -1.4355693692963074 0.30000000000017046 -0.19812727999965227 0.3999999999998563 -1.2090987222312797 1.2090487305533655 -1.209048730553383 -4.4762186066089404e-13 0.055079999999019406 4.0587212988183795e-13 -1.7880794789287184e-14 6.89578195242466e-15 5.1169528485601576e-15
7472.768 2.0077072222891146 -1.274788959098978 1.6114059849414741 -3.4906606882916087 -0.4401102644508592 0.013440209313180311 0.10183239381145422 -0.18404171230382638 0.24905958998832936 -0.06218637287907491 -0.10160766602619897 -0.0026037303482682015 1.9695420923450235 -3.4817446594428945 4.682969511479843 -1.1472221957664028 -1.9651742581495644 -0.049597286312941094 0.46181228943538694 -1.380764047030241 -0.3148407631493007 -0.2565006161177626 -0.24251470468703848 -0.06063560276508284 2.1635999700005186 -12.293841267400731 -4.791807374548416 -0.31198958610734745 -0.10696162082180474 -0.0035415934237481845 2.0074853897094727 -1.2742884794818323 1.6108717918395996 -3.490779701863424 -0.44000417390932256 0.01350247673690319 0.0905432179570198 -0.16797089576721191 0.23314112424850464 -0.05824333429336548 -0.09251821786165237 9.58738019107841e-05 0.3431854546070099 -1.0676881074905396 -0.4788629412651062 -0.29429537057876587 -0.26632052659988403 0.06266365945339203 0.3454284965991974 -1.0766602754592896 -0.47428780794143677 -0.2875814139842987 -0.28310543298721313 0.06378264725208282 0.3000011613701811 -0.1978144908405734 0.39997633289295725 -1.2090533068599643 1.209049489584591 -1.2092187807668369 -0.0004704940181119797 0.058637858818216676 -0.001299905177026843 0.006411531556754823 0.001830237099455688 -0.0021900724418557464 -13.853554607210484 19.48472297652083 1.385494485335028 -0.5720237842122181 6.457605876353074 -1.5786306744905518 0.30000000000028204 -0.1976607199994705 0.39999999999977587 -1.2090987222312686 1.2090487305533606 -1.2090487305533861 -7.60341035626194e-13 0.06497999999837405 6.839653770307613e-13 -3.040208897822703e-14 1.2922657679157697e-14 1.0034225674764228e-14
7472.776 2.0085685605295382 -1.276342001354144 1.6135063363428013 -3.491184083316122 -0.4409697008844402 0.01341822179819642 0.1194958954089981 -0.21495213024398324 0.29051720349540433 -0.0722523671172637 -0.11923191989149541 -0.003045422243565339 2.207937699692986 -3.863802242519608 5.182201688384371 -1.2582492797735987 -2.203031733162055 -0.055211486912142164 0.49040150588365095 -1.4214602360483763 -0.2855248254450735 -0.2624536106270686 -0.24827716088566043 -0.0708603328872163 2.417705355031936 -12.615005408134975 -4.6745725211465095 -0.3335973373304762 -0.11979183116324182 -0.003942486645935336 2.0082879066467285 -1.2758563200580042 1.6129803657531738 -3.4912236372577112 -0.44074708620180303 0.01346614956855774 0.10778132826089859 -0.1984395980834961 0.26084864139556885 -0.06507434695959091 -0.10920026153326035 9.58738019107841e-05 0.3835602104663849 -1.0497437715530396 -0.37668517231941223 -0.2674395442008972 -0.34800708293914795 0.04587874934077263 0.3701019585132599 -1.060958981513977 -0.38431036472320557 -0.26184457540512085 -0.3435311019420624 0.04252176731824875 0.2999911898337186 -0.19727679728427996 0.3999762728887784 -1.209066426665958 1.2090556768173688 -1.2091233275217794 -0.0004481289222336292 0.06944620062732682 0.0016953406025233693 -0.0022720103859987743 -0.002426296511899797 -0.0016473511672725647 -15.200941590073748 18.316655365400965 3.9187201263030467 -0.5420469666412233 6.138745424854616 -1.1213120523542321 0.3000000000004212 -0.19711199999919743 0.3999999999996588 -1.2090987222312513 1.2090487305533537 -1.209048730553392 -1.3584890848306107e-12 0.07599999999737962 1.122118253931745e-12 -4.878555377599639e-14 2.0945982122695064e-14 1.535675713857534e-14
7472.784 2.009576781923253 -1.278150644270207 1.6159489683031043 -3.491790171026485 -0.4419756937808179 0.013392575621258316 0.13258409737381768 -0.2371900667811418 0.3200931885933276 -0.07924043785630971 -0.13229088114434992 -0.0033661232281427768 1.6360252456024473 -2.779742067144819 3.6969981372404064 -0.8735088423807522 -1.6323701566068136 -0.040087623072179744 0.4392407297689947 -1.346404132285359 -0.31474226148309914 -0.24756926127042228 -0.24314195835295987 -0.07795051298486601 1.7756677166085866 -11.643978976869423 -5.0148183798039145 -0.2700964281607807 -0.09021358712733744 -0.002862536900715139 2.009270668029785 -1.2775557676898401 1.6153883934020996 -3.491823975239889 -0.4417174498187464 0.013442181050777435 0.12971726059913635 -0.2335677593946457 0.3136271834373474 -0.07693872600793839 -0.11960256844758987 7.190534961409867e-05 0.3858032524585724 -0.9914246797561646 -0.44378697872161865 -0.2215607762336731 -0.3077233135700226 0.01678490824997425 0.4216919243335724 -0.980209469795227 -0.4346367418766022 -0.2215607762336731 -0.3099612891674042 0.012308932840824127 0.2999979779323273 -0.19666603882489525 0.3999510261063407 -1.2090417807578437 1.209108807056443 -1.2090447782005205 -8.820678907090108e-05 0.0832790616860931 0.00035476090999570544 0.002934468108785454 -6.399696589725457e-05 0.009824567258089755 -17.976459221122344 18.35252667476483 1.881311945318353 -0.4399940900680299 5.654304907384788 -1.2827802623328841 0.3000000000006242 -0.19647199999883289 0.399999999999491 -1.209098722231227 1.2090487305533435 -1.2090487305533992 -2.0544686902548704e-12 0.08399999999601435 1.7074429854899733e-12 -7.462943087505568e-14 3.1293491536610244e-14 2.402236176131346e-14
7472.7919999999995 2.0106903217705585 -1.2801367309193745 1.618627028749624 -3.4924514422802977 -0.4430867695412486 0.013364363827394072 0.14582819157163437 -0.25931118745971327 0.3493697002874942 -0.08604550086778975 -0.1455053129806964 -0.0036868237528660482 1.6555117747270864 -2.7651400848214336 3.6595639617708273 -0.8506328764350048 -1.6518039795433113 -0.040087565590408936 0.4451288940946455 -1.352790791080143 -0.304465459920478 -0.24773181143801987 -0.24549587873302967 -0.08529968949595367 1.7875863726282264 -11.61135437074423 -5.021161025390101 -0.26874859890486974 -0.09159142484161059 -0.002862532796114331 2.0103368759155273 -1.2795546690570276 1.6180834770202637 -3.492532555256979 -0.4427841345416468 0.013478133827447891 0.13692696392536163 -0.2473544031381607 0.3402082026004791 -0.07854461669921875 -0.14769358932971954 7.190534961409867e-05 0.4351502060890198 -1.078903317451477 -0.5840907692909241 -0.2204417884349823 -0.17903901636600494 -0.001118993852287531 0.3925323784351349 -1.0856324434280396 -0.5810406804084778 -0.21708481013774872 -0.17680102586746216 -0.008951950818300247 0.29998610601781134 -0.19596626376872456 0.39995278469302226 -1.209008809879484 1.2091095387539297 -1.209036685062422 -0.00020820512342751782 0.0860031232592937 -0.0017116199852089918 0.013076553871794263 0.0043560589498787055 -0.011115952531036005 -20.532191355506917 20.862953575024473 -4.035312038547318 -0.3908857964324987 5.714525065479324 -2.1065833020237124 0.300000000000838 -0.19576799999843447 0.3999999999993096 -1.2090987222311997 1.209048730553333 -1.2090487305534063 -3.070047295691558e-12 0.09199999999419159 2.5465157442436355e-12 -1.109376887415244e-13 4.659522352425556e-14 3.4983187183359604e-14
7472.799999999999 2.0119104920980213 -1.2822992816628478 1.621538011163685 -3.493166367319302 -0.4443042366849461 0.013333586491909409 0.1592444641645572 -0.2813042029063194 0.3783190886787764 -0.09265117702018642 -0.1588914683258099 -0.0040075051120595255 1.6770340741153535 -2.749126930825768 3.618673548910274 -0.8257095190495837 -1.6732694181391845 -0.040085169899184654 0.4511974271392118 -1.3588884722385388 -0.29432691764779356 -0.24785238854956654 -0.24791968243140958 -0.09264638838743369 1.8007660806933352 -11.575763038117405 -5.028121294080475 -0.2672801265504669 -0.0931135831996538 -0.0028623617269910783 2.0115950107574463 -1.281649414693014 1.6208386421203613 -3.4932168165790003 -0.44396955171693975 0.01340622827410698 0.15322551131248474 -0.2729335427284241 0.3628823459148407 -0.0914636105298996 -0.15320633351802826 -0.0029001825023442507 0.3902893364429474 -1.056472897529602 -0.5413896441459656 -0.24394066631793976 -0.21820379793643951 -0.021260883659124374 0.4082336723804474 -1.078903317451477 -0.5337644219398499 -0.2361077070236206 -0.21484681963920593 -0.04028377681970596 0.3000013967955471 -0.19519976693006955 0.3999680017500232 -1.2090926505877762 1.2089960256056786 -1.2090648311154941 -0.00027348146027355934 0.09689455838448066 0.0010786807595164099 -0.004200703466086267 -0.002464850453338722 -0.0003003047058347239 -18.667749528549255 21.346011708323065 -2.075906652207022 -0.3319347828475055 5.91519502768524 -1.9761867648451394 0.30000000000107463 -0.1949999999980325 0.3999999999991154 -1.2090987222311709 1.2090487305533208 -1.2090487305534159 -4.1391486697596834e-12 0.09999999999219965 3.453626167757667e-12 -1.5199347712713577e-13 6.228119552550491e-14 4.567021815555852e-14
7472.808 2.013238736809246 -1.2846372262484627 1.624679188623757 -3.493933286462303 -0.4456295353497568 0.013300243859467927 0.17284960479415554 -0.3031577459253181 0.40691390350066603 -0.0990413685360407 -0.1724660054861479 -0.004328143604960823 1.7006425786997916 -2.7316928773748335 3.5743518527362044 -0.7987739394817849 -1.6968171450422522 -0.04007981161266221 0.45745547793589963 -1.3646925905291172 -0.28433904654472447 -0.24793034657201118 -0.25041716282178716 -0.09999005648412114 1.8152381278242307 -11.537211466037764 -5.0356989847668 -0.2656937433243694 -0.09478369100844579 -0.0028619791078253708 2.012840986251831 -1.2839472929583948 1.6239166259765625 -3.4940083662616175 -0.4452760855304163 0.01340622827410698 0.16797089576721191 -0.2950228750705719 0.3934660851955414 -0.09978066384792328 -0.174538254737854 -0.0029001825023442507 0.3611297905445099 -1.1439515352249146 -0.46361252665519714 -0.2383456975221634 -0.23275071382522583 -0.04028377681970596 0.3611297905445099 -1.1215211153030396 -0.4681876301765442 -0.2383456975221634 -0.22603675723075867 -0.024617865681648254 0.29998888471070606 -0.1943971662903461 0.39997188028447744 -1.2090548607899758 1.209022897573933 -1.2091282012977447 -0.00011408942269634788 0.10477221934160834 0.0007687319491831914 -0.004019613901513334 -0.002660624830518805 -0.006911815055908846 -11.4556482678319 16.573260249095874 -1.624542501375913 -0.2772293888455829 4.291771460895321 -1.5054228248242278 0.30000000000131505 -0.19416799999761508 0.39999999999890834 -1.20909872223114 1.209048730553307 -1.2090487305534259 -5.3225623569859095e-12 0.10799999999018968 4.424436905359052e-12 -1.9512337158552446e-13 8.061525324451195e-14 6.005685696426284e-14
7472.816 2.014676635071222 -1.2871494031062047 1.628047615411083 -3.4947504124476443 -0.4470642406944183 0.013264336385651157 0.18666074639396596 -0.3248603504607729 0.43512689568460894 -0.10520028188669699 -0.18624602813584623 -0.00464871013685572 1.7263926999763028 -2.712825566931851 3.5266240229928636 -0.7698641688320355 -1.7225028312122908 -0.040070816486862074 0.4639126710408084 -1.3701984306220851 -0.2745144193987932 -0.24796510681773273 -0.25299231818032725 -0.10733001685063576 1.8310369037400533 -11.495705611085802 -5.043894287358258 -0.26399240937725293 -0.09660573323996409 -0.00286133679287736 2.014218807220459 -1.2863534132586878 1.627331256866455 -3.4948485533343714 -0.4466894308673304 0.01340622827410698 0.18066458404064178 -0.31586581468582153 0.43229496479034424 -0.10304036736488342 -0.18628279864788055 -0.004649879410862923 0.3544006645679474 -1.128250241279602 -0.4117611050605774 -0.24170267581939697 -0.20589487254619598 -0.041402772068977356 0.3319702446460724 -1.123764157295227 -0.4117611050605774 -0.24282166361808777 -0.20029990375041962 -0.04028377681970596 0.299988524973136 -0.19354005415144312 0.3999299986485301 -1.2089649166818581 1.2091645754441847 -1.2090181580360038 -5.133643211070612e-05 0.11205057204808568 -0.0020775723426884377 0.007516800228822547 0.0035683191933648913 -0.006046577575951631 -9.61488454855539 16.289931716301794 0.07288340659327221 -0.30599305941615784 4.301351118460058 -1.6168330811713263 0.3000000000015842 -0.19327199999718586 0.3999999999986878 -1.209098722231107 1.2090487305532926 -1.2090487305534352 -6.525134375572457e-12 0.11599999998810262 5.459703225965575e-12 -2.415257299782686e-13 1.0127825160410147e-13 7.503133946757783e-14
7472.824 2.016225905023722 -1.289834558461589 1.6316401286137965 -3.495615832958615 -0.44861006662527103 0.013225864781686796 0.2006955061550432 -0.3464004270519354 0.4629310153901934 -0.11111245064963292 -0.20024912645971124 -0.00496916982583488 1.7543449701346545 -2.692509573895316 3.475514963198055 -0.7390210953669915 -1.7503872904831261 -0.04005746112239507 0.4705791317070975 -1.375401114771916 -0.26486577338124556 -0.24795616125365197 -0.25564936375882447 -0.11466545997065715 1.8481999858635827 -11.451250643151925 -5.052707880858797 -0.26217931291522867 -0.0985840613108355 -0.0028603831263668647 2.015812635421753 -1.2889865080462855 1.630925178527832 -3.4955928961383265 -0.448282543812887 0.013334322720766068 0.19475804269313812 -0.3376675248146057 0.4562634229660034 -0.11006312817335129 -0.200951486825943 -0.004649879410862923 0.3140259087085724 -1.020584225654602 -0.39346063137054443 -0.24282166361808777 -0.2215607762336731 -0.038045790046453476 0.3252411186695099 -1.0273133516311646 -0.4026108682155609 -0.23498870432376862 -0.21372783184051514 -0.048116736114025116 0.3000078832960127 -0.19259164240200494 0.39991024149434823 -1.2089270464346276 1.209280875705337 -1.2088940374723722 -0.00011505698838565773 0.12021085420042514 -0.0010449533083411453 0.0031205590613308494 0.0013530394867201526 -0.006634150524796086 -11.980054080315606 20.904091838553665 2.371001519740347 -0.3557872906826489 5.609173433145904 -1.949759097180652 0.3000000000018562 -0.192311999996752 0.3999999999984538 -1.2090987222310716 1.2090487305532769 -1.2090487305534459 -7.871236177676575e-12 0.12399999998595652 6.562434018170766e-12 -2.911254556348141e-13 1.2289789971138284e-13 8.899991390046411e-14
7472.831999999999 2.0178884078213235 -1.2926913452377224 1.6354533497006414 -3.496527513331985 -0.4502688698570241 0.01318483006230198 0.2149720277265156 -0.3677662345098818 0.49029940635808006 -0.11676275845894205 -0.21449341953549625 -0.0052894816145829466 1.7845651964340514 -2.670725932243295 3.421048870985835 -0.7062884761636409 -1.780536634473126 -0.040038973593508276 0.47746551236738316 -1.38029556715424 -0.25540601501177596 -0.24790307617161805 -0.2583927446232587 -0.1219954350544281 1.8667682303391173 -11.40385066988518 -5.06214103541869 -0.26025787147411583 -0.10072340410564404 -0.0028590629873916453 2.017346143722534 -1.2917512098895472 1.6347103118896484 -3.496481243764059 -0.44999581972231084 0.013297995552420616 0.20814202725887299 -0.36056220531463623 0.48238903284072876 -0.11178885400295258 -0.21279190480709076 -0.004002731293439865 0.3611297905445099 -1.0766602754592896 -0.388885498046875 -0.27862948179244995 -0.18239599466323853 -0.09287648648023605 0.3633728325366974 -1.0946046113967896 -0.3965107202529907 -0.27751046419143677 -0.16337309777736664 -0.07049661129713058 0.2999945060160647 -0.1916328729925332 0.39988880433750057 -1.208806230155435 1.209482929494298 -1.2089502231866285 -0.000272204142220988 0.12819796203884504 -0.00041268502044518627 0.005109490312162878 0.0019151271889154087 -0.005139379531112563 -11.055728464073345 18.517732844388423 2.0826009453114107 -0.1345322108654507 4.988578897165685 -1.9396819309955462 0.3000000000021522 -0.19128799999631146 0.3999999999982064 -1.2090987222310343 1.2090487305532598 -1.2090487305534574 -9.231732495581772e-12 0.13199999998378725 7.732421088059076e-12 -3.441281996844248e-13 1.464659027681336e-13 1.0486318508466153e-13
7472.839999999999 2.0196661520181802 -1.2957183217148245 1.6394836860344868 -3.4974832994510536 -0.45204265431775426 0.013141233596666338 0.22950902471704818 -0.38894584755776557 0.5172053964886453 -0.12213646221037039 -0.22899759902225272 -0.005609597886035919 1.817124623816571 -2.6474516309854743 3.363248766320652 -0.6717129689285429 -1.8130224358445592 -0.04001453393162157 0.48458302035403816 -1.3848764748673836 -0.2502061105696535 -0.24780549629549334 -0.26122714926382234 -0.12931884144626027 1.8867858676796507 -11.353508443408682 -5.072195717115832 -0.2582317346424247 -0.10302887959682279 -0.002857317824455301 2.019059181213379 -1.2947199980365198 1.6387710571289062 -3.4974053541766565 -0.45173341432680303 0.013226090930402279 0.22415295243263245 -0.37935346364974976 0.5136199593544006 -0.11574365198612213 -0.22077339887619019 -0.008077368140220642 0.2736511528491974 -1.1125489473342896 -0.5276642441749573 -0.34017413854599 -0.16561108827590942 -0.07944856584072113 0.2960815727710724 -1.1125489473342896 -0.524614155292511 -0.33010318875312805 -0.16449210047721863 -0.06378264725208282 0.2999907730560671 -0.19057710841451947 0.3998635784702408 -1.2087729146938975 1.209581015464992 -1.2088876163526683 0.0003716339752489331 0.1364829040882339 -0.002196004195188391 0.008656307776821661 0.005566534454898115 0.002831554947368227 -10.729822075556307 24.29509247663833 -1.4690804084522213 -0.23057591600514177 6.5268579410553365 -2.5293785233276527 0.3000000000024451 -0.1901999999958744 0.39999999999794467 -1.2090987222309943 1.2090487305532427 -1.2090487305534683 -1.0711931108099941e-11 0.13999999998158458 8.96944089542476e-12 -3.998767886503581e-13 1.7227222445528228e-13 1.2216184970297856e-13
7472.848 2.021561298306266 -1.298913949913822 1.6437273322950707 -3.498480920825958 -0.4539335759088887 0.01309507716239706 0.24432582556780447 -0.40992712016532856 0.5436224845618481 -0.12721921570647357 -0.24378097422633177 -0.005929464081929961 1.8521001063445361 -2.6226590759453745 3.302136009150358 -0.6353441870128977 -1.8479219005098808 -0.03998327448675521 0.49194344696647413 -1.3891382453870957 -0.24742950416924245 -0.24766314937402475 -0.2641575240322861 -0.13663442010973872 1.9083006036659567 -11.300225048403178 -5.082874695105227 -0.2561047884244182 -0.10550600710351361 -0.0028550856812757292 2.0209643840789795 -1.2979148069964808 1.643071174621582 -3.498329464589254 -0.453590218220846 0.013226090930402279 0.23979955911636353 -0.404031366109848 0.5386669635772705 -0.12434832006692886 -0.23517844080924988 -0.006471481639891863 0.2826233208179474 -1.1349793672561646 -0.43311169743537903 -0.3099612891674042 -0.2025378942489624 -0.044759754091501236 0.3005676567554474 -1.1349793672561646 -0.4254864752292633 -0.303247332572937 -0.204775869846344 -0.05259270966053009 0.29999699096299126 -0.1894257680432938 0.39984812164373323 -1.2087160299758748 1.2096690901113192 -1.2087076263197012 1.1704828075503838e-05 0.1458828677592673 -0.0006273963361243697 0.0028284129470273964 0.001875022132565613 0.004068766987327147 -7.1450954606284585 20.237314976447667 0.31564815101532034 -0.4258982771962857 5.71095629941128 -2.0243401412446183 0.30000000000276267 -0.18904799999543692 0.3999999999976689 -1.2090987222309528 1.2090487305532236 -1.2090487305534803 -1.217674056721634e-11 0.1479999999793992 1.0278051456798741e-11 -4.599490551779686e-13 1.9791713470446556e-13 1.3842273999902582e-13
7472.856 2.023576164618231 -1.302276593668525 1.648180271779926 -3.4995179938656253 -0.45594394763137647 0.013046363002609824 0.2594424198440746 -0.4306976443174965 0.5695243230547754 -0.13199709395990433 -0.258863518593307 -0.006249018322585254 1.8895742845337695 -2.5963155190209948 3.237729811615908 -0.5972347816788453 -1.8853180458719003 -0.039944280081911636 0.4995591977476842 -1.39307496043033 -0.2448060997738884 -0.24747585133716196 -0.26718908840269245 -0.14394074515091684 1.9313637233521912 -11.243999572543093 -5.094181649976823 -0.25388116154407153 -0.10816071998318287 -0.002852301207809064 2.0229651927948 -1.3013384977923792 1.6474432945251465 -3.4993613401996058 -0.4555910269366663 0.013202122412621975 0.25527358055114746 -0.42464423179626465 0.5597591996192932 -0.13213807344436646 -0.2509496808052063 -0.003595267655327916 0.3252411186695099 -1.2202149629592896 -0.37668517231941223 -0.22379876673221588 -0.3066043257713318 -0.09287648648023605 0.3319702446460724 -1.1798402070999146 -0.38736045360565186 -0.2215607762336731 -0.3099612891674042 -0.10406643152236938 0.29998878947335594 -0.18819890292484692 0.399886062674171 -1.2087433665009597 1.2095822644014462 -1.2088111047810928 -2.429131995579097e-05 0.15418648478326327 0.0005699374449889486 -0.0008532753804444263 -0.0015151967242330647 0.0037703498661382337 -5.327914151057761 14.253092011200392 -1.316187251222357 -0.23664232908237695 3.071519994695375 -1.0301043352237604 0.3000000000030912 -0.18783199999499894 0.39999999999737856 -1.2090987222309095 1.2090487305532032 -1.2090487305534932 -1.3764907830461994e-11 0.155999999977212 1.1657056801090078e-11 -5.223002841789576e-13 2.2640096864379845e-13 1.5674703897948282e-13
7472.864 2.025713231606451 -1.305804516348787 1.65283827755212 -3.5005920253475873 -0.45807624508968914 0.012995093886011094 0.27487950599527194 -0.45124470394550137 0.5948846970284667 -0.13645661839923887 -0.2742659176767708 -0.006568191026431736 1.929635768899665 -2.568382453500606 3.1700467467114106 -0.5574405549168167 -1.9252998854329753 -0.03989658798081029 0.50744332407075 -1.3966803260244203 -0.24234046466288453 -0.24724351207557138 -0.27032735111016737 -0.15123621534536985 1.9560301987208988 -11.18482875848376 -5.106121282859839 -0.25156523391019886 -0.11099937877599224 -0.0028488956579457206 2.0250742435455322 -1.3049047628985804 1.6520190238952637 -3.500406090413229 -0.4577119986163538 0.013130216859281063 0.2682357132434845 -0.4464842975139618 0.5840632319450378 -0.13096360862255096 -0.26868632435798645 -0.01236772071570158 0.3386993706226349 -1.038528561592102 -0.32025864720344543 -0.27974846959114075 -0.20925185084342957 -0.10742340981960297 0.3925323784351349 -1.0452576875686646 -0.33703410625457764 -0.27751046419143677 -0.18015800416469574 -0.10406643152236938 0.2999814030994246 -0.1869190322463254 0.3999166412328363 -1.208782508590002 1.2095167992434341 -1.2089177385988032 -0.0003990092245591997 0.16111579555380645 0.001015247062048078 -0.006348681353950514 -0.00011204940735757901 -0.0010655682870180875 -9.128559973289384 19.404010231249792 4.817026824776207 -0.2026623274514909 5.281431752364249 -1.9433071730960445 0.3000000000034272 -0.18655199999458016 0.3999999999970728 -1.2090987222308636 1.209048730553183 -1.209048730553505 -1.540785853141003e-11 0.1639999999750221 1.3108545766822328e-11 -5.8732927824665e-13 2.571186460527297e-13 1.7603616678133047e-13
7472.871999999999 2.0279751485101007 -1.309495878194892 1.6576969134034052 -3.5017004160939607 -0.4603331123855501 0.012941273170042237 0.29065854060560314 -0.47155522375716236 0.619677499094903 -0.14058478325337895 -0.2900096186076008 -0.006886904527224088 1.9723793262914 -2.5388149764576236 3.0991002583045377 -0.5160206067675102 -1.9679626163537565 -0.039839187599044 0.5156095558709733 -1.399947618732921 -0.24003728341102484 -0.24696614192295382 -0.27357812715903435 -0.158519045620646 1.982358797565453 -11.122706638335726 -5.118699424153249 -0.24916164753687853 -0.11402878455857951 -0.002844796868884935 2.0272305011749268 -1.3085911909686487 1.6568584442138672 -3.501498047505514 -0.4598920981036585 0.013057936914265156 0.2852245569229126 -0.469858318567276 0.6083672046661377 -0.14119814336299896 -0.27896881103515625 -0.010785803198814392 0.4306641221046448 -1.0003968477249146 -0.3095833659172058 -0.3088423013687134 -0.28198644518852234 -0.01007094420492649 0.4306641221046448 -1.0138550996780396 -0.3019581437110901 -0.3088423013687134 -0.27751046419143677 -0.012308932840824127 0.2999642784976353 -0.18560249014335234 0.39991977812878515 -1.2087830683377885 1.2095319346968805 -1.2089503092562177 -0.0007011594137896997 0.17108745804741976 0.00226658945410515 -0.013115827006401504 -0.004316651082325207 0.005645400166145263 -15.116292037919601 18.103644055586273 6.470568370240795 -0.6876954146977999 6.9698195709503965 -1.531829671686113 0.30000000000377003 -0.18520799999416668 0.3999999999967515 -1.209098722230816 1.2090487305531608 -1.2090487305535178 -1.708840356720148e-11 0.17199999997292809 1.463729661194028e-11 -6.561946666445409e-13 2.875155732316149e-13 1.9357925896058064e-13
7472.88 2.0303647394222466 -1.3133487332212503 1.6627515346014958 -3.5028404648642217 -0.46271736841348066 0.01288490486710192 0.3068017891482899 -0.4916157126903163 0.6438767004901366 -0.14436908341836371 -0.30611688107802637 -0.007205072686866811 2.017906067835848 -2.5075611166442413 3.0249001744041966 -0.4730375206230958 -2.013407808803193 -0.0397710199553403 0.5240723355182942 -1.4028696278167432 -0.23790137508890666 -0.24664385890505985 -0.2769475557331508 -0.1657872584462322 2.010412193000939 -11.05762414962326 -5.131923141387016 -0.24667532014173155 -0.11725619242506488 -0.0028399292219509847 2.0296027660369873 -1.3123257795916956 1.6619253158569336 -3.502662483845846 -0.4621689955340784 0.013033968396484852 0.30206000804901123 -0.4856966733932495 0.6383277773857117 -0.14333133399486542 -0.29042571783065796 -0.004625910893082619 0.3319702446460724 -1.0856324434280396 -0.43768683075904846 -0.2909384071826935 -0.36702999472618103 -0.10966140031814575 0.3835602104663849 -1.074417233467102 -0.4285365641117096 -0.27862948179244995 -0.39500483870506287 -0.11637535691261292 0.2999748165758026 -0.18421536869561111 0.39988317648670657 -1.2087679202522998 1.2095617809965211 -1.2087672865241952 9.040238300467592e-06 0.17854851673107439 -0.0003960537797610783 0.0037781641651766533 0.0009138013586081883 0.010953833638663027 -13.649523201755823 21.31242715585303 0.7605616161471779 -0.26014870200412094 5.869975668553824 -1.406956185999958 0.30000000000413213 -0.1837999999937736 0.3999999999964143 -1.209098722230766 1.2090487305531377 -1.2090487305535318 -1.8802895836823906e-11 0.17999999997086077 1.6243783260873032e-11 -7.273079983222488e-13 3.206879944653749e-13 2.1286642958692454e-13
7472.888 2.032885009968963 -1.3173610256453259 1.6679972883905605 -3.504009372477949 -0.46523201357025457 0.01282599371389134 0.32333237823317706 -0.5114122017195375 0.6674563183156994 -0.14779754414076715 -0.32261082983189243 -0.007522600501475132 2.066323635610892 -2.474561128652651 2.947452228195355 -0.4285575903004296 -2.0617435942332576 -0.03969097682604019 0.5328468527212258 -1.4030799049303346 -0.23593771082014584 -0.24627689683806137 -0.2804421190111337 -0.17303867507585782 2.0402570718713666 -10.989568733590566 -5.145800845147446 -0.24411146171488113 -0.12068932488336225 -0.002834213582217052 2.0321907997131348 -1.3163593451129358 1.6673274040222168 -3.5037668387042444 -0.46467286745180303 0.012950078584253788 0.3174956738948822 -0.5043728947639465 0.6639500260353088 -0.14544056355953217 -0.32182440161705017 -0.015507587231695652 0.3499145805835724 -1.1035767793655396 -0.3400841951370239 -0.38269588351249695 -0.204775869846344 -0.1186133474111557 0.3544006645679474 -1.1394654512405396 -0.34160923957824707 -0.3580780327320099 -0.20029990375041962 -0.12085133790969849 0.299989860429562 -0.18272401940950475 0.39985117497870376 -1.208758286816581 1.209643401939015 -1.2085546673190584 -1.989755863990507e-06 0.18462621290135084 -0.0012395709970222167 -0.0027955743399290453 0.0027964418902905563 -0.005059178298297838 -6.48295849094273 18.18587294887158 5.217350345398051 -0.2529180875594006 5.98095980476541 -1.9171902920523738 0.3000000000044988 -0.18232799999338936 0.3999999999960602 -1.2090987222307146 1.2090487305531137 -1.209048730553544 -2.0613955636160565e-11 0.18799999996889544 1.7929915769340088e-11 -8.026908499690524e-13 3.5541716712535134e-13 2.338551531363777e-13
7472.896 2.035539154412287 -1.3215305857954904 1.6734291142145556 -3.505204246183489 -0.46788023689019376 0.012764545243946419 0.34027434930985123 -0.5309301757349614 0.6903903790249473 -0.15085875287786984 -0.33951550862487284 -0.007839383698111869 2.117746384584271 -2.4397467519279847 2.8667575886559824 -0.38265109213783677 -2.113084849122551 -0.039597899579592075 0.5419490802933761 -1.4012442000340077 -0.23415143162612698 -0.24586561433616416 -0.2840686618830039 -0.18027090658299144 2.0719642397025053 -10.9185239148676 -5.160342392579916 -0.24147559425197668 -0.12433638492749376 -0.002827567215279931 2.0348386764526367 -1.3204649130450647 1.6727895736694336 -3.505003277455465 -0.4672964254962366 0.012889782898128033 0.33670878410339355 -0.5252541899681091 0.6810635328292847 -0.1504739373922348 -0.3418380320072174 -0.009946906939148903 0.3050537407398224 -1.060958981513977 -0.34160923957824707 -0.3860528767108917 -0.23498870432376862 -0.03245082125067711 0.2960815727710724 -1.0632020235061646 -0.34465929865837097 -0.38157689571380615 -0.22715574502944946 -0.03692679852247238 0.29999611278885274 -0.18119905304472286 0.39982742835091567 -1.2087504277759984 1.209670882325128 -1.2084940612593222 0.00018401814505960743 0.19357482124593137 0.0006316721585128766 -0.00511668050022914 -0.0013136545186251674 -0.005865154892889176 -6.321723106612594 20.697165917348247 5.95983734747496 -0.6864275021691646 7.320463272972556 -2.01543973150092 0.30000000000488775 -0.1807919999930399 0.39999999999568886 -1.2090987222306606 1.2090487305530893 -1.2090487305535578 -2.2447746486934232e-11 0.19599999996697404 1.9700503681140034e-11 -8.7926813030335e-13 3.9129792090814125e-13 2.5195784706369304e-13
7472.9039999999995 2.0383212127907693 -1.3258407423250445 1.679023112185815 -3.5064180901242246 -0.47065609405097586 0.012700779074118164 0.35062844708298824 -0.5393751735262545 0.6986986092332705 -0.15054258010772265 -0.34984731447587597 -0.007995414284469695 1.2942622216421256 -1.0556247239116439 1.0385287760404094 0.03952159626839993 -1.291475731375391 -0.01950382329472832 0.4683030165362532 -1.2927472028667113 -0.2832604959159612 -0.22719863953274858 -0.2751839399125495 -0.18348641277148348 1.1822734192617401 -9.647210598512556 -5.585711228947287 -0.1645248329164598 -0.08045109012987392 -0.0013927095100066652 2.0376181602478027 -1.3246420065509241 1.678551197052002 -3.5062511602984827 -0.4701960722552698 0.012853830121457577 0.35231703519821167 -0.5432784557342529 0.7072370648384094 -0.15991750359535217 -0.3515452742576599 -0.004458131734281778 0.3050537407398224 -1.083389401435852 -0.4087110459804535 -0.2719154953956604 -0.23275071382522583 -0.10406643152236938 0.3207550346851349 -1.0901185274124146 -0.4148111939430237 -0.29429537057876587 -0.22267977893352509 -0.1376362442970276 0.30001175214528863 -0.1796438114297851 0.3997508578206784 -1.2085835291085059 1.2099780835174443 -1.2083353866320028 -0.00021213463576524692 0.2018945090226306 -0.00038212014854045663 -0.0008269548187917164 -0.0018931841914781723 2.0214576448379742e-05 -5.499865794299476 15.324697023047902 1.0448082559231175 -0.36852304498636745 4.309508545298959 -1.5090390855711653 0.29999999996133264 -0.17919733332684912 0.39999999997136093 -1.209098722232116 1.209048730554257 -1.2090487305532076 -2.439258836325427e-11 0.1999999999652268 2.1557080417965373e-11 -9.600375075601996e-13 4.280653835422788e-13 2.729324098098345e-13
7472.911999999999 2.0411398966019867 -1.3301458651011444 1.6845892272240888 -3.5076088250512454 -0.47346850243605676 0.012636836661249028 0.35406454923583686 -0.5369270748692333 0.6928630224395729 -0.14715213501679517 -0.3532768207103351 -0.007990470812316665 0.4295127691060774 0.3060123321276531 -0.7294483492122084 0.42380563636593493 -0.42868827930739317 0.0006179340191288154 0.3896576176664799 -1.1830231788509098 -0.3330521362313801 -0.20896945909350084 -0.2644767797553785 -0.18302629772293846 0.26495032892441894 -8.389613400174387 -5.998573913625815 -0.09032306547097417 -0.03367268281735806 4.412481450393132e-05 2.0404574871063232 -1.3289387861834925 1.6842403411865234 -3.5074756781207483 -0.4730117956744593 0.01275758258998394 0.3557301461696625 -0.5467299222946167 0.7091785073280334 -0.1492036134004593 -0.3539900481700897 -0.017305221408605576 0.3858032524585724 -1.235916256904602 -0.4590373933315277 -0.32898420095443726 -0.24505965411663055 -0.15889713168144226 0.4149627983570099 -1.213485836982727 -0.44988715648651123 -0.3233892321586609 -0.24617864191532135 -0.1510641723871231 0.3000175346537108 -0.17803822723360208 0.3997216589543322 -1.2085863435638824 1.2100249701556232 -1.2082614072012192 -0.0005702135562733919 0.20262443113014716 -0.0007556296504498374 -0.005502441586545139 0.00233522472527722 0.000925191808690766 -1.7056754174388762 2.14158054405309 -2.204543329916702 -0.11192144188607024 1.7623162131498946 -0.2892420562677731 0.2999999999625782 -0.17759742221601257 0.3999999999723546 -1.2090987222321055 1.2090487305542548 -1.2090487305532072 1.9338255402195942e-10 0.19998666663427278 1.4319673429862435e-10 1.2223332604402904e-12 -1.3237059367405956e-12 -2.525227343151335e-13
7472.92 2.043986386450412 -1.3344315908798157 1.6901090196095045 -3.5087726079726274 -0.476308664455539 0.012572931887050451 0.357563941798462 -0.5345009548943849 0.687085639429183 -0.1437976443010817 -0.35676974452863863 -0.00798563753485131 0.43742407032814484 0.30326499685605357 -0.7221728762987351 0.41931133946418453 -0.43661547728793965 0.0006041596831694342 0.3915134710296907 -1.1784378158616071 -0.3335325216447367 -0.2090343281587683 -0.2651673393328435 -0.18291619495604203 0.2711813754138125 -8.342999593284942 -5.995167375342335 -0.09161709918448897 -0.03416500815218858 4.314123049607978e-05 2.0434048175811768 -1.3333075682269495 1.6899065971374512 -3.508688275014059 -0.4758389631854456 0.012673692777752876 0.35703402757644653 -0.5419746041297913 0.6955404877662659 -0.15195997059345245 -0.35650673508644104 -0.009251821786165237 0.3768310844898224 -1.204513669013977 -0.2790825366973877 -0.29989033937454224 -0.3435311019420624 -0.06937761604785919 0.3745880424976349 -1.2202149629592896 -0.29128286242485046 -0.29429537057876587 -0.35024508833885193 -0.051473718136548996 0.3000266088575887 -0.17638608636713618 0.3997142965345598 -1.208653154020383 1.2099441967230773 -1.2081793669065086 -0.001007874371672177 0.20207961218699746 0.0006226560388576035 -0.007817362178876403 -0.00296220066966614 -0.00023846773221622357 3.118463044921272 -3.272354004893304 3.0507409499282403 -0.526579368662282 1.3813988495949256 0.6206584854750902 0.2999999999640725 -0.1759975259199648 0.39999999997347757 -1.2090987222320908 1.2090487305542539 -1.2090487305532058 1.8715454893498805e-10 0.19998711108009012 1.3822835487396545e-10 1.2070186150686646e-12 -1.3201425824859497e-12 -2.5316721998661445e-13
7472.928 2.046861030119527 -1.3386978447022937 1.6955826314344946 -3.5099096577772744 -0.4791769292721293 0.012509067519226652 0.36110296370554323 -0.53205878389954 0.6813175651480589 -0.14046884247049882 -0.36030247973524976 -0.007980367371901756 0.4423777383851524 0.3052713743556118 -0.721009285140517 0.4161002288228591 -0.44159190082639077 0.0006587703686941355 0.39311135375960515 -1.1735042072705093 -0.33418768474253846 -0.20904151096183893 -0.26582649029964395 -0.18279493768711208 0.27427538304021426 -8.292415556242089 -5.993248542534449 -0.09266352946978021 -0.034497322336760096 4.704081571734213e-05 2.046304225921631 -1.3376520315753382 1.6952366828918457 -3.509864155446188 -0.47876245180238897 0.012673692777752876 0.3640519976615906 -0.5415911078453064 0.6876548528671265 -0.14781343936920166 -0.3688265085220337 -0.004314321093261242 0.3050537407398224 -1.043014645576477 -0.21503080427646637 -0.2372266948223114 -0.23163172602653503 -0.13987423479557037 0.3140259087085724 -1.0497437715530396 -0.21350575983524323 -0.24394066631793976 -0.22939373552799225 -0.14658819139003754 0.300021631575898 -0.17476134688196196 0.3997736646143474 -1.208676934472338 1.2097995651229416 -1.2083812474730444 -0.00062689562520199 0.2028046624358067 0.0016922410064543413 -0.005814462793576089 -0.004701339520208888 -0.005542265135222243 3.8638981343900953 2.879520740496077 6.56810556877604 -0.1992336453810203 1.33812771879405 -0.4061386386357167 0.2999999999655209 -0.17439762557453448 0.39999999997455715 -1.209098722232076 1.2090487305542525 -1.2090487305532052 1.7968280249809668e-10 0.1999876295998512 1.326135738514672e-10 1.1845928689127572e-12 -1.31907865855333e-12 -2.550839019624892e-13
7472.936 2.049764144780022 -1.3429444923156915 1.701010131290541 -3.511020179963953 -0.48207361552135364 0.012445247075383577 0.3646817594003076 -0.5295992695903646 0.6755575510759388 -0.13716577589365303 -0.3638751726592913 -0.007974657176895916 0.4473494618455476 0.3074392886469185 -0.7200017590150015 0.4128833221057233 -0.44658661550519424 0.0007137743757300481 0.39472473916495754 -1.1685764366275213 -0.33485218828309826 -0.20905233539857654 -0.26649321551542854 -0.18266362734125433 0.2773699080453585 -8.241943104051298 -5.991418984083359 -0.09371551035476386 -0.03483127138715904 5.096848684775555e-05 2.049107789993286 -1.3420451323138636 1.700662612915039 -3.51102859178652 -0.4818175474749964 0.012577444314956665 0.36681315302848816 -0.5402871966362 0.68403559923172 -0.1403113156557083 -0.3640088737010956 -0.01447694469243288 0.3252411186695099 -0.9824525117874146 -0.326358824968338 -0.2853434383869171 -0.2864624261856079 -0.17232505977153778 0.3252411186695099 -0.9959107637405396 -0.3217836916446686 -0.2842244505882263 -0.2875814139842987 -0.17456303536891937 0.29998716808246706 -0.17316769454103748 0.399819911268109 -1.2086430769497327 1.2098201241429023 -1.2087713176005477 -0.0007297803868041975 0.2031564769703599 0.0013344254029454329 -0.011348515367955506 -0.002289285098784494 0.002001582509564436 -4.402137514423311 7.313028411677926 5.362416000808396 -0.04735221304593368 2.8576710797389095 -0.5374588764542774 0.29999999996690246 -0.17279772121593215 0.39999999997559327 -1.2090987222320613 1.209048730554252 -1.2090487305532043 1.724408184126091e-10 0.19998812787269968 1.2721563915190843e-10 1.1624996263873274e-12 -1.3170053334027438e-12 -2.562393632304273e-13
7472.9439999999995 2.052696049846731 -1.3471713908257374 1.7063915800516802 -3.5121043809491526 -0.48499904409579564 0.012381474073809856 0.36830063413230496 -0.5271213745604179 0.6698046975682529 -0.13388858094941672 -0.3674881301400819 -0.007968507408878611 0.4523593414996682 0.3097368787433469 -0.7191066884607439 0.4096493680295389 -0.4516196850988252 0.0007687210021630874 0.3963556271993706 -1.1636570116231901 -0.33552498163075267 -0.20906727750306062 -0.26716784768749025 -0.18252228203004667 0.2804863820554798 -8.191613773809374 -5.989668667218156 -0.09477500287832628 -0.03516793882375625 5.489206060145958e-05 2.0520431995391846 -1.3463295141803187 1.7061123847961426 -3.5121448675738733 -0.4848130385028284 0.012457601726055145 0.37103161215782166 -0.5356085896492004 0.6786906719207764 -0.13860954344272614 -0.3683950901031494 -0.01176850963383913 0.2960815727710724 -1.0632020235061646 -0.2592569887638092 -0.25960657000541687 -0.21148984134197235 -0.09063850343227386 0.3050537407398224 -1.047500729560852 -0.26383212208747864 -0.2573685944080353 -0.1879909634590149 -0.07944856584072113 0.2999818409707237 -0.17155784195974336 0.39982255908487563 -1.2086604345259924 1.209826568010814 -1.2088803320647856 -0.00045425687287823876 0.20290260338861252 0.0006401530911159495 -0.007718094198157463 -0.0018434727949680303 0.0018324703111384489 4.441286276952275 3.7047289267570407 5.211280756442679 -0.42574189239068827 1.949936620685293 -0.5830596653265898 0.2999999999682179 -0.171197813004911 0.39999999997658847 -1.2090987222320468 1.20904873055425 -1.2090487305532032 1.6553282916936145e-10 0.19998860607968827 1.2203513982638716e-10 1.1400886262279987e-12 -1.3163889894720115e-12 -2.5729729681679714e-13
7472.951999999999 2.0556570671576413 -1.3513783890533864 1.7117270314908861 -3.5131624683225033 -0.4879535383241915 0.012317752029623543 0.3719598875939105 -0.5246240639185821 0.6640581275432622 -0.1306374142061008 -0.3711416535310389 -0.007961918385541288 0.45740668270069507 0.3121638302294727 -0.7183212531238353 0.40639584291448855 -0.4566904238696226 0.0008236279171653683 0.3980041155224279 -1.1587460101305558 -0.33620614408875127 -0.20908639487150366 -0.2678504458624883 -0.1823709085438347 0.28362442554473544 -8.141431108331368 -5.987997128603301 -0.09584223481749854 -0.03550727393253525 5.8812798681027454e-05 2.0549302101135254 -1.3506024519549769 1.7115740776062012 -3.5132249037372034 -0.48780852953066045 0.012469585984945297 0.37264227867126465 -0.5311216711997986 0.6726745963096619 -0.13187441229820251 -0.3749384880065918 -0.004793690051883459 0.3656158745288849 -1.0273133516311646 -0.27145734429359436 -0.18015800416469574 -0.2864624261856079 -0.14882618188858032 0.3454284965991974 -1.029556393623352 -0.2790825366973877 -0.17903901636600494 -0.2853434383869171 -0.15554013848304749 0.2999628986485895 -0.1699683024824574 0.3998134092437423 -1.208539539246989 1.20997671393578 -1.2088760672229801 -0.00043892605894800324 0.2013507685944869 -1.9030118344437785e-05 0.003851249687014505 0.0005551748845662368 -0.0031283993812250494 -2.0121376333724394 3.1244381939820207 3.802479336848062 -0.1552290195861802 0.9903251175912077 -0.17847546347352086 0.2999999999694995 -0.16959790109665057 0.39999999997754404 -1.2090987222320322 1.2090487305542492 -1.2090487305532036 1.5895524091860501e-10 0.1999890650245823 1.1705908662155482e-10 1.1184137442866462e-12 -1.3134495791972291e-12 -2.5904133964735485e-13
7472.96 2.058647520919625 -1.3555653275431139 1.7170165324437936 -3.5141946510035225 -0.4909374239177371 0.012254084456059182 0.3756598122391192 -0.5221063034953699 0.6583169837828883 -0.1274124515412103 -0.374836037019277 -0.007954890261511577 0.46249058065108567 0.31472005290152094 -0.7176429700467418 0.4031203331113127 -0.46179793602976055 0.0008785155037138812 0.3996702826203854 -1.153843497264252 -0.336895758567943 -0.20910974260100434 -0.26854106533718786 -0.18220950989229787 0.28678346577217717 -8.091398501629682 -5.986403961020387 -0.09691741778002473 -0.035849213412235535 6.273215657369712e-05 2.0578060150146484 -1.3547681013690394 1.716928482055664 -3.5142090956317347 -0.4909113089190882 0.012421274557709694 0.37594035267829895 -0.5271525382995605 0.6622483134269714 -0.127560093998909 -0.37402766942977905 -0.003595267655327916 0.4351502060890198 -1.0228272676467896 -0.27145734429359436 -0.22715574502944946 -0.21708481013774872 -0.24170267581939697 0.4710388779640198 -1.0587159395217896 -0.26840725541114807 -0.22715574502944946 -0.20925185084342957 -0.22491776943206787 0.2999498948518028 -0.16842123401168307 0.3997908445610924 -1.2083771835695427 1.2102584104004108 -1.20892052441207 -0.0002927046069366214 0.20125471988874363 0.000619221262879373 0.0031188571903001438 -0.00034959600316120137 0.001081877267110646 -3.7375111604592446 1.906713457606602 4.841272754860827 0.2763569204740985 0.6720884730414316 -0.3989634852380242 0.2999999999707149 -0.16799798564007387 0.3999999999784616 -1.209098722232018 1.2090487305542472 -1.2090487305532043 1.5254701263669365e-10 0.19998950548328015 1.1228119436786926e-10 1.0967562044978557e-12 -1.3119660087855667e-12 -2.58601923048126e-13
7472.968 2.0616677376483525 -1.3597320385685094 1.7222601229657772 -3.515201139394422 -0.4939510289105753 0.012190474865755693 0.3794006927393249 -0.5195670598099369 0.6525804284860275 -0.12421388772449676 -0.37857156707959494 -0.00794742303254917 0.467610062525714 0.31740546067912656 -0.7170694121075988 0.39982047708919316 -0.46694125753974497 0.0009334036203008638 0.40135420063883653 -1.148949542310944 -0.33759390379796217 -0.20913737608832375 -0.26923975943019435 -0.18203808545603672 0.28996288640534057 -8.04151939401167 -5.984888747028704 -0.09800075892214775 -0.03619368910562063 6.665155231482378e-05 2.0608129501342773 -1.3590286413775843 1.7222228050231934 -3.5152891317950647 -0.4939311186419886 0.012240762822329998 0.38165444135665894 -0.5231066346168518 0.6614093780517578 -0.12746421992778778 -0.3701208233833313 -0.016178704798221588 0.4396362900733948 -1.155166745185852 -0.355334609746933 -0.25960657000541687 -0.19134794175624847 -0.07721057534217834 0.4418793320655823 -1.155166745185852 -0.35685962438583374 -0.26184457540512085 -0.19918090105056763 -0.07609158009290695 0.2999358553630028 -0.1667998856065605 0.39980937964339647 -1.2084914807311804 1.2101289599906433 -1.2091223329563074 9.478839142294393e-05 0.20233365777800705 -0.0008808119767619401 -0.00654269494301405 0.0012573641179053946 0.010698498192349765 -0.6315721981837884 -0.0356082738216729 0.4149253018101989 -0.48537797974513797 1.47356340408115 -0.3765504098779618 0.2999999999718806 -0.16639806677810065 0.3999999999793426 -1.2090987222320047 1.2090487305542457 -1.2090487305532036 1.4646960938984108e-10 0.19998992820039668 1.0769345912920518e-10 1.0754542000124116e-12 -1.3089632496134554e-12 -2.574580988954656e-13
