Fleaurent/UniversalRobot/csv/robolib_movej_Dreieck_Zeit.csv
timestamp target_q_0 target_q_1 target_q_2 target_q_3 target_q_4 target_q_5 target_qd_0 target_qd_1 target_qd_2 target_qd_3 target_qd_4 target_qd_5 target_qdd_0 target_qdd_1 target_qdd_2 target_qdd_3 target_qdd_4 target_qdd_5 actual_TCP_pose_0 actual_TCP_pose_1 actual_TCP_pose_2 actual_TCP_pose_3 actual_TCP_pose_4 actual_TCP_pose_5
0.0 0.0 -1.5707963267948966 -1.5707963267948966 0.0 1.5707963267948966 0.0 0.0 0.0 0.0 0.0 0.0 0.0 0.23271056693257725 0.0 0.0 0.0 0.0 0.0 295.15 -112.34999999999998 480.9 -1.2091995761561454 1.2091995761561456 -1.2091995761561458 
0.008 7.446738141842471e-06 -1.5707963267948966 -1.5707963267948966 0.0 1.5707963267948966 0.0 0.001861684535460618 0.0 0.0 0.0 0.0 0.0 0.23271056693257725 0.0 0.0 0.0 0.0 0.0 295.15083663284656 -112.34780209212231 480.9 -1.2092030969625922 1.2091940923772966 -1.2091940923772968 
0.016 2.9786952567369885e-05 -1.5707963267948966 -1.5707963267948966 0.0 1.5707963267948966 0.0 0.003723369070921236 0.0 0.0 0.0 0.0 0.0 0.23271056693257725 0.0 0.0 0.0 0.0 0.0 295.15334643318266 -112.34120833110906 480.9 -1.2092136592710256 1.2091776410175474 -1.2091776410175479 
0.024 6.702064327658225e-05 -1.5707963267948966 -1.5707963267948966 0.0 1.5707963267948966 0.0 0.005585053606381854 0.0 0.0 0.0 0.0 0.0 0.23271056693257725 0.0 0.0 0.0 0.0 0.0 295.157529106394 -112.33021860482673 480.9 -1.2092312627487243 1.2091502220072958 -1.209150222007296 
0.032 0.00011914781026947954 -1.5707963267948966 -1.5707963267948966 0.0 1.5707963267948966 0.0 0.007446738141842472 0.0 0.0 0.0 0.0 0.0 0.23271056693257725 0.0 0.0 0.0 0.0 0.0 295.16338416144777 -112.31483272641059 480.9 -1.2092559068411588 1.209111835230541 -1.2091118352305417 
0.04 0.0001861684535460618 -1.5707963267948966 -1.5707963267948966 0.0 1.5707963267948966 0.0 0.00930842267730309 0.0 0.0 0.0 0.0 0.0 0.23271056693257725 0.0 0.0 0.0 0.0 0.0 295.17091091087843 -112.29505043430117 480.9 -1.2092875907719982 1.209062480524895 -1.2090624805248953 
0.048 0.000268082573106329 -1.5707963267948966 -1.5707963267948966 0.0 1.5707963267948966 0.0 0.011170107212763708 0.0 0.0 0.0 0.0 0.0 0.23271056693257725 0.0 0.0 0.0 0.0 0.0 295.1801084707684 -112.2708713922956 480.9 -1.209326313543123 1.2090021576815906 -1.2090021576815908 
0.056 0.00036489016895028116 -1.5707963267948966 -1.5707963267948966 0.0 1.5707963267948966 0.0 0.013031791748224325 0.0 0.0 0.0 0.0 0.0 0.23271056693257725 0.0 0.0 0.0 0.0 0.0 295.19097576072295 -112.24229518961316 480.9 -1.2093720739346374 1.2089308664454979 -1.2089308664454983 
0.064 0.00047659124107791816 -1.5707963267948966 -1.5707963267948966 0.0 1.5707963267948966 0.0 0.014893476283684945 0.0 0.0 0.0 0.0 0.0 0.23271056693257725 0.0 0.0 0.0 0.0 0.0 295.2035115038396 -112.20932134097602 480.9 -1.2094248705048907 1.2088486065151436 -1.2088486065151438 
0.072 0.0006031857894892404 -1.5707963267948966 -1.5707963267948966 0.0 1.5707963267948966 0.0 0.016755160819145562 0.0 0.0 0.0 0.0 0.0 0.23271056693257725 0.0 0.0 0.0 0.0 0.0 295.2177142266721 -112.17194928670419 480.9 -1.2094847015904922 1.2087553775427262 -1.2087553775427264 
0.08 0.0007446738141842472 -1.5707963267948966 -1.5707963267948966 0.0 1.5707963267948966 0.0 0.01861684535460618 0.0 0.0 0.0 0.0 0.0 0.23271056693257725 0.0 0.0 0.0 0.0 0.0 295.23358225918867 -112.13017839282531 480.9 -1.2095515653063402 1.2086511791341452 -1.2086511791341454 
0.088 0.000901055315162939 -1.5707963267948966 -1.5707963267948966 0.0 1.5707963267948966 0.0 0.020478529890066797 0.0 0.0 0.0 0.0 0.0 0.23271056693257725 0.0 0.0 0.0 0.0 0.0 295.25111373472504 -112.084007951199 480.9 -1.2096254595456475 1.2085360108490264 -1.2085360108490266 
0.096 0.001072330292425316 -1.5707963267948966 -1.5707963267948966 0.0 1.5707963267948966 0.0 0.022340214425527416 0.0 0.0 0.0 0.0 0.0 0.23271056693257725 0.0 0.0 0.0 0.0 0.0 295.2703065899314 -112.03343717965583 480.9 -1.2097063819799718 1.2084098722007524 -1.2084098722007526 
0.104 0.001258498745971378 -1.5707963267948966 -1.5707963267948966 0.0 1.5707963267948966 0.0 0.024201898960988035 0.0 0.0 0.0 0.0 0.0 0.23271056693257725 0.0 0.0 0.0 0.0 0.0 295.29115856471464 -111.97846522215121 480.9 -1.209794330059249 1.2082727626564966 -1.2082727626564969 
0.112 0.0014595606758011246 -1.5707963267948966 -1.5707963267948966 0.0 1.5707963267948966 0.0 0.02606358349644865 0.0 0.0 0.0 0.0 0.0 0.23271056693257725 0.0 0.0 0.0 0.0 0.0 295.31366720217454 -111.91909114893346 480.9 -1.2098893010118317 1.208124681637259 -1.2081246816372593 
0.12 0.001675516081914556 -1.5707963267948966 -1.5707963267948966 0.0 1.5707963267948966 0.0 0.02792526803190927 0.0 0.0 0.0 0.0 0.0 0.23271056693257725 0.0 0.0 0.0 0.0 0.0 295.3378298485347 -111.85531395672706 480.9 -1.2099912918445241 1.2079656285179061 -1.2079656285179066 
0.128 0.0019063649643116726 -1.5707963267948966 -1.5707963267948966 0.0 1.5707963267948966 0.0 0.02978695256736989 0.0 0.0 0.0 0.0 0.0 0.23271056693257725 0.0 0.0 0.0 0.0 0.0 295.3636436530678 -111.78713256893016 480.9 -1.2101002993426329 1.207795602627216 -1.2077956026272163 
0.136 0.0021521073229924747 -1.5707963267948966 -1.5707963267948966 0.0 1.5707963267948966 0.0 0.03164863710283051 0.0 0.0 0.0 0.0 0.0 0.23271056693257725 0.0 0.0 0.0 0.0 0.0 295.39110556801614 -111.71454583582714 480.9 -1.210216320070007 1.2076146032479231 -1.2076146032479236 
0.144 0.0024127431579569615 -1.5707963267948966 -1.5707963267948966 0.0 1.5707963267948966 0.0 0.033510321638291124 0.0 0.0 0.0 0.0 0.0 0.23271056693257725 0.0 0.0 0.0 0.0 0.0 295.42021234850586 -111.63755253481547 480.9 -1.2103393503690887 1.2074226296167663 -1.2074226296167667 
0.152 0.0026882724692051324 -1.5707963267948966 -1.5707963267948966 0.0 1.5707963267948966 0.0 0.03537200617375174 0.0 0.0 0.0 0.0 0.0 0.23271056693257725 0.0 0.0 0.0 0.0 0.0 295.4509605524564 -111.5561513706476 480.9 -1.2104693863609695 1.2072196809245452 -1.2072196809245455 
0.16 0.002978695256736989 -1.5707963267948966 -1.5707963267948966 0.0 1.5707963267948966 0.0 0.03723369070921236 0.0 0.0 0.0 0.0 0.0 0.23271056693257725 0.0 0.0 0.0 0.0 0.0 295.4833465404844 -111.47034097568738 480.9 -1.2106064239454422 1.2070057563161734 -1.2070057563161736 
0.168 0.00328401152055253 -1.5707963267948966 -1.5707963267948966 0.0 1.5707963267948966 0.0 0.03909537524467298 0.0 0.0 0.0 0.0 0.0 0.23271056693257725 0.0 0.0 0.0 0.0 0.0 295.51736647580225 -111.3801199101813 480.9 -1.2107504588010605 1.206780854890737 -1.2067808548907373 
0.176 0.003604221260651756 -1.5707963267948966 -1.5707963267948966 0.0 1.5707963267948966 0.0 0.040957059780133594 0.0 0.0 0.0 0.0 0.0 0.23271056693257725 0.0 0.0 0.0 0.0 0.0 295.5530163241117 -111.28548666254437 480.9 -1.2109014863852028 1.2065449757015596 -1.2065449757015598 
0.184 0.003939324477034667 -1.5707963267948966 -1.5707963267948966 0.0 1.5707963267948966 0.0 0.04281874431559421 0.0 0.0 0.0 0.0 0.0 0.23271056693257725 0.0 0.0 0.0 0.0 0.0 295.59029185349164 -111.18643964966071 480.9 -1.2110595019341353 1.206298117756264 -1.2062981177562642 
0.192 0.004289321169701264 -1.5707963267948966 -1.5707963267948966 0.0 1.5707963267948966 0.0 0.04468042885105483 0.0 0.0 0.0 0.0 0.0 0.23271056693257725 0.0 0.0 0.0 0.0 0.0 295.6291886342808 -111.08297721719917 480.9 -1.211224500463082 1.2060402800168437 -1.206040280016844 
0.2 0.004654211338651546 -1.5707963267948966 -1.5707963267948966 0.0 1.5707963267948966 0.0 0.046542113386515455 0.0 0.0 0.0 0.0 0.0 0.23271056693257725 0.0 0.0 0.0 0.0 0.0 295.669702038956 -110.97509763994326 480.9 -1.211396476766297 1.205771461399733 -1.2057714613997332 
0.208 0.005033994983885512 -1.5707963267948966 -1.5707963267948966 0.0 1.5707963267948966 0.0 0.04840379792197607 0.0 0.0 0.0 0.0 0.0 0.23271056693257725 0.0 0.0 0.0 0.0 0.0 295.71182724200406 -110.8627991221363 480.9 -1.2115754254171358 1.2054916607758817 -1.2054916607758819 
0.216 0.005428672105403162 -1.5707963267948966 -1.5707963267948966 0.0 1.5707963267948966 0.0 0.050265482457436686 0.0 0.0 0.0 0.0 0.0 0.23271056693257725 0.0 0.0 0.0 0.0 0.0 295.7555592197892 -110.74607979784103 480.9 -1.2117613407681371 1.205200876970834 -1.2052008769708344 
0.224 0.0058382427032044985 -1.5707963267948966 -1.5707963267948966 0.0 1.5707963267948966 0.0 0.0521271669928973 0.0 0.0 0.0 0.0 0.0 0.23271056693257725 0.0 0.0 0.0 0.0 0.0 295.8008927504155 -110.62493773131423 480.9 -1.2119542169511006 1.2048991087648082 -1.2048991087648087 
0.232 0.006262706777289519 -1.5707963267948966 -1.5707963267948966 0.0 1.5707963267948966 0.0 0.053988851528357924 0.0 0.0 0.0 0.0 0.0 0.23271056693257725 0.0 0.0 0.0 0.0 0.0 295.84782241358425 -110.4993709173961 480.9 -1.2121540478771735 1.2045863548927824 -1.2045863548927827 
0.24 0.006702064327658224 -1.5707963267948966 -1.5707963267948966 0.0 1.5707963267948966 0.0 0.05585053606381854 0.0 0.0 0.0 0.0 0.0 0.23271056693257725 0.0 0.0 0.0 0.0 0.0 295.89634259044567 -110.36937728191444 480.9 -1.2123608272369366 1.2042626140445798 -1.20426261404458 
0.248 0.007156315354310615 -1.5707963267948966 -1.5707963267948966 0.0 1.5707963267948966 0.0 0.057712220599279156 0.0 0.0 0.0 0.0 0.0 0.23271056693257725 0.0 0.0 0.0 0.0 0.0 295.9464474634466 -110.2349546821036 480.9 -1.212574548500493 1.2039278848649604 -1.2039278848649606 
0.256 0.0076254598572466905 -1.5707963267948966 -1.5707963267948966 0.0 1.5707963267948966 0.0 0.05957390513473978 0.0 0.0 0.0 0.0 0.0 0.23271056693257725 0.0 0.0 0.0 0.0 0.0 295.99813101617247 -110.09610090703858 480.9 -1.2127952049175654 1.2035821659537151 -1.2035821659537154 
0.264 0.008109497836466454 -1.5707963267948966 -1.5707963267948966 0.0 1.5707963267948966 0.0 0.061435589670200394 0.0 0.0 0.0 0.0 0.0 0.23271056693257725 0.0 0.0 0.0 0.0 0.0 296.0513870331848 -109.95281367808364 480.9 -1.2130227895175887 1.2032254558657611 -1.2032254558657616 
0.272 0.008608429291969899 -1.5707963267948966 -1.5707963267948966 0.0 1.5707963267948966 0.0 0.06329727420566102 0.0 0.0 0.0 0.0 0.0 0.23271056693257725 0.0 0.0 0.0 0.0 0.0 296.1062090998543 -109.80509064935619 480.9 -1.2132572951098108 1.2028577531112412 -1.2028577531112414 
0.28 0.00912225422375703 -1.5707963267948966 -1.5707963267948966 0.0 1.5707963267948966 0.0 0.06515895874112164 0.0 0.0 0.0 0.0 0.0 0.23271056693257725 0.0 0.0 0.0 0.0 0.0 296.1625906021879 -109.65292940820517 480.9 -1.2134987142833955 1.2024790561556271 -1.2024790561556273 
0.288 0.009650972631827846 -1.5707963267948966 -1.5707963267948966 0.0 1.5707963267948966 0.0 0.06702064327658225 0.0 0.0 0.0 0.0 0.0 0.23271056693257725 0.0 0.0 0.0 0.0 0.0 296.22052472665223 -109.49632747570473 480.9 -1.213747039407529 1.2020893634198269 -1.202089363419827 
0.296 0.010194584516182343 -1.5707963267948966 -1.5707963267948966 0.0 1.5707963267948966 0.0 0.06888232781204286 0.0 0.0 0.0 0.0 0.0 0.23271056693257725 0.0 0.0 0.0 0.0 0.0 296.28000445999226 -109.33528230716271 480.9 -1.2140022626315268 1.2016886732802912 -1.2016886732802914 
0.304 0.01075308987682053 -1.5707963267948966 -1.5707963267948966 0.0 1.5707963267948966 0.0 0.07074401234750348 0.0 0.0 0.0 0.0 0.0 0.23271056693257725 0.0 0.0 0.0 0.0 0.0 296.34102258904437 -109.16979129264404 480.9 -1.2142643758849476 1.201276984069127 -1.2012769840691273 
0.312 0.0113264887137424 -1.5707963267948966 -1.5707963267948966 0.0 1.5707963267948966 0.0 0.0726056968829641 0.0 0.0 0.0 0.0 0.0 0.23271056693257725 0.0 0.0 0.0 0.0 0.0 296.4035717005465 -108.99985175750919 480.9 -1.2145333708777053 1.200854294074212 -1.2008542940742122 
0.32 0.011914781026947955 -1.5707963267948966 -1.5707963267948966 0.0 1.5707963267948966 0.0 0.07446738141842472 0.0 0.0 0.0 0.0 0.0 0.23271056693257725 0.0 0.0 0.0 0.0 0.0 296.4676441809419 -108.82546096296771 480.9 -1.214809239100188 1.2004206015393113 -1.2004206015393115 
0.328 0.012517966816437198 -1.5707963267948966 -1.5707963267948966 0.0 1.5707963267948966 0.0 0.07632906595388533 0.0 0.0 0.0 0.0 0.0 0.23271056693257725 0.0 0.0 0.0 0.0 0.0 296.53323221618007 -108.64661610664652 480.9 -1.2150919718233815 1.1999759046642033 -1.1999759046642038 
0.336 0.01313604608221012 -1.5707963267948966 -1.5707963267948966 0.0 1.5707963267948966 0.0 0.07819075048934596 0.0 0.0 0.0 0.0 0.0 0.23271056693257725 0.0 0.0 0.0 0.0 0.0 296.6003277915121 -108.46331432317366 480.9 -1.215381560098989 1.1995202016047974 -1.1995202016047977 
0.344 0.013769018824266734 -1.5707963267948966 -1.5707963267948966 0.0 1.5707963267948966 0.0 0.08005243502480658 0.0 0.0 0.0 0.0 0.0 0.23271056693257725 0.0 0.0 0.0 0.0 0.0 296.66892269128243 -108.27555268477671 480.9 -1.215677994759561 1.1990534904732655 -1.1990534904732657 
0.352 0.014416885042607025 -1.5707963267948966 -1.5707963267948966 0.0 1.5707963267948966 0.0 0.08191411956026719 0.0 0.0 0.0 0.0 0.0 0.23271056693257725 0.0 0.0 0.0 0.0 0.0 296.73900849871603 -108.08332820189658 480.9 -1.2159812664186223 1.198575769338171 -1.1985757693381711 
0.36 0.015079644737231005 -1.5707963267948966 -1.5707963267948966 0.0 1.5707963267948966 0.0 0.08377580409572781 0.0 0.0 0.0 0.0 0.0 0.23271056693257725 0.0 0.0 0.0 0.0 0.0 296.8105765957014 -107.8866378238162 480.9 -1.2162913654708087 1.1980870362246023 -1.1980870362246026 
0.368 0.01575729790813867 -1.5707963267948966 -1.5707963267948966 0.0 1.5707963267948966 0.0 0.08563748863118842 0.0 0.0 0.0 0.0 0.0 0.23271056693257725 0.0 0.0 0.0 0.0 0.0 296.88361816256895 -107.68547843930456 480.9 -1.216608282091998 1.197587289114307 -1.1975872891143071 
0.376 0.01644984455533002 -1.5707963267948966 -1.5707963267948966 0.0 1.5707963267948966 0.0 0.08749917316664904 0.0 0.0 0.0 0.0 0.0 0.23271056693257725 0.0 0.0 0.0 0.0 0.0 296.95812417786675 -107.47984687727573 480.9 -1.2169320062394535 1.1970765259458347 -1.197076525945835 
0.384 0.017157284678805056 -1.5707963267948966 -1.5707963267948966 0.0 1.5707963267948966 0.0 0.08936085770210966 0.0 0.0 0.0 0.0 0.0 0.23271056693257725 0.0 0.0 0.0 0.0 0.0 297.0340854181304 -107.26973990746309 480.9 -1.217262527651962 1.1965547446146756 -1.196554744614676 
0.392 0.017879618278563776 -1.5707963267948966 -1.5707963267948966 0.0 1.5707963267948966 0.0 0.09122254223757029 0.0 0.0 0.0 0.0 0.0 0.23271056693257725 0.0 0.0 0.0 0.0 0.0 297.11149245765023 -107.05515424110895 480.9 -1.2175998358499807 1.1960219429734082 -1.1960219429734087 
0.4 0.018616845354606185 -1.5707963267948966 -1.5707963267948966 0.0 1.5707963267948966 0.0 0.09308422677303091 0.0 0.0 0.0 0.0 0.0 0.23271056693257725 0.0 0.0 0.0 0.0 0.0 297.1903356682342 -106.836086531669 480.9 -1.2179439201357833 1.1954781188318455 -1.1954781188318457 
0.408 0.019368965906932274 -1.5707963267948966 -1.5707963267948966 0.0 1.5707963267948966 0.0 0.09494591130849152 0.0 0.0 0.0 0.0 0.0 0.23271056693257725 0.0 0.0 0.0 0.0 0.0 297.27060521896703 -106.61253337553242 480.9 -1.2182947695936115 1.1949232699571863 -1.1949232699571868 
0.416 0.02013597993554205 -1.5707963267948966 -1.5707963267948966 0.0 1.5707963267948966 0.0 0.09680759584395214 0.0 0.0 0.0 0.0 0.0 0.23271056693257725 0.0 0.0 0.0 0.0 0.0 297.3522910759658 -106.38449131275705 480.9 -1.2186523730898267 1.1943573940741703 -1.1943573940741705 
0.424 0.020917887440435504 -1.5707963267948966 -1.5707963267948966 0.0 1.5707963267948966 0.0 0.09866928037941275 0.0 0.0 0.0 0.0 0.0 0.23271056693257725 0.0 0.0 0.0 0.0 0.0 297.43538300213146 -106.15195682781994 480.9 -1.2190167192730685 1.193780488865234 -1.1937804888652344 
0.432 0.021714688421612647 -1.5707963267948966 -1.5707963267948966 0.0 1.5707963267948966 0.0 0.10053096491487337 0.0 0.0 0.0 0.0 0.0 0.23271056693257725 0.0 0.0 0.0 0.0 0.0 297.51987055689733 -105.91492635038304 480.9 -1.219387796574413 1.193192551970671 -1.1931925519706712 
0.44 0.022526382879073478 -1.5707963267948966 -1.5707963267948966 0.0 1.5707963267948966 0.0 0.102392649450334 0.0 0.0 0.0 0.0 0.0 0.23271056693257725 0.0 0.0 0.0 0.0 0.0 297.6057430959736 -105.67339625607457 480.9 -1.2197655932075324 1.1925935809887926 -1.1925935809887929 
0.448 0.023352970812817994 -1.5707963267948966 -1.5707963267948966 0.0 1.5707963267948966 0.0 0.1042543339857946 0.0 0.0 0.0 0.0 0.0 0.23271056693257725 0.0 0.0 0.0 0.0 0.0 297.692989771089 -105.42736286728544 480.9 -1.2201500971688635 1.1919835734760973 -1.1919835734760975 
0.456 0.02419445222284619 -1.5707963267948966 -1.5707963267948966 0.0 1.5707963267948966 0.0 0.10611601852125523 0.0 0.0 0.0 0.0 0.0 0.23271056693257725 0.0 0.0 0.0 0.0 0.0 297.7815995297286 -105.17682245398125 480.9 -1.2205412962377724 1.1913625269474348 -1.191362526947435 
0.464 0.025050827109158076 -1.5707963267948966 -1.5707963267948966 0.0 1.5707963267948966 0.0 0.10797770305671585 0.0 0.0 0.0 0.0 0.0 0.23271056693257725 0.0 0.0 0.0 0.0 0.0 297.87156111486877 -104.92177123452967 480.9 -1.220939177976727 1.1907304388761806 -1.190730438876181 
0.472 0.02592209547175365 -1.5707963267948966 -1.5707963267948966 0.0 1.5707963267948966 0.0 0.10983938759217647 0.0 0.0 0.0 0.0 0.0 0.23271056693257725 0.0 0.0 0.0 0.0 0.0 297.9628630647086 -104.66220537654326 480.9 -1.221343729731468 1.1900873066944098 -1.19008730669441 
0.48 0.026808257310632896 -1.5707963267948966 -1.5707963267948966 0.0 1.5707963267948966 0.0 0.11170107212763708 0.0 0.0 0.0 0.0 0.0 0.23271056693257725 0.0 0.0 0.0 0.0 0.0 298.0554937123986 -104.39812099773783 480.9 -1.221754938631188 1.1894331277930703 -1.1894331277930708 
0.488 0.02770931262579584 -1.5707963267948966 -1.5707963267948966 0.0 1.5707963267948966 0.0 0.11356275666309769 0.0 0.0 0.0 0.0 0.0 0.23271056693257725 0.0 0.0 0.0 0.0 0.0 298.1494411857666 -104.12951416680615 480.9 -1.2221727915887066 1.1887678995221693 -1.1887678995221695 
0.496 0.02862526141724246 -1.5707963267948966 -1.5707963267948966 0.0 1.5707963267948966 0.0 0.11542444119855831 0.0 0.0 0.0 0.0 0.0 0.23271056693257725 0.0 0.0 0.0 0.0 0.0 298.2446934070402 -103.85638090430736 480.9 -1.222597275300656 1.1880916191909496 -1.1880916191909499 
0.504 0.029556103684972773 -1.5707963267948966 -1.5707963267948966 0.0 1.5707963267948966 0.0 0.11728612573401893 0.0 0.0 0.0 0.0 0.0 0.23271056693257725 0.0 0.0 0.0 0.0 0.0 298.34123809256675 -103.57871718357194 480.9 -1.2230283762476604 1.1874042840680774 -1.1874042840680776 
0.512 0.030501839428986762 -1.5707963267948966 -1.5707963267948966 0.0 1.5707963267948966 0.0 0.11914781026947956 0.0 0.0 0.0 0.0 0.0 0.23271056693257725 0.0 0.0 0.0 0.0 0.0 298.4390627525308 -103.29651893162207 480.9 -1.223466080694527 1.186705891381832 -1.1867058913818322 
0.52 0.031462468649284446 -1.5707963267948966 -1.5707963267948966 0.0 1.5707963267948966 0.0 0.12100949480494017 0.0 0.0 0.0 0.0 0.0 0.23271056693257725 0.0 0.0 0.0 0.0 0.0 298.5381546906687 -103.00978203010783 480.9 -1.2239103746904358 1.185996438320295 -1.1859964383202952 
0.528 0.032437991345865815 -1.5707963267948966 -1.5707963267948966 0.0 1.5707963267948966 0.0 0.12287117934040079 0.0 0.0 0.0 0.0 0.0 0.23271056693257725 0.0 0.0 0.0 0.0 0.0 298.6385010039809 -102.71850231625892 480.9 -1.2243612440691287 1.185275922031545 -1.1852759220315452 
0.536 0.033428407518730864 -1.5707963267948966 -1.5707963267948966 0.0 1.5707963267948966 0.0 0.12473286387586141 0.0 0.0 0.0 0.0 0.0 0.23271056693257725 0.0 0.0 0.0 0.0 0.0 298.74008858244144 -102.4226755838521 480.9 -1.2248186744491076 1.184544339623852 -1.1845443396238522 
0.544 0.034433717167879595 -1.5707963267948966 -1.5707963267948966 0.0 1.5707963267948966 0.0 0.12659454841132203 0.0 0.0 0.0 0.0 0.0 0.23271056693257725 0.0 0.0 0.0 0.0 0.0 298.84290410870597 -102.12229758419427 480.9 -1.2252826512338306 1.1838016881658802 -1.1838016881658804 
0.552 0.03545392029331201 -1.5707963267948966 -1.5707963267948966 0.0 1.5707963267948966 0.0 0.12845623294678266 0.0 0.0 0.0 0.0 0.0 0.23271056693257725 0.0 0.0 0.0 0.0 0.0 298.94693405781675 -101.8173640271214 480.9 -1.2257531596119147 1.1830479646868874 -1.1830479646868879 
0.56 0.03648901689502812 -1.5707963267948966 -1.5707963267948966 0.0 1.5707963267948966 0.0 0.13031791748224328 0.0 0.0 0.0 0.0 0.0 0.23271056693257725 0.0 0.0 0.0 0.0 0.0 299.05216469690583 -101.50787058201298 480.9 -1.2262301845573342 1.1822831661769309 -1.182283166176931 
0.568 0.03753900697302791 -1.5707963267948966 -1.5707963267948966 0.0 1.5707963267948966 0.0 0.1321796020177039 0.0 0.0 0.0 0.0 0.0 0.23271056693257725 0.0 0.0 0.0 0.0 0.0 299.1585820848966 -101.19381287882261 480.9 -1.2267137108296318 1.181507289587073 -1.1815072895870733 
0.576 0.038603890527311384 -1.5707963267948966 -1.5707963267948966 0.0 1.5707963267948966 0.0 0.1340412865531645 0.0 0.0 0.0 0.0 0.0 0.23271056693257725 0.0 0.0 0.0 0.0 0.0 299.266172072203 -100.87518650912402 480.9 -1.227203722974124 1.180720331829594 -1.1807203318295942 
0.584 0.03968366755787853 -1.5707963267948966 -1.5707963267948966 0.0 1.5707963267948966 0.0 0.1359029710886251 0.0 0.0 0.0 0.0 0.0 0.23271056693257725 0.0 0.0 0.0 0.0 0.0 299.3749203004272 -100.55198702717321 480.9 -1.2277002053221113 1.1799222897782022 -1.1799222897782025 
0.592 0.04077833806472937 -1.5707963267948966 -1.5707963267948966 0.0 1.5707963267948966 0.0 0.1377646556240857 0.0 0.0 0.0 0.0 0.0 0.23271056693257725 0.0 0.0 0.0 0.0 0.0 299.48481220205576 -100.22420995098632 480.9 -1.2282031419910933 1.179113160268251 -1.1791131602682512 
0.6 0.041887902047863905 -1.5707963267948966 -1.5707963267948966 0.0 1.5707963267948966 0.0 0.13962634015954634 0.0 0.0 0.0 0.0 0.0 0.23271056693257725 0.0 0.0 0.0 0.0 0.0 299.5958330001536 -99.89185076343345 480.9 -1.228712516884985 1.178292940096957 -1.1782929400969573 
0.608 0.04301235950728212 -1.5707963267948966 -1.5707963267948966 0.0 1.5707963267948966 0.0 0.14148802469500696 0.0 0.0 0.0 0.0 0.0 0.23271056693257725 0.0 0.0 0.0 0.0 0.0 299.70796770805765 -99.55490491334844 480.9 -1.2292283136943325 1.1774616260236181 -1.1774616260236186 
0.616 0.044151710442984014 -1.5707963267948966 -1.5707963267948966 0.0 1.5707963267948966 0.0 0.14334970923046758 0.0 0.0 0.0 0.0 0.0 0.23271056693257725 0.0 0.0 0.0 0.0 0.0 299.8212011290683 -99.2133678166545 480.9 -1.2297505158965372 1.1766192147698418 -1.176619214769842 
0.624 0.0453059548549696 -1.5707963267948966 -1.5707963267948966 0.0 1.5707963267948966 0.0 0.1452113937659282 0.0 0.0 0.0 0.0 0.0 0.23271056693257725 0.0 0.0 0.0 0.0 0.0 299.9355178561398 -98.86723485750592 480.9 -1.2302791067560779 1.175765703019765 -1.1757657030197655 
0.632 0.04647509274323887 -1.5707963267948966 -1.5707963267948966 0.0 1.5707963267948966 0.0 0.14707307830138883 0.0 0.0 0.0 0.0 0.0 0.23271056693257725 0.0 0.0 0.0 0.0 0.0 300.05090227157007 -98.51650138944576 480.9 -1.2308140693247351 1.174901087420287 -1.1749010874202872 
0.64 0.04765912410779182 -1.5707963267948966 -1.5707963267948966 0.0 1.5707963267948966 0.0 0.14893476283684945 0.0 0.0 0.0 0.0 0.0 0.23271056693257725 0.0 0.0 0.0 0.0 0.0 300.16733854668917 -98.16116273657963 480.9 -1.2313553864418236 1.1740253645812992 -1.1740253645813 
0.648 0.048858048948628455 -1.5707963267948966 -1.5707963267948966 0.0 1.5707963267948966 0.0 0.15079644737231007 0.0 0.0 0.0 0.0 0.0 0.23271056693257725 0.0 0.0 0.0 0.0 0.0 300.28481064154676 -97.80121419476541 480.9 -1.2319030407344194 1.173138531075918 -1.1731385310759181 
0.656 0.05007186726574879 -1.5707963267948966 -1.5707963267948966 0.0 1.5707963267948966 0.0 0.15265813190777067 0.0 0.0 0.0 0.0 0.0 0.23271056693257725 0.0 0.0 0.0 0.0 0.0 300.4033023045995 -97.43665103281924 480.9 -1.2324570146175944 1.1722405834407204 -1.1722405834407206 
0.664 0.0513005790591528 -1.5707963267948966 -1.5707963267948966 0.0 1.5707963267948966 0.0 0.1545198164432313 0.0 0.0 0.0 0.0 0.0 0.23271056693257725 0.0 0.0 0.0 0.0 0.0 300.5227970723972 -97.0674684937376 480.9 -1.2330172902946517 1.1713315181759845 -1.1713315181759847 
0.672 0.05254418432884048 -1.5707963267948966 -1.5707963267948966 0.0 1.5707963267948966 0.0 0.1563815009786919 0.0 0.0 0.0 0.0 0.0 0.23271056693257725 0.0 0.0 0.0 0.0 0.0 300.6432782692692 -96.6936617959354 480.9 -1.2335838497573655 1.1704113317459306 -1.170411331745931 
0.68 0.05380268307481187 -1.5707963267948966 -1.5707963267948966 0.0 1.5707963267948966 0.0 0.15824318551415253 0.0 0.0 0.0 0.0 0.0 0.23271056693257725 0.0 0.0 0.0 0.0 0.0 300.7647290070098 -96.31522613450042 480.9 -1.2341566747862183 1.169480020578962 -1.1694800205789622 
0.688 0.055076075297066936 -1.5707963267948966 -1.5707963267948966 0.0 1.5707963267948966 0.0 0.16010487004961316 0.0 0.0 0.0 0.0 0.0 0.23271056693257725 0.0 0.0 0.0 0.0 0.0 300.8871321845638 -95.93215668246397 480.9 -1.2347357469506461 1.1685375810679133 -1.1685375810679135 
0.696 0.056364360995605677 -1.5707963267948966 -1.5707963267948966 0.0 1.5707963267948966 0.0 0.16196655458507378 0.0 0.0 0.0 0.0 0.0 0.23271056693257725 0.0 0.0 0.0 0.0 0.0 301.01047048771227 -95.54444859208762 480.9 -1.2353210476092824 1.1675840095702996 -1.1675840095703 
0.704 0.0576675401704281 -1.5707963267948966 -1.5707963267948966 0.0 1.5707963267948966 0.0 0.16382823912053437 0.0 0.0 0.0 0.0 0.0 0.23271056693257725 0.0 0.0 0.0 0.0 0.0 301.13472638875794 -95.15209699616646 480.9 -1.2359125579102073 1.1666193024085667 -1.166619302408567 
0.712 0.058985612821534215 -1.5707963267948966 -1.5707963267948966 0.0 1.5707963267948966 0.0 0.165689923655995 0.0 0.0 0.0 0.0 0.0 0.23271056693257725 0.0 0.0 0.0 0.0 0.0 301.259882146211 -94.75509700934843 480.9 -1.236510258791192 1.165643455870342 -1.1656434558703423 
0.72 0.06031857894892402 -1.5707963267948966 -1.5707963267948966 0.0 1.5707963267948966 0.0 0.16755160819145562 0.0 0.0 0.0 0.0 0.0 0.23271056693257725 0.0 0.0 0.0 0.0 0.0 301.38591980447546 -94.35344372947003 480.9 -1.237114130979957 1.1646564662086938 -1.164656466208694 
0.728 0.06166643855259751 -1.5707963267948966 -1.5707963267948966 0.0 1.5707963267948966 0.0 0.16941329272691624 0.0 0.0 0.0 0.0 0.0 0.23271056693257725 0.0 0.0 0.0 0.0 0.0 301.5128211935357 -93.94713223890858 480.9 -1.237724154994424 1.1636583296423901 -1.1636583296423904 
0.736 0.06302919163255467 -1.5707963267948966 -1.5707963267948966 0.0 1.5707963267948966 0.0 0.17127497726237684 0.0 0.0 0.0 0.0 0.0 0.23271056693257725 0.0 0.0 0.0 0.0 0.0 301.6405679286438 -93.53615760595054 480.9 -1.2383403111429687 1.1626490423561535 -1.1626490423561537 
0.744 0.06440683818879554 -1.5707963267948966 -1.5707963267948966 0.0 1.5707963267948966 0.0 0.17313666179783746 0.0 0.0 0.0 0.0 0.0 0.23271056693257725 0.0 0.0 0.0 0.0 0.0 301.76914141000793 -93.12051488617648 480.9 -1.2389625795246848 1.161628600500931 -1.1616286005009313 
0.752 0.06579937822132008 -1.5707963267948966 -1.5707963267948966 0.0 1.5707963267948966 0.0 0.17499834633329808 0.0 0.0 0.0 0.0 0.0 0.23271056693257725 0.0 0.0 0.0 0.0 0.0 301.89852282248125 -92.70019912386243 480.9 -1.23959094002964 1.1605970001941552 -1.1605970001941555 
0.76 0.06720681173012831 -1.5707963267948966 -1.5707963267948966 0.0 1.5707963267948966 0.0 0.1768600308687587 0.0 0.0 0.0 0.0 0.0 0.23271056693257725 0.0 0.0 0.0 0.0 0.0 302.02869313525207 -92.27520535339758 480.9 -1.240225372339142 1.1595542375200116 -1.159554237520012 
0.768 0.06862913871522022 -1.5707963267948966 -1.5707963267948966 0.0 1.5707963267948966 0.0 0.17872171540421933 0.0 0.0 0.0 0.0 0.0 0.23271056693257725 0.0 0.0 0.0 0.0 0.0 302.1596331015355 -91.84552860071868 480.9 -1.240865855926003 1.1585003085297128 -1.158500308529713 
0.776 0.07006635917659582 -1.5707963267948966 -1.5707963267948966 0.0 1.5707963267948966 0.0 0.18058339993967995 0.0 0.0 0.0 0.0 0.0 0.23271056693257725 0.0 0.0 0.0 0.0 0.0 302.29132325826583 -91.41116388476077 480.9 -1.2415123700548034 1.1574352092417637 -1.157435209241764 
0.784 0.0715184731142551 -1.5707963267948966 -1.5707963267948966 0.0 1.5707963267948966 0.0 0.18244508447514057 0.0 0.0 0.0 0.0 0.0 0.23271056693257725 0.0 0.0 0.0 0.0 0.0 302.4237439257915 -90.97210621892447 480.9 -1.2421648937821652 1.1563589356422423 -1.1563589356422426 
0.792 0.07298548052819807 -1.5707963267948966 -1.5707963267948966 0.0 1.5707963267948966 0.0 0.1843067690106012 0.0 0.0 0.0 0.0 0.0 0.23271056693257725 0.0 0.0 0.0 0.0 0.0 302.5568752075705 -90.52835061255998 480.9 -1.2428234059570202 1.1552714836850737 -1.155271483685074 
0.8 0.07446738141842474 -1.5707963267948966 -1.5707963267948966 0.0 1.5707963267948966 0.0 0.18616845354606182 0.0 0.0 0.0 0.0 0.0 0.23271056693257725 0.0 0.0 0.0 0.0 0.0 302.69069698986885 -90.07989207246749 480.9 -1.243487885220886 1.1541728492923087 -1.1541728492923093 
0.808 0.07596417578493507 -1.5707963267948966 -1.5707963267948966 0.0 1.5707963267948966 0.0 0.1880301380815224 0.0 0.0 0.0 0.0 0.0 0.23271056693257725 0.0 0.0 0.0 0.0 0.0 302.8251889414601 -89.62672560441428 480.9 -1.2441583100081357 1.1530630283544052 -1.1530630283544054 
0.816 0.0774758636277291 -1.5707963267948966 -1.5707963267948966 0.0 1.5707963267948966 0.0 0.18989182261698304 0.0 0.0 0.0 0.0 0.0 0.23271056693257725 0.0 0.0 0.0 0.0 0.0 302.9603305133277 -89.16884621466853 480.9 -1.2448346585462833 1.1519420167305126 -1.1519420167305128 
0.824 0.0790024449468068 -1.5707963267948966 -1.5707963267948966 0.0 1.5707963267948966 0.0 0.19175350715244366 0.0 0.0 0.0 0.0 0.0 0.23271056693257725 0.0 0.0 0.0 0.0 0.0 303.0961009383693 -88.70624891154965 480.9 -1.2455169088562545 1.1508098102487563 -1.1508098102487565 
0.832 0.0805439197421682 -1.5707963267948966 -1.5707963267948966 0.0 1.5707963267948966 0.0 0.19361519168790428 0.0 0.0 0.0 0.0 0.0 0.23271056693257725 0.0 0.0 0.0 0.0 0.0 303.23247923110375 -88.23892870699537 480.9 -1.2462050387526735 1.149666404706525 -1.1496664047065253 
0.84 0.08210028801381324 -1.5707963267948966 -1.5707963267948966 0.0 1.5707963267948966 0.0 0.19547687622336488 0.0 0.0 0.0 0.0 0.0 0.23271056693257725 0.0 0.0 0.0 0.0 0.0 303.3694441873805 -87.76688061814554 480.9 -1.2468990258441426 1.1485117958707625 -1.1485117958707627 
0.848 0.08367154976174201 -1.5707963267948966 -1.5707963267948966 0.0 1.5707963267948966 0.0 0.1973385607588255 0.0 0.0 0.0 0.0 0.0 0.23271056693257725 0.0 0.0 0.0 0.0 0.0 303.5069743840923 -87.29009966894259 480.9 -1.2475988475335285 1.1473459794782566 -1.1473459794782568 
0.856 0.08525770498595445 -1.5707963267948966 -1.5707963267948966 0.0 1.5707963267948966 0.0 0.19920024529428612 0.0 0.0 0.0 0.0 0.0 0.23271056693257725 0.0 0.0 0.0 0.0 0.0 303.6450481788904 -86.80858089174892 480.9 -1.2483044810182493 1.1461689512359365 -1.1461689512359368 
0.864 0.08685875368645059 -1.5707963267948966 -1.5707963267948966 0.0 1.5707963267948966 0.0 0.20106192982974674 0.0 0.0 0.0 0.0 0.0 0.23271056693257725 0.0 0.0 0.0 0.0 0.0 303.7836437099033 -86.32231932898077 480.9 -1.249015903290562 1.1449807068211666 -1.1449807068211668 
0.872 0.0884746958632304 -1.5707963267948966 -1.5707963267948966 0.0 1.5707963267948966 0.0 0.20292361436520737 0.0 0.0 0.0 0.0 0.0 0.23271056693257725 0.0 0.0 0.0 0.0 0.0 303.9227388954585 -85.83131003475917 480.9 -1.2497330911378528 1.1437812418820463 -1.1437812418820466 
0.88 0.09010553151629391 -1.5707963267948966 -1.5707963267948966 0.0 1.5707963267948966 0.0 0.204785298900668 0.0 0.0 0.0 0.0 0.0 0.23271056693257725 0.0 0.0 0.0 0.0 0.0 304.0623114338081 -85.33554807657745 480.9 -1.2504560211429294 1.1425705520377072 -1.1425705520377074 
0.888 0.0917512606456411 -1.5707963267948966 -1.5707963267948966 0.0 1.5707963267948966 0.0 0.20664698343612858 0.0 0.0 0.0 0.0 0.0 0.23271056693257725 0.0 0.0 0.0 0.0 0.0 304.202338802858 -84.83502853698586 480.9 -1.2511846696843159 1.1413486328786209 -1.141348632878621 
0.896 0.09341188325127198 -1.5707963267948966 -1.5707963267948966 0.0 1.5707963267948966 0.0 0.2085086679715892 0.0 0.0 0.0 0.0 0.0 0.23271056693257725 0.0 0.0 0.0 0.0 0.0 304.34279825990046 -84.32974651529263 480.9 -1.2519190129365472 1.1401154799668982 -1.1401154799668984 
0.904 0.09508739933318652 -1.5707963267948966 -1.5707963267948966 0.0 1.5707963267948966 0.0 0.21037035250704983 0.0 0.0 0.0 0.0 0.0 0.23271056693257725 0.0 0.0 0.0 0.0 0.0 304.48366684135186 -83.81969712928235 480.9 -1.252659026870466 1.1388710888365983 -1.1388710888365985 
0.912 0.09677780889138476 -1.5707963267948966 -1.5707963267948966 0.0 1.5707963267948966 0.0 0.21223203704251045 0.0 0.0 0.0 0.0 0.0 0.23271056693257725 0.0 0.0 0.0 0.0 0.0 304.6249213624934 -83.3048755169509 480.9 -1.2534046872535227 1.1376154549940347 -1.137615454994035 
0.92 0.0984831119258667 -1.5707963267948966 -1.5707963267948966 0.0 1.5707963267948966 0.0 0.21409372157797107 0.0 0.0 0.0 0.0 0.0 0.23271056693257725 0.0 0.0 0.0 0.0 0.0 304.76653841721713 -82.78527683825745 480.9 -1.2541559696500753 1.1363485739180892 -1.1363485739180894 
0.928 0.1002033084366323 -1.5707963267948966 -1.5707963267948966 0.0 1.5707963267948966 0.0 0.2159554061134317 0.0 0.0 0.0 0.0 0.0 0.23271056693257725 0.0 0.0 0.0 0.0 0.0 304.9084943777759 -82.26089627689316 480.9 -1.254912849421693 1.1350704410605212 -1.1350704410605215 
0.936 0.1019383984236816 -1.5707963267948966 -1.5707963267948966 0.0 1.5707963267948966 0.0 0.21781709064889232 0.0 0.0 0.0 0.0 0.0 0.23271056693257725 0.0 0.0 0.0 0.0 0.0 305.050765394539 -81.73172904206723 480.9 -1.2556753017274578 1.1337810518462823 -1.1337810518462825 
0.944 0.1036883818870146 -1.5707963267948966 -1.5707963267948966 0.0 1.5707963267948966 0.0 0.21967877518435294 0.0 0.0 0.0 0.0 0.0 0.23271056693257725 0.0 0.0 0.0 0.0 0.0 305.19332739575174 -81.19777037030924 480.9 -1.2564433015242713 1.1324804016738328 -1.132480401673833 
0.952 0.10545325882663126 -1.5707963267948966 -1.5707963267948966 0.0 1.5707963267948966 0.0 0.22154045971981356 0.0 0.0 0.0 0.0 0.0 0.23271056693257725 0.0 0.0 0.0 0.0 0.0 305.33615608730076 -80.65901552728923 480.9 -1.2572168235671612 1.1311684859154603 -1.1311684859154605 
0.96 0.10723302924253159 -1.5707963267948966 -1.5707963267948966 0.0 1.5707963267948966 0.0 0.22340214425527416 0.0 0.0 0.0 0.0 0.0 0.23271056693257725 0.0 0.0 0.0 0.0 0.0 305.4792269524848 -80.11545980965387 480.9 -1.2579958424095914 1.1298452999175979 -1.129845299917598 
0.968 0.10902769313471562 -1.5707963267948966 -1.5707963267948966 0.0 1.5707963267948966 0.0 0.22526382879073475 0.0 0.0 0.0 0.0 0.0 0.23271056693257725 0.0 0.0 0.0 0.0 0.0 305.6225152517906 -79.56709854688047 480.9 -1.258780332403769 1.1285108390011473 -1.1285108390011476 
0.976 0.11083725050318335 -1.5707963267948966 -1.5707963267948966 0.0 1.5707963267948966 0.0 0.22712551332619538 0.0 0.0 0.0 0.0 0.0 0.23271056693257725 0.0 0.0 0.0 0.0 0.0 305.76599602267504 -79.0139271031473 480.9 -1.2595702677009581 1.1271650984618025 -1.1271650984618027 
0.984 0.11266170134793475 -1.5707963267948966 -1.5707963267948966 0.0 1.5707963267948966 0.0 0.228987197861656 0.0 0.0 0.0 0.0 0.0 0.23271056693257725 0.0 0.0 0.0 0.0 0.0 305.90964407935246 -78.45594087922125 480.9 -1.2603656222517912 1.1258080735703728 -1.125808073570373 
0.992 0.11450104566896983 -1.5707963267948966 -1.5707963267948966 0.0 1.5707963267948966 0.0 0.23084888239711662 0.0 0.0 0.0 0.0 0.0 0.23271056693257725 0.0 0.0 0.0 0.0 0.0 306.0534340125894 -77.8931353143624 480.9 -1.2611663698065845 1.124439759573113 -1.1244397595731133 
1.0 0.11635528346628862 -1.5707963267948966 -1.5707963267948966 0.0 1.5707963267948966 0.0 0.23271056693257725 0.0 0.0 0.0 0.0 0.0 0.23271056693257725 0.0 0.0 0.0 0.0 0.0 306.1973401895041 -77.32550588824559 480.9 -1.2619724839156536 1.1230601516920509 -1.1230601516920515 
1.008 0.11822441473989109 -1.5707963267948966 -1.5707963267948966 0.0 1.5707963267948966 0.0 0.23457225146803787 0.0 0.0 0.0 0.0 0.0 0.23271056693257725 0.0 0.0 0.0 0.0 0.0 306.34133675337375 -76.75304812289905 480.9 -1.2627839379296288 1.1216692451253172 -1.1216692451253174 
1.016 0.12010843948977723 -1.5707963267948966 -1.5707963267948966 0.0 1.5707963267948966 0.0 0.2364339360034985 0.0 0.0 0.0 0.0 0.0 0.23271056693257725 0.0 0.0 0.0 0.0 0.0 306.4853976234481 -76.17575758466005 480.9 -1.2636007049997753 1.1202670350474786 -1.1202670350474788 
1.024 0.12200735771594705 -1.5707963267948966 -1.5707963267948966 0.0 1.5707963267948966 0.0 0.2382956205389591 0.0 0.0 0.0 0.0 0.0 0.23271056693257725 0.0 0.0 0.0 0.0 0.0 306.62949649476997 -75.59362988614731 480.9 -1.2644227580783118 1.1188535166098728 -1.118853516609873 
1.032 0.12392116941840058 -1.5707963267948966 -1.5707963267948966 0.0 1.5707963267948966 0.0 0.24015730507441974 0.0 0.0 0.0 0.0 0.0 0.23271056693257725 0.0 0.0 0.0 0.0 0.0 306.7736068380029 -75.00666068825106 480.9 -1.265250069918732 1.1174286849409423 -1.1174286849409425 
1.04 0.12584987459713778 -1.5707963267948966 -1.5707963267948966 0.0 1.5707963267948966 0.0 0.24201898960988033 0.0 0.0 0.0 0.0 0.0 0.23271056693257725 0.0 0.0 0.0 0.0 0.0 306.9177018992661 -74.41484570213937 480.9 -1.2660826130761258 1.1159925351465736 -1.115992535146574 
1.048 0.12779347325215867 -1.5707963267948966 -1.5707963267948966 0.0 1.5707963267948966 0.0 0.24388067414534095 0.0 0.0 0.0 0.0 0.0 0.23271056693257725 0.0 0.0 0.0 0.0 0.0 307.0617546999776 -73.81818069128207 480.9 -1.2669203599075043 1.1145450623104367 -1.1145450623104372 
1.056 0.12975196538346326 -1.5707963267948966 -1.5707963267948966 0.0 1.5707963267948966 0.0 0.24574235868080158 0.0 0.0 0.0 0.0 0.0 0.23271056693257725 0.0 0.0 0.0 0.0 0.0 307.20573803670425 -73.21666147349136 480.9 -1.2677632825721217 1.1130862614943238 -1.113086261494324 
1.064 0.1317253509910515 -1.5707963267948966 -1.5707963267948966 0.0 1.5707963267948966 0.0 0.2476040432162622 0.0 0.0 0.0 0.0 0.0 0.23271056693257725 0.0 0.0 0.0 0.0 0.0 307.3496244810204 -72.61028392297985 480.9 -1.2686113530318022 1.1116161277384924 -1.1116161277384926 
1.072 0.13371363007492346 -1.5707963267948966 -1.5707963267948966 0.0 1.5707963267948966 0.0 0.24946572775172282 0.0 0.0 0.0 0.0 0.0 0.23271056693257725 0.0 0.0 0.0 0.0 0.0 307.4933863793746 -71.999043972435 480.9 -1.2694645430512677 1.110134656062011 -1.1101346560620113 
1.08 0.13571680263507907 -1.5707963267948966 -1.5707963267948966 0.0 1.5707963267948966 0.0 0.2513274122871834 0.0 0.0 0.0 0.0 0.0 0.23271056693257725 0.0 0.0 0.0 0.0 0.0 307.6369958529649 -71.38293761511122 480.9 -1.270322824198465 1.108641841463104 -1.1086418414631043 
1.088 0.13773486867151838 -1.5707963267948966 -1.5707963267948966 0.0 1.5707963267948966 0.0 0.25318909682264407 0.0 0.0 0.0 0.0 0.0 0.23271056693257725 0.0 0.0 0.0 0.0 0.0 307.7804247976224 -70.76196090693851 480.9 -1.2711861678448932 1.1071376789194962 -1.1071376789194964 
1.096 0.13976782818424138 -1.5707963267948966 -1.5707963267948966 0.0 1.5707963267948966 0.0 0.25505078135810466 0.0 0.0 0.0 0.0 0.0 0.23271056693257725 0.0 0.0 0.0 0.0 0.0 307.92364488370424 -70.1361099686485 480.9 -1.2720545451659349 1.1056221633887653 -1.1056221633887655 
1.104 0.14181568117324805 -1.5707963267948966 -1.5707963267948966 0.0 1.5707963267948966 0.0 0.2569124658935653 0.0 0.0 0.0 0.0 0.0 0.23271056693257725 0.0 0.0 0.0 0.0 0.0 308.0666275559956 -69.50538098791704 480.9 -1.2729279271411886 1.1040952898086915 -1.1040952898086918 
1.112 0.14387842763853845 -1.5707963267948966 -1.5707963267948966 0.0 1.5707963267948966 0.0 0.2587741504290259 0.0 0.0 0.0 0.0 0.0 0.23271056693257725 0.0 0.0 0.0 0.0 0.0 308.2093440336202 -68.86977022152418 480.9 -1.2738062845547962 1.1025570530976054 -1.1025570530976057 
1.12 0.14595606758011248 -1.5707963267948966 -1.5707963267948966 0.0 1.5707963267948966 0.0 0.26063583496448656 0.0 0.0 0.0 0.0 0.0 0.23271056693257725 0.0 0.0 0.0 0.0 0.0 308.35176530996193 -68.22927399753094 480.9 -1.2746895879957807 1.1010074481547474 -1.1010074481547476 
1.128 0.1480486009979702 -1.5707963267948966 -1.5707963267948966 0.0 1.5707963267948966 0.0 0.26249751949994715 0.0 0.0 0.0 0.0 0.0 0.23271056693257725 0.0 0.0 0.0 0.0 0.0 308.4938621525949 -67.583888717473 480.9 -1.2755778078583764 1.0994464698606168 -1.099446469860617 
1.136 0.15015602789211163 -1.5707963267948966 -1.5707963267948966 0.0 1.5707963267948966 0.0 0.2643592040354078 0.0 0.0 0.0 0.0 0.0 0.23271056693257725 0.0 0.0 0.0 0.0 0.0 308.6356051032241 -66.9336108585715 480.9 -1.276470914342365 1.0978741130773315 -1.097874113077332 
1.144 0.15227834826253675 -1.5707963267948966 -1.5707963267948966 0.0 1.5707963267948966 0.0 0.2662208885708684 0.0 0.0 0.0 0.0 0.0 0.23271056693257725 0.0 0.0 0.0 0.0 0.0 308.7769644776365 -66.27843697596059 480.9 -1.2773688774534107 1.096290372648984 -1.0962903726489843 
1.152 0.15441556210924554 -1.5707963267948966 -1.5707963267948966 0.0 1.5707963267948966 0.0 0.268082573106329 0.0 0.0 0.0 0.0 0.0 0.23271056693257725 0.0 0.0 0.0 0.0 0.0 308.9179103656621 -65.61836370493204 480.9 -1.2782716670033958 1.0946952434020012 -1.0946952434020014 
1.16 0.15656766943223796 -1.5707963267948966 -1.5707963267948966 0.0 1.5707963267948966 0.0 0.2699442576417896 0.0 0.0 0.0 0.0 0.0 0.23271056693257725 0.0 0.0 0.0 0.0 0.0 309.05841263114615 -64.95338776319669 480.9 -1.2791792526107595 1.093088720145505 -1.0930887201455053 
1.168 0.1587346702315141 -1.5707963267948966 -1.5707963267948966 0.0 1.5707963267948966 0.0 0.2718059421772502 0.0 0.0 0.0 0.0 0.0 0.23271056693257725 0.0 0.0 0.0 0.0 0.0 309.19844091193227 -64.28350595316267 480.9 -1.280091603700832 1.0914707976716722 -1.0914707976716727 
1.176 0.16091656450707395 -1.5707963267948966 -1.5707963267948966 0.0 1.5707963267948966 0.0 0.27366762671271083 0.0 0.0 0.0 0.0 0.0 0.23271056693257725 0.0 0.0 0.0 0.0 0.0 309.33796461985673 -63.6087151642308 480.9 -1.2810086895061767 1.0898414707561004 -1.0898414707561008 
1.184 0.1631133522589175 -1.5707963267948966 -1.5707963267948966 0.0 1.5707963267948966 0.0 0.2755293112481714 0.0 0.0 0.0 0.0 0.0 0.23271056693257725 0.0 0.0 0.0 0.0 0.0 309.476952940754 -62.92901237510637 480.9 -1.2819304790669284 1.0882007341581705 -1.0882007341581708 
1.192 0.16532503348704472 -1.5707963267948966 -1.5707963267948966 0.0 1.5707963267948966 0.0 0.2773909957836321 0.0 0.0 0.0 0.0 0.0 0.23271056693257725 0.0 0.0 0.0 0.0 0.0 309.61537483447455 -62.24439465612807 480.9 -1.2828569412311304 1.086548582621414 -1.0865485826214143 
1.2 0.16755160819145562 -1.5707963267948966 -1.5707963267948966 0.0 1.5707963267948966 0.0 0.27925268031909267 0.0 0.0 0.0 0.0 0.0 0.23271056693257725 0.0 0.0 0.0 0.0 0.0 309.7531990349136 -61.55485917161363 480.9 -1.2837880446550782 1.0848850108738781 -1.0848850108738783 
1.208 0.1697930763721502 -1.5707963267948966 -1.5707963267948966 0.0 1.5707963267948966 0.0 0.2811143648545533 0.0 0.0 0.0 0.0 0.0 0.23271056693257725 0.0 0.0 0.0 0.0 0.0 309.8903940500534 -60.86040318222203 480.9 -1.2847237578036579 1.0832100136284954 -1.0832100136284957 
1.216 0.17204943802912848 -1.5707963267948966 -1.5707963267948966 0.0 1.5707963267948966 0.0 0.2829760493900139 0.0 0.0 0.0 0.0 0.0 0.23271056693257725 0.0 0.0 0.0 0.0 0.0 310.02692816201665 -60.161024047332646 480.9 -1.2856640489506903 1.0815235855834553 -1.0815235855834555 
1.224 0.1743206931623904 -1.5707963267948966 -1.5707963267948966 0.0 1.5707963267948966 0.0 0.28483773392547457 0.0 0.0 0.0 0.0 0.0 0.23271056693257725 0.0 0.0 0.0 0.0 0.0 310.1627694271336 -59.45671922744096 480.9 -1.28660888617927 1.0798257214225708 -1.0798257214225713 
1.232 0.17660684177193606 -1.5707963267948966 -1.5707963267948966 0.0 1.5707963267948966 0.0 0.28669941846093516 0.0 0.0 0.0 0.0 0.0 0.23271056693257725 0.0 0.0 0.0 0.0 0.0 310.2978856760212 -58.74748628657096 480.9 -1.2875582373821095 1.0781164158156549 -1.078116415815655 
1.24 0.1789078838577654 -1.5707963267948966 -1.5707963267948966 0.0 1.5707963267948966 0.0 0.28856110299639576 0.0 0.0 0.0 0.0 0.0 0.23271056693257725 0.0 0.0 0.0 0.0 0.0 310.43224451367644 -58.03332289470413 480.9 -1.2885120702618822 1.0763956634188896 -1.07639566341889 
1.248 0.1812238194198784 -1.5707963267948966 -1.5707963267948966 0.0 1.5707963267948966 0.0 0.2904227875318564 0.0 0.0 0.0 0.0 0.0 0.23271056693257725 0.0 0.0 0.0 0.0 0.0 310.56581331958205 -57.3142268302251 480.9 -1.2894703523315647 1.074663458875206 -1.0746634588752062 
1.256 0.1835546484582751 -1.5707963267948966 -1.5707963267948966 0.0 1.5707963267948966 0.0 0.292284472067317 0.0 0.0 0.0 0.0 0.0 0.23271056693257725 0.0 0.0 0.0 0.0 0.0 310.6985592478269 -56.59019598238364 480.9 -1.2904330509147819 1.0729197968146544 -1.0729197968146547 
1.264 0.18590037097295548 -1.5707963267948966 -1.5707963267948966 0.0 1.5707963267948966 0.0 0.29414615660277765 0.0 0.0 0.0 0.0 0.0 0.23271056693257725 0.0 0.0 0.0 0.0 0.0 310.83044922723957 -55.86122835377333 480.9 -1.2914001331461498 1.071164671854785 -1.0711646718547851 
1.272 0.18826098696391955 -1.5707963267948966 -1.5707963267948966 0.0 1.5707963267948966 0.0 0.29600784113823825 0.0 0.0 0.0 0.0 0.0 0.23271056693257725 0.0 0.0 0.0 0.0 0.0 310.96144996153686 -55.12732206282661 480.9 -1.2923715659716204 1.0693980786010238 -1.069398078601024 
1.28 0.19063649643116728 -1.5707963267948966 -1.5707963267948966 0.0 1.5707963267948966 0.0 0.2978695256736989 0.0 0.0 0.0 0.0 0.0 0.23271056693257725 0.0 0.0 0.0 0.0 0.0 311.0915279294858 -54.388475346326246 480.9 -1.2933473161488256 1.067620011647053 -1.0676200116470531 
1.288 0.19302689937469875 -1.5707963267948966 -1.5707963267948966 0.0 1.5707963267948966 0.0 0.2997312102091595 0.0 0.0 0.0 0.0 0.0 0.23271056693257725 0.0 0.0 0.0 0.0 0.0 311.2206493850817 -53.64468656193304 480.9 -1.2943273502474235 1.0658304655751905 -1.0658304655751907 
1.296 0.19543219579451382 -1.5707963267948966 -1.5707963267948966 0.0 1.5707963267948966 0.0 0.30159289474462014 0.0 0.0 0.0 0.0 0.0 0.23271056693257725 0.0 0.0 0.0 0.0 0.0 311.3487803577399 -52.895954190730116 480.9 -1.2953116346494429 1.0640294349567727 -1.064029434956773 
1.304 0.19785238569061264 -1.5707963267948966 -1.5707963267948966 0.0 1.5707963267948966 0.0 0.30345457928008074 0.0 0.0 0.0 0.0 0.0 0.23271056693257725 0.0 0.0 0.0 0.0 0.0 311.4758866525038 -52.14227683978304 480.9 -1.2963001355496278 1.0622169143525342 -1.0622169143525344 
1.312 0.20028746906299516 -1.5707963267948966 -1.5707963267948966 0.0 1.5707963267948966 0.0 0.30531626381554133 0.0 0.0 0.0 0.0 0.0 0.23271056693257725 0.0 0.0 0.0 0.0 0.0 311.60193385026787 -51.38365324471652 480.9 -1.2972928189557824 1.060392898312993 -1.0603928983129933 
1.32 0.20273744591166132 -1.5707963267948966 -1.5707963267948966 0.0 1.5707963267948966 0.0 0.307177948351002 0.0 0.0 0.0 0.0 0.0 0.23271056693257725 0.0 0.0 0.0 0.0 0.0 311.7268873080165 -50.62008227230705 480.9 -1.29828965068912 1.0585573813788365 -1.0585573813788367 
1.328 0.2052023162366112 -1.5707963267948966 -1.5707963267948966 0.0 1.5707963267948966 0.0 0.3090396328864626 0.0 0.0 0.0 0.0 0.0 0.23271056693257725 0.0 0.0 0.0 0.0 0.0 311.8507121590794 -49.851562923091606 480.9 -1.2992905963846044 1.0567103580813024 -1.0567103580813026 
1.336 0.20768208003784472 -1.5707963267948966 -1.5707963267948966 0.0 1.5707963267948966 0.0 0.31090131742192323 0.0 0.0 0.0 0.0 0.0 0.23271056693257725 0.0 0.0 0.0 0.0 0.0 311.9733733134027 -49.07809433399251 480.9 -1.3002956214912973 1.0548518229425703 -1.0548518229425707 
1.344 0.21017673731536193 -1.5707963267948966 -1.5707963267948966 0.0 1.5707963267948966 0.0 0.3127630019573838 0.0 0.0 0.0 0.0 0.0 0.23271056693257725 0.0 0.0 0.0 0.0 0.0 312.094835457837 -48.299675780958005 480.9 -1.3013046912727038 1.0529817704761466 -1.0529817704761466 
1.352 0.21268628806916287 -1.5707963267948966 -1.5707963267948966 0.0 1.5707963267948966 0.0 0.3146246864928445 0.0 0.0 0.0 0.0 0.0 0.23271056693257725 0.0 0.0 0.0 0.0 0.0 312.21506305644243 -47.516306681618914 480.9 -1.302317770807119 1.051100195187252 -1.0511001951872523 
1.36 0.21521073229924748 -1.5707963267948966 -1.5707963267948966 0.0 1.5707963267948966 0.0 0.31648637102830507 0.0 0.0 0.0 0.0 0.0 0.23271056693257725 0.0 0.0 0.0 0.0 0.0 312.3340203508109 -46.72798659796109 480.9 -1.3033348249879715 1.0492070915732132 -1.0492070915732135 
1.368 0.21775007000561575 -1.5707963267948966 -1.5707963267948966 0.0 1.5707963267948966 0.0 0.3183480555637657 0.0 0.0 0.0 0.0 0.0 0.23271056693257725 0.0 0.0 0.0 0.0 0.0 312.4516713604053 -45.934715239013464 480.9 -1.3043558185241702 1.047302454123853 -1.0473024541238531 
1.376 0.22030430118826774 -1.5707963267948966 -1.5707963267948966 0.0 1.5707963267948966 0.0 0.3202097400992263 0.0 0.0 0.0 0.0 0.0 0.23271056693257725 0.0 0.0 0.0 0.0 0.0 312.5679798829172 -45.13649246355187 480.9 -1.3053807159404485 1.045386277321878 -1.0453862773218783 
1.384 0.22287342584720338 -1.5707963267948966 -1.5707963267948966 0.0 1.5707963267948966 0.0 0.3220714246346869 0.0 0.0 0.0 0.0 0.0 0.23271056693257725 0.0 0.0 0.0 0.0 0.0 312.68290949464176 -44.333318282818496 480.9 -1.306409481577712 1.0434585556432767 -1.043458555643277 
1.392 0.2254574439824227 -1.5707963267948966 -1.5707963267948966 0.0 1.5707963267948966 0.0 0.32393310917014756 0.0 0.0 0.0 0.0 0.0 0.23271056693257725 0.0 0.0 0.0 0.0 0.0 312.7964235508716 -43.52519286325665 480.9 -1.307442079593379 1.0415192835577063 -1.0415192835577065 
1.4 0.22805635559392576 -1.5707963267948966 -1.5707963267948966 0.0 1.5707963267948966 0.0 0.32579479370560815 0.0 0.0 0.0 0.0 0.0 0.23271056693257725 0.0 0.0 0.0 0.0 0.0 312.90848518630935 -42.71211652926123 480.9 -1.3084784739617286 1.0395684555288909 -1.039568455528891 
1.408 0.2306701606817124 -1.5707963267948966 -1.5707963267948966 0.0 1.5707963267948966 0.0 0.32765647824106875 0.0 0.0 0.0 0.0 0.0 0.23271056693257725 0.0 0.0 0.0 0.0 0.0 313.01905731549795 -41.89408976594433 480.9 -1.3095186284742442 1.0376060660150155 -1.0376060660150157 
1.416 0.23329885924578278 -1.5707963267948966 -1.5707963267948966 0.0 1.5707963267948966 0.0 0.32951816277652934 0.0 0.0 0.0 0.0 0.0 0.23271056693257725 0.0 0.0 0.0 0.0 0.0 313.1281026332714 -41.071113221916065 480.9 -1.310562506739956 1.0356321094691183 -1.0356321094691185 
1.424 0.23594245128613686 -1.5707963267948966 -1.5707963267948966 0.0 1.5707963267948966 0.0 0.33137984731199 0.0 0.0 0.0 0.0 0.0 0.23271056693257725 0.0 0.0 0.0 0.0 0.0 313.23558361522436 -40.243187712080754 480.9 -1.3116100721857875 1.033646580339492 -1.0336465803394923 
1.432 0.23860093680277464 -1.5707963267948966 -1.5707963267948966 0.0 1.5707963267948966 0.0 0.3332415318474506 0.0 0.0 0.0 0.0 0.0 0.23271056693257725 0.0 0.0 0.0 0.0 0.0 313.3414625182016 -39.410314220448086 480.9 -1.3126612880568964 1.0316494730700776 -1.0316494730700778 
1.44 0.24127431579569608 -1.5707963267948966 -1.5707963267948966 0.0 1.5707963267948966 0.0 0.33510321638291124 0.0 0.0 0.0 0.0 0.0 0.23271056693257725 0.0 0.0 0.0 0.0 0.0 313.44570138080724 -38.572493902959124 480.9 -1.3137161174170175 1.0296407821008629 -1.029640782100863 
1.448 0.24396258826490122 -1.5707963267948966 -1.5707963267948966 0.0 1.5707963267948966 0.0 0.33696490091837183 0.0 0.0 0.0 0.0 0.0 0.23271056693257725 0.0 0.0 0.0 0.0 0.0 313.5482620239346 -37.72972809032739 480.9 -1.3147745231488066 1.0276205018682818 -1.027620501868282 
1.456 0.24666575421039005 -1.5707963267948966 -1.5707963267948966 0.0 1.5707963267948966 0.0 0.3388265854538325 0.0 0.0 0.0 0.0 0.0 0.23271056693257725 0.0 0.0 0.0 0.0 0.0 313.64910605131666 -36.882018290894564 480.9 -1.3158364679541803 1.025588626805613 -1.0255886268056131 
1.464 0.24938381363216253 -1.5707963267948966 -1.5707963267948966 0.0 1.5707963267948966 0.0 0.3406882699892931 0.0 0.0 0.0 0.0 0.0 0.23271056693257725 0.0 0.0 0.0 0.0 0.0 313.7481948500972 -36.02936619350105 480.9 -1.31690191435466 1.0235451513433818 -1.023545151343382 
1.472 0.2521167665302187 -1.5707963267948966 -1.5707963267948966 0.0 1.5707963267948966 0.0 0.3425499545247537 0.0 0.0 0.0 0.0 0.0 0.23271056693257725 0.0 0.0 0.0 0.0 0.0 313.8454895914233 -35.171773670370754 480.9 -1.3179708246917088 1.0214900699097582 -1.0214900699097584 
1.48 0.2548646129045586 -1.5707963267948966 -1.5707963267948966 0.0 1.5707963267948966 0.0 0.3444116390602143 0.0 0.0 0.0 0.0 0.0 0.23271056693257725 0.0 0.0 0.0 0.0 0.0 313.94095123105916 -34.30924278001068 480.9 -1.3190431611270759 1.019423376930961 -1.0194233769309613 
1.488 0.25762735275518217 -1.5707963267948966 -1.5707963267948966 0.0 1.5707963267948966 0.0 0.3462733235956749 0.0 0.0 0.0 0.0 0.0 0.23271056693257725 0.0 0.0 0.0 0.0 0.0 314.0345405100221 -33.441775770124714 480.9 -1.3201188856431325 1.0173450668316604 -1.0173450668316606 
1.496 0.2604049860820894 -1.5707963267948966 -1.5707963267948966 0.0 1.5707963267948966 0.0 0.34813500813113557 0.0 0.0 0.0 0.0 0.0 0.23271056693257725 0.0 0.0 0.0 0.0 0.0 314.12621795524007 -32.569375080541526 480.9 -1.3211979600432124 1.015255134035377 -1.0152551340353773 
1.504 0.2631937895162094 -1.5707963267948966 -1.5707963267948966 0.0 1.5707963267948966 0.0 0.3481350081311355 0.0 0.0 0.0 0.0 0.0 -0.23271056693257725 -0.0 -0.0 -0.0 -0.0 -0.0 314.2158258768803 -31.69321328786409 480.9 -1.32227890442205 1.0131563753276356 -1.0131563753276358 
1.512 0.26597142284311664 -1.5707963267948966 -1.5707963267948966 0.0 1.5707963267948966 0.0 0.3462733235956749 0.0 0.0 0.0 0.0 0.0 -0.23271056693257725 -0.0 -0.0 -0.0 -0.0 -0.0 314.30264576358843 -30.820315799943028 480.9 -1.3233530607985087 1.0110656043659896 -1.0110656043659898 
1.52 0.26873416269374023 -1.5707963267948966 -1.5707963267948966 0.0 1.5707963267948966 0.0 0.34441163906021427 0.0 0.0 0.0 0.0 0.0 -0.23271056693257725 -0.0 -0.0 -0.0 -0.0 -0.0 314.3865946768518 -29.951862838442388 480.9 -1.3244190249061423 1.008985630823886 -1.0089856308238863 
1.528 0.27148200906808007 -1.5707963267948966 -1.5707963267948966 0.0 1.5707963267948966 0.0 0.3425499545247537 0.0 0.0 0.0 0.0 0.0 -0.23271056693257725 -0.0 -0.0 -0.0 -0.0 -0.0 314.46771077863536 -29.08786478317913 480.9 -1.325476837065888 1.0069164625005476 -1.0069164625005478 
1.536 0.27421496196613626 -1.5707963267948966 -1.5707963267948966 0.0 1.5707963267948966 0.0 0.340688269989293 0.0 0.0 0.0 0.0 0.0 -0.23271056693257725 -0.0 -0.0 -0.0 -0.0 -0.0 314.54603206013894 -28.228331782484936 480.9 -1.3265265373495028 1.0048581071206755 -1.0048581071206757 
1.544 0.27693302138790876 -1.5707963267948966 -1.5707963267948966 0.0 1.5707963267948966 0.0 0.33882658545383243 0.0 0.0 0.0 0.0 0.0 -0.23271056693257725 -0.0 -0.0 -0.0 -0.0 -0.0 314.62159634056 -27.37327375594067 480.9 -1.3275681655801799 1.0028105723350533 -1.0028105723350536 
1.552 0.2796361873333976 -1.5707963267948966 -1.5707963267948966 0.0 1.5707963267948966 0.0 0.33696490091837183 0.0 0.0 0.0 0.0 0.0 -0.23271056693257725 -0.0 -0.0 -0.0 -0.0 -0.0 314.6944412658819 -26.522700397100916 480.9 -1.3286017613331595 1.0007738657211425 -1.0007738657211427 
1.56 0.28232445980260273 -1.5707963267948966 -1.5707963267948966 0.0 1.5707963267948966 0.0 0.3351032163829112 0.0 0.0 0.0 0.0 0.0 -0.23271056693257725 -0.0 -0.0 -0.0 -0.0 -0.0 314.76460430768486 -25.67662117620934 480.9 -1.3296273639363345 0.9987479947836776 -0.9987479947836778 
1.568 0.2849978387955242 -1.5707963267948966 -1.5707963267948966 0.0 1.5707963267948966 0.0 0.3332415318474506 0.0 0.0 0.0 0.0 0.0 -0.23271056693257725 -0.0 -0.0 -0.0 -0.0 -0.0 314.8321227619823 -24.83504534290381 480.9 -1.3306450124708467 0.9967329669552506 -0.9967329669552508 
1.576 0.2876563243121619 -1.5707963267948966 -1.5707963267948966 0.0 1.5707963267948966 0.0 0.33137984731198994 0.0 0.0 0.0 0.0 0.0 -0.23271056693257725 -0.0 -0.0 -0.0 -0.0 -0.0 314.8970337480803 -23.99798192891188 480.9 -1.3316547457716812 0.9947287895968917 -0.9947287895968919 
1.584 0.290299916352516 -1.5707963267948966 -1.5707963267948966 0.0 1.5707963267948966 0.0 0.32951816277652934 0.0 0.0 0.0 0.0 0.0 -0.23271056693257725 -0.0 -0.0 -0.0 -0.0 -0.0 314.9593742074603 -23.165439750735963 480.9 -1.3326566024282522 0.9927354699986471 -0.9927354699986474 
1.592 0.2929286149165864 -1.5707963267948966 -1.5707963267948966 0.0 1.5707963267948966 0.0 0.3276564782410687 0.0 0.0 0.0 0.0 0.0 -0.23271056693257725 -0.0 -0.0 -0.0 -0.0 -0.0 315.0191809026856 -22.337427412328346 480.9 -1.3336506207849828 0.990753015380146 -0.9907530153801465 
1.6 0.2955424200043731 -1.5707963267948966 -1.5707963267948966 0.0 1.5707963267948966 0.0 0.3257947937056081 0.0 0.0 0.0 0.0 0.0 -0.23271056693257725 -0.0 -0.0 -0.0 -0.0 -0.0 315.07649041633 -21.513953307755607 480.9 -1.3346368389418803 0.9887814328911686 -0.9887814328911688 
1.608 0.2981413316158762 -1.5707963267948966 -1.5707963267948966 0.0 1.5707963267948966 0.0 0.3239331091701475 0.0 0.0 0.0 0.0 0.0 -0.23271056693257725 -0.0 -0.0 -0.0 -0.0 -0.0 315.13133914992983 -20.695025623852466 480.9 -1.3356152947551045 0.9868207296122029 -0.9868207296122031 
1.616 0.3007253497510955 -1.5707963267948966 -1.5707963267948966 0.0 1.5707963267948966 0.0 0.32207142463468685 0.0 0.0 0.0 0.0 0.0 -0.23271056693257725 -0.0 -0.0 -0.0 -0.0 -0.0 315.1837633229576 -19.880652342865123 480.9 -1.336586025837531 0.9848709125550009 -0.984870912555001 
1.624 0.30329447441003116 -1.5707963267948966 -1.5707963267948966 0.0 1.5707963267948966 0.0 0.32020974009922626 0.0 0.0 0.0 0.0 0.0 -0.23271056693257725 -0.0 -0.0 -0.0 -0.0 -0.0 315.2337989718184 -19.070841245083052 480.9 -1.3375490695593084 0.9829319886631267 -0.9829319886631268 
1.632 0.3058487055926831 -1.5707963267948966 -1.5707963267948966 0.0 1.5707963267948966 0.0 0.3183480555637656 0.0 0.0 0.0 0.0 0.0 -0.23271056693257725 -0.0 -0.0 -0.0 -0.0 -0.0 315.2814819488681 -18.265599911460548 480.9 -1.3385044630484093 0.9810039648124999 -0.9810039648125001 
1.64 0.3083880432990514 -1.5707963267948966 -1.5707963267948966 0.0 1.5707963267948966 0.0 0.316486371028305 0.0 0.0 0.0 0.0 0.0 -0.23271056693257725 -0.0 -0.0 -0.0 -0.0 -0.0 315.3268479214524 -17.46493572622636 480.9 -1.3394522431911768 0.9790868478119358 -0.979086847811936 
1.648 0.31091248752913603 -1.5707963267948966 -1.5707963267948966 0.0 1.5707963267948966 0.0 0.31462468649284436 0.0 0.0 0.0 0.0 0.0 -0.23271056693257725 -0.0 -0.0 -0.0 -0.0 -0.0 315.3699323709681 -16.668855879482553 480.9 -1.3403924466328645 0.9771806444036779 -0.9771806444036781 
1.656 0.31342203828293697 -1.5707963267948966 -1.5707963267948966 0.0 1.5707963267948966 0.0 0.31276300195738377 0.0 0.0 0.0 0.0 0.0 -0.23271056693257725 -0.0 -0.0 -0.0 -0.0 -0.0 315.41077059194515 -15.877367369791337 480.9 -1.3413251097781713 0.975285361263927 -0.9752853612639272 
1.664 0.31591669556045415 -1.5707963267948966 -1.5707963267948966 0.0 1.5707963267948966 0.0 0.3109013174219231 0.0 0.0 0.0 0.0 0.0 -0.23271056693257725 -0.0 -0.0 -0.0 -0.0 -0.0 315.44939769114904 -15.090477006750852 480.9 -1.34225026879177 0.9734010050033641 -0.9734010050033642 
1.672 0.31839645936168764 -1.5707963267948966 -1.5707963267948966 0.0 1.5707963267948966 0.0 0.3090396328864626 0.0 0.0 0.0 0.0 0.0 -0.23271056693257725 -0.0 -0.0 -0.0 -0.0 -0.0 315.4858485867044 -14.30819141355865 480.9 -1.3431679595988326 0.9715275821676709 -0.9715275821676711 
1.68 0.3208613296866375 -1.5707963267948966 -1.5707963267948966 0.0 1.5707963267948966 0.0 0.30717794835100193 0.0 0.0 0.0 0.0 0.0 -0.23271056693257725 -0.0 -0.0 -0.0 -0.0 -0.0 315.52015800723836 -13.530517029563732 480.9 -1.344078217885547 0.9696650992380416 -0.9696650992380418 
1.688 0.32331130653530366 -1.5707963267948966 -1.5707963267948966 0.0 1.5707963267948966 0.0 0.30531626381554133 0.0 0.0 0.0 0.0 0.0 -0.23271056693257725 -0.0 -0.0 -0.0 -0.0 -0.0 315.5523604910445 -12.757460112806367 480.9 -1.34498107909963 0.9678135626316924 -0.9678135626316926 
1.696 0.3257463899076862 -1.5707963267948966 -1.5707963267948966 0.0 1.5707963267948966 0.0 0.3034545792800807 0.0 0.0 0.0 0.0 0.0 -0.23271056693257725 -0.0 -0.0 -0.0 -0.0 -0.0 315.58249038526594 -11.989026742545793 480.9 -1.3458765784508357 0.9659729787023669 -0.965972978702367 
1.704 0.32816657980378494 -1.5707963267948966 -1.5707963267948966 0.0 1.5707963267948966 0.0 0.3015928947446201 0.0 0.0 0.0 0.0 0.0 -0.23271056693257725 -0.0 -0.0 -0.0 -0.0 -0.0 315.6105818450983 -11.225222821775755 480.9 -1.3467647509114582 0.9641433537408332 -0.9641433537408334 
1.712 0.3305718762236001 -1.5707963267948966 -1.5707963267948966 0.0 1.5707963267948966 0.0 0.2997312102091595 0.0 0.0 0.0 0.0 0.0 -0.23271056693257725 -0.0 -0.0 -0.0 -0.0 -0.0 315.6366688330115 -10.466054079727488 480.9 -1.347645631216828 0.9623246939753809 -0.9623246939753811 
1.72 0.33296227916713156 -1.5707963267948966 -1.5707963267948966 0.0 1.5707963267948966 0.0 0.29786952567369884 0.0 0.0 0.0 0.0 0.0 -0.23271056693257725 -0.0 -0.0 -0.0 -0.0 -0.0 315.6607851179918 -9.71152607436051 480.9 -1.348519253865802 0.9605170055723089 -0.9605170055723091 
1.728 0.3353377886343793 -1.5707963267948966 -1.5707963267948966 0.0 1.5707963267948966 0.0 0.29600784113823825 0.0 0.0 0.0 0.0 0.0 -0.23271056693257725 -0.0 -0.0 -0.0 -0.0 -0.0 315.68296427480067 -8.961644194840591 480.9 -1.3493856531212542 0.9587202946364114 -0.9587202946364116 
1.736 0.33769840462534334 -1.5707963267948966 -1.5707963267948966 0.0 1.5707963267948966 0.0 0.2941461566027776 0.0 0.0 0.0 0.0 0.0 -0.23271056693257725 -0.0 -0.0 -0.0 -0.0 -0.0 315.7032396832537 -8.216413664004904 480.9 -1.350244863010555 0.9569345672114598 -0.9569345672114602 
1.744 0.3400441271400237 -1.5707963267948966 -1.5707963267948966 0.0 1.5707963267948966 0.0 0.292284472067317 0.0 0.0 0.0 0.0 0.0 -0.23271056693257725 -0.0 -0.0 -0.0 -0.0 -0.0 315.72164452751724 -7.475839540814739 480.9 -1.3510969173260456 0.9551598292806754 -0.9551598292806757 
1.752 0.3423749561784204 -1.5707963267948966 -1.5707963267948966 0.0 1.5707963267948966 0.0 0.29042278753185635 0.0 0.0 0.0 0.0 0.0 -0.23271056693257725 -0.0 -0.0 -0.0 -0.0 -0.0 315.7382117954229 -6.739926722795005 480.9 -1.3519418496255153 0.9533960867672052 -0.9533960867672056 
1.76 0.3446908917405334 -1.5707963267948966 -1.5707963267948966 0.0 1.5707963267948966 0.0 0.28856110299639576 0.0 0.0 0.0 0.0 0.0 -0.23271056693257725 -0.0 -0.0 -0.0 -0.0 -0.0 315.75297427779986 -6.008679948460685 480.9 -1.3527796932326615 0.9516433455345852 -0.9516433455345854 
1.768 0.3469919338263628 -1.5707963267948966 -1.5707963267948966 0.0 1.5707963267948966 0.0 0.28669941846093516 0.0 0.0 0.0 0.0 0.0 -0.23271056693257725 -0.0 -0.0 -0.0 -0.0 -0.0 315.7659645678249 -5.282103799730301 480.9 -1.3536104812375562 0.9499016113872047 -0.949901611387205 
1.776 0.3492780824359084 -1.5707963267948966 -1.5707963267948966 0.0 1.5707963267948966 0.0 0.2848377339254745 0.0 0.0 0.0 0.0 0.0 -0.23271056693257725 -0.0 -0.0 -0.0 -0.0 -0.0 315.77721506038944 -4.56020270432623 480.9 -1.3544342464970986 0.9481708900707638 -0.948170890070764 
1.784 0.35154933756917034 -1.5707963267948966 -1.5707963267948966 0.0 1.5707963267948966 0.0 0.28297604939001386 0.0 0.0 0.0 0.0 0.0 -0.23271056693257725 -0.0 -0.0 -0.0 -0.0 -0.0 315.78675795148365 -3.842980938161258 480.9 -1.3552510216354705 0.946451187272727 -0.9464511872727271 
1.792 0.35380569922614863 -1.5707963267948966 -1.5707963267948966 0.0 1.5707963267948966 0.0 0.28111436485455327 0.0 0.0 0.0 0.0 0.0 -0.23271056693257725 -0.0 -0.0 -0.0 -0.0 -0.0 315.79462523759736 -3.1304426277123163 480.9 -1.3560608390445807 0.9447425086227724 -0.9447425086227726 
1.8 0.35604716740684317 -1.5707963267948966 -1.5707963267948966 0.0 1.5707963267948966 0.0 0.27925268031909267 0.0 0.0 0.0 0.0 0.0 -0.23271056693257725 -0.0 -0.0 -0.0 -0.0 -0.0 315.8008487151377 -2.422591752380253 480.9 -1.35686373088451 0.9430448596932379 -0.9430448596932381 
1.808 0.3582737421112541 -1.5707963267948966 -1.5707963267948966 0.0 1.5707963267948966 0.0 0.277390995783632 0.0 0.0 0.0 0.0 0.0 -0.23271056693257725 -0.0 -0.0 -0.0 -0.0 -0.0 315.80545997986235 -1.71943214683618 480.9 -1.3576597290839423 0.9413582459995586 -0.9413582459995589 
1.816 0.3604854233393813 -1.5707963267948966 -1.5707963267948966 0.0 1.5707963267948966 0.0 0.2755293112481714 0.0 0.0 0.0 0.0 0.0 -0.23271056693257725 -0.0 -0.0 -0.0 -0.0 -0.0 315.80849042632957 -1.0209675033542318 480.9 -1.3584488653406057 0.9396826730007071 -0.9396826730007074 
1.824 0.36268221109122484 -1.5707963267948966 -1.5707963267948966 0.0 1.5707963267948966 0.0 0.27366762671271083 0.0 0.0 0.0 0.0 0.0 -0.23271056693257725 -0.0 -0.0 -0.0 -0.0 -0.0 315.8099712473638 -0.32720137413022954 480.9 -1.359231171121695 0.9380181460996226 -0.9380181460996229 
1.832 0.3648641053667847 -1.5707963267948966 -1.5707963267948966 0.0 1.5707963267948966 0.0 0.2718059421772502 0.0 0.0 0.0 0.0 0.0 -0.23271056693257725 -0.0 -0.0 -0.0 -0.0 -0.0 315.8099334335366 0.36186282641310896 480.9 -1.3600066776642954 0.9363646706436403 -0.9363646706436405 
1.84 0.3670311061660608 -1.5707963267948966 -1.5707963267948966 0.0 1.5707963267948966 0.0 0.26994425764178953 0.0 0.0 0.0 0.0 0.0 -0.23271056693257725 -0.0 -0.0 -0.0 -0.0 -0.0 315.80840777266326 1.0462218193351234 480.9 -1.3607754159758034 0.9347222519249146 -0.9347222519249149 
1.848 0.3691832134890533 -1.5707963267948966 -1.5707963267948966 0.0 1.5707963267948966 0.0 0.26808257310632894 0.0 0.0 0.0 0.0 0.0 -0.23271056693257725 -0.0 -0.0 -0.0 -0.0 -0.0 315.8054248493138 1.7258724589002696 480.9 -1.3615374168343393 0.9330908951808389 -0.9330908951808391 
1.856 0.3713204273357621 -1.5707963267948966 -1.5707963267948966 0.0 1.5707963267948966 0.0 0.26622088857086834 0.0 0.0 0.0 0.0 0.0 -0.23271056693257725 -0.0 -0.0 -0.0 -0.0 -0.0 315.80101504434015 2.4008117303149206 480.9 -1.362292710789157 0.9314706055944606 -0.9314706055944608 
1.864 0.37344274770618724 -1.5707963267948966 -1.5707963267948966 0.0 1.5707963267948966 0.0 0.2643592040354077 0.0 0.0 0.0 0.0 0.0 -0.23271056693257725 -0.0 -0.0 -0.0 -0.0 -0.0 315.79520853441653 3.0710367474787397 480.9 -1.3630413281610503 0.9298613882948934 -0.9298613882948936 
1.872 0.37555017460032863 -1.5707963267948966 -1.5707963267948966 0.0 1.5707963267948966 0.0 0.2624975194999471 0.0 0.0 0.0 0.0 0.0 -0.23271056693257725 -0.0 -0.0 -0.0 -0.0 -0.0 315.78803529159495 3.7365447507499283 480.9 -1.3637832990427532 0.9282632483577243 -0.9282632483577246 
1.88 0.3776427080181864 -1.5707963267948966 -1.5707963267948966 0.0 1.5707963267948966 0.0 0.26063583496448645 0.0 0.0 0.0 0.0 0.0 -0.23271056693257725 -0.0 -0.0 -0.0 -0.0 -0.0 315.77952508287495 4.397333104725124 480.9 -1.3645186532993336 0.9266761908054156 -0.9266761908054159 
1.888 0.37972034795976045 -1.5707963267948966 -1.5707963267948966 0.0 1.5707963267948966 0.0 0.25877415042902585 0.0 0.0 0.0 0.0 0.0 -0.23271056693257725 -0.0 -0.0 -0.0 -0.0 -0.0 315.76970746978697 5.053399296033373 480.9 -1.3652474205685907 0.9251002206077068 -0.925100220607707 
1.896 0.38178309442505076 -1.5707963267948966 -1.5707963267948966 0.0 1.5707963267948966 0.0 0.2569124658935652 0.0 0.0 0.0 0.0 0.0 -0.23271056693257725 -0.0 -0.0 -0.0 -0.0 -0.0 315.7586118079894 5.704740931144542 480.9 -1.3659696302614361 0.9235353426820078 -0.923535342682008 
1.904 0.3838309474140575 -1.5707963267948966 -1.5707963267948966 0.0 1.5707963267948966 0.0 0.2550507813581046 0.0 0.0 0.0 0.0 0.0 -0.23271056693257725 -0.0 -0.0 -0.0 -0.0 -0.0 315.74626724687926 6.351355734192808 480.9 -1.3666853115622826 0.921981561893791 -0.9219815618937911 
1.912 0.38586390692678046 -1.5707963267948966 -1.5707963267948966 0.0 1.5707963267948966 0.0 0.253189096822644 0.0 0.0 0.0 0.0 0.0 -0.23271056693257725 -0.0 -0.0 -0.0 -0.0 -0.0 315.7327027292166 6.99324154481365 480.9 -1.3673944934294202 0.92043888305698 -0.9204388830569802 
1.92 0.3878819729632197 -1.5707963267948966 -1.5707963267948966 0.0 1.5707963267948966 0.0 0.2513274122871834 0.0 0.0 0.0 0.0 0.0 -0.23271056693257725 -0.0 -0.0 -0.0 -0.0 -0.0 315.7179469907607 7.6303963159965775 480.9 -1.3680972045953912 0.9189073109343312 -0.9189073109343314 
1.928 0.3898851455233754 -1.5707963267948966 -1.5707963267948966 0.0 1.5707963267948966 0.0 0.2494657277517228 0.0 0.0 0.0 0.0 0.0 -0.23271056693257725 -0.0 -0.0 -0.0 -0.0 -0.0 315.7020285599204 8.262818111951816 480.9 -1.3687934735673617 0.9173868502378157 -0.9173868502378161 
1.936 0.3918734246072473 -1.5707963267948966 -1.5707963267948966 0.0 1.5707963267948966 0.0 0.24760404321626217 0.0 0.0 0.0 0.0 0.0 -0.23271056693257725 -0.0 -0.0 -0.0 -0.0 -0.0 315.68497575741594 8.890505105992027 480.9 -1.369483328627487 0.9158775056289943 -0.9158775056289944 
1.944 0.3938468102148356 -1.5707963267948966 -1.5707963267948966 0.0 1.5707963267948966 0.0 0.24574235868080155 0.0 0.0 0.0 0.0 0.0 -0.23271056693257725 -0.0 -0.0 -0.0 -0.0 -0.0 315.66681669595437 9.513455578428761 480.9 -1.3701667978332737 0.9143792817193884 -0.9143792817193886 
1.952 0.39580530234614014 -1.5707963267948966 -1.5707963267948966 0.0 1.5707963267948966 0.0 0.24388067414534093 0.0 0.0 0.0 0.0 0.0 -0.23271056693257725 -0.0 -0.0 -0.0 -0.0 -0.0 315.6475792799156 10.131667914483764 480.9 -1.3708439090179394 0.9128921830708523 -0.9128921830708525 
1.96 0.397748901001161 -1.5707963267948966 -1.5707963267948966 0.0 1.5707963267948966 0.0 0.24201898960988033 0.0 0.0 0.0 0.0 0.0 -0.23271056693257725 -0.0 -0.0 -0.0 -0.0 -0.0 315.62729120505185 10.745140602215258 480.9 -1.3715146897907657 0.9114162141959338 -0.911416214195934 
1.968 0.3996776061798982 -1.5707963267948966 -1.5707963267948966 0.0 1.5707963267948966 0.0 0.24015730507441968 0.0 0.0 0.0 0.0 0.0 -0.23271056693257725 -0.0 -0.0 -0.0 -0.0 -0.0 315.60597995819785 11.353872230459082 480.9 -1.3721791675374473 0.9099513795582377 -0.9099513795582379 
1.976 0.4015914178823517 -1.5707963267948966 -1.5707963267948966 0.0 1.5707963267948966 0.0 0.23829562053895909 0.0 0.0 0.0 0.0 0.0 -0.23271056693257725 -0.0 -0.0 -0.0 -0.0 -0.0 315.58367281699293 11.957861486784811 480.9 -1.3728373694204392 0.9084976835727823 -0.9084976835727825 
1.984 0.4034903361085216 -1.5707963267948966 -1.5707963267948966 0.0 1.5707963267948966 0.0 0.23643393600349846 0.0 0.0 0.0 0.0 0.0 -0.23271056693257725 -0.0 -0.0 -0.0 -0.0 -0.0 315.5603968496144 12.557107155467168 480.9 -1.3734893223792994 0.9070551306063532 -0.9070551306063535 
1.992 0.4053743608584077 -1.5707963267948966 -1.5707963267948966 0.0 1.5707963267948966 0.0 0.23457225146803784 0.0 0.0 0.0 0.0 0.0 -0.23271056693257725 -0.0 -0.0 -0.0 -0.0 -0.0 315.53617891452166 13.151608115472062 480.9 -1.3741350531310248 0.9056237249778534 -0.9056237249778536 
2.0 0.40724349213201017 -1.5707963267948966 -1.5707963267948966 0.0 1.5707963267948966 0.0 0.23271056693257722 0.0 0.0 0.0 0.0 0.0 -0.23271056693257725 -0.0 -0.0 -0.0 -0.0 -0.0 315.5110456602121 13.741363338458338 480.9 -1.3747745881703877 0.90420347095865 -0.9042034709586502 
2.008 0.4090977299293289 -1.5707963267948966 -1.5707963267948966 0.0 1.5707963267948966 0.0 0.2308488823971166 0.0 0.0 0.0 0.0 0.0 -0.23271056693257725 -0.0 -0.0 -0.0 -0.0 -0.0 315.4850235249865 14.326371886794309 480.9 -1.3754079537702646 0.9027943727729163 -0.9027943727729166 
2.016 0.410937074250364 -1.5707963267948966 -1.5707963267948966 0.0 1.5707963267948966 0.0 0.22898719786165597 0.0 0.0 0.0 0.0 0.0 -0.23271056693257725 -0.0 -0.0 -0.0 -0.0 -0.0 315.4581387367254 14.906632911589643 480.9 -1.3760351759819636 0.9013964345979718 -0.901396434597972 
2.024 0.4127615250951155 -1.5707963267948966 -1.5707963267948966 0.0 1.5707963267948966 0.0 0.22712551332619535 0.0 0.0 0.0 0.0 0.0 -0.23271056693257725 -0.0 -0.0 -0.0 -0.0 -0.0 315.43041731267635 15.482145650742499 480.9 -1.3766562806355458 0.9000096605646177 -0.900009660564618 
2.032 0.41457108246358315 -1.5707963267948966 -1.5707963267948966 0.0 1.5707963267948966 0.0 0.22526382879073475 0.0 0.0 0.0 0.0 0.0 -0.23271056693257725 -0.0 -0.0 -0.0 -0.0 -0.0 315.40188505925016 16.052909427001826 480.9 -1.377271293340146 0.8986340547574696 -0.8986340547574698 
2.04 0.41636574635576723 -1.5707963267948966 -1.5707963267948966 0.0 1.5707963267948966 0.0 0.22340214425527413 0.0 0.0 0.0 0.0 0.0 -0.23271056693257725 -0.0 -0.0 -0.0 -0.0 -0.0 315.3725675718275 16.618923646045513 480.9 -1.3778802394842857 0.8972696212152849 -0.8972696212152851 
2.048 0.41814551677166756 -1.5707963267948966 -1.5707963267948966 0.0 1.5707963267948966 0.0 0.2215404597198135 0.0 0.0 0.0 0.0 0.0 -0.23271056693257725 -0.0 -0.0 -0.0 -0.0 -0.0 315.3424902345753 17.180187794573097 480.9 -1.3784831442361867 0.8959163639312896 -0.8959163639312898 
2.056 0.4199103937112842 -1.5707963267948966 -1.5707963267948966 0.0 1.5707963267948966 0.0 0.2196787751843529 0.0 0.0 0.0 0.0 0.0 -0.23271056693257725 -0.0 -0.0 -0.0 -0.0 -0.0 315.31167822027226 17.736701438414595 480.9 -1.3790800325440766 0.8945742868534995 -0.8945742868534997 
2.064 0.42166037717461724 -1.5707963267948966 -1.5707963267948966 0.0 1.5707963267948966 0.0 0.21781709064889226 0.0 0.0 0.0 0.0 0.0 -0.23271056693257725 -0.0 -0.0 -0.0 -0.0 -0.0 315.28015649014424 18.288464220654443 480.9 -1.3796709291364941 0.8932433938850382 -0.8932433938850384 
2.072 0.4233954671616665 -1.5707963267948966 -1.5707963267948966 0.0 1.5707963267948966 0.0 0.21595540611343164 0.0 0.0 0.0 0.0 0.0 -0.23271056693257725 -0.0 -0.0 -0.0 -0.0 -0.0 315.24794979370756 18.8354758597708 480.9 -1.3802558585225897 0.8919236888844534 -0.8919236888844536 
2.08 0.42511566367243214 -1.5707963267948966 -1.5707963267948966 0.0 1.5707963267948966 0.0 0.21409372157797102 0.0 0.0 0.0 0.0 0.0 -0.23271056693257725 -0.0 -0.0 -0.0 -0.0 -0.0 315.21508266862264 19.37773614779081 480.9 -1.3808348449924215 0.8906151756660264 -0.8906151756660267 
2.088 0.42682096670691405 -1.5707963267948966 -1.5707963267948966 0.0 1.5707963267948966 0.0 0.2122320370425104 0.0 0.0 0.0 0.0 0.0 -0.23271056693257725 -0.0 -0.0 -0.0 -0.0 -0.0 315.18157944055486 19.915244948460764 480.9 -1.3814079126172476 0.8893178580000825 -0.8893178580000826 
2.096 0.42851137626511226 -1.5707963267948966 -1.5707963267948966 0.0 1.5707963267948966 0.0 0.21037035250704977 0.0 0.0 0.0 0.0 0.0 -0.23271056693257725 -0.0 -0.0 -0.0 -0.0 -0.0 315.14746422304523 20.44800219543234 480.9 -1.381975085249819 0.8880317396132944 -0.8880317396132946 
2.104 0.43018689234702684 -1.5707963267948966 -1.5707963267948966 0.0 1.5707963267948966 0.0 0.20850866797158915 0.0 0.0 0.0 0.0 0.0 -0.23271056693257725 -0.0 -0.0 -0.0 -0.0 -0.0 315.1127609173884 20.976007890464214 480.9 -1.3825363865246614 0.8867568241889849 -0.8867568241889852 
2.112 0.4318475149526577 -1.5707963267948966 -1.5707963267948966 0.0 1.5707963267948966 0.0 0.20664698343612856 0.0 0.0 0.0 0.0 0.0 -0.23271056693257725 -0.0 -0.0 -0.0 -0.0 -0.0 315.0774932125191 21.499262101639165 480.9 -1.3830918398583616 0.8854931153674245 -0.8854931153674247 
2.12 0.43349324408200496 -1.5707963267948966 -1.5707963267948966 0.0 1.5707963267948966 0.0 0.20478529890066793 0.0 0.0 0.0 0.0 0.0 -0.23271056693257725 -0.0 -0.0 -0.0 -0.0 -0.0 315.04168458490676 22.017764961597084 480.9 -1.3836414684498441 0.8842406167461263 -0.8842406167461264 
2.128 0.4351240797350684 -1.5707963267948966 -1.5707963267948966 0.0 1.5707963267948966 0.0 0.2029236143652073 0.0 0.0 0.0 0.0 0.0 -0.23271056693257725 -0.0 -0.0 -0.0 -0.0 -0.0 315.0053582984574 22.531516665783368 480.9 -1.3841852952806473 0.882999331880138 -0.8829993318801382 
2.136 0.43674002191184824 -1.5707963267948966 -1.5707963267948966 0.0 1.5707963267948966 0.0 0.2010619298297467 0.0 0.0 0.0 0.0 0.0 -0.23271056693257725 -0.0 -0.0 -0.0 -0.0 -0.0 314.9685374044235 23.04051747071318 480.9 -1.3847233431151964 0.8817692642823308 -0.8817692642823309 
2.144 0.43834107061234434 -1.5707963267948966 -1.5707963267948966 0.0 1.5707963267948966 0.0 0.19920024529428607 0.0 0.0 0.0 0.0 0.0 -0.23271056693257725 -0.0 -0.0 -0.0 -0.0 -0.0 314.93124474132117 23.544767692251224 480.9 -1.3852556345010723 0.8805504174236842 -0.8805504174236843 
2.152 0.4399272258365568 -1.5707963267948966 -1.5707963267948966 0.0 1.5707963267948966 0.0 0.19733856075882544 0.0 0.0 0.0 0.0 0.0 -0.23271056693257725 -0.0 -0.0 -0.0 -0.0 -0.0 314.8935029348538 24.044267703907515 480.9 -1.3857821917692763 0.8793427947335679 -0.879342794733568 
2.16 0.4414984875844856 -1.5707963267948966 -1.5707963267948966 0.0 1.5707963267948966 0.0 0.19547687622336482 0.0 0.0 0.0 0.0 0.0 -0.23271056693257725 -0.0 -0.0 -0.0 -0.0 -0.0 314.85533439784444 24.539017935148514 480.9 -1.386303037034493 0.8781463996000216 -0.8781463996000217 
2.168 0.44305485585613064 -1.5707963267948966 -1.5707963267948966 0.0 1.5707963267948966 0.0 0.1936151916879042 0.0 0.0 0.0 0.0 0.0 -0.23271056693257725 -0.0 -0.0 -0.0 -0.0 -0.0 314.81676133017277 25.02901886972419 480.9 -1.386818192195348 0.8769612353700292 -0.8769612353700293 
2.176 0.44459633065149207 -1.5707963267948966 -1.5707963267948966 0.0 1.5707963267948966 0.0 0.19175350715244358 0.0 0.0 0.0 0.0 0.0 -0.23271056693257725 -0.0 -0.0 -0.0 -0.0 -0.0 314.77780571872074 25.514271044011153 480.9 -1.3873276789346654 0.8757873053497933 -0.8757873053497934 
2.184 0.4461229119705697 -1.5707963267948966 -1.5707963267948966 0.0 1.5707963267948966 0.0 0.18989182261698295 0.0 0.0 0.0 0.0 0.0 -0.23271056693257725 -0.0 -0.0 -0.0 -0.0 -0.0 314.7384893373236 25.994775045370815 480.9 -1.3878315187197174 0.8746246128050027 -0.8746246128050028 
2.192 0.4476345998133638 -1.5707963267948966 -1.5707963267948966 0.0 1.5707963267948966 0.0 0.18803013808152236 0.0 0.0 0.0 0.0 0.0 -0.23271056693257725 -0.0 -0.0 -0.0 -0.0 -0.0 314.6988337467273 26.470531510524225 480.9 -1.388329732802477 0.8734731609611006 -0.8734731609611007 
2.2 0.44913139417987413 -1.5707963267948966 -1.5707963267948966 0.0 1.5707963267948966 0.0 0.18616845354606174 0.0 0.0 0.0 0.0 0.0 -0.23271056693257725 -0.0 -0.0 -0.0 -0.0 -0.0 314.6588602945528 26.941541123941946 480.9 -1.3888223422198598 0.872332953003546 -0.8723329530035461 
2.208 0.45061329507010073 -1.5707963267948966 -1.5707963267948966 0.0 1.5707963267948966 0.0 0.1843067690106011 0.0 0.0 0.0 0.0 0.0 -0.23271056693257725 -0.0 -0.0 -0.0 -0.0 -0.0 314.6185901152655 27.407804616250253 480.9 -1.3893093677939694 0.8712039920780754 -0.8712039920780755 
2.216 0.45208030248404374 -1.5707963267948966 -1.5707963267948966 0.0 1.5707963267948966 0.0 0.1824450844751405 0.0 0.0 0.0 0.0 0.0 -0.23271056693257725 -0.0 -0.0 -0.0 -0.0 -0.0 314.5780441301507 27.869322762653102 480.9 -1.389790830132336 0.8700862812909591 -0.8700862812909592 
2.224 0.45353241642170294 -1.5707963267948966 -1.5707963267948966 0.0 1.5707963267948966 0.0 0.18058339993967987 0.0 0.0 0.0 0.0 0.0 -0.23271056693257725 -0.0 -0.0 -0.0 -0.0 -0.0 314.53724304729536 28.326096381369577 480.9 -1.390266749628152 0.868979823709255 -0.8689798237092551 
2.232 0.4549696368830786 -1.5707963267948966 -1.5707963267948966 0.0 1.5707963267948966 0.0 0.17872171540421924 0.0 0.0 0.0 0.0 0.0 -0.23271056693257725 -0.0 -0.0 -0.0 -0.0 -0.0 314.4962073615743 28.77812633208782 480.9 -1.3907371464605072 0.8678846223610606 -0.8678846223610607 
2.24 0.4563919638681706 -1.5707963267948966 -1.5707963267948966 0.0 1.5707963267948966 0.0 0.17686003086875862 0.0 0.0 0.0 0.0 0.0 -0.23271056693257725 -0.0 -0.0 -0.0 -0.0 -0.0 314.454957354643 29.225413514433964 480.9 -1.3912020405946164 0.86680068023576 -0.8668006802357601 
2.248 0.4577993973769787 -1.5707963267948966 -1.5707963267948966 0.0 1.5707963267948966 0.0 0.174998346333298 0.0 0.0 0.0 0.0 0.0 -0.23271056693257725 -0.0 -0.0 -0.0 -0.0 -0.0 314.4135130949339 29.66795886645779 480.9 -1.3916614517820496 0.8657280002842703 -0.8657280002842704 
2.256 0.4591919374095032 -1.5707963267948966 -1.5707963267948966 0.0 1.5707963267948966 0.0 0.17313666179783738 0.0 0.0 0.0 0.0 0.0 -0.23271056693257725 -0.0 -0.0 -0.0 -0.0 -0.0 314.37189443765953 30.10576336313402 480.9 -1.3921153995609514 0.8646665854192812 -0.8646665854192813 
2.264 0.4605695839657441 -1.5707963267948966 -1.5707963267948966 0.0 1.5707963267948966 0.0 0.17127497726237678 0.0 0.0 0.0 0.0 0.0 -0.23271056693257725 -0.0 -0.0 -0.0 -0.0 -0.0 314.3301210248194 30.538828014878955 480.9 -1.3925639032562664 0.8636164385154961 -0.8636164385154962 
2.272 0.46193233704570136 -1.5707963267948966 -1.5707963267948966 0.0 1.5707963267948966 0.0 0.16941329272691616 0.0 0.0 0.0 0.0 0.0 -0.23271056693257725 -0.0 -0.0 -0.0 -0.0 -0.0 314.28821228521167 30.967153866083745 480.9 -1.393006981979955 0.8625775624098677 -0.8625775624098677 
2.28 0.46328019664937486 -1.5707963267948966 -1.5707963267948966 0.0 1.5707963267948966 0.0 0.16755160819145554 0.0 0.0 0.0 0.0 0.0 -0.23271056693257725 -0.0 -0.0 -0.0 -0.0 -0.0 314.24618743444967 31.39074199366301 480.9 -1.3934446546312091 0.8615499599018313 -0.8615499599018314 
2.288 0.4646131627767646 -1.5707963267948966 -1.5707963267948966 0.0 1.5707963267948966 0.0 0.16568992365599491 0.0 0.0 0.0 0.0 0.0 -0.23271056693257725 -0.0 -0.0 -0.0 -0.0 -0.0 314.2040654749827 31.809593505619805 480.9 -1.3938769398966624 0.8605336337535342 -0.8605336337535343 
2.296 0.4659312354278707 -1.5707963267948966 -1.5707963267948966 0.0 1.5707963267948966 0.0 0.1638282391205343 0.0 0.0 0.0 0.0 0.0 -0.23271056693257725 -0.0 -0.0 -0.0 -0.0 -0.0 314.1618651961212 32.22370953962619 480.9 -1.394303856250602 0.859528586690064 -0.8595285866900642 
2.304 0.46723441460269316 -1.5707963267948966 -1.5707963267948966 0.0 1.5707963267948966 0.0 0.16196655458507367 0.0 0.0 0.0 0.0 0.0 -0.23271056693257725 -0.0 -0.0 -0.0 -0.0 -0.0 314.11960517406544 32.633091261619754 480.9 -1.3947254219551737 0.8585348213996725 -0.8585348213996726 
2.312 0.4685227003012318 -1.5707963267948966 -1.5707963267948966 0.0 1.5707963267948966 0.0 0.16010487004961316 0.0 0.0 0.0 0.0 0.0 -0.23271056693257725 -0.0 -0.0 -0.0 -0.0 -0.0 314.07730377193946 33.037739864416004 480.9 -1.3951416550605829 0.8575523405339975 -0.8575523405339976 
2.32 0.4697960925234869 -1.5707963267948966 -1.5707963267948966 0.0 1.5707963267948966 0.0 0.15824318551415253 0.0 0.0 0.0 0.0 0.0 -0.23271056693257725 -0.0 -0.0 -0.0 -0.0 -0.0 314.03497913982716 33.43765656633707 480.9 -1.3955525734052994 0.8565811467082812 -0.8565811467082813 
2.328 0.47105459126945837 -1.5707963267948966 -1.5707963267948966 0.0 1.5707963267948966 0.0 0.1563815009786919 0.0 0.0 0.0 0.0 0.0 -0.23271056693257725 -0.0 -0.0 -0.0 -0.0 -0.0 313.9926492148131 33.832842609855525 480.9 -1.3959581946162496 0.8556212425015862 -0.8556212425015863 
2.336 0.47229819653914595 -1.5707963267948966 -1.5707963267948966 0.0 1.5707963267948966 0.0 0.1545198164432313 0.0 0.0 0.0 0.0 0.0 -0.23271056693257725 -0.0 -0.0 -0.0 -0.0 -0.0 313.95033172102717 34.22329926025496 480.9 -1.3963585361090165 0.8546726304570089 -0.854672630457009 
2.344 0.4735269083325499 -1.5707963267948966 -1.5707963267948966 0.0 1.5707963267948966 0.0 0.15265813190777067 0.0 0.0 0.0 0.0 0.0 -0.23271056693257725 -0.0 -0.0 -0.0 -0.0 -0.0 313.9080441696911 34.60902780430608 480.9 -1.3967536150880273 0.8537353130818884 -0.8537353130818885 
2.352 0.47474072664967026 -1.5707963267948966 -1.5707963267948966 0.0 1.5707963267948966 0.0 0.15079644737231004 0.0 0.0 0.0 0.0 0.0 -0.23271056693257725 -0.0 -0.0 -0.0 -0.0 -0.0 313.86580385917006 34.990029548958574 480.9 -1.3971434485467453 0.8528092928480158 -0.8528092928480159 
2.36 0.475939651490507 -1.5707963267948966 -1.5707963267948966 0.0 1.5707963267948966 0.0 0.14893476283684945 0.0 0.0 0.0 0.0 0.0 -0.23271056693257725 -0.0 -0.0 -0.0 -0.0 -0.0 313.8236278750259 35.36630582004928 480.9 -1.3975280532678536 0.8518945721918362 -0.8518945721918363 
2.368 0.47712368285505996 -1.5707963267948966 -1.5707963267948966 0.0 1.5707963267948966 0.0 0.14707307830138883 0.0 0.0 0.0 0.0 0.0 -0.23271056693257725 -0.0 -0.0 -0.0 -0.0 -0.0 313.7815330900745 35.737857961025796 480.9 -1.397907445823441 0.8509911535146533 -0.8509911535146533 
2.376 0.4782928207433292 -1.5707963267948966 -1.5707963267948966 0.0 1.5707963267948966 0.0 0.1452113937659282 0.0 0.0 0.0 0.0 0.0 -0.23271056693257725 -0.0 -0.0 -0.0 -0.0 -0.0 313.7395361644451 36.104687331686534 480.9 -1.3982816425751816 0.8500990391828263 -0.8500990391828264 
2.384 0.4794470651553147 -1.5707963267948966 -1.5707963267948966 0.0 1.5707963267948966 0.0 0.14334970923046758 0.0 0.0 0.0 0.0 0.0 -0.23271056693257725 -0.0 -0.0 -0.0 -0.0 -0.0 313.69765354564254 36.46679530693637 480.9 -1.398650659674512 0.8492182315279662 -0.8492182315279663 
2.392 0.48058641609101665 -1.5707963267948966 -1.5707963267948966 0.0 1.5707963267948966 0.0 0.14148802469500696 0.0 0.0 0.0 0.0 0.0 -0.23271056693257725 -0.0 -0.0 -0.0 -0.0 -0.0 313.6559014686127 36.82418327555814 480.9 -1.3990145130628082 0.8483487328471306 -0.8483487328471307 
2.4 0.4817108735504349 -1.5707963267948966 -1.5707963267948966 0.0 1.5707963267948966 0.0 0.13962634015954634 0.0 0.0 0.0 0.0 0.0 -0.23271056693257725 -0.0 -0.0 -0.0 -0.0 -0.0 313.61429595580944 37.176852639000195 480.9 -1.3993732184715573 0.8474905454030134 -0.8474905454030136 
2.408 0.48282043753356946 -1.5707963267948966 -1.5707963267948966 0.0 1.5707963267948966 0.0 0.1377646556240857 0.0 0.0 0.0 0.0 0.0 -0.23271056693257725 -0.0 -0.0 -0.0 -0.0 -0.0 313.57285281726456 37.52480481017985 480.9 -1.3997267914225282 0.8466436714241329 -0.8466436714241329 
2.416 0.48391510804042026 -1.5707963267948966 -1.5707963267948966 0.0 1.5707963267948966 0.0 0.1359029710886251 0.0 0.0 0.0 0.0 0.0 -0.23271056693257725 -0.0 -0.0 -0.0 -0.0 -0.0 313.53158765065973 37.86804121230268 480.9 -1.400075247227937 0.8458081131050167 -0.8458081131050167 
2.424 0.48499488507098737 -1.5707963267948966 -1.5707963267948966 0.0 1.5707963267948966 0.0 0.13404128655316447 0.0 0.0 0.0 0.0 0.0 -0.23271056693257725 -0.0 -0.0 -0.0 -0.0 -0.0 313.49051584140034 38.20656327769773 480.9 -1.4004186009906154 0.8449838726063854 -0.8449838726063855 
2.432 0.4860597686252709 -1.5707963267948966 -1.5707963267948966 0.0 1.5707963267948966 0.0 0.13217960201770387 0.0 0.0 0.0 0.0 0.0 -0.23271056693257725 -0.0 -0.0 -0.0 -0.0 -0.0 313.44965256269154 38.540372446668705 480.9 -1.400756867604168 0.8441709520553311 -0.8441709520553312 
2.44 0.48710975870327067 -1.5707963267948966 -1.5707963267948966 0.0 1.5707963267948966 0.0 0.13031791748224325 0.0 0.0 0.0 0.0 0.0 -0.23271056693257725 -0.0 -0.0 -0.0 -0.0 -0.0 313.40901277561625 38.86947016636068 480.9 -1.4010900617531352 0.8433693535454957 -0.8433693535454958 
2.448 0.48814485530498675 -1.5707963267948966 -1.5707963267948966 0.0 1.5707963267948966 0.0 0.12845623294678263 0.0 0.0 0.0 0.0 0.0 -0.23271056693257725 -0.0 -0.0 -0.0 -0.0 -0.0 313.36861122921425 39.19385788964331 480.9 -1.4014181979131484 0.8425790791372441 -0.8425790791372442 
2.456 0.4891650584304192 -1.5707963267948966 -1.5707963267948966 0.0 1.5707963267948966 0.0 0.126594548411322 0.0 0.0 0.0 0.0 0.0 -0.23271056693257725 -0.0 -0.0 -0.0 -0.0 -0.0 313.3284624605637 39.51353707400937 480.9 -1.4017412903510864 0.841800130857838 -0.8418001308578381 
2.464 0.4901703680795679 -1.5707963267948966 -1.5707963267948966 0.0 1.5707963267948966 0.0 0.12473286387586138 0.0 0.0 0.0 0.0 0.0 -0.23271056693257725 -0.0 -0.0 -0.0 -0.0 -0.0 313.2885807948634 39.82850918048936 480.9 -1.4020593531252235 0.8410325107016021 -0.8410325107016022 
2.472 0.491160784252433 -1.5707963267948966 -1.5707963267948966 0.0 1.5707963267948966 0.0 0.12287117934040076 0.0 0.0 0.0 0.0 0.0 -0.23271056693257725 -0.0 -0.0 -0.0 -0.0 -0.0 313.248980345517 40.138775672582135 480.9 -1.4023724000853817 0.8402762206300939 -0.840276220630094 
2.48 0.4921363069490144 -1.5707963267948966 -1.5707963267948966 0.0 1.5707963267948966 0.0 0.12100949480494014 0.0 0.0 0.0 0.0 0.0 -0.23271056693257725 -0.0 -0.0 -0.0 -0.0 -0.0 313.2096750142182 40.44433801520102 480.9 -1.402680444873077 0.8395312625722652 -0.8395312625722653 
2.488 0.493096936169312 -1.5707963267948966 -1.5707963267948966 0.0 1.5707963267948966 0.0 0.11914781026947951 0.0 0.0 0.0 0.0 0.0 -0.23271056693257725 -0.0 -0.0 -0.0 -0.0 -0.0 313.17067849103677 40.74519767363607 480.9 -1.4029835009216622 0.8387976384246244 -0.8387976384246245 
2.496 0.49404267191332596 -1.5707963267948966 -1.5707963267948966 0.0 1.5707963267948966 0.0 0.11728612573401889 0.0 0.0 0.0 0.0 0.0 -0.23271056693257725 -0.0 -0.0 -0.0 -0.0 -0.0 313.1320042545065 41.041356112532306 480.9 -1.40328158145647 0.838075350051395 -0.8380753500513951 
2.504 0.4949735141810563 -1.5707963267948966 -1.5707963267948966 0.0 1.5707963267948966 0.0 0.1154244411985583 0.0 0.0 0.0 0.0 0.0 -0.23271056693257725 -0.0 -0.0 -0.0 -0.0 -0.0 313.09366557171336 41.33281479488325 480.9 -1.4035746994949505 0.8373643992846704 -0.8373643992846705 
2.512 0.49588946297250297 -1.5707963267948966 -1.5707963267948966 0.0 1.5707963267948966 0.0 0.11356275666309767 0.0 0.0 0.0 0.0 0.0 -0.23271056693257725 -0.0 -0.0 -0.0 -0.0 -0.0 313.0556754983843 41.61957518104082 480.9 -1.4038628678468108 0.8366647879245704 -0.8366647879245706 
2.52 0.49679051828766596 -1.5707963267948966 -1.5707963267948966 0.0 1.5707963267948966 0.0 0.11170107212763705 0.0 0.0 0.0 0.0 0.0 -0.23271056693257725 -0.0 -0.0 -0.0 -0.0 -0.0 313.0180468789777 41.90163872774078 480.9 -1.4041460991141463 0.8359765177393886 -0.8359765177393887 
2.528 0.49767668012654515 -1.5707963267948966 -1.5707963267948966 0.0 1.5707963267948966 0.0 0.10983938759217643 0.0 0.0 0.0 0.0 0.0 -0.23271056693257725 -0.0 -0.0 -0.0 -0.0 -0.0 312.9807923467736 42.1790068871441 480.9 -1.4044244056915733 0.8352995904657423 -0.8352995904657424 
2.536 0.49854794848914064 -1.5707963267948966 -1.5707963267948966 0.0 1.5707963267948966 0.0 0.1079777030567158 0.0 0.0 0.0 0.0 0.0 -0.23271056693257725 -0.0 -0.0 -0.0 -0.0 -0.0 312.9439243239649 42.45168110589408 480.9 -1.4046977997663601 0.8346340078087185 -0.8346340078087187 
2.544 0.4994043233754526 -1.5707963267948966 -1.5707963267948966 0.0 1.5707963267948966 0.0 0.10611601852125518 0.0 0.0 0.0 0.0 0.0 -0.23271056693257725 -0.0 -0.0 -0.0 -0.0 -0.0 312.9074550217485 42.719662824189435 480.9 -1.4049662933185523 0.8339797714420154 -0.8339797714420155 
2.552 0.5002458047854808 -1.5707963267948966 -1.5707963267948966 0.0 1.5707963267948966 0.0 0.10425433398579456 0.0 0.0 0.0 0.0 0.0 -0.23271056693257725 -0.0 -0.0 -0.0 -0.0 -0.0 312.8713964404175 42.98295347487266 480.9 -1.405229898121098 0.8333368830080853 -0.8333368830080854 
2.56 0.5010723927192253 -1.5707963267948966 -1.5707963267948966 0.0 1.5707963267948966 0.0 0.10239264945033394 0.0 0.0 0.0 0.0 0.0 -0.23271056693257725 -0.0 -0.0 -0.0 -0.0 -0.0 312.83576036945317 43.241554482535044 480.9 -1.40548862573997 0.8327053441182702 -0.8327053441182704 
2.568 0.5018840871766861 -1.5707963267948966 -1.5707963267948966 0.0 1.5707963267948966 0.0 0.10053096491487332 0.0 0.0 0.0 0.0 0.0 -0.23271056693257725 -0.0 -0.0 -0.0 -0.0 -0.0 312.8005583876169 43.49546726263648 480.9 -1.4057424875342854 0.8320851563529393 -0.8320851563529394 
2.576 0.5026808881578633 -1.5707963267948966 -1.5707963267948966 0.0 1.5707963267948966 0.0 0.0986692803794127 0.0 0.0 0.0 0.0 0.0 -0.23271056693257725 -0.0 -0.0 -0.0 -0.0 -0.0 312.7658018630424 43.744693220642034 480.9 -1.405991494656424 0.8314763212616202 -0.8314763212616203 
2.584 0.5034627956627568 -1.5707963267948966 -1.5707963267948966 0.0 1.5707963267948966 0.0 0.0968075958439521 0.0 0.0 0.0 0.0 0.0 -0.23271056693257725 -0.0 -0.0 -0.0 -0.0 -0.0 312.73150195332835 43.989233751173295 480.9 -1.406235658052143 0.8308788403631305 -0.8308788403631306 
2.592 0.5042298096913665 -1.5707963267948966 -1.5707963267948966 0.0 1.5707963267948966 0.0 0.09494591130849145 0.0 0.0 0.0 0.0 0.0 -0.23271056693257725 -0.0 -0.0 -0.0 -0.0 -0.0 312.69766960563 44.22909023717622 480.9 -1.4064749884606889 0.8302927151457052 -0.8302927151457054 
2.6 0.5049819302436926 -1.5707963267948966 -1.5707963267948966 0.0 1.5707963267948966 0.0 0.09308422677303085 0.0 0.0 0.0 0.0 0.0 -0.23271056693257725 -0.0 -0.0 -0.0 -0.0 -0.0 312.6643155567509 44.46426404910445 480.9 -1.40670949641491 0.8297179470671221 -0.8297179470671222 
2.608 0.505719157319735 -1.5707963267948966 -1.5707963267948966 0.0 1.5707963267948966 0.0 0.0912225422375702 0.0 0.0 0.0 0.0 0.0 -0.23271056693257725 -0.0 -0.0 -0.0 -0.0 -0.0 312.631450333235 44.694756544118306 480.9 -1.4069391922413632 0.8291545375548247 -0.8291545375548248 
2.616 0.5064414909194936 -1.5707963267948966 -1.5707963267948966 0.0 1.5707963267948966 0.0 0.08936085770210961 0.0 0.0 0.0 0.0 0.0 -0.23271056693257725 -0.0 -0.0 -0.0 -0.0 -0.0 312.5990842514572 44.92056906529952 480.9 -1.4071640860604202 0.8286024880060425 -0.8286024880060426 
2.624 0.5071489310429688 -1.5707963267948966 -1.5707963267948966 0.0 1.5707963267948966 0.0 0.08749917316664901 0.0 0.0 0.0 0.0 0.0 -0.23271056693257725 -0.0 -0.0 -0.0 -0.0 -0.0 312.5672274177143 45.14170294088197 480.9 -1.4073841877863715 0.828061799787909 -0.8280617997879091 
2.632 0.5078414776901602 -1.5707963267948966 -1.5707963267948966 0.0 1.5707963267948966 0.0 0.08563748863118836 0.0 0.0 0.0 0.0 0.0 -0.23271056693257725 -0.0 -0.0 -0.0 -0.0 -0.0 312.53588972831517 45.358159483497595 480.9 -1.4075995071275285 0.8275324742375768 -0.8275324742375769 
2.64 0.5085191308610677 -1.5707963267948966 -1.5707963267948966 0.0 1.5707963267948966 0.0 0.08377580409572777 0.0 0.0 0.0 0.0 0.0 -0.23271056693257725 -0.0 -0.0 -0.0 -0.0 -0.0 312.50508086967 45.569939989438396 480.9 -1.4078100535863185 0.827014512662331 -0.8270145126623311 
2.648 0.5091818905556917 -1.5707963267948966 -1.5707963267948966 0.0 1.5707963267948966 0.0 0.08191411956026712 0.0 0.0 0.0 0.0 0.0 -0.23271056693257725 -0.0 -0.0 -0.0 -0.0 -0.0 312.4748103183792 45.77704573793431 480.9 -1.4080158364593898 0.8265079163396993 -0.8265079163396994 
2.656 0.509829756774032 -1.5707963267948966 -1.5707963267948966 0.0 1.5707963267948966 0.0 0.08005243502480652 0.0 0.0 0.0 0.0 0.0 -0.23271056693257725 -0.0 -0.0 -0.0 -0.0 -0.0 312.4450873413216 45.979477990446085 480.9 -1.4082168648376976 0.82601268651756 -0.8260126865175601 
2.664 0.5104627295160886 -1.5707963267948966 -1.5707963267948966 0.0 1.5707963267948966 0.0 0.07819075048934587 0.0 0.0 0.0 0.0 0.0 -0.23271056693257725 -0.0 -0.0 -0.0 -0.0 -0.0 312.41592099574126 46.17723798997455 480.9 -1.4084131476066022 0.8255288244142474 -0.8255288244142475 
2.672 0.5110808087818617 -1.5707963267948966 -1.5707963267948966 0.0 1.5707963267948966 0.0 0.07632906595388528 0.0 0.0 0.0 0.0 0.0 -0.23271056693257725 -0.0 -0.0 -0.0 -0.0 -0.0 312.38732012933394 46.370326960385185 480.9 -1.4086046934459555 0.825056331218655 -0.8250563312186551 
2.68 0.5116839945713508 -1.5707963267948966 -1.5707963267948966 0.0 1.5707963267948966 0.0 0.07446738141842463 0.0 0.0 0.0 0.0 0.0 -0.23271056693257725 -0.0 -0.0 -0.0 -0.0 -0.0 312.35929338033225 46.5587461057482 480.9 -1.4087915108301927 0.8245952080903368 -0.8245952080903369 
2.688 0.5122722868845563 -1.5707963267948966 -1.5707963267948966 0.0 1.5707963267948966 0.0 0.07260569688296403 0.0 0.0 0.0 0.0 0.0 -0.23271056693257725 -0.0 -0.0 -0.0 -0.0 -0.0 312.33184917758973 46.74249660969486 480.9 -1.4089736080284145 0.8241454561596041 -0.8241454561596042 
2.696 0.5128456857214783 -1.5707963267948966 -1.5707963267948966 0.0 1.5707963267948966 0.0 0.07074401234750344 0.0 0.0 0.0 0.0 0.0 -0.23271056693257725 -0.0 -0.0 -0.0 -0.0 -0.0 312.30499574066397 46.92157963478889 480.9 -1.4091509931044734 0.8237070765276217 -0.8237070765276218 
2.704 0.5134041910821164 -1.5707963267948966 -1.5707963267948966 0.0 1.5707963267948966 0.0 0.06888232781204279 0.0 0.0 0.0 0.0 0.0 -0.23271056693257725 -0.0 -0.0 -0.0 -0.0 -0.0 312.2787410798985 47.095996321913546 480.9 -1.4093236739170536 0.823280070266502 -0.8232800702665021 
2.712 0.513947802966471 -1.5707963267948966 -1.5707963267948966 0.0 1.5707963267948966 0.0 0.06702064327658219 0.0 0.0 0.0 0.0 0.0 -0.23271056693257725 -0.0 -0.0 -0.0 -0.0 -0.0 312.25309299650314 47.26574778967473 480.9 -1.409491658119751 0.8228644384193954 -0.8228644384193955 
2.72 0.5144765213745418 -1.5707963267948966 -1.5707963267948966 0.0 1.5707963267948966 0.0 0.06515895874112154 0.0 0.0 0.0 0.0 0.0 -0.23271056693257725 -0.0 -0.0 -0.0 -0.0 -0.0 312.2280590826334 47.43083513381922 480.9 -1.4096549531611493 0.8224601820005785 -0.8224601820005786 
2.728 0.5149903463063288 -1.5707963267948966 -1.5707963267948966 0.0 1.5707963267948966 0.0 0.06329727420566095 0.0 0.0 0.0 0.0 0.0 -0.23271056693257725 -0.0 -0.0 -0.0 -0.0 -0.0 312.2036467214685 47.591259426668955 480.9 -1.4098135662848958 0.8220673019955399 -0.82206730199554 
2.736 0.5154892777618323 -1.5707963267948966 -1.5707963267948966 0.0 1.5707963267948966 0.0 0.0614355896702003 0.0 0.0 0.0 0.0 0.0 -0.23271056693257725 -0.0 -0.0 -0.0 -0.0 -0.0 312.17986308728706 47.7470217165708 480.9 -1.409967504529775 0.8216857993610646 -0.8216857993610647 
2.744 0.5159733157410521 -1.5707963267948966 -1.5707963267948966 0.0 1.5707963267948966 0.0 0.0595739051347397 0.0 0.0 0.0 0.0 0.0 -0.23271056693257725 -0.0 -0.0 -0.0 -0.0 -0.0 312.1567151455431 47.89812302736137 480.9 -1.4101167747297767 0.8213156750253148 -0.8213156750253149 
2.752 0.5164424602439883 -1.5707963267948966 -1.5707963267948966 0.0 1.5707963267948966 0.0 0.05771222059927905 0.0 0.0 0.0 0.0 0.0 -0.23271056693257725 -0.0 -0.0 -0.0 -0.0 -0.0 312.13420965293847 48.044564357848415 480.9 -1.4102613835141677 0.8209569298879089 -0.820956929887909 
2.76 0.5168967112706406 -1.5707963267948966 -1.5707963267948966 0.0 1.5707963267948966 0.0 0.05585053606381846 0.0 0.0 0.0 0.0 0.0 -0.23271056693257725 -0.0 -0.0 -0.0 -0.0 -0.0 312.112353157495 48.186346681306794 480.9 -1.4104013373075552 0.820609564819998 -0.8206095648199981 
2.768 0.5173360688210092 -1.5707963267948966 -1.5707963267948966 0.0 1.5707963267948966 0.0 0.05398885152835786 0.0 0.0 0.0 0.0 0.0 -0.23271056693257725 -0.0 -0.0 -0.0 -0.0 -0.0 312.0911519986246 48.32347094499106 480.9 -1.4105366423299521 0.8202735806643388 -0.8202735806643389 
2.776 0.5177605328950943 -1.5707963267948966 -1.5707963267948966 0.0 1.5707963267948966 0.0 0.05212716699289721 0.0 0.0 0.0 0.0 0.0 -0.23271056693257725 -0.0 -0.0 -0.0 -0.0 -0.0 312.0706123071973 48.45593806966262 480.9 -1.410667304596842 0.8199489782353675 -0.8199489782353676 
2.784 0.5181701034928956 -1.5707963267948966 -1.5707963267948966 0.0 1.5707963267948966 0.0 0.05026548245743662 0.0 0.0 0.0 0.0 0.0 -0.23271056693257725 -0.0 -0.0 -0.0 -0.0 -0.0 312.0507400056081 48.58374894913296 480.9 -1.4107933299192332 0.8196357583192663 -0.8196357583192663 
2.792 0.5185647806144134 -1.5707963267948966 -1.5707963267948966 0.0 1.5707963267948966 0.0 0.048403797921975966 0.0 0.0 0.0 0.0 0.0 -0.23271056693257725 -0.0 -0.0 -0.0 -0.0 -0.0 312.03154080784185 48.70690444982247 480.9 -1.4109147239037232 0.8193339216740329 -0.819333921674033 
2.8 0.5189445642596473 -1.5707963267948966 -1.5707963267948966 0.0 1.5707963267948966 0.0 0.04654211338651537 0.0 0.0 0.0 0.0 0.0 -0.23271056693257725 -0.0 -0.0 -0.0 -0.0 -0.0 312.01302021953586 48.82540541033449 480.9 -1.4110314919525493 0.8190434690295427 -0.8190434690295428 
2.808 0.5193094544285974 -1.5707963267948966 -1.5707963267948966 0.0 1.5707963267948966 0.0 0.04468042885105472 0.0 0.0 0.0 0.0 0.0 -0.23271056693257725 -0.0 -0.0 -0.0 -0.0 -0.0 311.99518353804103 48.93925264104536 480.9 -1.4111436392636465 0.8187644010876132 -0.8187644010876133 
2.816 0.519659451121264 -1.5707963267948966 -1.5707963267948966 0.0 1.5707963267948966 0.0 0.04281874431559424 0.0 0.0 0.0 0.0 0.0 -0.23271056693257725 -0.0 -0.0 -0.0 -0.0 -0.0 311.9780358524812 49.04844692370963 480.9 -1.4112511708306958 0.8184967185220613 -0.8184967185220614 
2.824 0.519994554337647 -1.5707963267948966 -1.5707963267948966 0.0 1.5707963267948966 0.0 0.04095705978013359 0.0 0.0 0.0 0.0 0.0 -0.23271056693257725 -0.0 -0.0 -0.0 -0.0 -0.0 311.9615820438096 49.15298901108082 480.9 -1.4113540914431766 0.8182404219787627 -0.8182404219787628 
2.832 0.5203147640777462 -1.5707963267948966 -1.5707963267948966 0.0 1.5707963267948966 0.0 0.03909537524467299 0.0 0.0 0.0 0.0 0.0 -0.23271056693257725 -0.0 -0.0 -0.0 -0.0 -0.0 311.9458267848646 49.252879626547845 480.9 -1.4114524056864117 0.8179955120757055 -0.8179955120757056 
2.84 0.5206200803415618 -1.5707963267948966 -1.5707963267948966 0.0 1.5707963267948966 0.0 0.03723369070921234 0.0 0.0 0.0 0.0 0.0 -0.23271056693257725 -0.0 -0.0 -0.0 -0.0 -0.0 311.9307745404223 49.348119463787 480.9 -1.4115461179416162 0.8177619894030445 -0.8177619894030446 
2.848 0.5209105031290937 -1.5707963267948966 -1.5707963267948966 0.0 1.5707963267948966 0.0 0.03537200617375175 0.0 0.0 0.0 0.0 0.0 -0.23271056693257725 -0.0 -0.0 -0.0 -0.0 -0.0 311.9164295672475 49.438709186429186 480.9 -1.4116352323859362 0.817539854523149 -0.8175398545231491 
2.856 0.5211860324403417 -1.5707963267948966 -1.5707963267948966 0.0 1.5707963267948966 0.0 0.03351032163829115 0.0 0.0 0.0 0.0 0.0 -0.23271056693257725 -0.0 -0.0 -0.0 -0.0 -0.0 311.90279591414236 49.524649427742936 480.9 -1.411719752992495 0.8173291079706536 -0.8173291079706537 
