Fleaurent/UniversalRobot/csv/robot_movej_Trapez_Zeit.csv
timestamp target_q_0 target_q_1 target_q_2 target_q_3 target_q_4 target_q_5 target_qd_0 target_qd_1 target_qd_2 target_qd_3 target_qd_4 target_qd_5 target_qdd_0 target_qdd_1 target_qdd_2 target_qdd_3 target_qdd_4 target_qdd_5 target_current_0 target_current_1 target_current_2 target_current_3 target_current_4 target_current_5 target_moment_0 target_moment_1 target_moment_2 target_moment_3 target_moment_4 target_moment_5 actual_q_0 actual_q_1 actual_q_2 actual_q_3 actual_q_4 actual_q_5 actual_qd_0 actual_qd_1 actual_qd_2 actual_qd_3 actual_qd_4 actual_qd_5 actual_current_0 actual_current_1 actual_current_2 actual_current_3 actual_current_4 actual_current_5 joint_control_output_0 joint_control_output_1 joint_control_output_2 joint_control_output_3 joint_control_output_4 joint_control_output_5 actual_TCP_pose_0 actual_TCP_pose_1 actual_TCP_pose_2 actual_TCP_pose_3 actual_TCP_pose_4 actual_TCP_pose_5 actual_TCP_speed_0 actual_TCP_speed_1 actual_TCP_speed_2 actual_TCP_speed_3 actual_TCP_speed_4 actual_TCP_speed_5 actual_TCP_force_0 actual_TCP_force_1 actual_TCP_force_2 actual_TCP_force_3 actual_TCP_force_4 actual_TCP_force_5 target_TCP_pose_0 target_TCP_pose_1 target_TCP_pose_2 target_TCP_pose_3 target_TCP_pose_4 target_TCP_pose_5 target_TCP_speed_0 target_TCP_speed_1 target_TCP_speed_2 target_TCP_speed_3 target_TCP_speed_4 target_TCP_speed_5
2398.808 0.0 -1.5707963267948966 -1.5707963267948966 0.0 1.5707963267948966 0.0 -0.0 0.0 0.0 0.0 0.0 0.0 0.0 0.0 0.0 0.0 0.0 0.0 -1.8327750199862536e-26 0.555172973447796 0.7573864583558305 0.07057808899065858 -9.380070923910231e-28 0.0 -2.1032924999364705e-25 6.394759450000002 6.3947594500000005 0.2913103000000004 -3.894025929994733e-27 0.0 -3.5587941304981996e-05 -1.5707481543170374 -1.5707476774798792 -2.8912221090138246e-05 1.5707435607910156 -3.5587941304981996e-05 0.0 0.0 -0.0 0.0 0.0 0.0 0.0403747595846653 0.5271149277687073 0.6694930791854858 -0.0055949692614376545 -0.02014188840985298 -0.0850435346364975 0.0426178015768528 0.5585175156593323 0.6755932569503784 -0.008951950818300247 -0.02349887043237686 -0.09063850343227386 0.29578788617328716 -0.1130496320858984 0.48157882272353264 -1.2100740146079236 1.209835515434441 -1.2090989575704034 0.0 0.0 0.0 0.0 0.0 0.0 1.9162152295996873 -3.888129197741908 2.2357048797349903 0.394876542498421 -0.33216554076594995 0.41393086272202567 0.29580949455060795 -0.11303468883756389 0.4815525763646191 -1.210139742515539 1.2098370768821622 -1.20897546102981 0.0 0.0 0.0 0.0 0.0 0.0
2398.816 0.0 -1.5707963267948966 -1.5707963267948966 0.0 1.5707963267948966 0.0 -0.0 0.0 0.0 0.0 0.0 0.0 0.0 0.0 0.0 0.0 0.0 0.0 -1.8327750199862536e-26 0.555172973447796 0.7573864583558305 0.07057808899065858 -9.380070923910231e-28 0.0 -2.1032924999364705e-25 6.394759450000002 6.3947594500000005 0.2913103000000004 -3.894025929994733e-27 0.0 -1.1746083394825746e-05 -1.5707481543170374 -1.5707595984088343 -7.659593691045075e-05 1.5707435607910156 -7.230440248662262e-05 0.0 0.0 -0.0 0.0 0.0 0.0 0.0403747595846653 0.5517883896827698 0.6755932569503784 0.004475975409150124 -0.022379877045750618 -0.09735246747732162 0.0426178015768528 0.5585175156593323 0.6755932569503784 -0.008951950818300247 -0.02349887043237686 -0.09063850343227386 0.2957956731145848 -0.11304256387647209 0.4815713728771041 -1.2101562859258668 1.2098443936818226 -1.2090801755412453 0.0 0.0 0.0 0.0 0.0 0.0 2.984154394305343 -4.501806563536385 2.1825744997686067 0.452067932745105 -0.38106746251275114 0.4747752118143578 0.29580949455060795 -0.11303468883756389 0.4815525763646191 -1.210139742515539 1.2098370768821622 -1.20897546102981 0.0 0.0 0.0 0.0 0.0 0.0
2398.824 0.0 -1.5707963267948966 -1.5707963267948966 0.0 1.5707963267948966 0.0 -0.0 0.0 0.0 0.0 0.0 0.0 0.0 0.0 0.0 0.0 0.0 0.0 -1.8327750199862536e-26 0.555172973447796 0.7573864583558305 0.07057808899065858 -9.380070923910231e-28 0.0 -2.1032924999364705e-25 6.394759450000002 6.3947594500000005 0.2913103000000004 -3.894025929994733e-27 0.0 -3.5587941304981996e-05 -1.5707243124591272 -1.5707715193377894 -6.467500795537262e-05 1.57077956199646 -4.7985707418263246e-05 0.0 0.0 -0.0 0.0 0.0 0.0 0.0403747595846653 0.5674896836280823 0.6771183013916016 -0.004475975409150124 -0.024617865681648254 -0.07832957059144974 0.0426178015768528 0.5585175156593323 0.6755932569503784 -0.008951950818300247 -0.024617865681648254 -0.09063850343227386 0.295785125929395 -0.11304664637206742 0.4815758796670792 -1.2101265768619067 1.2098293865775258 -1.2090646079799585 0.0 0.0 0.0 0.0 0.0 0.0 3.7552071676642806 -4.95916204317857 1.9205847050742006 0.363844846206493 -0.5099128232328215 0.5228295655659896 0.29580949455060795 -0.11303468883756389 0.4815525763646191 -1.210139742515539 1.2098370768821622 -1.20897546102981 0.0 0.0 0.0 0.0 0.0 0.0
2398.832 0.0 -1.5707963267948966 -1.5707963267948966 0.0 1.5707963267948966 0.0 -0.0 0.0 0.0 0.0 0.0 0.0 0.0 0.0 0.0 0.0 0.0 0.0 -1.8327750199862536e-26 0.555172973447796 0.7573864583558305 0.07057808899065858 -9.380070923910231e-28 0.0 -2.1032924999364705e-25 6.394759450000002 6.3947594500000005 0.2913103000000004 -3.894025929994733e-27 0.0 -1.1746083394825746e-05 -1.5707362333880823 -1.5708072821246546 -4.0356312887013246e-05 1.570791482925415 -3.5587941304981996e-05 0.0 0.0 -0.0 0.0 0.0 0.0 0.0493469275534153 0.5293579697608948 0.671018123626709 -0.004475975409150124 -0.02909383922815323 -0.09959045052528381 0.0426178015768528 0.5585175156593323 0.6755932569503784 -0.008951950818300247 -0.02685585245490074 -0.09063850343227386 0.29579274063619687 -0.11303856886591247 0.48156378513552794 -1.2101516511077535 1.2098259952389512 -1.2090180312615073 0.0 0.0 0.0 0.0 0.0 0.0 1.9741440242975161 -4.654645293205411 2.189517475361736 0.4625152711895289 -0.33573917279232784 0.5187074946462857 0.29580949455060795 -0.11303468883756389 0.4815525763646191 -1.210139742515539 1.2098370768821622 -1.20897546102981 0.0 0.0 0.0 0.0 0.0 0.0
2398.8399999999997 0.0 -1.5707963267948966 -1.5707963267948966 0.0 1.5707963267948966 0.0 -0.0 0.0 0.0 0.0 0.0 0.0 0.0 0.0 0.0 0.0 0.0 0.0 -1.8327750199862536e-26 0.555172973447796 0.7573864583558305 0.07057808899065858 -9.380070923910231e-28 0.0 -2.1032924999364705e-25 6.394759450000002 6.3947594500000005 0.2913103000000004 -3.894025929994733e-27 0.0 0.0 -1.5707481543170374 -1.5708072821246546 -1.6514454976856996e-05 1.57077956199646 -4.7985707418263246e-05 0.0 0.0 -0.0 0.0 0.0 0.0 0.0471038855612278 0.5764618515968323 0.6832184791564941 -0.0055949692614376545 -0.02349887043237686 -0.07721057534217834 0.0426178015768528 0.5562744736671448 0.6755932569503784 -0.008951950818300247 -0.025736859068274498 -0.09063850343227386 0.29579596185474755 -0.11303607328279791 0.48156222345233013 -1.2101519213095162 1.209811479490812 -1.2090329315668753 0.0 0.0 0.0 0.0 0.0 0.0 3.992316507041505 -5.4655201992795615 1.6236018951170135 0.3587107280801882 -0.5597480691178203 0.5593159327797208 0.29580949455060795 -0.11303468883756389 0.4815525763646191 -1.210139742515539 1.2098370768821622 -1.20897546102981 0.0 0.0 0.0 0.0 0.0 0.0
2398.848 0.0 -1.5707963267948966 -1.5707963267948966 0.0 1.5707963267948966 0.0 -0.0 0.0 0.0 0.0 0.0 0.0 0.0 0.0 0.0 0.0 0.0 0.0 -1.8327750199862536e-26 0.555172973447796 0.7573864583558305 0.07057808899065858 -9.380070923910231e-28 0.0 -2.1032924999364705e-25 6.394759450000002 6.3947594500000005 0.2913103000000004 -3.894025929994733e-27 0.0 0.0 -1.5707481543170374 -1.5707834402667444 -4.593526021778871e-06 1.570719599723816 -2.366701234990387e-05 0.0 0.0 -0.0 0.0 0.0 0.0 0.0448608435690403 0.5517883896827698 0.6801683902740479 -0.0033569815568625927 -0.03580780327320099 -0.10742340981960297 0.0426178015768528 0.5607605576515198 0.6755932569503784 -0.008951950818300247 -0.02685585245490074 -0.09063850343227386 0.2957928956543408 -0.11304103948696004 0.4815702540014584 -1.210079230271539 1.2098409116698368 -1.2090761540240411 0.0 0.0 0.0 0.0 0.0 0.0 2.8058468815965663 -4.970889133406018 1.8079577779895202 0.49885126155076803 -0.4330033738905707 0.57595203999915 0.29580949455060795 -0.11303468883756389 0.4815525763646191 -1.210139742515539 1.2098370768821622 -1.20897546102981 0.0 0.0 0.0 0.0 0.0 0.0
2398.8559999999998 0.0 -1.5707963267948966 -1.5707963267948966 0.0 1.5707963267948966 0.0 -0.0 0.0 0.0 0.0 0.0 0.0 0.0 0.0 0.0 0.0 0.0 0.0 -1.8327750199862536e-26 0.555172973447796 0.7573864583558305 0.07057808899065858 -9.380070923910231e-28 0.0 -2.1032924999364705e-25 6.394759450000002 6.3947594500000005 0.2913103000000004 -3.894025929994733e-27 0.0 1.1984225238848012e-05 -1.5707724730121058 -1.5707595984088343 -4.0356312887013246e-05 1.5707556009292603 -3.5587941304981996e-05 0.0 0.0 -0.0 0.0 0.0 0.0 0.0515899695456028 0.5607605576515198 0.6633929014205933 -0.004475975409150124 -0.0335698164999485 -0.09735246747732162 0.0426178015768528 0.5585175156593323 0.6755932569503784 -0.008951950818300247 -0.02685585245490074 -0.09063850343227386 0.2958032800472544 -0.11303454615420258 0.4815671653313502 -1.21013737847913 1.2098266304967071 -1.2090324609621736 0.0 0.0 0.0 0.0 0.0 0.0 3.9299552528357062 -5.922311295522879 2.5263230479162524 0.4522360092574836 -0.47495391515446994 0.6438087324535381 0.29580949455060795 -0.11303468883756389 0.4815525763646191 -1.210139742515539 1.2098370768821622 -1.20897546102981 0.0 0.0 0.0 0.0 0.0 0.0
2398.864 0.0 -1.5707963267948966 -1.5707963267948966 0.0 1.5707963267948966 0.0 -0.0 0.0 0.0 0.0 0.0 0.0 0.0 0.0 0.0 0.0 0.0 0.0 -1.8327750199862536e-26 0.555172973447796 0.7573864583558305 0.07057808899065858 -9.380070923910231e-28 0.0 -2.1032924999364705e-25 6.394759450000002 6.3947594500000005 0.2913103000000004 -3.894025929994733e-27 0.0 -4.7985707418263246e-05 -1.5707243124591272 -1.5707834402667444 -4.593526021778871e-06 1.5707435607910156 -5.990663637334137e-05 0.0 0.0 -0.0 0.0 0.0 0.0 0.0448608435690403 0.5293579697608948 0.6755932569503784 -0.006713963113725185 -0.024617865681648254 -0.07721057534217834 0.0426178015768528 0.5607605576515198 0.6755932569503784 -0.008951950818300247 -0.02685585245490074 -0.09063850343227386 0.29577961388932045 -0.1130532678574622 0.4815773033143761 -1.210076999873125 1.209823940993844 -1.2091318125695398 0.0 0.0 0.0 0.0 0.0 0.0 1.797614050840699 -4.193627426283683 1.9396589407177545 0.35856872679996044 -0.3516208582253593 0.4599375555370505 0.29580949455060795 -0.11303468883756389 0.4815525763646191 -1.210139742515539 1.2098370768821622 -1.20897546102981 0.0 0.0 0.0 0.0 0.0 0.0
2398.872 0.0 -1.5707963267948966 -1.5707963267948966 0.0 1.5707963267948966 0.0 -0.0 0.0 0.0 0.0 0.0 0.0 0.0 0.0 0.0 0.0 0.0 0.0 -1.8327750199862536e-26 0.555172973447796 0.7573864583558305 0.07057808899065858 -9.380070923910231e-28 0.0 -2.1032924999364705e-25 6.394759450000002 6.3947594500000005 0.2913103000000004 -3.894025929994733e-27 0.0 -1.1746083394825746e-05 -1.5707724730121058 -1.5707476774798792 -2.8912221090138246e-05 1.5707435607910156 -2.366701234990387e-05 0.0 0.0 -0.0 0.0 0.0 0.0 0.0426178015768528 0.5405731797218323 0.6786433458328247 -0.006713963113725185 -0.027974845841526985 -0.09847146272659302 0.0426178015768528 0.5585175156593323 0.6755932569503784 -0.008951950818300247 -0.025736859068274498 -0.08840051293373108 0.2957985981328813 -0.11304257139715 0.4815716317036072 -1.2100944332827865 1.209841469279772 -1.2090611045185375 0.0 0.0 0.0 0.0 0.0 0.0 2.272511015984188 -4.38246298295727 1.8040308148355666 0.45725561690445926 -0.40330850212207936 0.4910714030758818 0.29580949455060795 -0.11303468883756389 0.4815525763646191 -1.210139742515539 1.2098370768821622 -1.20897546102981 0.0 0.0 0.0 0.0 0.0 0.0
2398.88 0.0 -1.5707963267948966 -1.5707963267948966 0.0 1.5707963267948966 0.0 -0.0 0.0 0.0 0.0 0.0 0.0 0.0 0.0 0.0 0.0 0.0 0.0 -1.8327750199862536e-26 0.555172973447796 0.7573864583558305 0.07057808899065858 -9.380070923910231e-28 0.0 -2.1032924999364705e-25 6.394759450000002 6.3947594500000005 0.2913103000000004 -3.894025929994733e-27 0.0 -3.5587941304981996e-05 -1.5707362333880823 -1.5707953611956995 -7.659593691045075e-05 1.5707316398620605 -4.7985707418263246e-05 0.0 0.0 -0.0 0.0 0.0 0.0 0.0381317175924778 0.5495453476905823 0.6847434639930725 -0.007832957431674004 -0.02349887043237686 -0.09847146272659302 0.0426178015768528 0.5517883896827698 0.6755932569503784 -0.008951950818300247 -0.02685585245490074 -0.08840051293373108 0.2957921114077731 -0.11305056141223681 0.48156432649090575 -1.2101390836748285 1.2098997077785454 -1.2090772558604665 0.0 0.0 0.0 0.0 0.0 0.0 2.510875313018954 -4.140639397375151 1.5099993327520933 0.4572211694991497 -0.453024180843534 0.45027066674569727 0.29580949455060795 -0.11303468883756389 0.4815525763646191 -1.210139742515539 1.2098370768821622 -1.20897546102981 0.0 0.0 0.0 0.0 0.0 0.0
2398.888 0.0 -1.5707963267948966 -1.5707963267948966 0.0 1.5707963267948966 0.0 -0.0 0.0 0.0 0.0 0.0 0.0 0.0 0.0 0.0 0.0 0.0 0.0 -1.8327750199862536e-26 0.555172973447796 0.7573864583558305 0.07057808899065858 -9.380070923910231e-28 0.0 -2.1032924999364705e-25 6.394759450000002 6.3947594500000005 0.2913103000000004 -3.894025929994733e-27 0.0 -2.366701234990387e-05 -1.5707362333880823 -1.5707595984088343 -4.0356312887013246e-05 1.5707316398620605 -1.1746083394825746e-05 0.0 0.0 -0.0 0.0 0.0 0.0 0.0426178015768528 0.5562744736671448 0.6771183013916016 0.0 -0.022379877045750618 -0.08840051293373108 0.0426178015768528 0.5585175156593323 0.6755932569503784 -0.008951950818300247 -0.022379877045750618 -0.08951950818300247 0.295787301271959 -0.11304707779767462 0.48157788190318696 -1.2100648977160247 1.2098551882818194 -1.209075974629193 0.0 0.0 0.0 0.0 0.0 0.0 3.161904569523833 -4.7314587453025405 2.0173359187980906 0.41051758523720044 -0.4305869397439321 0.49369682661591896 0.29580949455060795 -0.11303468883756389 0.4815525763646191 -1.210139742515539 1.2098370768821622 -1.20897546102981 0.0 0.0 0.0 0.0 0.0 0.0
2398.8959999999997 0.0 -1.5707963267948966 -1.5707963267948966 0.0 1.5707963267948966 0.0 -0.0 0.0 0.0 0.0 0.0 0.0 0.0 0.0 0.0 0.0 0.0 0.0 -1.8327750199862536e-26 0.555172973447796 0.7573864583558305 0.07057808899065858 -9.380070923910231e-28 0.0 -2.1032924999364705e-25 6.394759450000002 6.3947594500000005 0.2913103000000004 -3.894025929994733e-27 0.0 -3.5587941304981996e-05 -1.5707839171039026 -1.5707715193377894 -6.467500795537262e-05 1.5707675218582153 -9.614626039677887e-05 0.0 0.0 -0.0 0.0 0.0 0.0 0.0448608435690403 0.5764618515968323 0.6877935528755188 0.0 -0.03021283447742462 -0.09399548172950745 0.0426178015768528 0.5585175156593323 0.6755932569503784 -0.008951950818300247 -0.02685585245490074 -0.09175749868154526 0.29580477312264924 -0.113047617558697 0.4815582547080145 -1.210200297345259 1.2098592951764593 -1.2090806572580046 0.0 0.0 0.0 0.0 0.0 0.0 3.814851289336954 -5.38255939047293 1.54208066686571 0.43660822438434366 -0.5254591037483561 0.58370110710695 0.29580949455060795 -0.11303468883756389 0.4815525763646191 -1.210139742515539 1.2098370768821622 -1.20897546102981 0.0 0.0 0.0 0.0 0.0 0.0
2398.904 0.0 -1.5707963267948966 -1.5707963267948966 0.0 1.5707963267948966 0.0 -0.0 0.0 0.0 0.0 0.0 0.0 0.0 0.0 0.0 0.0 0.0 0.0 -1.8327750199862536e-26 0.555172973447796 0.7573864583558305 0.07057808899065858 -9.380070923910231e-28 0.0 -2.1032924999364705e-25 6.394759450000002 6.3947594500000005 0.2913103000000004 -3.894025929994733e-27 0.0 -1.1746083394825746e-05 -1.5707724730121058 -1.5708072821246546 -5.2754079000294496e-05 1.5707435607910156 -2.366701234990387e-05 0.0 0.0 -0.0 0.0 0.0 0.0 0.0448608435690403 0.5540314316749573 0.6801683902740479 -0.0055949692614376545 -0.024617865681648254 -0.07497258484363556 0.0426178015768528 0.5607605576515198 0.6755932569503784 -0.008951950818300247 -0.02685585245490074 -0.09063850343227386 0.2958057401110644 -0.11304250232420279 0.4815520492032902 -1.2101560357311605 1.2099027101622453 -1.209021480638205 0.0 0.0 0.0 0.0 0.0 0.0 2.9250070884029022 -4.789524958899638 1.760093870924442 0.34829399177230647 -0.45739205862783083 0.5088930520478587 0.29580949455060795 -0.11303468883756389 0.4815525763646191 -1.210139742515539 1.2098370768821622 -1.20897546102981 0.0 0.0 0.0 0.0 0.0 0.0
2398.912 0.0 -1.5707963267948966 -1.5707963267948966 0.0 1.5707963267948966 0.0 -0.0 0.0 0.0 0.0 0.0 0.0 0.0 0.0 0.0 0.0 0.0 0.0 -1.8327750199862536e-26 0.555172973447796 0.7573864583558305 0.07057808899065858 -9.380070923910231e-28 0.0 -2.1032924999364705e-25 6.394759450000002 6.3947594500000005 0.2913103000000004 -3.894025929994733e-27 0.0 -5.990663637334137e-05 -1.5707600752459925 -1.5707476774798792 -4.0356312887013246e-05 1.5707675218582153 -1.1746083394825746e-05 0.0 0.0 -0.0 0.0 0.0 0.0 0.0448608435690403 0.5517883896827698 0.6801683902740479 -0.002237987704575062 -0.025736859068274498 -0.09175749868154526 0.0426178015768528 0.5585175156593323 0.6755932569503784 -0.008951950818300247 -0.02349887043237686 -0.09063850343227386 0.2957900459196306 -0.1130548472887662 0.4815743549695926 -1.2100735011672596 1.2098642509020634 -1.2090705947641858 0.0 0.0 0.0 0.0 0.0 0.0 2.805916289072464 -4.751497587989766 1.832853344106275 0.4261143125220324 -0.4257847661591027 0.5109974495615549 0.29580949455060795 -0.11303468883756389 0.4815525763646191 -1.210139742515539 1.2098370768821622 -1.20897546102981 0.0 0.0 0.0 0.0 0.0 0.0
2398.92 0.0 -1.5707963267948966 -1.5707963267948966 0.0 1.5707963267948966 0.0 -0.0 0.0 0.0 0.0 0.0 0.0 0.0 0.0 0.0 0.0 0.0 0.0 -1.8327750199862536e-26 0.555172973447796 0.7573864583558305 0.07057808899065858 -9.380070923910231e-28 0.0 -2.1032924999364705e-25 6.394759450000002 6.3947594500000005 0.2913103000000004 -3.894025929994733e-27 0.0 1.1984225238848012e-05 -1.5707724730121058 -1.5707953611956995 -5.2754079000294496e-05 1.5707675218582153 -7.230440248662262e-05 0.0 0.0 -0.0 0.0 0.0 0.0 0.0448608435690403 0.5450592637062073 0.681693434715271 -0.006713963113725185 -0.025736859068274498 -0.10742340981960297 0.0426178015768528 0.5517883896827698 0.6755932569503784 -0.008951950818300247 -0.027974845841526985 -0.09063850343227386 0.29580740353269125 -0.11303352291933923 0.48155557258415016 -1.2102056291368368 1.209835813278491 -1.2090278380900974 0.0 0.0 0.0 0.0 0.0 0.0 2.391082959806466 -4.531222675703293 1.6678041278458753 0.498840241251133 -0.4245976363378635 0.49287088137814855 0.29580949455060795 -0.11303468883756389 0.4815525763646191 -1.210139742515539 1.2098370768821622 -1.20897546102981 0.0 0.0 0.0 0.0 0.0 0.0
2398.928 0.0 -1.5707963267948966 -1.5707963267948966 0.0 1.5707963267948966 0.0 -0.0 0.0 0.0 0.0 0.0 0.0 0.0 0.0 0.0 0.0 0.0 0.0 -1.8327750199862536e-26 0.555172973447796 0.7573864583558305 0.07057808899065858 -9.380070923910231e-28 0.0 -2.1032924999364705e-25 6.394759450000002 6.3947594500000005 0.2913103000000004 -3.894025929994733e-27 0.0 1.1984225238848012e-05 -1.5707600752459925 -1.5708072821246546 -6.467500795537262e-05 1.5707316398620605 -7.230440248662262e-05 0.0 0.0 -0.0 0.0 0.0 0.0 0.0381317175924778 0.5674896836280823 0.6740682125091553 -0.0033569815568625927 -0.017903901636600494 -0.07609158009290695 0.0426178015768528 0.5652466416358948 0.6755932569503784 -0.008951950818300247 -0.02685585245490074 -0.09063850343227386 0.2958053521886745 -0.11303646832202868 0.48155473402332866 -1.2101971037534518 1.2098706420627778 -1.2090488190229773 0.0 0.0 0.0 0.0 0.0 0.0 3.874188536558217 -4.739732372273575 2.0806588374378228 0.3534487936938398 -0.5016127014859778 0.4734716744650273 0.29580949455060795 -0.11303468883756389 0.4815525763646191 -1.210139742515539 1.2098370768821622 -1.20897546102981 0.0 0.0 0.0 0.0 0.0 0.0
2398.9359999999997 0.0 -1.5707963267948966 -1.5707963267948966 0.0 1.5707963267948966 0.0 -0.0 0.0 0.0 0.0 0.0 0.0 0.0 0.0 0.0 0.0 0.0 0.0 -1.8327750199862536e-26 0.555172973447796 0.7573864583558305 0.07057808899065858 -9.380070923910231e-28 0.0 -2.1032924999364705e-25 6.394759450000002 6.3947594500000005 0.2913103000000004 -3.894025929994733e-27 0.0 0.0 -1.5707243124591272 -1.5707834402667444 -6.467500795537262e-05 1.5707675218582153 -3.5587941304981996e-05 0.0 0.0 -0.0 0.0 0.0 0.0 0.0403747595846653 0.5495453476905823 0.6664429903030396 -0.007832957431674004 -0.027974845841526985 -0.07609158009290695 0.0426178015768528 0.5607605576515198 0.6755932569503784 -0.008951950818300247 -0.02685585245490074 -0.09063850343227386 0.2957901692449502 -0.11303709794827622 0.48157235607827664 -1.2101373856502018 1.2098266376734197 -1.20903248664834 0.0 0.0 0.0 0.0 0.0 0.0 3.2205354911226705 -4.749129338730455 2.3218035590981194 0.3534838689743271 -0.44675157729895304 0.5212025579702451 0.29580949455060795 -0.11303468883756389 0.4815525763646191 -1.210139742515539 1.2098370768821622 -1.20897546102981 0.0 0.0 0.0 0.0 0.0 0.0
2398.944 0.0 -1.5707963267948966 -1.5707963267948966 0.0 1.5707963267948966 0.0 -0.0 0.0 0.0 0.0 0.0 0.0 0.0 0.0 0.0 0.0 0.0 0.0 -1.8327750199862536e-26 0.555172973447796 0.7573864583558305 0.07057808899065858 -9.380070923910231e-28 0.0 -2.1032924999364705e-25 6.394759450000002 6.3947594500000005 0.2913103000000004 -3.894025929994733e-27 0.0 -1.1746083394825746e-05 -1.570796314870016 -1.5707953611956995 -1.6514454976856996e-05 1.570719599723816 -3.5587941304981996e-05 0.0 0.0 -0.0 0.0 0.0 0.0 0.0448608435690403 0.5742188096046448 0.6679680347442627 0.007832957431674004 -0.022379877045750618 -0.09511447697877884 0.0426178015768528 0.5585175156593323 0.6755932569503784 -0.008951950818300247 -0.022379877045750618 -0.09063850343227386 0.29580948232889215 -0.11304448281998564 0.4815515072921305 -1.2101355460587575 1.2098968507281005 -1.2090594271292294 0.0 0.0 0.0 0.0 0.0 0.0 4.465235582179834 -5.55573156860927 2.5916968380017242 0.44176613997701736 -0.4582571887397692 0.561442029600908 0.29580949455060795 -0.11303468883756389 0.4815525763646191 -1.210139742515539 1.2098370768821622 -1.20897546102981 0.0 0.0 0.0 0.0 0.0 0.0
2398.9519999999998 0.0 -1.5707963267948966 -1.5707963267948966 0.0 1.5707963267948966 0.0 -0.0 0.0 0.0 0.0 0.0 0.0 0.0 0.0 0.0 0.0 0.0 0.0 -1.8327750199862536e-26 0.555172973447796 0.7573864583558305 0.07057808899065858 -9.380070923910231e-28 0.0 -2.1032924999364705e-25 6.394759450000002 6.3947594500000005 0.2913103000000004 -3.894025929994733e-27 0.0 2.3968450477696024e-05 -1.5707243124591272 -1.5707834402667444 -1.6514454976856996e-05 1.5707435607910156 -3.5587941304981996e-05 0.0 0.0 -0.0 0.0 0.0 0.0 0.0426178015768528 0.5764618515968323 0.6755932569503784 -0.0033569815568625927 -0.017903901636600494 -0.09399548172950745 0.0426178015768528 0.5585175156593323 0.6755932569503784 -0.008951950818300247 -0.024617865681648254 -0.08951950818300247 0.295788765351923 -0.11303198433596648 0.48157632185175775 -1.2101019001959517 1.2097911950081779 -1.209055302373757 0.0 0.0 0.0 0.0 0.0 0.0 4.2884779316229 -5.229960303987998 2.0115453141624946 0.43650385916098194 -0.5427184205683865 0.513863815886947 0.29580949455060795 -0.11303468883756389 0.4815525763646191 -1.210139742515539 1.2098370768821622 -1.20897546102981 0.0 0.0 0.0 0.0 0.0 0.0
2398.96 0.0 -1.5707963267948966 -1.5707963267948966 0.0 1.5707963267948966 0.0 -0.0 0.0 0.0 0.0 0.0 0.0 0.0 0.0 0.0 0.0 0.0 0.0 -1.8327750199862536e-26 0.555172973447796 0.7573864583558305 0.07057808899065858 -9.380070923910231e-28 0.0 -2.1032924999364705e-25 6.394759450000002 6.3947594500000005 0.2913103000000004 -3.894025929994733e-27 0.0 0.0 -1.5707600752459925 -1.5707834402667444 -5.2754079000294496e-05 1.5707675218582153 -7.230440248662262e-05 0.0 0.0 -0.0 0.0 0.0 0.0 0.0403747595846653 0.5517883896827698 0.6847434639930725 -0.006713963113725185 -0.02349887043237686 -0.0839245393872261 0.0426178015768528 0.5585175156593323 0.6755932569503784 -0.008951950818300247 -0.024617865681648254 -0.08951950818300247 0.2958009407691176 -0.1130370859062024 0.4815627625917858 -1.2101820149492686 1.2098267892942196 -1.2090482030525187 0.0 0.0 0.0 0.0 0.0 0.0 2.629568154135736 -4.338452094035633 1.533932132746812 0.3897787374865412 -0.45597708333447257 0.4665762624191932 0.29580949455060795 -0.11303468883756389 0.4815525763646191 -1.210139742515539 1.2098370768821622 -1.20897546102981 0.0 0.0 0.0 0.0 0.0 0.0
2398.968 0.0 -1.5707963267948966 -1.5707963267948966 0.0 1.5707963267948966 0.0 -0.0 0.0 0.0 0.0 0.0 0.0 0.0 0.0 0.0 0.0 0.0 0.0 -1.8327750199862536e-26 0.555172973447796 0.7573864583558305 0.07057808899065858 -9.380070923910231e-28 0.0 -2.1032924999364705e-25 6.394759450000002 6.3947594500000005 0.2913103000000004 -3.894025929994733e-27 0.0 -4.7985707418263246e-05 -1.5707724730121058 -1.5707953611956995 -5.2754079000294496e-05 1.5707556009292603 -5.990663637334137e-05 0.0 0.0 -0.0 0.0 0.0 0.0 0.0403747595846653 0.5517883896827698 0.6893185973167419 -0.006713963113725185 -0.02685585245490074 -0.1007094457745552 0.0426178015768528 0.5585175156593323 0.6755932569503784 -0.008951950818300247 -0.024617865681648254 -0.08840051293373108 0.2958006232060723 -0.11305224405841499 0.481555572853372 -1.2101624856309487 1.2098946578948557 -1.2090716285249348 0.0 0.0 0.0 0.0 0.0 0.0 2.451694276710458 -4.317568449188005 1.3304816625700258 0.4676451144298348 -0.45759649028637406 0.4804666711343654 0.29580949455060795 -0.11303468883756389 0.4815525763646191 -1.210139742515539 1.2098370768821622 -1.20897546102981 0.0 0.0 0.0 0.0 0.0 0.0
2398.976 0.0 -1.5707963267948966 -1.5707963267948966 0.0 1.5707963267948966 0.0 -0.0 0.0 0.0 0.0 0.0 0.0 0.0 0.0 0.0 0.0 0.0 0.0 -1.8327750199862536e-26 0.555172973447796 0.7573864583558305 0.07057808899065858 -9.380070923910231e-28 0.0 -2.1032924999364705e-25 6.394759450000002 6.3947594500000005 0.2913103000000004 -3.894025929994733e-27 0.0 0.0 -1.5707724730121058 -1.5708192030536097 -1.6514454976856996e-05 1.5707075595855713 -5.990663637334137e-05 0.0 0.0 -0.0 0.0 0.0 0.0 0.0426178015768528 0.5607605576515198 0.6618678569793701 0.0033569815568625927 -0.024617865681648254 -0.11078038811683655 0.0426178015768528 0.5585175156593323 0.6755932569503784 -0.008951950818300247 -0.024617865681648254 -0.09063850343227386 0.2958049925118628 -0.11304198111145153 0.48155151006264335 -1.2101533658953694 1.209885505344351 -1.209077517892823 0.0 0.0 0.0 0.0 0.0 0.0 3.9902342456836313 -5.21799473960081 2.7658164190821775 0.5144297715515705 -0.4240918490819304 0.5440803957667907 0.29580949455060795 -0.11303468883756389 0.4815525763646191 -1.210139742515539 1.2098370768821622 -1.20897546102981 0.0 0.0 0.0 0.0 0.0 0.0
2398.984 0.0 -1.5707963267948966 -1.5707963267948966 0.0 1.5707963267948966 0.0 -0.0 0.0 0.0 0.0 0.0 0.0 0.0 0.0 0.0 0.0 0.0 0.0 -1.8327750199862536e-26 0.555172973447796 0.7573864583558305 0.07057808899065858 -9.380070923910231e-28 0.0 -2.1032924999364705e-25 6.394759450000002 6.3947594500000005 0.2913103000000004 -3.894025929994733e-27 0.0 0.0 -1.5707600752459925 -1.5707953611956995 -4.0356312887013246e-05 1.570719599723816 -3.5587941304981996e-05 0.0 0.0 -0.0 0.0 0.0 0.0 0.0471038855612278 0.5630035996437073 0.6801683902740479 -0.006713963113725185 -0.034688808023929596 -0.12420831620693207 0.0426178015768528 0.5585175156593323 0.6755932569503784 -0.008951950818300247 -0.024617865681648254 -0.09063850343227386 0.2958008993262856 -0.11304101978927591 0.4815602605864556 -1.2101319578702647 1.2098790877010999 -1.2090566674670946 0.0 0.0 0.0 0.0 0.0 0.0 3.398206218069574 -5.394890166914752 1.7338628417007818 0.576774849924245 -0.5051823349489237 0.605589576450424 0.29580949455060795 -0.11303468883756389 0.4815525763646191 -1.210139742515539 1.2098370768821622 -1.20897546102981 0.0 0.0 0.0 0.0 0.0 0.0
2398.9919999999997 0.0 -1.5707963267948966 -1.5707963267948966 0.0 1.5707963267948966 0.0 -0.0 0.0 0.0 0.0 0.0 0.0 0.0 0.0 0.0 0.0 0.0 0.0 -1.8327750199862536e-26 0.555172973447796 0.7573864583558305 0.07057808899065858 -9.380070923910231e-28 0.0 -2.1032924999364705e-25 6.394759450000002 6.3947594500000005 0.2913103000000004 -3.894025929994733e-27 0.0 -1.1746083394825746e-05 -1.5707362333880823 -1.5707953611956995 -1.6514454976856996e-05 1.5707675218582153 -9.614626039677887e-05 0.0 0.0 -0.0 0.0 0.0 0.0 0.0426178015768528 0.5607605576515198 0.6740682125091553 -0.0033569815568625927 -0.02014188840985298 -0.067139632999897 0.0426178015768528 0.5585175156593323 0.6755932569503784 -0.008951950818300247 -0.024617865681648254 -0.09063850343227386 0.29578968186014754 -0.11304055707431523 0.48156927255921544 -1.210158558804389 1.209788710037485 -1.2090972071257746 0.0 0.0 0.0 0.0 0.0 0.0 3.5177285667697293 -4.870897247521754 2.0800412734632743 0.3119086224237387 -0.47130134580843736 0.49475063551714044 0.29580949455060795 -0.11303468883756389 0.4815525763646191 -1.210139742515539 1.2098370768821622 -1.20897546102981 0.0 0.0 0.0 0.0 0.0 0.0
2399.0 0.0 -1.5707963267948966 -1.5707963267948966 0.0 1.5707963267948966 0.0 -0.0 0.0 0.0 0.0 0.0 0.0 0.0 0.0 0.0 0.0 0.0 0.0 -1.8327750199862536e-26 0.555172973447796 0.7573864583558305 0.07057808899065858 -9.380070923910231e-28 0.0 -2.1032924999364705e-25 6.394759450000002 6.3947594500000005 0.2913103000000004 -3.894025929994733e-27 0.0 0.0 -1.5707724730121058 -1.5707834402667444 -4.593526021778871e-06 1.5707556009292603 -7.230440248662262e-05 0.0 0.0 -0.0 0.0 0.0 0.0 0.0515899695456028 0.5495453476905823 0.6847434639930725 -0.0033569815568625927 -0.025736859068274498 -0.07161560654640198 0.0426178015768528 0.5585175156593323 0.6755932569503784 -0.008951950818300247 -0.02349887043237686 -0.09063850343227386 0.2958009156748381 -0.11303806585614862 0.48156306214471684 -1.2101500276896537 1.2098092560560998 -1.2090739201831024 0.0 0.0 0.0 0.0 0.0 0.0 2.5095803862531016 -4.999894101441655 1.6043127555118137 0.33271952131300936 -0.4244251064453799 0.5314854746987081 0.29580949455060795 -0.11303468883756389 0.4815525763646191 -1.210139742515539 1.2098370768821622 -1.20897546102981 0.0 0.0 0.0 0.0 0.0 0.0
2399.008 0.0 -1.5707963267948966 -1.5707963267948966 0.0 1.5707963267948966 0.0 -0.0 0.0 0.0 0.0 0.0 0.0 0.0 0.0 0.0 0.0 0.0 0.0 -1.8327750199862536e-26 0.555172973447796 0.7573864583558305 0.07057808899065858 -9.380070923910231e-28 0.0 -2.1032924999364705e-25 6.394759450000002 6.3947594500000005 0.2913103000000004 -3.894025929994733e-27 0.0 -2.366701234990387e-05 -1.5707362333880823 -1.5707715193377894 -5.2754079000294496e-05 1.5707316398620605 -7.230440248662262e-05 0.0 0.0 -0.0 0.0 0.0 0.0 0.0403747595846653 0.5764618515968323 0.6755932569503784 -0.011189938522875309 -0.03021283447742462 -0.1018284410238266 0.0426178015768528 0.5585175156593323 0.6755932569503784 -0.008951950818300247 -0.02349887043237686 -0.09063850343227386 0.29578938107811426 -0.11304706361149901 0.48157333730816554 -1.2101274602292271 1.2098443946090467 -1.2091090088829768 0.0 0.0 0.0 0.0 0.0 0.0 4.288299950343656 -5.363237166671568 1.8416675362410029 0.4728885272891749 -0.5930091677190619 0.5821056576901791 0.29580949455060795 -0.11303468883756389 0.4815525763646191 -1.210139742515539 1.2098370768821622 -1.20897546102981 0.0 0.0 0.0 0.0 0.0 0.0
2399.016 0.0 -1.5707963267948966 -1.5707963267948966 0.0 1.5707963267948966 0.0 -0.0 0.0 0.0 0.0 0.0 0.0 0.0 0.0 0.0 0.0 0.0 0.0 -1.8327750199862536e-26 0.555172973447796 0.7573864583558305 0.07057808899065858 -9.380070923910231e-28 0.0 -2.1032924999364705e-25 6.394759450000002 6.3947594500000005 0.2913103000000004 -3.894025929994733e-27 0.0 -4.7985707418263246e-05 -1.5707600752459925 -1.5707114378558558 -1.6514454976856996e-05 1.5707316398620605 -0.000108067189351857 0.0 0.0 -0.0 0.0 0.0 0.0 0.0493469275534153 0.5517883896827698 0.6664429903030396 -0.004475975409150124 -0.02014188840985298 -0.09735246747732162 0.0426178015768528 0.5585175156593323 0.6755932569503784 -0.008951950818300247 -0.02349887043237686 -0.09063850343227386 0.2957862491498417 -0.11305431867846961 0.4815870310905488 -1.2100887893653158 1.209792213741934 -1.2091876525519476 0.0 0.0 0.0 0.0 0.0 0.0 3.337400020106788 -5.181461185734801 2.392322190019557 0.4520362694700319 -0.4354531629409994 0.5203491057348257 0.29580949455060795 -0.11303468883756389 0.4815525763646191 -1.210139742515539 1.2098370768821622 -1.20897546102981 0.0 0.0 0.0 0.0 0.0 0.0
2399.024 0.0 -1.5707963267948966 -1.5707963267948966 0.0 1.5707963267948966 0.0 -0.0 0.0 0.0 0.0 0.0 0.0 0.0 0.0 0.0 0.0 0.0 0.0 -1.8327750199862536e-26 0.555172973447796 0.7573864583558305 0.07057808899065858 -9.380070923910231e-28 0.0 -2.1032924999364705e-25 6.394759450000002 6.3947594500000005 0.2913103000000004 -3.894025929994733e-27 0.0 -1.1746083394825746e-05 -1.5707362333880823 -1.5707476774798792 -4.0356312887013246e-05 1.5707435607910156 -3.5587941304981996e-05 0.0 0.0 -0.0 0.0 0.0 0.0 0.0291595496237278 0.5540314316749573 0.681693434715271 -0.01007094420492649 -0.0335698164999485 -0.08728151768445969 0.0426178015768528 0.5585175156593323 0.6755932569503784 -0.008951950818300247 -0.02349887043237686 -0.09175749868154526 0.29578762844119044 -0.11304258350466782 0.4815814054577462 -1.2100849376673857 1.2098176001310263 -1.2090816384535445 0.0 0.0 0.0 0.0 0.0 0.0 2.867805933258838 -4.008505820229404 1.5988923463713656 0.40531749462673183 -0.4865672030291884 0.4862854499990653 0.29580949455060795 -0.11303468883756389 0.4815525763646191 -1.210139742515539 1.2098370768821622 -1.20897546102981 0.0 0.0 0.0 0.0 0.0 0.0
2399.0319999999997 0.0 -1.5707963267948966 -1.5707963267948966 0.0 1.5707963267948966 0.0 -0.0 0.0 0.0 0.0 0.0 0.0 0.0 0.0 0.0 0.0 0.0 0.0 -1.8327750199862536e-26 0.555172973447796 0.7573864583558305 0.07057808899065858 -9.380070923910231e-28 0.0 -2.1032924999364705e-25 6.394759450000002 6.3947594500000005 0.2913103000000004 -3.894025929994733e-27 0.0 -1.1746083394825746e-05 -1.5707724730121058 -1.5707595984088343 -4.593526021778871e-06 1.5707675218582153 -8.422533144170075e-05 0.0 0.0 -0.0 0.0 0.0 0.0 0.0448608435690403 0.5831909775733948 0.6740682125091553 0.0055949692614376545 -0.021260883659124374 -0.10406643152236938 0.0426178015768528 0.5585175156593323 0.6755932569503784 -0.008951950818300247 -0.02349887043237686 -0.09063850343227386 0.29579754614569875 -0.11304058569160155 0.48157010956077 -1.2101412810911367 1.2097860089605514 -1.2090938954814956 0.0 0.0 0.0 0.0 0.0 0.0 4.702855902136331 -5.657569896590425 2.272340504780594 0.48327558364559614 -0.515233761797278 0.56465590434773 0.29580949455060795 -0.11303468883756389 0.4815525763646191 -1.210139742515539 1.2098370768821622 -1.20897546102981 0.0 0.0 0.0 0.0 0.0 0.0
2399.04 0.0 -1.5707963267948966 -1.5707963267948966 0.0 1.5707963267948966 0.0 -0.0 0.0 0.0 0.0 0.0 0.0 0.0 0.0 0.0 0.0 0.0 0.0 -1.8327750199862536e-26 0.555172973447796 0.7573864583558305 0.07057808899065858 -9.380070923910231e-28 0.0 -2.1032924999364705e-25 6.394759450000002 6.3947594500000005 0.2913103000000004 -3.894025929994733e-27 0.0 -5.990663637334137e-05 -1.5707243124591272 -1.5707595984088343 -1.6514454976856996e-05 1.5707316398620605 -2.366701234990387e-05 0.0 0.0 -0.0 0.0 0.0 0.0 0.0403747595846653 0.5674896836280823 0.6801683902740479 -0.006713963113725185 -0.02685585245490074 -0.1007094457745552 0.0426178015768528 0.5585175156593323 0.6755932569503784 -0.008951950818300247 -0.02349887043237686 -0.09063850343227386 0.29577723930842076 -0.11305780207381963 0.4815833697317909 -1.2100301861260179 1.2098499451307845 -1.2091283710656697 0.0 0.0 0.0 0.0 0.0 0.0 3.6364387913215093 -4.945509291075496 1.7362449904495731 0.4676065595991901 -0.5253778603247362 0.5321380808225871 0.29580949455060795 -0.11303468883756389 0.4815525763646191 -1.210139742515539 1.2098370768821622 -1.20897546102981 0.0 0.0 0.0 0.0 0.0 0.0
2399.048 0.0 -1.5707963267948966 -1.5707963267948966 0.0 1.5707963267948966 0.0 -0.0 0.0 0.0 0.0 0.0 0.0 0.0 0.0 0.0 0.0 0.0 0.0 -1.8327750199862536e-26 0.555172973447796 0.7573864583558305 0.07057808899065858 -9.380070923910231e-28 0.0 -2.1032924999364705e-25 6.394759450000002 6.3947594500000005 0.2913103000000004 -3.894025929994733e-27 0.0 1.1984225238848012e-05 -1.5707243124591272 -1.5707715193377894 -4.0356312887013246e-05 1.5707075595855713 0.0 0.0 0.0 -0.0 0.0 0.0 0.0 0.0448608435690403 0.5495453476905823 0.6633929014205933 0.001118993852287531 -0.021260883659124374 -0.07497258484363556 0.0426178015768528 0.5585175156593323 0.6694930791854858 -0.008951950818300247 -0.02349887043237686 -0.09063850343227386 0.29578842078342293 -0.11303850644347971 0.481577883538675 -1.2100617324207792 1.209852188919507 -1.209058801605366 0.0 0.0 0.0 0.0 0.0 0.0 3.3383335712536555 -4.935514979461468 2.650525198957208 0.3482443594646637 -0.38830016666258627 0.5052821380123834 0.29580949455060795 -0.11303468883756389 0.4815525763646191 -1.210139742515539 1.2098370768821622 -1.20897546102981 0.0 0.0 0.0 0.0 0.0 0.0
2399.056 0.0 -1.5707963267948966 -1.5707963267948966 0.0 1.5707963267948966 0.0 -0.0 0.0 0.0 0.0 0.0 0.0 0.0 0.0 0.0 0.0 0.0 0.0 -1.8327750199862536e-26 0.555172973447796 0.7573864583558305 0.07057808899065858 -9.380070923910231e-28 0.0 -2.1032924999364705e-25 6.394759450000002 6.3947594500000005 0.2913103000000004 -3.894025929994733e-27 0.0 -7.18275653284195e-05 -1.5707600752459925 -1.5707953611956995 -1.6514454976856996e-05 1.5707556009292603 -3.5587941304981996e-05 0.0 0.0 -0.0 0.0 0.0 0.0 0.0403747595846653 0.5338440537452698 0.671018123626709 -0.004475975409150124 -0.022379877045750618 -0.06937761604785919 0.0426178015768528 0.5585175156593323 0.6771183013916016 -0.008951950818300247 -0.02349887043237686 -0.09063850343227386 0.29579074779070974 -0.11305930226043379 0.48156222283217565 -1.2100974503286848 1.2098879559810054 -1.209094327583086 0.0 0.0 0.0 0.0 0.0 0.0 2.212975510759871 -4.0939601715556195 2.192261763834701 0.32223442167306776 -0.35590312785801104 0.4412548462608375 0.29580949455060795 -0.11303468883756389 0.4815525763646191 -1.210139742515539 1.2098370768821622 -1.20897546102981 0.0 0.0 0.0 0.0 0.0 0.0
2399.064 0.0 -1.5707963267948966 -1.5707963267948966 0.0 1.5707963267948966 0.0 -0.0 0.0 0.0 0.0 0.0 0.0 0.0 0.0 0.0 0.0 0.0 0.0 -1.8327750199862536e-26 0.555172973447796 0.7573864583558305 0.07057808899065858 -9.380070923910231e-28 0.0 -2.1032924999364705e-25 6.394759450000002 6.3947594500000005 0.2913103000000004 -3.894025929994733e-27 0.0 1.1984225238848012e-05 -1.5707600752459925 -1.5707834402667444 -4.0356312887013246e-05 1.570719599723816 -7.230440248662262e-05 0.0 0.0 -0.0 0.0 0.0 0.0 0.0426178015768528 0.5876770615577698 0.6725431680679321 -0.0055949692614376545 -0.024617865681648254 -0.09847146272659302 0.0426178015768528 0.5585175156593323 0.6725431680679321 -0.008951950818300247 -0.024617865681648254 -0.09063850343227386 0.29580123261832886 -0.1130374884275469 0.48156378447095277 -1.210155872958781 1.2098441418932604 -1.2090805366106017 0.0 0.0 0.0 0.0 0.0 0.0 4.999570546067566 -5.752347650232542 2.097567635405201 0.45734698222088616 -0.6066944655845997 0.5880481127672386 0.29580949455060795 -0.11303468883756389 0.4815525763646191 -1.210139742515539 1.2098370768821622 -1.20897546102981 0.0 0.0 0.0 0.0 0.0 0.0
2399.072 0.0 -1.5707963267948966 -1.5707963267948966 0.0 1.5707963267948966 0.0 -0.0 0.0 0.0 0.0 0.0 0.0 0.0 0.0 0.0 0.0 0.0 0.0 -1.8327750199862536e-26 0.555172973447796 0.7573864583558305 0.07057808899065858 -9.380070923910231e-28 0.0 -2.1032924999364705e-25 6.394759450000002 6.3947594500000005 0.2913103000000004 -3.894025929994733e-27 0.0 0.0 -1.5707362333880823 -1.5707715193377894 -7.659593691045075e-05 1.5707435607910156 -4.7985707418263246e-05 0.0 0.0 -0.0 0.0 0.0 0.0 0.0493469275534153 0.5674896836280823 0.6832184791564941 -0.041402772068977356 -0.021260883659124374 -0.0839245393872261 0.0426178015768528 0.5585175156593323 0.6740682125091553 -0.008951950818300247 -0.02349887043237686 -0.08951950818300247 0.29579409268503654 -0.11303908007371559 0.48157137400365146 -1.2101439444413993 1.209847219557647 -1.2090536171668171 0.0 0.0 0.0 0.0 0.0 0.0 3.517224914886405 -5.300717491677695 0.8464248431410343 0.38980184624757414 -0.7488860536568599 0.5353886741608703 0.29580949455060795 -0.11303468883756389 0.4815525763646191 -1.210139742515539 1.2098370768821622 -1.20897546102981 0.0 0.0 0.0 0.0 0.0 0.0
2399.08 0.0 -1.5707963267948966 -1.5707963267948966 0.0 1.5707963267948966 0.0 -0.0 0.0 0.0 0.0 0.0 0.0 0.0 0.0 0.0 0.0 0.0 0.0 -1.8327750199862536e-26 0.555172973447796 0.7573864583558305 0.07057808899065858 -9.380070923910231e-28 0.0 -2.1032924999364705e-25 6.394759450000002 6.3947594500000005 0.2913103000000004 -3.894025929994733e-27 0.0 -4.7985707418263246e-05 -1.5707724730121058 -1.5707595984088343 -4.593526021778871e-06 1.5707316398620605 -2.366701234990387e-05 0.0 0.0 -0.0 0.0 0.0 0.0 0.0471038855612278 0.5674896836280823 0.681693434715271 -0.004475975409150124 -0.021260883659124374 -0.0839245393872261 0.0426178015768528 0.5517883896827698 0.6740682125091553 -0.008951950818300247 -0.02349887043237686 -0.09063850343227386 0.2957934458095227 -0.11305426040392856 0.48157011037076564 -1.2100625389729662 1.2098678047467157 -1.2091024111380921 0.0 0.0 0.0 0.0 0.0 0.0 3.576791969535034 -5.197077071614416 1.715822819180693 0.38976115933310607 -0.5115577898235328 0.5268026740713444 0.29580949455060795 -0.11303468883756389 0.4815525763646191 -1.210139742515539 1.2098370768821622 -1.20897546102981 0.0 0.0 0.0 0.0 0.0 0.0
2399.0879999999997 0.0 -1.5707963267948966 -1.5707963267948966 0.0 1.5707963267948966 0.0 -0.0 0.0 0.0 0.0 0.0 0.0 0.0 0.0 0.0 0.0 0.0 0.0 -1.8327750199862536e-26 0.555172973447796 0.7573864583558305 0.07057808899065858 -9.380070923910231e-28 0.0 -2.1032924999364705e-25 6.394759450000002 6.3947594500000005 0.2913103000000004 -3.894025929994733e-27 0.0 1.1984225238848012e-05 -1.5707481543170374 -1.5708192030536097 -4.0356312887013246e-05 1.57077956199646 -3.5587941304981996e-05 0.0 0.0 -0.0 0.0 0.0 0.0 0.0403747595846653 0.5562744736671448 0.6679680347442627 -0.01007094420492649 -0.021260883659124374 -0.11301837861537933 0.0426178015768528 0.5585175156593323 0.6771183013916016 -0.008951950818300247 -0.02349887043237686 -0.09063850343227386 0.29580037285924626 -0.11303251351079123 0.481556736496797 -1.2101748287169012 1.2098347953737174 -1.2089980231814788 0.0 0.0 0.0 0.0 0.0 0.0 3.5167257507923577 -4.75911007579351 2.2046139747843356 0.5247893853963645 -0.49200216993601276 0.4907389568146635 0.29580949455060795 -0.11303468883756389 0.4815525763646191 -1.210139742515539 1.2098370768821622 -1.20897546102981 0.0 0.0 0.0 0.0 0.0 0.0
2399.096 0.0 -1.5707963267948966 -1.5707963267948966 0.0 1.5707963267948966 0.0 -0.0 0.0 0.0 0.0 0.0 0.0 0.0 0.0 0.0 0.0 0.0 0.0 -1.8327750199862536e-26 0.555172973447796 0.7573864583558305 0.07057808899065858 -9.380070923910231e-28 0.0 -2.1032924999364705e-25 6.394759450000002 6.3947594500000005 0.2913103000000004 -3.894025929994733e-27 0.0 -1.1746083394825746e-05 -1.5707600752459925 -1.570723835621969 -2.8912221090138246e-05 1.5707435607910156 -7.230440248662262e-05 0.0 0.0 -0.0 0.0 0.0 0.0 0.0426178015768528 0.5450592637062073 0.6771183013916016 -0.02685585245490074 -0.02349887043237686 -0.08056755363941193 0.0426178015768528 0.5607605576515198 0.6755932569503784 -0.008951950818300247 -0.025736859068274498 -0.09063850343227386 0.29579246800162584 -0.11304260287605368 0.4815823453743297 -1.210103516586437 1.20979185851728 -1.2091141128591951 0.0 0.0 0.0 0.0 0.0 0.0 2.5689452388537894 -4.442062042373206 1.4350507101506689 0.37414696112270474 -0.5521932000919183 0.47516372320689704 0.29580949455060795 -0.11303468883756389 0.4815525763646191 -1.210139742515539 1.2098370768821622 -1.20897546102981 0.0 0.0 0.0 0.0 0.0 0.0
2399.104 0.0 -1.5707963267948966 -1.5707963267948966 0.0 1.5707963267948966 0.0 -0.0 0.0 0.0 0.0 0.0 0.0 0.0 0.0 0.0 0.0 0.0 0.0 -1.8327750199862536e-26 0.555172973447796 0.7573864583558305 0.07057808899065858 -9.380070923910231e-28 0.0 -2.1032924999364705e-25 6.394759450000002 6.3947594500000005 0.2913103000000004 -3.894025929994733e-27 0.0 -3.5587941304981996e-05 -1.5707123915301722 -1.5707834402667444 -2.8912221090138246e-05 1.5707435607910156 -4.7985707418263246e-05 0.0 0.0 -0.0 0.0 0.0 0.0 0.0448608435690403 0.5495453476905823 0.6725431680679321 -0.006713963113725185 -0.017903901636600494 -0.06042566895484924 0.0426178015768528 0.5585175156593323 0.6755932569503784 -0.008951950818300247 -0.025736859068274498 -0.09063850343227386 0.2957791615246764 -0.11304960371257618 0.4815788259991681 -1.210083211978025 1.2098295717161933 -1.2091080425276028 0.0 0.0 0.0 0.0 0.0 0.0 2.9835141562979963 -4.674911139273472 2.0749415155902002 0.2807062861334585 -0.44167126517970795 0.46823040132548904 0.29580949455060795 -0.11303468883756389 0.4815525763646191 -1.210139742515539 1.2098370768821622 -1.20897546102981 0.0 0.0 0.0 0.0 0.0 0.0
2399.112 0.0 -1.5707963267948966 -1.5707963267948966 0.0 1.5707963267948966 0.0 -0.0 0.0 0.0 0.0 0.0 0.0 0.0 0.0 0.0 0.0 0.0 0.0 -1.8327750199862536e-26 0.555172973447796 0.7573864583558305 0.07057808899065858 -9.380070923910231e-28 0.0 -2.1032924999364705e-25 6.394759450000002 6.3947594500000005 0.2913103000000004 -3.894025929994733e-27 0.0 1.1984225238848012e-05 -1.5707481543170374 -1.570735279713766 -7.659593691045075e-05 1.5707435607910156 -8.422533144170075e-05 0.0 0.0 -0.0 0.0 0.0 0.0 0.0403747595846653 0.5540314316749573 0.6633929014205933 -0.0033569815568625927 -0.024617865681648254 -0.08616252988576889 0.0426178015768528 0.5607605576515198 0.671018123626709 -0.008951950818300247 -0.024617865681648254 -0.09063850343227386 0.29579627160428446 -0.11303557224779051 0.48157856156451667 -1.210158326664918 1.2098034356153942 -1.2090830412369835 0.0 0.0 0.0 0.0 0.0 0.0 3.5759884483895243 -4.863863246116868 2.5540967766235148 0.40018765675597423 -0.4372416350208784 0.5149954860362167 0.29580949455060795 -0.11303468883756389 0.4815525763646191 -1.210139742515539 1.2098370768821622 -1.20897546102981 0.0 0.0 0.0 0.0 0.0 0.0
2399.12 0.0 -1.5707963267948966 -1.5707963267948966 0.0 1.5707963267948966 0.0 -0.0 0.0 0.0 0.0 0.0 0.0 0.0 0.0 0.0 0.0 0.0 0.0 -1.8327750199862536e-26 0.555172973447796 0.7573864583558305 0.07057808899065858 -9.380070923910231e-28 0.0 -2.1032924999364705e-25 6.394759450000002 6.3947594500000005 0.2913103000000004 -3.894025929994733e-27 0.0 -4.7985707418263246e-05 -1.5707481543170374 -1.5708072821246546 -4.0356312887013246e-05 1.57077956199646 -4.7985707418263246e-05 0.0 0.0 -0.0 0.0 0.0 0.0 0.0403747595846653 0.5876770615577698 0.6694930791854858 -0.006713963113725185 -0.02685585245490074 -0.1018284410238266 0.0426178015768528 0.5540314316749573 0.6771183013916016 -0.008951950818300247 -0.02349887043237686 -0.09175749868154526 0.29579257242078666 -0.11305026596571492 0.4815602603935872 -1.2101467889325863 1.2098643828782465 -1.2090569538606637 0.0 0.0 0.0 0.0 0.0 0.0 5.117706153819363 -5.728972613047515 2.208964673829286 0.47293555414370736 -0.6128432006361316 0.5965262775748642 0.29580949455060795 -0.11303468883756389 0.4815525763646191 -1.210139742515539 1.2098370768821622 -1.20897546102981 0.0 0.0 0.0 0.0 0.0 0.0
2399.1279999999997 0.0 -1.5707963267948966 -1.5707963267948966 0.0 1.5707963267948966 0.0 -0.0 0.0 0.0 0.0 0.0 0.0 0.0 0.0 0.0 0.0 0.0 0.0 -1.8327750199862536e-26 0.555172973447796 0.7573864583558305 0.07057808899065858 -9.380070923910231e-28 0.0 -2.1032924999364705e-25 6.394759450000002 6.3947594500000005 0.2913103000000004 -3.894025929994733e-27 0.0 -4.7985707418263246e-05 -1.5707362333880823 -1.5707834402667444 -1.6514454976856996e-05 1.570719599723816 -2.366701234990387e-05 0.0 0.0 -0.0 0.0 0.0 0.0 0.0493469275534153 0.5383301377296448 0.6862685084342957 -0.0055949692614376545 -0.019022895023226738 -0.09511447697877884 0.0426178015768528 0.5607605576515198 0.6755932569503784 -0.008951950818300247 -0.02349887043237686 -0.08840051293373108 0.29578455879181703 -0.11305523664144292 0.48157279747705667 -1.2100565279333406 1.2098762771817724 -1.209111477733172 0.0 0.0 0.0 0.0 0.0 0.0 1.8572049336297758 -4.373467221475331 1.488735650035819 0.44161352258644443 -0.3886410071929991 0.44868895115289104 0.29580949455060795 -0.11303468883756389 0.4815525763646191 -1.210139742515539 1.2098370768821622 -1.20897546102981 0.0 0.0 0.0 0.0 0.0 0.0
2399.136 0.0 -1.5707963267948966 -1.5707963267948966 0.0 1.5707963267948966 0.0 -0.0 0.0 0.0 0.0 0.0 0.0 0.0 0.0 0.0 0.0 0.0 0.0 -1.8327750199862536e-26 0.555172973447796 0.7573864583558305 0.07057808899065858 -9.380070923910231e-28 0.0 -2.1032924999364705e-25 6.394759450000002 6.3947594500000005 0.2913103000000004 -3.894025929994733e-27 0.0 -2.366701234990387e-05 -1.5707600752459925 -1.5707834402667444 -4.593526021778871e-06 1.570719599723816 -9.614626039677887e-05 0.0 0.0 -0.0 0.0 0.0 0.0 0.0515899695456028 0.5652466416358948 0.681693434715271 -0.01342792622745037 -0.02014188840985298 -0.08616252988576889 0.0426178015768528 0.5540314316749573 0.6755932569503784 -0.008951950818300247 -0.024617865681648254 -0.08951950818300247 0.29579414991740705 -0.11304803585791721 0.48156672900429165 -1.210130225892743 1.20983282204879 -1.2091412702002189 0.0 0.0 0.0 0.0 0.0 0.0 3.457544817650103 -5.379929737164307 1.5205057076475073 0.4001584822302465 -0.5588616183362897 0.5366734268814441 0.29580949455060795 -0.11303468883756389 0.4815525763646191 -1.210139742515539 1.2098370768821622 -1.20897546102981 0.0 0.0 0.0 0.0 0.0 0.0
2399.144 0.0 -1.5707963267948966 -1.5707963267948966 0.0 1.5707963267948966 0.0 -0.0 0.0 0.0 0.0 0.0 0.0 0.0 0.0 0.0 0.0 0.0 0.0 -1.8327750199862536e-26 0.555172973447796 0.7573864583558305 0.07057808899065858 -9.380070923910231e-28 0.0 -2.1032924999364705e-25 6.394759450000002 6.3947594500000005 0.2913103000000004 -3.894025929994733e-27 0.0 -2.366701234990387e-05 -1.5707839171039026 -1.5707834402667444 -4.0356312887013246e-05 1.5707435607910156 -7.230440248662262e-05 0.0 0.0 -0.0 0.0 0.0 0.0 0.0381317175924778 0.5495453476905823 0.6664429903030396 -0.0033569815568625927 -0.02685585245490074 -0.09287648648023605 0.0426178015768528 0.5585175156593323 0.6755932569503784 -0.008951950818300247 -0.024617865681648254 -0.09175749868154526 0.29580506407385704 -0.11304605237000218 0.48155673372221314 -1.2101679204941105 1.2098702935068057 -1.2090778325378078 0.0 0.0 0.0 0.0 0.0 0.0 3.220670954991092 -4.589219375182137 2.418972941497775 0.4313338104479296 -0.4180529911073881 0.5027882544710931 0.29580949455060795 -0.11303468883756389 0.4815525763646191 -1.210139742515539 1.2098370768821622 -1.20897546102981 0.0 0.0 0.0 0.0 0.0 0.0
2399.152 0.0 -1.5707963267948966 -1.5707963267948966 0.0 1.5707963267948966 0.0 -0.0 0.0 0.0 0.0 0.0 0.0 0.0 0.0 0.0 0.0 0.0 0.0 -1.8327750199862536e-26 0.555172973447796 0.7573864583558305 0.07057808899065858 -9.380070923910231e-28 0.0 -2.1032924999364705e-25 6.394759450000002 6.3947594500000005 0.2913103000000004 -3.894025929994733e-27 0.0 0.0 -1.5707600752459925 -1.5707595984088343 -4.0356312887013246e-05 1.57077956199646 -5.990663637334137e-05 0.0 0.0 -0.0 0.0 0.0 0.0 0.0403747595846653 0.5764618515968323 0.6725431680679321 -0.0055949692614376545 -0.0335698164999485 -0.09623347222805023 0.0426178015768528 0.5607605576515198 0.6755932569503784 -0.008951950818300247 -0.02685585245490074 -0.09175749868154526 0.2957978407807189 -0.11303612211019086 0.4815708308497153 -1.2101518281523913 1.2097971852717284 -1.2090474197196448 0.0 0.0 0.0 0.0 0.0 0.0 4.406846037132168 -5.498843030725716 2.0983776398103737 0.44700320575078156 -0.5560878440283173 0.6089098813636494 0.29580949455060795 -0.11303468883756389 0.4815525763646191 -1.210139742515539 1.2098370768821622 -1.20897546102981 0.0 0.0 0.0 0.0 0.0 0.0
2399.16 0.0 -1.5707963267948966 -1.5707963267948966 0.0 1.5707963267948966 0.0 -0.0 0.0 0.0 0.0 0.0 0.0 0.0 0.0 0.0 0.0 0.0 0.0 -1.8327750199862536e-26 0.555172973447796 0.7573864583558305 0.07057808899065858 -9.380070923910231e-28 0.0 -2.1032924999364705e-25 6.394759450000002 6.3947594500000005 0.2913103000000004 -3.894025929994733e-27 0.0 -2.366701234990387e-05 -1.5707724730121058 -1.5707834402667444 -4.0356312887013246e-05 1.5707075595855713 -5.990663637334137e-05 0.0 0.0 -0.0 0.0 0.0 0.0 0.0381317175924778 0.5473023056983948 0.6786433458328247 -0.021260883659124374 -0.02014188840985298 -0.09623347222805023 0.0426178015768528 0.5630035996437073 0.6755932569503784 -0.008951950818300247 -0.02685585245490074 -0.08951950818300247 0.2958012880827876 -0.11304902134903183 0.481560118658241 -1.2101333144322208 1.209894267844791 -1.2091006376195323 0.0 0.0 0.0 0.0 0.0 0.0 2.628850560756307 -4.129774956905519 1.4893923610287336 0.44679932918225157 -0.5269140232688573 0.43376182916917944 0.29580949455060795 -0.11303468883756389 0.4815525763646191 -1.210139742515539 1.2098370768821622 -1.20897546102981 0.0 0.0 0.0 0.0 0.0 0.0
2399.1679999999997 0.0 -1.5707963267948966 -1.5707963267948966 0.0 1.5707963267948966 0.0 -0.0 0.0 0.0 0.0 0.0 0.0 0.0 0.0 0.0 0.0 0.0 0.0 -1.8327750199862536e-26 0.555172973447796 0.7573864583558305 0.07057808899065858 -9.380070923910231e-28 0.0 -2.1032924999364705e-25 6.394759450000002 6.3947594500000005 0.2913103000000004 -3.894025929994733e-27 0.0 -4.7985707418263246e-05 -1.5707600752459925 -1.5707834402667444 -1.6514454976856996e-05 1.5707556009292603 -7.230440248662262e-05 0.0 0.0 -0.0 0.0 0.0 0.0 0.0471038855612278 0.5562744736671448 0.671018123626709 -0.002237987704575062 -0.02014188840985298 -0.08951950818300247 0.0426178015768528 0.5585175156593323 0.6755932569503784 -0.008951950818300247 -0.02349887043237686 -0.09063850343227386 0.2957924218306262 -0.11305226355700818 0.48156574669248425 -1.2101269750224997 1.2098442724680494 -1.209109469552645 0.0 0.0 0.0 0.0 0.0 0.0 3.3976682795909574 -5.077825776132119 2.23822128783431 0.41573646817050347 -0.4428877797961535 0.5117812037878675 0.29580949455060795 -0.11303468883756389 0.4815525763646191 -1.210139742515539 1.2098370768821622 -1.20897546102981 0.0 0.0 0.0 0.0 0.0 0.0
2399.176 0.0 -1.5707963267948966 -1.5707963267948966 0.0 1.5707963267948966 0.0 -0.0 0.0 0.0 0.0 0.0 0.0 0.0 0.0 0.0 0.0 0.0 0.0 -1.8327750199862536e-26 0.555172973447796 0.7573864583558305 0.07057808899065858 -9.380070923910231e-28 0.0 -2.1032924999364705e-25 6.394759450000002 6.3947594500000005 0.2913103000000004 -3.894025929994733e-27 0.0 -1.1746083394825746e-05 -1.5707362333880823 -1.5707595984088343 -2.8912221090138246e-05 1.5707556009292603 -4.7985707418263246e-05 0.0 0.0 -0.0 0.0 0.0 0.0 0.0493469275534153 0.5203858017921448 0.6832184791564941 -0.011189938522875309 -0.021260883659124374 -0.11078038811683655 0.0426178015768528 0.5585175156593323 0.6755932569503784 -0.008951950818300247 -0.024617865681648254 -0.09063850343227386 0.2957876743559939 -0.11304157892239526 0.48157882357830223 -1.2101001455281444 1.2098031838606857 -1.2090816570192757 0.0 0.0 0.0 0.0 0.0 0.0 1.0265818860935416 -3.9825564347166926 1.5028289220100641 0.5142975019654394 -0.3424561578136974 0.4269962904406832 0.29580949455060795 -0.11303468883756389 0.4815525763646191 -1.210139742515539 1.2098370768821622 -1.20897546102981 0.0 0.0 0.0 0.0 0.0 0.0
2399.1839999999997 0.0 -1.5707963267948966 -1.5707963267948966 0.0 1.5707963267948966 0.0 -0.0 0.0 0.0 0.0 0.0 0.0 0.0 0.0 0.0 0.0 0.0 0.0 -1.8327750199862536e-26 0.555172973447796 0.7573864583558305 0.07057808899065858 -9.380070923910231e-28 0.0 -2.1032924999364705e-25 6.394759450000002 6.3947594500000005 0.2913103000000004 -3.894025929994733e-27 0.0 -1.1746083394825746e-05 -1.5707839171039026 -1.570831600819723 -4.0356312887013246e-05 1.5707435607910156 -1.1746083394825746e-05 0.0 0.0 -0.0 0.0 0.0 0.0 0.0471038855612278 0.5719757676124573 0.6786433458328247 -0.007832957431674004 -0.017903901636600494 -0.1018284410238266 0.0426178015768528 0.5585175156593323 0.6755932569503784 -0.008951950818300247 -0.025736859068274498 -0.08840051293373108 0.29581053750919567 -0.11304247128088024 0.4815424970555149 -1.210164518965828 1.2099254746743617 -1.2090015967750432 0.0 0.0 0.0 0.0 0.0 0.0 3.9321486155223497 -5.311156130491408 1.7775707461565686 0.4728968435102829 -0.5522523260761614 0.5205090624689598 0.29580949455060795 -0.11303468883756389 0.4815525763646191 -1.210139742515539 1.2098370768821622 -1.20897546102981 0.0 0.0 0.0 0.0 0.0 0.0
2399.192 0.0 -1.5707963267948966 -1.5707963267948966 0.0 1.5707963267948966 0.0 -0.0 0.0 0.0 0.0 0.0 0.0 0.0 0.0 0.0 0.0 0.0 0.0 -1.8327750199862536e-26 0.555172973447796 0.7573864583558305 0.07057808899065858 -9.380070923910231e-28 0.0 -2.1032924999364705e-25 6.394759450000002 6.3947594500000005 0.2913103000000004 -3.894025929994733e-27 0.0 -2.366701234990387e-05 -1.5707481543170374 -1.5708072821246546 -4.0356312887013246e-05 1.5707675218582153 -8.422533144170075e-05 0.0 0.0 -0.0 0.0 0.0 0.0 0.0426178015768528 0.5405731797218323 0.6740682125091553 -0.007832957431674004 -0.024617865681648254 -0.1007094457745552 0.0426178015768528 0.5585175156593323 0.6755932569503784 -0.008951950818300247 -0.024617865681648254 -0.09175749868154526 0.2957953204104931 -0.11304406425316832 0.4815602606654836 -1.210179297322494 1.2098381823297624 -1.2090745919472083 0.0 0.0 0.0 0.0 0.0 0.0 2.449779464435481 -4.403079915337964 1.9826847186007885 0.4676512247852741 -0.4088913011771292 0.4771128922897569 0.29580949455060795 -0.11303468883756389 0.4815525763646191 -1.210139742515539 1.2098370768821622 -1.20897546102981 0.0 0.0 0.0 0.0 0.0 0.0
2399.2 0.0 -1.5707963267948966 -1.5707963267948966 0.0 1.5707963267948966 0.0 -0.0 0.0 0.0 0.0 0.0 0.0 0.0 0.0 0.0 0.0 0.0 0.0 -1.8327750199862536e-26 0.555172973447796 0.7573864583558305 0.07057808899065858 -9.380070923910231e-28 0.0 -2.1032924999364705e-25 6.394759450000002 6.3947594500000005 0.2913103000000004 -3.894025929994733e-27 0.0 0.0 -1.5707724730121058 -1.5707595984088343 -6.467500795537262e-05 1.57077956199646 -1.1746083394825746e-05 0.0 0.0 -0.0 0.0 0.0 0.0 0.0426178015768528 0.5787048935890198 0.6755932569503784 -0.0055949692614376545 -0.034688808023929596 -0.05259270966053009 0.0426178015768528 0.5585175156593323 0.6755932569503784 -0.008951950818300247 -0.02685585245490074 -0.09063850343227386 0.29580400338547636 -0.11303611642846438 0.48156516246897746 -1.2101433984711858 1.2098469836860357 -1.2089945708644885 0.0 0.0 0.0 0.0 0.0 0.0 4.40757087704695 -5.658660606887506 1.9632291936064976 0.24458637500568234 -0.5672459595693705 0.627275251615499 0.29580949455060795 -0.11303468883756389 0.4815525763646191 -1.210139742515539 1.2098370768821622 -1.20897546102981 0.0 0.0 0.0 0.0 0.0 0.0
2399.208 0.0 -1.5707963267948966 -1.5707963267948966 0.0 1.5707963267948966 0.0 -0.0 0.0 0.0 0.0 0.0 0.0 0.0 0.0 0.0 0.0 0.0 0.0 -1.8327750199862536e-26 0.555172973447796 0.7573864583558305 0.07057808899065858 -9.380070923910231e-28 0.0 -2.1032924999364705e-25 6.394759450000002 6.3947594500000005 0.2913103000000004 -3.894025929994733e-27 0.0 -1.1746083394825746e-05 -1.570796314870016 -1.5707834402667444 -4.0356312887013246e-05 1.57077956199646 -4.7985707418263246e-05 0.0 0.0 -0.0 0.0 0.0 0.0 0.0403747595846653 0.5585175156593323 0.6771183013916016 -0.01007094420492649 -0.02014188840985298 -0.09063850343227386 0.0426178015768528 0.5585175156593323 0.6755932569503784 -0.008951950818300247 -0.02685585245490074 -0.09063850343227386 0.29581050183748087 -0.11303955673230832 0.4815530667271365 -1.2101818137337268 1.2098556101080782 -1.2090187765011122 0.0 0.0 0.0 0.0 0.0 0.0 3.2808865856167824 -4.6097574317196415 1.799016142326197 0.42094046228799575 -0.5052712008206734 0.4732414667559031 0.29580949455060795 -0.11303468883756389 0.4815525763646191 -1.210139742515539 1.2098370768821622 -1.20897546102981 0.0 0.0 0.0 0.0 0.0 0.0
2399.216 0.0 -1.5707963267948966 -1.5707963267948966 0.0 1.5707963267948966 0.0 -0.0 0.0 0.0 0.0 0.0 0.0 0.0 0.0 0.0 0.0 0.0 0.0 -1.8327750199862536e-26 0.555172973447796 0.7573864583558305 0.07057808899065858 -9.380070923910231e-28 0.0 -2.1032924999364705e-25 6.394759450000002 6.3947594500000005 0.2913103000000004 -3.894025929994733e-27 0.0 -3.5587941304981996e-05 -1.5707600752459925 -1.5707595984088343 -6.467500795537262e-05 1.5707675218582153 -8.422533144170075e-05 0.0 0.0 -0.0 0.0 0.0 0.0 0.0426178015768528 0.5652466416358948 0.6679680347442627 -0.006713963113725185 -0.025736859068274498 -0.10966140031814575 0.0426178015768528 0.5585175156593323 0.6755932569503784 -0.008951950818300247 -0.02685585245490074 -0.08840051293373108 0.29579589244714927 -0.11304763927076979 0.4815688288258889 -1.210165133319122 1.2098386652964672 -1.2090888542746812 0.0 0.0 0.0 0.0 0.0 0.0 3.9905981132107318 -5.243073726366306 2.2767890223385394 0.5092334824051118 -0.5110452920094642 0.5513874612029116 0.29580949455060795 -0.11303468883756389 0.4815525763646191 -1.210139742515539 1.2098370768821622 -1.20897546102981 0.0 0.0 0.0 0.0 0.0 0.0
2399.2239999999997 0.0 -1.5707963267948966 -1.5707963267948966 0.0 1.5707963267948966 0.0 -0.0 0.0 0.0 0.0 0.0 0.0 0.0 0.0 0.0 0.0 0.0 0.0 -1.8327750199862536e-26 0.555172973447796 0.7573864583558305 0.07057808899065858 -9.380070923910231e-28 0.0 -2.1032924999364705e-25 6.394759450000002 6.3947594500000005 0.2913103000000004 -3.894025929994733e-27 0.0 -1.1746083394825746e-05 -1.5707362333880823 -1.5707953611956995 -1.6514454976856996e-05 1.5707316398620605 -7.230440248662262e-05 0.0 0.0 -0.0 0.0 0.0 0.0 0.0426178015768528 0.5674896836280823 0.6801683902740479 -0.002237987704575062 -0.019022895023226738 -0.07944856584072113 0.0426178015768528 0.5585175156593323 0.6755932569503784 -0.008951950818300247 -0.02685585245490074 -0.08840051293373108 0.2957896783739133 -0.11304351226914387 0.4815692733693373 -1.2101240126335295 1.209826427515411 -1.2091060740047546 0.0 0.0 0.0 0.0 0.0 0.0 3.6368062461331525 -4.909513032537955 1.8332645442965456 0.3689898916150283 -0.49660698283358934 0.4927014144847823 0.29580949455060795 -0.11303468883756389 0.4815525763646191 -1.210139742515539 1.2098370768821622 -1.20897546102981 0.0 0.0 0.0 0.0 0.0 0.0
2399.232 0.0 -1.5707963267948966 -1.5707963267948966 0.0 1.5707963267948966 0.0 -0.0 0.0 0.0 0.0 0.0 0.0 0.0 0.0 0.0 0.0 0.0 0.0 -1.8327750199862536e-26 0.555172973447796 0.7573864583558305 0.07057808899065858 -9.380070923910231e-28 0.0 -2.1032924999364705e-25 6.394759450000002 6.3947594500000005 0.2913103000000004 -3.894025929994733e-27 0.0 0.0 -1.5707724730121058 -1.5707953611956995 -7.659593691045075e-05 1.57077956199646 -4.7985707418263246e-05 0.0 0.0 -0.0 0.0 0.0 0.0 0.0471038855612278 0.5428162217140198 0.6740682125091553 -0.008951950818300247 -0.017903901636600494 -0.0839245393872261 0.0426178015768528 0.5585175156593323 0.6755932569503784 -0.008951950818300247 -0.022379877045750618 -0.09287648648023605 0.29580808495354544 -0.11303607506037931 0.48155360915451806 -1.2102053049472747 1.2098648241722954 -1.208998598419185 0.0 0.0 0.0 0.0 0.0 0.0 2.5681791958464273 -4.589377337597299 1.95771770188315 0.38980293953534817 -0.42616519225503063 0.46119093466900846 0.29580949455060795 -0.11303468883756389 0.4815525763646191 -1.210139742515539 1.2098370768821622 -1.20897546102981 0.0 0.0 0.0 0.0 0.0 0.0
2399.24 0.0 -1.5707963267948966 -1.5707963267948966 0.0 1.5707963267948966 0.0 -0.0 0.0 0.0 0.0 0.0 0.0 0.0 0.0 0.0 0.0 0.0 0.0 -1.8327750199862536e-26 0.555172973447796 0.7573864583558305 0.07057808899065858 -9.380070923910231e-28 0.0 -2.1032924999364705e-25 6.394759450000002 6.3947594500000005 0.2913103000000004 -3.894025929994733e-27 0.0 -3.5587941304981996e-05 -1.5707724730121058 -1.5707953611956995 -1.6514454976856996e-05 1.5707675218582153 -3.5587941304981996e-05 0.0 0.0 -0.0 0.0 0.0 0.0 0.0560760572552681 0.5338440537452698 0.681693434715271 -0.006713963113725185 -0.027974845841526985 -0.08951950818300247 0.0426178015768528 0.5585175156593323 0.6755932569503784 -0.008951950818300247 -0.024617865681648254 -0.08840051293373108 0.2957989327696224 -0.1130475968002752 0.48155855649092455 -1.2101293720669828 1.2098615844558278 -1.2090529994848795 0.0 0.0 0.0 0.0 0.0 0.0 1.7965423600090646 -4.941831033595255 1.6657652349637018 0.4157928052708015 -0.37407493372737066 0.537161260102776 0.29580949455060795 -0.11303468883756389 0.4815525763646191 -1.210139742515539 1.2098370768821622 -1.20897546102981 0.0 0.0 0.0 0.0 0.0 0.0
2399.248 0.0 -1.5707963267948966 -1.5707963267948966 0.0 1.5707963267948966 0.0 -0.0 0.0 0.0 0.0 0.0 0.0 0.0 0.0 0.0 0.0 0.0 0.0 -1.8327750199862536e-26 0.555172973447796 0.7573864583558305 0.07057808899065858 -9.380070923910231e-28 0.0 -2.1032924999364705e-25 6.394759450000002 6.3947594500000005 0.2913103000000004 -3.894025929994733e-27 0.0 -2.366701234990387e-05 -1.5707839171039026 -1.5707595984088343 -1.6514454976856996e-05 1.570791482925415 -8.422533144170075e-05 0.0 0.0 -0.0 0.0 0.0 0.0 0.0448608435690403 0.5697327256202698 0.6755932569503784 -0.0033569815568625927 -0.025736859068274498 -0.07944856584072113 0.0426178015768528 0.5585175156593323 0.6755932569503784 -0.008951950818300247 -0.02349887043237686 -0.08951950818300247 0.29580099091013146 -0.11304213388885785 0.48156574345599584 -1.21016419903373 1.2097943264076398 -1.20907395554066 0.0 0.0 0.0 0.0 0.0 0.0 3.9324284356261243 -5.347380697070151 2.011157678224911 0.3690840981366492 -0.5124028187543448 0.5600046046278565 0.29580949455060795 -0.11303468883756389 0.4815525763646191 -1.210139742515539 1.2098370768821622 -1.20897546102981 0.0 0.0 0.0 0.0 0.0 0.0
2399.256 0.0 -1.5707963267948966 -1.5707963267948966 0.0 1.5707963267948966 0.0 -0.0 0.0 0.0 0.0 0.0 0.0 0.0 0.0 0.0 0.0 0.0 0.0 -1.8327750199862536e-26 0.555172973447796 0.7573864583558305 0.07057808899065858 -9.380070923910231e-28 0.0 -2.1032924999364705e-25 6.394759450000002 6.3947594500000005 0.2913103000000004 -3.894025929994733e-27 0.0 -1.1746083394825746e-05 -1.5707600752459925 -1.5708072821246546 -1.6514454976856996e-05 1.570719599723816 -8.422533144170075e-05 0.0 0.0 -0.0 0.0 0.0 0.0 0.0493469275534153 0.5607605576515198 0.6771183013916016 -0.002237987704575062 -0.02349887043237686 -0.08840051293373108 0.0426178015768528 0.5585175156593323 0.6755932569503784 -0.008951950818300247 -0.025736859068274498 -0.09175749868154526 0.2957985578715014 -0.1130444819559185 0.48155869977265686 -1.2101534799512281 1.209855927733679 -1.2091067423458994 0.0 0.0 0.0 0.0 0.0 0.0 3.398180845716851 -5.286209275457073 1.9667685214198225 0.4105873774250922 -0.4652525430302906 0.5445591089120294 0.29580949455060795 -0.11303468883756389 0.4815525763646191 -1.210139742515539 1.2098370768821622 -1.20897546102981 0.0 0.0 0.0 0.0 0.0 0.0
2399.2639999999997 0.0 -1.5707963267948966 -1.5707963267948966 0.0 1.5707963267948966 0.0 -0.0 0.0 0.0 0.0 0.0 0.0 0.0 0.0 0.0 0.0 0.0 0.0 -1.8327750199862536e-26 0.555172973447796 0.7573864583558305 0.07057808899065858 -9.380070923910231e-28 0.0 -2.1032924999364705e-25 6.394759450000002 6.3947594500000005 0.2913103000000004 -3.894025929994733e-27 0.0 -5.990663637334137e-05 -1.5707724730121058 -1.5707476774798792 -1.6514454976856996e-05 1.5707435607910156 -3.5587941304981996e-05 0.0 0.0 -0.0 0.0 0.0 0.0 0.0403747595846653 0.5674896836280823 0.6649179458618164 -0.011189938522875309 -0.034688808023929596 -0.0839245393872261 0.0426178015768528 0.5585175156593323 0.6755932569503784 -0.008951950818300247 -0.02685585245490074 -0.09063850343227386 0.2957920953434718 -0.11305681768334772 0.48157265245071845 -1.2100713009166775 1.2098621971007841 -1.2091112013625127 0.0 0.0 0.0 0.0 0.0 0.0 4.227978172488576 -5.429057011239317 2.3157524317571543 0.3898329562646544 -0.5488776579642272 0.6083671645343802 0.29580949455060795 -0.11303468883756389 0.4815525763646191 -1.210139742515539 1.2098370768821622 -1.20897546102981 0.0 0.0 0.0 0.0 0.0 0.0
2399.272 0.0 -1.5707963267948966 -1.5707963267948966 0.0 1.5707963267948966 0.0 -0.0 0.0 0.0 0.0 0.0 0.0 0.0 0.0 0.0 0.0 0.0 0.0 -1.8327750199862536e-26 0.555172973447796 0.7573864583558305 0.07057808899065858 -9.380070923910231e-28 0.0 -2.1032924999364705e-25 6.394759450000002 6.3947594500000005 0.2913103000000004 -3.894025929994733e-27 0.0 -1.1746083394825746e-05 -1.5707481543170374 -1.5707715193377894 -4.0356312887013246e-05 1.5707435607910156 -3.5587941304981996e-05 0.0 0.0 -0.0 0.0 0.0 0.0 0.0471038855612278 0.5585175156593323 0.6832184791564941 -0.002237987704575062 -0.022379877045750618 -0.09287648648023605 0.0426178015768528 0.5585175156593323 0.6755932569503784 -0.008951950818300247 -0.025736859068274498 -0.09063850343227386 0.29579360134966515 -0.11304255219292379 0.4815708328236903 -1.2101113388631186 1.2098438458638094 -1.2090646558466085 0.0 0.0 0.0 0.0 0.0 0.0 3.0433150394531605 -4.938924941119903 1.696822617876108 0.4313182084585574 -0.4571943204803518 0.5107912055979917 0.29580949455060795 -0.11303468883756389 0.4815525763646191 -1.210139742515539 1.2098370768821622 -1.20897546102981 0.0 0.0 0.0 0.0 0.0 0.0
2399.2799999999997 0.0 -1.5707963267948966 -1.5707963267948966 0.0 1.5707963267948966 0.0 -0.0 0.0 0.0 0.0 0.0 0.0 0.0 0.0 0.0 0.0 0.0 0.0 -1.8327750199862536e-26 0.555172973447796 0.7573864583558305 0.07057808899065858 -9.380070923910231e-28 0.0 -2.1032924999364705e-25 6.394759450000002 6.3947594500000005 0.2913103000000004 -3.894025929994733e-27 0.0 -1.1746083394825746e-05 -1.5707600752459925 -1.570831600819723 -1.6514454976856996e-05 1.5707675218582153 -5.990663637334137e-05 0.0 0.0 -0.0 0.0 0.0 0.0 0.0493469275534153 0.5697327256202698 0.6664429903030396 -0.0055949692614376545 -0.02909383922815323 -0.10854240506887436 0.0426178015768528 0.5585175156593323 0.6755932569503784 -0.008951950818300247 -0.02349887043237686 -0.09063850343227386 0.29580064603038314 -0.11304050747478082 0.4815515099528284 -1.2101762047124616 1.2098499595843895 -1.2090420048463701 0.0 0.0 0.0 0.0 0.0 0.0 4.286054627969841 -5.878036887854451 2.3666248486660724 0.50413622023974 -0.5236684183109739 0.6192809405289165 0.29580949455060795 -0.11303468883756389 0.4815525763646191 -1.210139742515539 1.2098370768821622 -1.20897546102981 0.0 0.0 0.0 0.0 0.0 0.0
2399.288 0.0 -1.5707963267948966 -1.5707963267948966 0.0 1.5707963267948966 0.0 -0.0 0.0 0.0 0.0 0.0 0.0 0.0 0.0 0.0 0.0 0.0 0.0 -1.8327750199862536e-26 0.555172973447796 0.7573864583558305 0.07057808899065858 -9.380070923910231e-28 0.0 -2.1032924999364705e-25 6.394759450000002 6.3947594500000005 0.2913103000000004 -3.894025929994733e-27 0.0 0.0 -1.5707481543170374 -1.5707953611956995 -1.6514454976856996e-05 1.5707435607910156 -2.366701234990387e-05 0.0 0.0 -0.0 0.0 0.0 0.0 0.0448608435690403 0.5428162217140198 0.6725431680679321 -0.004475975409150124 -0.017903901636600494 -0.09063850343227386 0.0426178015768528 0.5585175156593323 0.6755932569503784 -0.008951950818300247 -0.024617865681648254 -0.09063850343227386 0.2957949370082415 -0.11303905187432002 0.48156574812553826 -1.2101081599194168 1.2098407698236398 -1.209047201195439 0.0 0.0 0.0 0.0 0.0 0.0 2.627515180755769 -4.485967755675311 2.1229707865703116 0.4208904683997308 -0.3969438274726832 0.4526889222821871 0.29580949455060795 -0.11303468883756389 0.4815525763646191 -1.210139742515539 1.2098370768821622 -1.20897546102981 0.0 0.0 0.0 0.0 0.0 0.0
2399.296 0.0 -1.5707963267948966 -1.5707963267948966 0.0 1.5707963267948966 0.0 -0.0 0.0 0.0 0.0 0.0 0.0 0.0 0.0 0.0 0.0 0.0 0.0 -1.8327750199862536e-26 0.555172973447796 0.7573864583558305 0.07057808899065858 -9.380070923910231e-28 0.0 -2.1032924999364705e-25 6.394759450000002 6.3947594500000005 0.2913103000000004 -3.894025929994733e-27 0.0 -5.990663637334137e-05 -1.5707724730121058 -1.570735279713766 -1.6514454976856996e-05 1.5707675218582153 -2.366701234990387e-05 0.0 0.0 -0.0 0.0 0.0 0.0 0.0403747595846653 0.5360870957374573 0.681693434715271 -0.006713963113725185 -0.031331829726696014 -0.08728151768445969 0.0426178015768528 0.5585175156593323 0.6755932569503784 -0.012308932840824127 -0.02685585245490074 -0.09063850343227386 0.2957910353480864 -0.11305485833909591 0.4815763166868514 -1.21006469741308 1.2098410955237573 -1.2090906796574947 0.0 0.0 0.0 0.0 0.0 0.0 1.9173538817651146 -4.132762401774115 1.6695376559596813 0.4053195373289056 -0.384114880362547 0.48616467103647926 0.29580949455060795 -0.11303468883756389 0.4815525763646191 -1.210139742515539 1.2098370768821622 -1.20897546102981 0.0 0.0 0.0 0.0 0.0 0.0
2399.304 0.0 -1.5707963267948966 -1.5707963267948966 0.0 1.5707963267948966 0.0 -0.0 0.0 0.0 0.0 0.0 0.0 0.0 0.0 0.0 0.0 0.0 0.0 -1.8327750199862536e-26 0.555172973447796 0.7573864583558305 0.07057808899065858 -9.380070923910231e-28 0.0 -2.1032924999364705e-25 6.394759450000002 6.3947594500000005 0.2913103000000004 -3.894025929994733e-27 0.0 1.1984225238848012e-05 -1.5707243124591272 -1.5707953611956995 -2.8912221090138246e-05 1.5707675218582153 -5.990663637334137e-05 0.0 0.0 -0.0 0.0 0.0 0.0 0.0448608435690403 0.5540314316749573 0.6786433458328247 -0.004475975409150124 -0.02685585245490074 -0.07944856584072113 0.0426178015768528 0.5517883896827698 0.6755932569503784 -0.006713963113725185 -0.02685585245490074 -0.09063850343227386 0.29578949279850986 -0.11303354146414811 0.4815717767404194 -1.2101434300517326 1.2097887270280223 -1.209052844396793 0.0 0.0 0.0 0.0 0.0 0.0 2.984084172668361 -4.870024965815124 1.8520697537565127 0.36905485723441334 -0.44970802818766376 0.5259748098799177 0.29580949455060795 -0.11303468883756389 0.4815525763646191 -1.210139742515539 1.2098370768821622 -1.20897546102981 0.0 0.0 0.0 0.0 0.0 0.0
2399.312 0.0 -1.5707963267948966 -1.5707963267948966 0.0 1.5707963267948966 0.0 -0.0 0.0 0.0 0.0 0.0 0.0 0.0 0.0 0.0 0.0 0.0 0.0 -1.8327750199862536e-26 0.555172973447796 0.7573864583558305 0.07057808899065858 -9.380070923910231e-28 0.0 -2.1032924999364705e-25 6.394759450000002 6.3947594500000005 0.2913103000000004 -3.894025929994733e-27 0.0 -2.366701234990387e-05 -1.5707362333880823 -1.5707834402667444 -4.0356312887013246e-05 1.5707316398620605 -7.230440248662262e-05 0.0 0.0 -0.0 0.0 0.0 0.0 0.0448608435690403 0.5517883896827698 0.6679680347442627 -0.006713963113725185 -0.02349887043237686 -0.09063850343227386 0.0426178015768528 0.5562744736671448 0.6755932569503784 -0.008951950818300247 -0.02685585245490074 -0.09063850343227386 0.29578934435840526 -0.11304705068859291 0.48157083421938324 -1.2101271330548402 1.2098440132807018 -1.20910921746727 0.0 0.0 0.0 0.0 0.0 0.0 3.2790635928788823 -4.953048856187771 2.277065171617375 0.42093207210220734 -0.45026990066427625 0.5171448029408161 0.29580949455060795 -0.11303468883756389 0.4815525763646191 -1.210139742515539 1.2098370768821622 -1.20897546102981 0.0 0.0 0.0 0.0 0.0 0.0
2399.3199999999997 0.0 -1.5707963267948966 -1.5707963267948966 0.0 1.5707963267948966 0.0 -0.0 0.0 0.0 0.0 0.0 0.0 0.0 0.0 0.0 0.0 0.0 0.0 -1.8327750199862536e-26 0.555172973447796 0.7573864583558305 0.07057808899065858 -9.380070923910231e-28 0.0 -2.1032924999364705e-25 6.394759450000002 6.3947594500000005 0.2913103000000004 -3.894025929994733e-27 0.0 0.0 -1.5707600752459925 -1.5707834402667444 -4.0356312887013246e-05 1.5707435607910156 -5.990663637334137e-05 0.0 0.0 -0.0 0.0 0.0 0.0 0.0381317175924778 0.5585175156593323 0.6771183013916016 -0.004475975409150124 -0.021260883659124374 -0.1018284410238266 0.0426178015768528 0.5607605576515198 0.6755932569503784 -0.008951950818300247 -0.02349887043237686 -0.09063850343227386 0.2957998802706987 -0.11303905996552435 0.4815637839299149 -1.2101524074461822 1.2098411877280646 -1.2090625922441907 0.0 0.0 0.0 0.0 0.0 0.0 3.2810606490924843 -4.499251966028758 1.920831647168614 0.4728227802366605 -0.469376911408172 0.46934824198655656 0.29580949455060795 -0.11303468883756389 0.4815525763646191 -1.210139742515539 1.2098370768821622 -1.20897546102981 0.0 0.0 0.0 0.0 0.0 0.0
2399.328 0.0 -1.5707963267948966 -1.5707963267948966 0.0 1.5707963267948966 0.0 -0.0 0.0 0.0 0.0 0.0 0.0 0.0 0.0 0.0 0.0 0.0 0.0 -1.8327750199862536e-26 0.555172973447796 0.7573864583558305 0.07057808899065858 -9.380070923910231e-28 0.0 -2.1032924999364705e-25 6.394759450000002 6.3947594500000005 0.2913103000000004 -3.894025929994733e-27 0.0 -3.5587941304981996e-05 -1.5707600752459925 -1.5707715193377894 -1.6514454976856996e-05 1.570719599723816 0.0 0.0 0.0 -0.0 0.0 0.0 0.0 0.0426178015768528 0.5742188096046448 0.6725431680679321 -0.007832957431674004 -0.02349887043237686 -0.07497258484363556 0.0426178015768528 0.5585175156593323 0.6755932569503784 -0.008951950818300247 -0.024617865681648254 -0.09063850343227386 0.2957927983375424 -0.11305157493800469 0.4815692713533699 -1.2100537196152814 1.2098871312766373 -1.2090792940586572 0.0 0.0 0.0 0.0 0.0 0.0 4.288132634669337 -5.351929529385093 2.049948462831748 0.34825224585954695 -0.5602908734168329 0.5499175492327321 0.29580949455060795 -0.11303468883756389 0.4815525763646191 -1.210139742515539 1.2098370768821622 -1.20897546102981 0.0 0.0 0.0 0.0 0.0 0.0
2399.336 0.0 -1.5707963267948966 -1.5707963267948966 0.0 1.5707963267948966 0.0 -0.0 0.0 0.0 0.0 0.0 0.0 0.0 0.0 0.0 0.0 0.0 0.0 -1.8327750199862536e-26 0.555172973447796 0.7573864583558305 0.07057808899065858 -9.380070923910231e-28 0.0 -2.1032924999364705e-25 6.394759450000002 6.3947594500000005 0.2913103000000004 -3.894025929994733e-27 0.0 0.0 -1.5707600752459925 -1.5707595984088343 -5.2754079000294496e-05 1.5707435607910156 -5.990663637334137e-05 0.0 0.0 -0.0 0.0 0.0 0.0 0.0426178015768528 0.5517883896827698 0.6725431680679321 -0.001118993852287531 -0.024617865681648254 -0.0839245393872261 0.0426178015768528 0.5585175156593323 0.6755932569503784 -0.008951950818300247 -0.024617865681648254 -0.09063850343227386 0.295798895582749 -0.1130390864663414 0.48156981089063744 -1.210143927136331 1.2098328292647162 -1.2090680492179993 0.0 0.0 0.0 0.0 0.0 0.0 3.102320040644298 -4.74833571576571 2.196129628035126 0.389799155548611 -0.41592943767552676 0.5055045223820533 0.29580949455060795 -0.11303468883756389 0.4815525763646191 -1.210139742515539 1.2098370768821622 -1.20897546102981 0.0 0.0 0.0 0.0 0.0 0.0
2399.344 0.0 -1.5707963267948966 -1.5707963267948966 0.0 1.5707963267948966 0.0 -0.0 0.0 0.0 0.0 0.0 0.0 0.0 0.0 0.0 0.0 0.0 0.0 -1.8327750199862536e-26 0.555172973447796 0.7573864583558305 0.07057808899065858 -9.380070923910231e-28 0.0 -2.1032924999364705e-25 6.394759450000002 6.3947594500000005 0.2913103000000004 -3.894025929994733e-27 0.0 1.1984225238848012e-05 -1.5707362333880823 -1.5707953611956995 -2.8912221090138246e-05 1.5707675218582153 -2.366701234990387e-05 0.0 0.0 -0.0 0.0 0.0 0.0 0.0426178015768528 0.5383301377296448 0.6801683902740479 -0.007832957431674004 -0.03021283447742462 -0.09175749868154526 0.0426178015768528 0.5585175156593323 0.6740682125091553 -0.008951950818300247 -0.024617865681648254 -0.09063850343227386 0.29579342250603957 -0.11303353719261999 0.48156825179996743 -1.2101255154258184 1.209814641669549 -1.2090205183265053 0.0 0.0 0.0 0.0 0.0 0.0 2.0949124764572673 -4.337309560357173 1.7122065925298178 0.4261399982249243 -0.40086942519522784 0.49778775712636697 0.29580949455060795 -0.11303468883756389 0.4815525763646191 -1.210139742515539 1.2098370768821622 -1.20897546102981 0.0 0.0 0.0 0.0 0.0 0.0
2399.352 0.0 -1.5707963267948966 -1.5707963267948966 0.0 1.5707963267948966 0.0 -0.0 0.0 0.0 0.0 0.0 0.0 0.0 0.0 0.0 0.0 0.0 0.0 -1.8327750199862536e-26 0.555172973447796 0.7573864583558305 0.07057808899065858 -9.380070923910231e-28 0.0 -2.1032924999364705e-25 6.394759450000002 6.3947594500000005 0.2913103000000004 -3.894025929994733e-27 0.0 -3.5587941304981996e-05 -1.5707724730121058 -1.5707953611956995 -4.593526021778871e-06 1.5707435607910156 -3.5587941304981996e-05 0.0 0.0 -0.0 0.0 0.0 0.0 0.0471038855612278 0.5540314316749573 0.6832184791564941 -0.006713963113725185 -0.02909383922815323 -0.07049661129713058 0.0426178015768528 0.5585175156593323 0.6755932569503784 -0.008951950818300247 -0.024617865681648254 -0.08951950818300247 0.29579791288974955 -0.11304957079806369 0.48155953855573813 -1.21010925035083 1.2098704661784268 -1.2090762877549606 0.0 0.0 0.0 0.0 0.0 0.0 2.806330304107651 -4.95989246255012 1.5999728253067642 0.32752103040667657 -0.4656804910769234 0.5437843118382459 0.29580949455060795 -0.11303468883756389 0.4815525763646191 -1.210139742515539 1.2098370768821622 -1.20897546102981 0.0 0.0 0.0 0.0 0.0 0.0
2399.3599999999997 0.0 -1.5707963267948966 -1.5707963267948966 0.0 1.5707963267948966 0.0 -0.0 0.0 0.0 0.0 0.0 0.0 0.0 0.0 0.0 0.0 0.0 0.0 -1.8327750199862536e-26 0.555172973447796 0.7573864583558305 0.07057808899065858 -9.380070923910231e-28 0.0 -2.1032924999364705e-25 6.394759450000002 6.3947594500000005 0.2913103000000004 -3.894025929994733e-27 0.0 0.0 -1.5707724730121058 -1.5707595984088343 -5.2754079000294496e-05 1.5707075595855713 -4.7985707418263246e-05 0.0 0.0 -0.0 0.0 0.0 0.0 0.0493469275534153 0.5674896836280823 0.6832184791564941 -0.008951950818300247 -0.02685585245490074 -0.09959045052528381 0.0426178015768528 0.5585175156593323 0.6755932569503784 -0.008951950818300247 -0.024617865681648254 -0.09063850343227386 0.29580297891906204 -0.11304204708545808 0.48156614563106936 -1.2101272457298657 1.2098741091431637 -1.2090799007365651 0.0 0.0 0.0 0.0 0.0 0.0 3.5172537930176158 -5.422313362660695 1.5500577287943995 0.462516381241667 -0.5408035978299434 0.5713904983473435 0.29580949455060795 -0.11303468883756389 0.4815525763646191 -1.210139742515539 1.2098370768821622 -1.20897546102981 0.0 0.0 0.0 0.0 0.0 0.0
2399.368 0.0 -1.5707963267948966 -1.5707963267948966 0.0 1.5707963267948966 0.0 -0.0 0.0 0.0 0.0 0.0 0.0 0.0 0.0 0.0 0.0 0.0 0.0 -1.8327750199862536e-26 0.555172973447796 0.7573864583558305 0.07057808899065858 -9.380070923910231e-28 0.0 -2.1032924999364705e-25 6.394759450000002 6.3947594500000005 0.2913103000000004 -3.894025929994733e-27 0.0 -3.5587941304981996e-05 -1.5707724730121058 -1.5707715193377894 -4.593526021778871e-06 1.5707316398620605 -2.366701234990387e-05 0.0 0.0 -0.0 0.0 0.0 0.0 0.0403747595846653 0.5697327256202698 0.660342812538147 -0.0055949692614376545 -0.024617865681648254 -0.0850435346364975 0.0426178015768528 0.5585175156593323 0.6755932569503784 -0.008951950818300247 -0.024617865681648254 -0.09063850343227386 0.295795868878855 -0.11305057967496952 0.48156658653432355 -1.210077210861458 1.2098674089230663 -1.20908762042098 0.0 0.0 0.0 0.0 0.0 0.0 4.524197936976682 -5.3659689226043925 2.6401900946161416 0.39499200299661746 -0.5214963739863412 0.5562650133560311 0.29580949455060795 -0.11303468883756389 0.4815525763646191 -1.210139742515539 1.2098370768821622 -1.20897546102981 0.0 0.0 0.0 0.0 0.0 0.0
2399.3759999999997 0.0 -1.5707963267948966 -1.5707963267948966 0.0 1.5707963267948966 0.0 -0.0 0.0 0.0 0.0 0.0 0.0 0.0 0.0 0.0 0.0 0.0 0.0 -1.8327750199862536e-26 0.555172973447796 0.7573864583558305 0.07057808899065858 -9.380070923910231e-28 0.0 -2.1032924999364705e-25 6.394759450000002 6.3947594500000005 0.2913103000000004 -3.894025929994733e-27 0.0 1.1984225238848012e-05 -1.5707481543170374 -1.5707476774798792 -4.0356312887013246e-05 1.5707075595855713 -3.5587941304981996e-05 0.0 0.0 -0.0 0.0 0.0 0.0 0.0448608435690403 0.5809479355812073 0.6725431680679321 -0.0033569815568625927 -0.02349887043237686 -0.07609158009290695 0.0426178015768528 0.5585175156593323 0.6725431680679321 -0.008951950818300247 -0.02349887043237686 -0.09063850343227386 0.2957942372165414 -0.1130385250823278 0.4815778813201893 -1.2100879123312789 1.2098354013125323 -1.2090850231278627 0.0 0.0 0.0 0.0 0.0 0.0 4.643832676981248 -5.675163815213027 2.1464816541842153 0.3534819098884684 -0.5619616970074545 0.5765229526540289 0.29580949455060795 -0.11303468883756389 0.4815525763646191 -1.210139742515539 1.2098370768821622 -1.20897546102981 0.0 0.0 0.0 0.0 0.0 0.0
2399.384 0.0 -1.5707963267948966 -1.5707963267948966 0.0 1.5707963267948966 0.0 -0.0 0.0 0.0 0.0 0.0 0.0 0.0 0.0 0.0 0.0 0.0 0.0 -1.8327750199862536e-26 0.555172973447796 0.7573864583558305 0.07057808899065858 -9.380070923910231e-28 0.0 -2.1032924999364705e-25 6.394759450000002 6.3947594500000005 0.2913103000000004 -3.894025929994733e-27 0.0 0.0 -1.5707481543170374 -1.5707595984088343 1.9073486328125e-05 1.5707675218582153 -1.1746083394825746e-05 0.0 0.0 -0.0 0.0 0.0 0.0 0.0426178015768528 0.5674896836280823 0.6786433458328247 -0.011189938522875309 -0.019022895023226738 -0.07832957059144974 0.0426178015768528 0.5585175156593323 0.6755932569503784 -0.008951950818300247 -0.02349887043237686 -0.09063850343227386 0.2957888369552389 -0.11303712109261749 0.4815792490492316 -1.2100580734789823 1.2097763553514465 -1.2090546437057335 0.0 0.0 0.0 0.0 0.0 0.0 3.6959581378132484 -4.940953079711636 1.7067849028877542 0.36379101632894184 -0.5535147565649946 0.49533378244415976 0.29580949455060795 -0.11303468883756389 0.4815525763646191 -1.210139742515539 1.2098370768821622 -1.20897546102981 0.0 0.0 0.0 0.0 0.0 0.0
2399.392 0.0 -1.5707963267948966 -1.5707963267948966 0.0 1.5707963267948966 0.0 -0.0 0.0 0.0 0.0 0.0 0.0 0.0 0.0 0.0 0.0 0.0 0.0 -1.8327750199862536e-26 0.555172973447796 0.7573864583558305 0.07057808899065858 -9.380070923910231e-28 0.0 -2.1032924999364705e-25 6.394759450000002 6.3947594500000005 0.2913103000000004 -3.894025929994733e-27 0.0 3.5952674807049334e-05 -1.5707362333880823 -1.5707715193377894 -1.6514454976856996e-05 1.57077956199646 -5.990663637334137e-05 0.0 0.0 -0.0 0.0 0.0 0.0 0.0426178015768528 0.5607605576515198 0.6740682125091553 -0.004475975409150124 -0.02014188840985298 -0.0839245393872261 0.0426178015768528 0.5585175156593323 0.6725431680679321 -0.008951950818300247 -0.02349887043237686 -0.09063850343227386 0.29579303146935343 -0.11302548376566587 0.48157631994720623 -1.2101425012308167 1.2097443588256145 -1.2090378915716138 0.0 0.0 0.0 0.0 0.0 0.0 3.517681454769884 -4.870676526263953 2.055513255869765 0.3897928514582669 -0.4784752891405339 0.494760011974452 0.29580949455060795 -0.11303468883756389 0.4815525763646191 -1.210139742515539 1.2098370768821622 -1.20897546102981 0.0 0.0 0.0 0.0 0.0 0.0
2399.4 0.0 -1.5707963267948966 -1.5707963267948966 0.0 1.5707963267948966 0.0 -0.0 0.0 0.0 0.0 0.0 0.0 0.0 0.0 0.0 0.0 0.0 0.0 -1.8327750199862536e-26 0.555172973447796 0.7573864583558305 0.07057808899065858 -9.380070923910231e-28 0.0 -2.1032924999364705e-25 6.394759450000002 6.3947594500000005 0.2913103000000004 -3.894025929994733e-27 0.0 -4.7985707418263246e-05 -1.5707600752459925 -1.5708072821246546 -7.659593691045075e-05 1.570719599723816 -1.1746083394825746e-05 0.0 0.0 -0.0 0.0 0.0 0.0 0.0381317175924778 0.5405731797218323 0.6801683902740479 -0.0033569815568625927 -0.017903901636600494 -0.09175749868154526 0.0426178015768528 0.5585175156593323 0.6786433458328247 -0.008951950818300247 -0.02349887043237686 -0.09063850343227386 0.29579958909620524 -0.11305519857321322 0.48155375271089335 -1.210127197537412 1.2099611342637542 -1.2090516017302333 0.0 0.0 0.0 0.0 0.0 0.0 2.214083786030056 -3.8613312916473124 1.8105560287273756 0.4260391259232787 -0.382202629230926 0.4012245879370765 0.29580949455060795 -0.11303468883756389 0.4815525763646191 -1.210139742515539 1.2098370768821622 -1.20897546102981 0.0 0.0 0.0 0.0 0.0 0.0
2399.408 0.0 -1.5707963267948966 -1.5707963267948966 0.0 1.5707963267948966 0.0 -0.0 0.0 0.0 0.0 0.0 0.0 0.0 0.0 0.0 0.0 0.0 0.0 -1.8327750199862536e-26 0.555172973447796 0.7573864583558305 0.07057808899065858 -9.380070923910231e-28 0.0 -2.1032924999364705e-25 6.394759450000002 6.3947594500000005 0.2913103000000004 -3.894025929994733e-27 0.0 -3.5587941304981996e-05 -1.5707362333880823 -1.5708072821246546 -4.0356312887013246e-05 1.5707556009292603 -5.990663637334137e-05 0.0 0.0 -0.0 0.0 0.0 0.0 0.0426178015768528 0.5271149277687073 0.6725431680679321 -0.004475975409150124 -0.021260883659124374 -0.0839245393872261 0.0426178015768528 0.5585175156593323 0.6755932569503784 -0.008951950818300247 -0.02349887043237686 -0.09063850343227386 0.2957900420169562 -0.1130485762770926 0.4815637859457935 -1.2101413124830152 1.2098584920691324 -1.2090798953163353 0.0 0.0 0.0 0.0 0.0 0.0 1.797621941863634 -3.9848294902356223 2.1240319171379385 0.3897278201167732 -0.3260427026383491 0.4270897662581345 0.29580949455060795 -0.11303468883756389 0.4815525763646191 -1.210139742515539 1.2098370768821622 -1.20897546102981 0.0 0.0 0.0 0.0 0.0 0.0
2399.4159999999997 0.0 -1.5707963267948966 -1.5707963267948966 0.0 1.5707963267948966 0.0 -0.0 0.0 0.0 0.0 0.0 0.0 0.0 0.0 0.0 0.0 0.0 0.0 -1.8327750199862536e-26 0.555172973447796 0.7573864583558305 0.07057808899065858 -9.380070923910231e-28 0.0 -2.1032924999364705e-25 6.394759450000002 6.3947594500000005 0.2913103000000004 -3.894025929994733e-27 0.0 -5.990663637334137e-05 -1.5707362333880823 -1.570735279713766 -6.467500795537262e-05 1.5707075595855713 -1.1746083394825746e-05 0.0 0.0 -0.0 0.0 0.0 0.0 0.0426178015768528 0.5742188096046448 0.6679680347442627 -0.004475975409150124 -0.021260883659124374 -0.10294743627309799 0.0426178015768528 0.5585175156593323 0.6755932569503784 -0.008951950818300247 -0.02349887043237686 -0.09063850343227386 0.2957831935198263 -0.1130598065764285 0.4815830688384245 -1.2100363092376398 1.209899695288663 -1.2091204114220961 0.0 0.0 0.0 0.0 0.0 0.0 4.464927597586506 -5.397058493060205 2.3255460661746046 0.4780035810625796 -0.5371931637167273 0.5431908312528488 0.29580949455060795 -0.11303468883756389 0.4815525763646191 -1.210139742515539 1.2098370768821622 -1.20897546102981 0.0 0.0 0.0 0.0 0.0 0.0
2399.424 0.0 -1.5707963267948966 -1.5707963267948966 0.0 1.5707963267948966 0.0 -0.0 0.0 0.0 0.0 0.0 0.0 0.0 0.0 0.0 0.0 0.0 0.0 -1.8327750199862536e-26 0.555172973447796 0.7573864583558305 0.07057808899065858 -9.380070923910231e-28 0.0 -2.1032924999364705e-25 6.394759450000002 6.3947594500000005 0.2913103000000004 -3.894025929994733e-27 0.0 -2.366701234990387e-05 -1.570796314870016 -1.5707595984088343 -7.659593691045075e-05 1.5707435607910156 -5.990663637334137e-05 0.0 0.0 -0.0 0.0 0.0 0.0 0.0448608435690403 0.5473023056983948 0.671018123626709 -0.017903901636600494 -0.024617865681648254 -0.1018284410238266 0.0426178015768528 0.5585175156593323 0.6755932569503784 -0.008951950818300247 -0.025736859068274498 -0.09063850343227386 0.29581020126283303 -0.11304607333576022 0.48155713140317535 -1.210177009520398 1.2098944588193083 -1.2090569893342769 0.0 0.0 0.0 0.0 0.0 0.0 2.923465967522558 -4.788664938798279 1.8987061463687531 0.47287181081906415 -0.5028325163333378 0.5088237885562977 0.29580949455060795 -0.11303468883756389 0.4815525763646191 -1.210139742515539 1.2098370768821622 -1.20897546102981 0.0 0.0 0.0 0.0 0.0 0.0
2399.432 0.0 -1.5707963267948966 -1.5707963267948966 0.0 1.5707963267948966 0.0 -0.0 0.0 0.0 0.0 0.0 0.0 0.0 0.0 0.0 0.0 0.0 0.0 -1.8327750199862536e-26 0.555172973447796 0.7573864583558305 0.07057808899065858 -9.380070923910231e-28 0.0 -2.1032924999364705e-25 6.394759450000002 6.3947594500000005 0.2913103000000004 -3.894025929994733e-27 0.0 -3.5587941304981996e-05 -1.5707243124591272 -1.5707715193377894 -5.2754079000294496e-05 1.5707435607910156 -3.5587941304981996e-05 0.0 0.0 -0.0 0.0 0.0 0.0 0.0448608435690403 0.5607605576515198 0.6679680347442627 -0.004475975409150124 -0.024617865681648254 -0.09959045052528381 0.0426178015768528 0.5585175156593323 0.6694930791854858 -0.008951950818300247 -0.025736859068274498 -0.09063850343227386 0.2957841048561478 -0.11304961197998971 0.4815768619793601 -1.2100916225195886 1.2098530050161427 -1.2090876344181807 0.0 0.0 0.0 0.0 0.0 0.0 3.753196336800981 -5.228596593232289 2.325256022292202 0.4624791340735683 -0.4764430542767348 0.5450125708122527 0.29580949455060795 -0.11303468883756389 0.4815525763646191 -1.210139742515539 1.2098370768821622 -1.20897546102981 0.0 0.0 0.0 0.0 0.0 0.0
2399.44 0.0 -1.5707963267948966 -1.5707963267948966 0.0 1.5707963267948966 0.0 -0.0 0.0 0.0 0.0 0.0 0.0 0.0 0.0 0.0 0.0 0.0 0.0 -1.8327750199862536e-26 0.555172973447796 0.7573864583558305 0.07057808899065858 -9.380070923910231e-28 0.0 -2.1032924999364705e-25 6.394759450000002 6.3947594500000005 0.2913103000000004 -3.894025929994733e-27 0.0 -2.366701234990387e-05 -1.5707481543170374 -1.5707834402667444 -4.593526021778871e-06 1.5707316398620605 -3.5587941304981996e-05 0.0 0.0 -0.0 0.0 0.0 0.0 0.0471038855612278 0.5473023056983948 0.6679680347442627 -0.0055949692614376545 -0.03021283447742462 -0.08728151768445969 0.0448608435690403 0.5585175156593323 0.6755932569503784 -0.008951950818300247 -0.025736859068274498 -0.09063850343227386 0.2957902214332432 -0.11304704837924467 0.48157025372964657 -1.210082516409688 1.2098438413110537 -1.209093484881876 0.0 0.0 0.0 0.0 0.0 0.0 3.04159627263292 -5.109020494478533 2.300808160939011 0.4053918492112501 -0.42290025506744844 0.561267732041682 0.29580949455060795 -0.11303468883756389 0.4815525763646191 -1.210139742515539 1.2098370768821622 -1.20897546102981 0.0 0.0 0.0 0.0 0.0 0.0
2399.448 0.0 -1.5707963267948966 -1.5707963267948966 0.0 1.5707963267948966 0.0 -0.0 0.0 0.0 0.0 0.0 0.0 0.0 0.0 0.0 0.0 0.0 0.0 -1.8327750199862536e-26 0.555172973447796 0.7573864583558305 0.07057808899065858 -9.380070923910231e-28 0.0 -2.1032924999364705e-25 6.394759450000002 6.3947594500000005 0.2913103000000004 -3.894025929994733e-27 0.0 -3.5587941304981996e-05 -1.5707362333880823 -1.5708072821246546 -1.6514454976856996e-05 1.5707075595855713 -4.7985707418263246e-05 0.0 0.0 -0.0 0.0 0.0 0.0 0.0448608435690403 0.5630035996437073 0.6694930791854858 -0.011189938522875309 -0.02014188840985298 -0.08951950818300247 0.0426178015768528 0.5585175156593323 0.6725431680679321 -0.008951950818300247 -0.022379877045750618 -0.09063850343227386 0.2957880021380037 -0.11305253409048265 0.48156575006497 -1.2100922283312836 1.209881984637882 -1.2091177849904788 0.0 0.0 0.0 0.0 0.0 0.0 3.812828548679355 -5.16246979641023 2.1119667434011333 0.4157125240812526 -0.5301377796809468 0.5187208950864413 0.29580949455060795 -0.11303468883756389 0.4815525763646191 -1.210139742515539 1.2098370768821622 -1.20897546102981 0.0 0.0 0.0 0.0 0.0 0.0
2399.4559999999997 0.0 -1.5707963267948966 -1.5707963267948966 0.0 1.5707963267948966 0.0 -0.0 0.0 0.0 0.0 0.0 0.0 0.0 0.0 0.0 0.0 0.0 0.0 -1.8327750199862536e-26 0.555172973447796 0.7573864583558305 0.07057808899065858 -9.380070923910231e-28 0.0 -2.1032924999364705e-25 6.394759450000002 6.3947594500000005 0.2913103000000004 -3.894025929994733e-27 0.0 -5.990663637334137e-05 -1.5707839171039026 -1.5707953611956995 -7.659593691045075e-05 1.5707435607910156 -8.422533144170075e-05 0.0 0.0 -0.0 0.0 0.0 0.0 0.0448608435690403 0.5473023056983948 0.6771183013916016 -0.006713963113725185 -0.02685585245490074 -0.07944856584072113 0.0426178015768528 0.5585175156593323 0.6755932569503784 -0.008951950818300247 -0.024617865681648254 -0.09063850343227386 0.29580508151939844 -0.11305675690778653 0.48155022579747675 -1.2101950697857469 1.2099267614558802 -1.2090904414341495 0.0 0.0 0.0 0.0 0.0 0.0 2.687193929239005 -4.712565366966097 1.8712044700573687 0.3690569622985128 -0.4331611648909819 0.5129695491080433 0.29580949455060795 -0.11303468883756389 0.4815525763646191 -1.210139742515539 1.2098370768821622 -1.20897546102981 0.0 0.0 0.0 0.0 0.0 0.0
2399.464 0.0 -1.5707963267948966 -1.5707963267948966 0.0 1.5707963267948966 0.0 -0.0 0.0 0.0 0.0 0.0 0.0 0.0 0.0 0.0 0.0 0.0 0.0 -1.8327750199862536e-26 0.555172973447796 0.7573864583558305 0.07057808899065858 -9.380070923910231e-28 0.0 -2.1032924999364705e-25 6.394759450000002 6.3947594500000005 0.2913103000000004 -3.894025929994733e-27 0.0 -1.1746083394825746e-05 -1.5707243124591272 -1.5707953611956995 -4.0356312887013246e-05 1.5707675218582153 -1.1746083394825746e-05 0.0 0.0 -0.0 0.0 0.0 0.0 0.0471038855612278 0.5652466416358948 0.6725431680679321 -0.004475975409150124 -0.017903901636600494 -0.08056755363941193 0.0426178015768528 0.5585175156593323 0.6755932569503784 -0.008951950818300247 -0.024617865681648254 -0.09063850343227386 0.29578778723306376 -0.11304056001352561 0.4815708345011135 -1.2101051524332305 1.2098374237601899 -1.2090294403670747 0.0 0.0 0.0 0.0 0.0 0.0 3.813147568048071 -5.2489361883748185 2.1220480420980623 0.3742268497468685 -0.49823296767793446 0.5154437936358375 0.29580949455060795 -0.11303468883756389 0.4815525763646191 -1.210139742515539 1.2098370768821622 -1.20897546102981 0.0 0.0 0.0 0.0 0.0 0.0
2399.4719999999998 0.0 -1.5707963267948966 -1.5707963267948966 0.0 1.5707963267948966 0.0 -0.0 0.0 0.0 0.0 0.0 0.0 0.0 0.0 0.0 0.0 0.0 0.0 -1.8327750199862536e-26 0.555172973447796 0.7573864583558305 0.07057808899065858 -9.380070923910231e-28 0.0 -2.1032924999364705e-25 6.394759450000002 6.3947594500000005 0.2913103000000004 -3.894025929994733e-27 0.0 -2.366701234990387e-05 -1.5707600752459925 -1.5707834402667444 -6.467500795537262e-05 1.57077956199646 -4.7985707418263246e-05 0.0 0.0 -0.0 0.0 0.0 0.0 0.0448608435690403 0.5809479355812073 0.6755932569503784 0.001118993852287531 -0.025736859068274498 -0.09847146272659302 0.0426178015768528 0.5540314316749573 0.6755932569503784 -0.008951950818300247 -0.024617865681648254 -0.09063850343227386 0.2957992840872333 -0.11304309438139769 0.48156178077185846 -1.210167381721283 1.20985563907285 -1.2090332109070796 0.0 0.0 0.0 0.0 0.0 0.0 4.525059292385906 -5.6609565821231245 2.107572041438623 0.45738004709407587 -0.5343213062855648 0.5857543969595557 0.29580949455060795 -0.11303468883756389 0.4815525763646191 -1.210139742515539 1.2098370768821622 -1.20897546102981 0.0 0.0 0.0 0.0 0.0 0.0
2399.48 0.0 -1.5707963267948966 -1.5707963267948966 0.0 1.5707963267948966 0.0 -0.0 0.0 0.0 0.0 0.0 0.0 0.0 0.0 0.0 0.0 0.0 0.0 -1.8327750199862536e-26 0.555172973447796 0.7573864583558305 0.07057808899065858 -9.380070923910231e-28 0.0 -2.1032924999364705e-25 6.394759450000002 6.3947594500000005 0.2913103000000004 -3.894025929994733e-27 0.0 -3.5587941304981996e-05 -1.5707243124591272 -1.5708072821246546 -2.8912221090138246e-05 1.570719599723816 -1.1746083394825746e-05 0.0 0.0 -0.0 0.0 0.0 0.0 0.0448608435690403 0.5697327256202698 0.6725431680679321 -0.002237987704575062 -0.02349887043237686 -0.09847146272659302 0.0426178015768528 0.5607605576515198 0.6755932569503784 -0.008951950818300247 -0.025736859068274498 -0.09063850343227386 0.2957851319310867 -0.11305154594582519 0.481568253973876 -1.2100715714835955 1.2098906175711173 -1.209082025392181 0.0 0.0 0.0 0.0 0.0 0.0 4.050216153121789 -5.361350255206401 2.170486318587385 0.4572842293197705 -0.504172503020103 0.5506986924290327 0.29580949455060795 -0.11303468883756389 0.4815525763646191 -1.210139742515539 1.2098370768821622 -1.20897546102981 0.0 0.0 0.0 0.0 0.0 0.0
2399.488 0.0 -1.5707963267948966 -1.5707963267948966 0.0 1.5707963267948966 0.0 -0.0 0.0 0.0 0.0 0.0 0.0 0.0 0.0 0.0 0.0 0.0 0.0 -1.8327750199862536e-26 0.555172973447796 0.7573864583558305 0.07057808899065858 -9.380070923910231e-28 0.0 -2.1032924999364705e-25 6.394759450000002 6.3947594500000005 0.2913103000000004 -3.894025929994733e-27 0.0 -3.5587941304981996e-05 -1.5707600752459925 -1.5707834402667444 -5.2754079000294496e-05 1.5707435607910156 -1.1746083394825746e-05 0.0 0.0 -0.0 0.0 0.0 0.0 0.0426178015768528 0.5585175156593323 0.671018123626709 -0.02685585245490074 -0.02014188840985298 -0.07273460179567337 0.0426178015768528 0.5630035996437073 0.6755932569503784 -0.008951950818300247 -0.025736859068274498 -0.09063850343227386 0.2957969154613705 -0.11304958618360901 0.4815627631328482 -1.210109221231148 1.2098993244328151 -1.2090474642285378 0.0 0.0 0.0 0.0 0.0 0.0 3.5170389969832883 -4.870513728827137 1.7053706454676432 0.3378470419249618 -0.6108378144858992 0.49471861962177216 0.29580949455060795 -0.11303468883756389 0.4815525763646191 -1.210139742515539 1.2098370768821622 -1.20897546102981 0.0 0.0 0.0 0.0 0.0 0.0
