Fleaurent/UniversalRobot/csv/robot_movel_x400.csv
timestamp target_q_0 target_q_1 target_q_2 target_q_3 target_q_4 target_q_5 target_qd_0 target_qd_1 target_qd_2 target_qd_3 target_qd_4 target_qd_5 target_qdd_0 target_qdd_1 target_qdd_2 target_qdd_3 target_qdd_4 target_qdd_5 target_current_0 target_current_1 target_current_2 target_current_3 target_current_4 target_current_5 target_moment_0 target_moment_1 target_moment_2 target_moment_3 target_moment_4 target_moment_5 actual_q_0 actual_q_1 actual_q_2 actual_q_3 actual_q_4 actual_q_5 actual_qd_0 actual_qd_1 actual_qd_2 actual_qd_3 actual_qd_4 actual_qd_5 actual_current_0 actual_current_1 actual_current_2 actual_current_3 actual_current_4 actual_current_5 joint_control_output_0 joint_control_output_1 joint_control_output_2 joint_control_output_3 joint_control_output_4 joint_control_output_5 actual_TCP_pose_0 actual_TCP_pose_1 actual_TCP_pose_2 actual_TCP_pose_3 actual_TCP_pose_4 actual_TCP_pose_5 actual_TCP_speed_0 actual_TCP_speed_1 actual_TCP_speed_2 actual_TCP_speed_3 actual_TCP_speed_4 actual_TCP_speed_5 actual_TCP_force_0 actual_TCP_force_1 actual_TCP_force_2 actual_TCP_force_3 actual_TCP_force_4 actual_TCP_force_5 target_TCP_pose_0 target_TCP_pose_1 target_TCP_pose_2 target_TCP_pose_3 target_TCP_pose_4 target_TCP_pose_5 target_TCP_speed_0 target_TCP_speed_1 target_TCP_speed_2 target_TCP_speed_3 target_TCP_speed_4 target_TCP_speed_5
808.896 -0.3512852068466348 -1.8695186475529972 -1.6104316945584856 0.3396554019692495 1.9220226021590499 0.000823636399444716 -0.0 -0.0 -0.0 -0.0 -0.0 0.0 0.0 0.0 0.0 0.0 0.0 0.0 -5.5006577115984936e-18 0.817224261709882 0.7141331503287116 0.06594160432696604 -3.133016709259264e-05 0.0 -6.31255445068735e-17 9.413197003960333 6.02956345633169 0.2721732596289521 -0.0001300634974290425 0.0 -0.35130149522890264 -1.8695405165301722 -1.6104777495013636 0.33970189094543457 1.921911358833313 0.0008048156159929931 -1.917476038215682e-05 -1.917476038215682e-05 -0.0 -2.3968450477696024e-05 0.0 2.3968450477696024e-05 0.0 0.7760925889015198 0.6893185973167419 0.04364075884222984 -0.09959045052528381 0.014546919614076614 -0.0022430422250181437 0.7716065049171448 0.6847434639930725 0.04923573136329651 -0.1007094457745552 0.01678490824997425 0.29999875777918217 -0.20001473266335573 0.3999831069495354 -1.2090616034694992 1.209151924862526 -1.2091413892377565 2.5559900041982645e-06 -8.084308927071652e-06 -8.570151790155904e-06 3.8811115646211315e-05 4.051045362387824e-05 -1.9131230298259616e-05 -1.3501379375993183 -0.8886302437338689 0.9934419703558707 -0.0675424042276983 0.08373099916006416 0.5366354478927653 0.29999999999772825 -0.19999999998750168 0.3999999999952756 -1.2090987221600364 1.2090487305541064 -1.2090487304984197 0.0 0.0 0.0 0.0 0.0 0.0
808.904 -0.3512852068466348 -1.8695186475529972 -1.6104316945584856 0.3396554019692495 1.9220226021590499 0.000823636399444716 -0.0 -0.0 -0.0 -0.0 -0.0 0.0 0.0 0.0 0.0 0.0 0.0 0.0 -5.5006577115984936e-18 0.817224261709882 0.7141331503287116 0.06594160432696604 -3.133016709259264e-05 0.0 -6.31255445068735e-17 9.413197003960333 6.02956345633169 0.2721732596289521 -0.0001300634974290425 0.0 -0.3512657324420374 -1.869516674672262 -1.6104419867144983 0.33965396881103516 1.921923279762268 0.0008411427843384445 -1.917476038215682e-05 -1.917476038215682e-05 -0.0 -2.3968450477696024e-05 0.0 2.3968450477696024e-05 -0.0022430422250181437 0.7917938828468323 0.6771183013916016 0.05259270966053009 -0.1018284410238266 0.012308932840824127 -0.0022430422250181437 0.7716065049171448 0.6847434639930725 0.04923573136329651 -0.1007094457745552 0.015665914863348007 0.30000368951786666 -0.20000225457419762 0.3999977197128206 -1.2090522433707465 1.209124103000241 -1.209087768720021 2.55659588144766e-06 -8.084279086856563e-06 -8.570068269307431e-06 3.8809669502148654e-05 4.051212326258004e-05 -1.9130967856361484e-05 -0.1733107106452783 -1.88523947631913 1.264132830744739 -0.05717448727656427 0.014564047673589826 0.6291026221210987 0.29999999999772825 -0.19999999998750168 0.3999999999952756 -1.2090987221600364 1.2090487305541064 -1.2090487304984197 0.0 0.0 0.0 0.0 0.0 0.0
808.9119999999999 -0.3512852068466348 -1.8695186475529972 -1.6104316945584856 0.3396554019692495 1.9220226021590499 0.000823636399444716 -0.0 -0.0 -0.0 -0.0 -0.0 0.0 0.0 0.0 0.0 0.0 0.0 0.0 -5.5006577115984936e-18 0.817224261709882 0.7141331503287116 0.06594160432696604 -3.133016709259264e-05 0.0 -6.31255445068735e-17 9.413197003960333 6.02956345633169 0.2721732596289521 -0.0001300634974290425 0.0 -0.35130149522890264 -1.869528595601217 -1.6104300657855433 0.3396419286727905 1.9219592809677124 0.0008411427843384445 -1.917476038215682e-05 -1.917476038215682e-05 -0.0 -2.3968450477696024e-05 0.0 2.3968450477696024e-05 0.0022430422250181437 0.7267456650733948 0.6877935528755188 0.05930667370557785 -0.10742340981960297 0.017903901636600494 -0.0022430422250181437 0.7716065049171448 0.6847434639930725 0.04923573136329651 -0.1007094457745552 0.015665914863348007 0.3000001132579303 -0.20001133512755317 0.3999959307482565 -1.2090576659004713 1.2091342271084111 -1.2090792310497247 2.556285083059893e-06 -8.084419559861223e-06 -8.570122060143228e-06 3.881111895660288e-05 4.051159741636175e-05 -1.9131239369792827e-05 -3.2557826684920945 0.5627879746689608 2.229937899792393 -0.08314378062840075 0.47658213787924025 0.4534956915396806 0.29999999999772825 -0.19999999998750168 0.3999999999952756 -1.2090987221600364 1.2090487305541064 -1.2090487304984197 0.0 0.0 0.0 0.0 0.0 0.0
808.92 -0.3512852068466348 -1.8695186475529972 -1.6104316945584856 0.3396554019692495 1.9220226021590499 0.000823636399444716 -0.0 -0.0 -0.0 -0.0 -0.0 0.0 0.0 0.0 0.0 0.0 0.0 0.0 -5.5006577115984936e-18 0.817224261709882 0.7141331503287116 0.06594160432696604 -3.133016709259264e-05 0.0 -6.31255445068735e-17 9.413197003960333 6.02956345633169 0.2721732596289521 -0.0001300634974290425 0.0 -0.35124189058412725 -1.869504753743307 -1.6104419867144983 0.33970189094543457 1.9218993186950684 0.000792831415310502 -1.917476038215682e-05 -1.917476038215682e-05 -0.0 -2.3968450477696024e-05 0.0 2.3968450477696024e-05 -0.006729126907885075 0.7446900010108948 0.6649179458618164 0.054830700159072876 -0.10406643152236938 0.015665914863348007 -0.0022430422250181437 0.7716065049171448 0.6847434639930725 0.04923573136329651 -0.1007094457745552 0.015665914863348007 0.30000183265043456 -0.199994657355667 0.40000559919350637 -1.2090614861037707 1.2090502746103355 -1.2091651809988515 2.5570430457237045e-06 -8.084181441901802e-06 -8.569839745840657e-06 3.8808703604620474e-05 4.051247306242532e-05 -1.9129620724355348e-05 -1.4931414734186912 -0.4549503698152861 2.4991446292631054 -0.07278802260215185 0.29041032582592285 0.5216901372544387 0.29999999999772825 -0.19999999998750168 0.3999999999952756 -1.2090987221600364 1.2090487305541064 -1.2090487304984197 0.0 0.0 0.0 0.0 0.0 0.0
808.928 -0.3512852068466348 -1.8695186475529972 -1.6104316945584856 0.3396554019692495 1.9220226021590499 0.000823636399444716 -0.0 -0.0 -0.0 -0.0 -0.0 0.0 0.0 0.0 0.0 0.0 0.0 0.0 -5.5006577115984936e-18 0.817224261709882 0.7141331503287116 0.06594160432696604 -3.133016709259264e-05 0.0 -6.31255445068735e-17 9.413197003960333 6.02956345633169 0.2721732596289521 -0.0001300634974290425 0.0 -0.3512538115130823 -1.869504753743307 -1.6104539076434534 0.3396419286727905 1.921911358833313 0.0008411427843384445 -1.917476038215682e-05 -1.917476038215682e-05 -0.0 -2.3968450477696024e-05 0.0 2.3968450477696024e-05 -0.006729126907885075 0.7424469590187073 0.6694930791854858 0.0503547228872776 -0.08840051293373108 0.015665914863348007 -0.0022430422250181437 0.7716065049171448 0.6847434639930725 0.04923573136329651 -0.1018284410238266 0.015665914863348007 0.30000443116034353 -0.19999904961011256 0.3999976475373468 -1.2090575229635918 1.2091343578238436 -1.2090793414401444 2.556662972053245e-06 -8.084208944005233e-06 -8.57007387049838e-06 3.880918593140978e-05 4.051230135518807e-05 -1.913123867581047e-05 -1.6947088671893362 0.06526960155588063 2.310499391834796 -0.07274095775044016 0.28638647776261894 0.40594286830181003 0.29999999999772825 -0.19999999998750168 0.3999999999952756 -1.2090987221600364 1.2090487305541064 -1.2090487304984197 0.0 0.0 0.0 0.0 0.0 0.0
808.9359999999999 -0.3512852068466348 -1.8695186475529972 -1.6104316945584856 0.3396554019692495 1.9220226021590499 0.000823636399444716 -0.0 -0.0 -0.0 -0.0 -0.0 0.0 0.0 0.0 0.0 0.0 0.0 0.0 -5.5006577115984936e-18 0.817224261709882 0.7141331503287116 0.06594160432696604 -3.133016709259264e-05 0.0 -6.31255445068735e-17 9.413197003960333 6.02956345633169 0.2721732596289521 -0.0001300634974290425 0.0 -0.3512776533709925 -1.8694804350482386 -1.6104300657855433 0.3396298885345459 1.9219353199005127 0.0008048156159929931 -1.917476038215682e-05 -1.917476038215682e-05 -0.0 -2.3968450477696024e-05 0.0 2.3968450477696024e-05 0.0022430422250181437 0.7446900010108948 0.6908436417579651 0.04699774086475372 -0.10294743627309799 0.017903901636600494 -0.0022430422250181437 0.7716065049171448 0.6847434639930725 0.04923573136329651 -0.1007094457745552 0.015665914863348007 0.29999462232700336 -0.20000241754164588 0.4000118778300052 -1.2090684881977198 1.2090863247796155 -1.2091312848263596 2.5568615437972685e-06 -8.084290475305143e-06 -8.569867971920334e-06 3.881015356471491e-05 4.051194706215434e-05 -1.913042639908053e-05 -2.6991624779228442 0.14673203483645592 1.5691362262588322 -0.08314649721506333 0.3010024930992429 0.4669589088185328 0.29999999999772825 -0.19999999998750168 0.3999999999952756 -1.2090987221600364 1.2090487305541064 -1.2090487304984197 0.0 0.0 0.0 0.0 0.0 0.0
808.944 -0.3512852068466348 -1.8695186475529972 -1.6104316945584856 0.3396554019692495 1.9220226021590499 0.000823636399444716 -0.0 -0.0 -0.0 -0.0 -0.0 0.0 0.0 0.0 0.0 0.0 0.0 0.0 -5.5006577115984936e-18 0.817224261709882 0.7141331503287116 0.06594160432696604 -3.133016709259264e-05 0.0 -6.31255445068735e-17 9.413197003960333 6.02956345633169 0.2721732596289521 -0.0001300634974290425 0.0 -0.3512657324420374 -1.8694928328143519 -1.6104300657855433 0.33970189094543457 1.9219353199005127 0.0008411427843384445 -1.917476038215682e-05 -1.917476038215682e-05 -0.0 -2.3968450477696024e-05 0.0 2.3968450477696024e-05 0.004486084450036287 0.7805786728858948 0.7015189528465271 0.0503547228872776 -0.11078038811683655 0.014546919614076614 -0.0022430422250181437 0.7671204209327698 0.6847434639930725 0.04923573136329651 -0.1007094457745552 0.015665914863348007 0.2999941185158091 -0.19999778295303317 0.40001309421490533 -1.2090212404426832 1.209043838966056 -1.209137330667428 2.5571036582623083e-06 -8.084250722840476e-06 -8.569686946001165e-06 3.8809670267873004e-05 4.0512408937592855e-05 -1.9129084873101795e-05 -1.759000799436943 -1.017458537658235 0.69261795223324 -0.0676110124103171 0.1229700393891258 0.5993052557717871 0.29999999999772825 -0.19999999998750168 0.3999999999952756 -1.2090987221600364 1.2090487305541064 -1.2090487304984197 0.0 0.0 0.0 0.0 0.0 0.0
808.952 -0.3512852068466348 -1.8695186475529972 -1.6104316945584856 0.3396554019692495 1.9220226021590499 0.000823636399444716 -0.0 -0.0 -0.0 -0.0 -0.0 0.0 0.0 0.0 0.0 0.0 0.0 0.0 -5.5006577115984936e-18 0.817224261709882 0.7141331503287116 0.06594160432696604 -3.133016709259264e-05 0.0 -6.31255445068735e-17 9.413197003960333 6.02956345633169 0.2721732596289521 -0.0001300634974290425 0.0 -0.35124189058412725 -1.869516674672262 -1.6104658285724085 0.3396419286727905 1.9218993186950684 0.0008171743829734623 -1.917476038215682e-05 -1.917476038215682e-05 -0.0 -2.3968450477696024e-05 0.0 2.3968450477696024e-05 0.0 0.7805786728858948 0.699993908405304 0.04252176731824875 -0.09623347222805023 0.01678490824997425 -0.0022430422250181437 0.7716065049171448 0.6847434639930725 0.04923573136329651 -0.1007094457745552 0.015665914863348007 0.30000976279048325 -0.19999752661492032 0.39999015092566126 -1.2090855710909174 1.2091434350977246 -1.2090804081908928 2.556543683480275e-06 -8.084170159425088e-06 -8.570197450902844e-06 3.880870211445546e-05 4.051247716246647e-05 -1.9131774941664933e-05 -1.5802548653299409 -0.6053868661596 0.5758670771954933 -0.07791296696228454 0.07620702802324385 0.49766903460018946 0.29999999999772825 -0.19999999998750168 0.3999999999952756 -1.2090987221600364 1.2090487305541064 -1.2090487304984197 0.0 0.0 0.0 0.0 0.0 0.0
808.9599999999999 -0.35128493242324943 -1.8695184210500457 -1.6104320019698104 0.3396554826820016 1.9220223269170864 0.0008236360503386547 0.00013721171443011122 0.0001132514640990342 -0.0001537056326172263 4.035635768083693e-05 -0.00013762100329743824 -1.745530062706931e-07 0.0171514643037639 0.014156433012379276 -0.01921320407715329 0.005044544710104616 -0.01720262541217978 -2.1819125783836637e-05 0.004491187417610526 0.8208474713836945 0.7111661518113936 0.06679668549987625 -0.003061000282526642 -3.765523869643592e-07 0.014004278914652052 9.423254009819761 6.025267122822981 0.2727167266920419 -0.0012105993345647133 -1.5580383148464227e-06 -0.3512538115130823 -1.8694928328143519 -1.6104658285724085 0.33966588973999023 1.9218873977661133 0.0008411427843384445 -1.917476038215682e-05 -1.917476038215682e-05 -0.0 -2.3968450477696024e-05 0.0 2.3968450477696024e-05 -0.0022430422250181437 0.7940369248390198 0.6694930791854858 0.0503547228872776 -0.09847146272659302 0.017903901636600494 -0.0022430422250181437 0.7716065049171448 0.6847434639930725 0.04923573136329651 -0.09735246747732162 0.015665914863348007 0.29999989904284785 -0.19999935687217663 0.40000035646264237 -1.2090356720196367 1.2091315252428758 -1.2091136719309437 2.5567475814694715e-06 -8.084155264626245e-06 -8.569961463083801e-06 3.880918523204375e-05 4.0511727618234306e-05 -1.9130699059992928e-05 0.05103132491213811 -1.689166439081628 1.3624711540930956 -0.08313272375921567 0.0039057958473626714 0.5831930612522964 0.2999999999977362 -0.19999991998750807 0.3999999999952757 -1.209098722160036 1.2090487305541062 -1.20904873049842 2.2716963398033927e-16 4e-05 4.7246245343279e-16 -6.626143221553099e-21 6.463002598606393e-20 -5.929767387675005e-20
808.968 -0.3512827370330447 -1.8695166090280901 -1.6104344612561095 0.33965612838137454 1.9220201249782711 0.0008236332574936757 0.0006174542750981276 0.000509630761677357 -0.0006916731963956993 0.00018160228770095104 -0.0006192960687935319 -7.854867722553133e-07 0.060030320083502044 0.04954741219729035 -0.06724594547230911 0.017655741252514262 -0.06020938318701171 -7.636672074807752e-05 0.018993322313895323 0.832656618824345 0.7012854319399364 0.06965791435207848 -0.013405551138492344 -1.3179295663454772e-06 0.049014987986570835 9.448382013615756 6.014525560678694 0.27407554038404247 -0.003911953617025125 -5.453118428457971e-06 -0.35128957429994756 -1.8694928328143519 -1.6103938261615198 0.3396419286727905 1.9219712018966675 0.0008411427843384445 -1.917476038215682e-05 -1.917476038215682e-05 -0.0 -2.3968450477696024e-05 0.0 2.3968450477696024e-05 -0.004486084450036287 0.7626343369483948 0.681693434715271 0.04364075884222984 -0.09063850343227386 0.02014188840985298 -0.006729126907885075 0.7760925889015198 0.6893185973167419 0.05259270966053009 -0.09063850343227386 0.015665914863348007 0.29999364558285097 -0.20000358910169785 0.4000185545283852 -1.209037334690712 1.2090553029595767 -1.2091120134860527 2.5569936036557107e-06 -8.084415045498003e-06 -8.56977967731293e-06 3.8810638633942024e-05 4.0512340520541636e-05 -1.9129619494513785e-05 -2.2118405640236456 1.7691679235309707 1.2722434008675885 -0.09351058515200245 0.2547552722365646 0.213747138394909 0.29999999999773436 -0.19999927998750286 0.3999999999952757 -1.2090987221600358 1.2090487305541058 -1.2090487304984199 -4.931411145571461e-15 0.00018000000000480858 2.042758138354199e-15 -9.988194160952869e-17 4.983252664823789e-17 9.978570298206301e-17
808.976 -0.3512753275501508 -1.8695104934756932 -1.61044276129092 0.33965830758205906 1.9220126933939783 0.0008236238316879691 0.001646558774991167 0.0013590079232058767 -0.0018444425032108054 0.0004842608703818402 -0.0016514701689774387 -2.094615588013762e-06 0.12863806248662993 0.10617214519106496 -0.14409616335188827 0.03783232283511114 -0.12902176252298836 -0.0001636411019698061 0.048430577435495434 0.856786315556517 0.6807768695771115 0.07561081924872852 -0.03522449434192145 -2.8241024944205406e-06 0.10503259958736991 9.48854889611245 5.997337411903841 0.2762499562518634 -0.00823423741910665 -1.1685120168357943e-05 -0.3512776533709925 -1.869516674672262 -1.6104658285724085 0.33965396881103516 1.9219353199005127 0.0008171743829734623 -1.917476038215682e-05 -1.917476038215682e-05 -0.0 -2.3968450477696024e-05 0.0 2.3968450477696024e-05 0.01570129580795765 0.7940369248390198 0.6496675610542297 0.05706868693232536 -0.09959045052528381 0.02014188840985298 0.01570129580795765 0.7985230088233948 0.6755932569503784 0.05706868693232536 -0.09735246747732162 0.015665914863348007 0.3000016471210811 -0.20000493757434495 0.3999910788671911 -1.2090804496265828 1.2091329822928196 -1.2090886493211026 2.5563556475639032e-06 -8.084256929755895e-06 -8.570109193224081e-06 3.8810150850872114e-05 4.051195191785644e-05 -1.9131504543794995e-05 -1.2022903922441226 1.6635546345234433 1.641375911215514 -0.09348833738943388 0.23241907294323602 0.16252352028680597 0.29999999999773375 -0.19999711998750697 0.3999999999952755 -1.2090987221600364 1.2090487305541064 -1.2090487304984197 -3.379968994771817e-15 0.0004800000000011936 5.558298262329325e-15 -1.9997529155847184e-16 1.990269707015736e-16 6.704051448568824e-17
808.9839999999999 -0.35125776407903775 -1.8694959974852505 -1.6104624350996195 0.33966347288094595 1.9219950775353696 0.0008236014893214951 0.0034304001221317406 0.0028312297599486246 -0.003842492975137058 0.0010088180646153427 -0.0034406319170465077 -4.363704429944725e-06 0.2229801683925717 0.1840277295928435 -0.24975630899078158 0.0655696492791878 -0.22364521850863361 -0.00028363610524137034 0.09776270408876805 0.897393522097095 0.6458742107821728 0.08574133431436268 -0.07268837680850504 -4.894964789883162e-06 0.1820594467143344 9.543705062571991 5.973701424215851 0.27924015029500876 -0.014177852642320623 -2.0253603366970533e-05 -0.35128957429994756 -1.8694565931903284 -1.6104658285724085 0.33968985080718994 1.921911358833313 0.0008411427843384445 -1.917476038215682e-05 -1.917476038215682e-05 -0.0 -2.3968450477696024e-05 0.0 2.3968450477696024e-05 0.1009368970990181 0.8388977646827698 0.6008661985397339 0.067139632999897 -0.1365172564983368 0.017903901636600494 0.0942077711224556 0.8456268906593323 0.6206917762756348 0.06378264725208282 -0.12868429720401764 0.015665914863348007 0.2999823802469673 -0.20000433055490785 0.400014903737874 -1.209003725184824 1.2090888390118406 -1.209164392462017 2.556935109533446e-06 -8.084182612404472e-06 -8.569597372924275e-06 3.881063419593126e-05 4.051091241842744e-05 -1.9129344831032065e-05 -1.0657389991595376 -0.5733490981332657 1.9715167615574782 -0.08315166546032984 0.17381464927458365 0.3443046067873511 0.2999999999977354 -0.19999199998750275 0.39999999999527563 -1.2090987221600364 1.2090487305541058 -1.2090487304984194 -1.1910783682964712e-15 0.0010000000000066269 1.1950547417042079e-14 6.313782761652942e-19 -9.313509254075518e-19 1.949608280416577e-19
808.992 -0.3512234594006518 -1.8694676855465069 -1.610500859096053 0.33967356048788944 1.9219606705417283 0.0008235578530393042 0.00617496400009099 0.005096084379904718 -0.006916151362260697 0.0018156659848470405 -0.006193380261024799 -7.854393619244139e-06 0.3430704847449062 0.28310682749451166 -0.3842072983904548 0.10085599002896221 -0.3440935429972864 -0.0004363361486624268 0.17201628065814947 0.9586774167199228 0.5927152635629153 0.10113564216808678 -0.12998883794915267 -7.530247541786775e-06 0.28010218461281 9.613781498028017 5.943617596504811 0.28304592226848324 -0.021743807852739522 -3.115745536753791e-05 -0.35122996965517217 -1.869504753743307 -1.6104539076434534 0.3396419286727905 1.921911358833313 0.0008048156159929931 -1.917476038215682e-05 0.0 -0.0 -2.3968450477696024e-05 0.0 2.3968450477696024e-05 0.1996307522058487 0.8972169160842896 0.5505398511886597 0.06490164250135422 -0.17232505977153778 0.01342792622745037 0.1951446682214737 0.930862545967102 0.553589940071106 0.07832957059144974 -0.17903901636600494 0.015665914863348007 0.3000091994240037 -0.19999189689025784 0.3999976475373468 -1.2090955438750504 1.2090996286154538 -1.209088536229822 -1.9116961587280537e-06 -6.4554151501321e-06 -1.8511590672187958e-06 3.221065027280413e-05 2.2509256050067302e-05 -1.9154743162741378e-05 -1.6585428088002245 -1.0143590677494554 1.5710182479318786 -0.06236628937533637 0.08330071463640117 0.28069595113265605 0.2999999999977305 -0.1999819999874998 0.3999999999952756 -1.2090987221600362 1.2090487305541064 -1.2090487304984197 -4.3559752846484366e-16 0.0018000000000016239 2.134182464202384e-14 6.522037888572355e-19 3.016631776434418e-16 -1.0180689455313055e-16
809.0 -0.35116417772419517 -1.8694187642079996 -1.6105672513623492 0.33969098916837076 1.9219012120772112 0.0008234824531359233 0.010086462598108274 0.00832323986562899 -0.011295432285515924 0.0029650048958427297 -0.010116539753552409 -1.2828068677644656e-05 0.48893732475216045 0.403394435715534 -0.5474101154069034 0.14366736387446116 -0.4903949365659512 -0.0006217093823000647 0.274283838622692 1.044905145011974 0.5377447505324895 0.1228795362308483 -0.20903673187792468 -0.00030256685669249384 0.39917531960483826 9.698687058633134 5.90708880406846 0.2876662772252208 -0.03093415559728389 -4.439440186190072e-05 -0.3512056509601038 -1.8694446722613733 -1.6105502287494105 0.3396419286727905 1.9218873977661133 0.0008411427843384445 0.01589587703347206 0.01284708920866251 -4.793690095539205e-05 -2.3968450477696024e-05 -2.3968450477696024e-05 2.3968450477696024e-05 0.2265472710132599 0.9510499238967896 0.4254864752292633 0.10966140031814575 -0.27974846959114075 0.015665914863348007 0.2175751030445099 0.975723385810852 0.43006160855293274 0.10294743627309799 -0.2853434383869171 0.015665914863348007 0.30000143624722203 -0.1999818683424778 0.3999918747480046 -1.209084951497488 1.2091472790301412 -1.209036034435925 0.0001876067596128128 0.00585706457129646 0.004486307494820987 -0.004371355714090822 -0.011995262086678261 0.01585635996298428 1.0067826826685526 0.3852099527019028 4.698701783691716 -0.07412936170532158 0.2742540234629362 0.2973260080315228 0.2999999999977343 -0.19996471998750112 0.39999999999527575 -1.209098722160036 1.2090487305541067 -1.2090487304984197 1.2909193806417202e-14 0.0029399999999966953 3.5112641958825524e-14 -1.1677959119526742e-16 -8.81646108748564e-19 1.606679380770465e-18
809.0079999999999 -0.3510700323075282 -1.8693410833379573 -1.6106726683701726 0.3397186582283134 1.921806785960712 0.0008233627302313685 0.01537151279098169 0.012682149876759476 -0.017209792839952054 0.0045166924129616095 -0.01541733802329907 -1.954566018540338e-05 0.660631274109177 0.5448637513913107 -0.7392950693045162 0.19396093963985997 -0.6625997837183326 -0.0008396989384698406 0.2887746641800656 1.095942508406319 0.5297897853599794 0.15205708777165894 -0.21332308662128016 -0.00045915382613491564 0.5393058068782256 9.798305001082642 5.864122903691038 0.2930988855004665 -0.04175255136814424 -5.996038209931591e-05 -0.35102588335146123 -1.8694208304034632 -1.6105859915362757 0.33970189094543457 1.921731948852539 0.0008291585836559534 0.011869176290929317 0.003930825740098953 -0.016586167737841606 -2.3968450477696024e-05 -0.019869845360517502 2.3968450477696024e-05 0.2624359428882599 1.0811463594436646 0.49106326699256897 0.14882618188858032 -0.17680102586746216 0.021260883659124374 0.2489776909351349 1.0542298555374146 0.49716341495513916 0.1510641723871231 -0.1667300909757614 0.015665914863348007 0.30002751378343245 -0.1999371031566196 0.3999949081544019 -1.2090840526664304 1.2090826302316 -1.2090603244348281 0.0016943941513414926 0.0021893315823986893 -0.003242878929394415 0.004403748753966932 0.011893094438391481 -0.007943113814254972 1.5708443971283146 0.8958493045947893 1.3408402204885093 -0.1007391576189613 0.025151824052346252 -0.24394841105661302 0.2999999999977322 -0.1999372799874995 0.3999999999952761 -1.2090987221600364 1.2090487305541064 -1.2090487304984197 1.3781519409917864e-14 0.004479999999998888 5.347106988573975e-14 -2.7082493457238595e-16 -1.3470522454687144e-16 -7.948686299402908e-18
809.016 -0.3509294813995565 -1.8692251382740706 -1.6108299993917479 0.339759944079425 1.9216658161243831 0.0008231840398303244 0.02223739048803713 0.018341918937267884 -0.024887782560124316 0.006530028464577473 -0.022303659113226845 -2.8267358639137792e-05 0.85823471213193 0.707471132563551 -0.9597487150215327 0.2516670064519829 -0.8607901362409718 -0.0010902123067168014 0.305788199354593 1.1086477042858403 0.520215058579239 0.18974839683719658 -0.21850836548037506 -0.0006618957447886641 0.7005387211274828 9.912488752594715 5.8147353181638355 0.2993394215979122 -0.05420493458518216 -7.784879018572663e-05 -0.3509896437274378 -1.869300667439596 -1.610753361378805 0.33967792987823486 1.9216480255126953 0.0008291585836559534 0.02063204161822796 0.022491993382573128 -0.02118811011314392 0.0 -0.0076219672337174416 2.3968450477696024e-05 0.1413116604089737 0.8747864961624146 0.4254864752292633 0.2025378942489624 -0.2864624261856079 0.01678490824997425 0.1525268703699112 0.921890377998352 0.41023609042167664 0.2036568820476532 -0.3043663203716278 0.015665914863348007 0.30001106111198655 -0.1999243328158983 0.3999885490695114 -1.2090928433823331 1.209178153093791 -1.2090454340802572 -0.0008151424322660373 0.007384162636874934 0.001979517450429279 -0.0004189002693270726 -0.0012286878519380436 0.013062143273324346 -3.208215220923277 11.218416843535756 7.195518519330843 -0.08102121855281906 1.3091657011328854 -0.6079243566018887 0.2999999999977323 -0.19989631998750285 0.3999999999952764 -1.209098722160036 1.2090487305541062 -1.20904873049842 2.868909746152589e-14 0.006479999999995064 7.70335852168056e-14 1.6857146790442653e-18 1.2040626255294618e-17 1.1912387771836532e-17
809.024 -0.35072932184801964 -1.8690600732094849 -1.611053957699819 0.3398186948322995 1.9214650602468373 0.0008229296594947595 0.03089237493566538 0.02547112016317336 -0.03455657016743117 0.009063464695308086 -0.0309843864163535 -3.925222968607852e-05 1.081873055953531 0.8911501532381846 -1.2085984509133565 0.31667952884132655 -1.085090912890832 -0.0013731088808675914 0.32542202861532066 1.1233288068523108 0.5089096534266807 0.23702619781935055 -0.22466331488059485 -0.0009166841849196334 0.8829440063404685 10.041056924260873 5.758952099067618 0.3063807828432667 -0.06830033221016654 -9.80495858561121e-05 -0.35072547594179326 -1.86914569536318 -1.6108854452716272 0.3397977352142334 1.9214682579040527 0.000792831415310502 0.031139811500906944 0.02454369328916073 -0.024112261831760406 0.0063276709988713264 -0.027587687596678734 2.3968450477696024e-05 0.2153320610523224 1.0676881074905396 0.535289466381073 0.2540116012096405 -0.2562496066093445 0.019022895023226738 0.2265472710132599 1.1574097871780396 0.535289466381073 0.25960657000541687 -0.2528926134109497 0.015665914863348007 0.30002000214292834 -0.19984376722078714 0.4000153190521595 -1.209096810236467 1.2089768029635644 -1.2091092457758759 0.00033664363624949175 0.009238643286874914 0.0023729628916938582 -0.002268303193176659 -0.006366611167902394 0.0036080384541231367 -1.563565158711272 7.269563969546454 0.5643911180227823 -0.09251070230059485 0.5245645988989684 -0.452014973520091 0.29999999999773147 -0.19983799998751164 0.39999999999527636 -1.2090987221600362 1.2090487305541062 -1.2090487304984199 4.2505695992291566e-14 0.009000000000002914 1.072808205538067e-13 -3.436930250463583e-16 1.5996821960764468e-16 3.35074405625454e-16
809.0319999999999 -0.35045467960547416 -1.8688336862203885 -1.6113610675076346 0.33989922227459124 1.921189600296838 0.0008225807994753486 0.041546196864169944 0.03423755817308455 -0.04644132870162521 0.012174227183917238 -0.04166984904628176 -5.275771568877517e-05 1.3317277410630708 1.0958047512388984 -1.4855948167742556 0.38884531107614406 -1.3356828287410323 -0.0016881857503370805 0.34777793928767353 1.1400509862942718 0.49576358743401 0.2561637725003553 -0.23186115383376482 -0.0012293728305367414 1.0866243149597237 10.183787570024563 5.6968134657241585 0.3142121892058719 -0.08405178598525535 -0.0001205482798743199 -0.3505457083331507 -1.868894402180807 -1.6112692991839808 0.33983373641967773 1.9212533235549927 0.0008291585836559534 0.03539660573005676 0.028858013451099396 -0.04954278841614723 0.015028218738734722 -0.04628307744860649 2.3968450477696024e-05 0.2512207329273224 1.087875485420227 0.6100164651870728 0.23275071382522583 -0.34017413854599 0.01678490824997425 0.2377624809741974 0.9959107637405396 0.6039162874221802 0.2361077070236206 -0.3412931263446808 0.015665914863348007 0.29999992016884336 -0.1997867477845155 0.3999992300556967 -1.2090960536915571 1.2091015156267362 -1.2090401948356253 -0.00015819683572400838 0.00949058060821893 -0.002526932928853046 0.0020129682153236265 0.005282063331092136 -0.010746656318256519 -5.778907752298362 8.697324539972447 -2.933233396121145 -0.08361157622941204 0.4388887845084572 -0.21224304862969187 0.29999999999773364 -0.19975799998749727 0.39999999999527586 -1.2090987221600369 1.2090487305541062 -1.2090487304984192 6.245477853725863e-14 0.0121000000000274 1.4596511594025885e-13 -1.8175097630890332e-16 1.8285132331342087e-16 1.6818740558322198e-16
809.04 -0.3500889962545717 -1.8685324363986533 -1.6117696454538688 0.34000629050357556 1.9208228291120553 0.0008221166177562674 0.054410604528865966 0.04480796990718077 -0.06076446092036315 0.015917841647254898 -0.0545723856395221 -6.903901049376744e-05 1.6080509580870026 1.3213014667620278 -1.7903915273422424 0.46795180791720736 -1.6128170741550432 -0.0020351618506240336 0.37296312769832207 1.1588754422814254 0.4806682644740371 0.2589046704466202 -0.24017826931309158 -0.0016057630073842409 1.3117239515471675 10.340411693545105 5.628377816559412 0.32281816648716516 -0.10147740477228866 -0.00014532480226751038 -0.35017425218691045 -1.8686307112323206 -1.6116889158831995 0.3399651050567627 1.9208341836929321 0.0008411427843384445 0.04536748304963112 0.04164757952094078 -0.056709352880716324 0.013158679939806461 -0.038421425968408585 2.3968450477696024e-05 0.2018737941980362 1.060958981513977 0.6008661985397339 0.2517736256122589 -0.25960657000541687 0.012308932840824127 0.2175751030445099 1.0721741914749146 0.6100164651870728 0.2551305890083313 -0.26296356320381165 0.015665914863348007 0.30000804546419385 -0.19968535864306555 0.39998488639087415 -1.2090754976601064 1.2091624058978623 -1.2090483443898987 -0.000901874448892468 0.014126666173214406 -0.00019048082433237865 0.0007129880162120131 0.0017630936925447705 0.007098494458729307 -6.022644075615241 15.225574344977586 -1.9565659458750901 -0.06454837748339336 0.8168655327978711 -1.1637494376855468 0.29999999999772864 -0.19965151998748992 0.3999999999952744 -1.2090987221600367 1.2090487305541067 -1.209048730498419 7.796496033136113e-14 0.01583999999998676 1.9475077255864488e-13 4.0622925247518405e-16 2.1119454570507614e-16 -4.1734575089940827e-16
809.048 -0.34961401056057273 -1.8681414536113108 -1.6122997752937787 0.3401451003972334 1.9203464320246966 0.0008215142405686365 0.06970006192299352 0.05734765604508038 -0.07774464724293047 0.020347550727751074 -0.06990703981505683 -8.834829555610409e-05 1.9111821742659445 1.5674607672374512 -2.122523290320914 0.553713635062022 -1.916831771941841 -0.0024136606327920815 0.40109158502495346 1.1798587276572732 0.4635170381434695 0.2619491909246475 -0.2496950193428183 -0.0020515860355732117 1.5584389426007876 10.510606003622632 5.553726207406566 0.33217741604156625 -0.12060154409400442 -0.00017235226480578417 -0.3497656027423304 -1.8682835737811487 -1.6121438185321253 0.34012091159820557 1.9204272031784058 0.0008651112439110875 0.05923083424568176 0.049624279141426086 -0.06543386727571487 0.02214684896171093 -0.06701578944921494 2.3968450477696024e-05 0.2601929008960724 1.0183411836624146 0.5566400289535522 0.26072555780410767 -0.2204417884349823 0.017903901636600494 0.2871094048023224 1.074417233467102 0.5657902956008911 0.26296356320381165 -0.21596580743789673 0.015665914863348007 0.30000262101024644 -0.19956419818042237 0.399991805397999 -1.209037594288431 1.20913061943146 -1.2090618916558828 -0.0006032044396817382 0.01682866478331797 0.0008653569475525682 -0.0020785012936624515 -0.005998277027393315 -0.007616088848666378 -7.6644607706465155 15.98453357221264 0.08154994197352766 -0.09252368812149697 1.1873231784049187 -1.4529024581682521 0.29999999999772947 -0.19951327998748053 0.39999999999527136 -1.2090987221600364 1.2090487305541067 -1.2090487304984199 1.2042601129864041e-13 0.020279999999961846 2.566387727106821e-13 2.433668792794801e-16 -1.651276683796442e-16 -6.256552112193621e-16
809.0559999999999 -0.34900973394378365 -1.8676445514673405 -1.6129732743179188 0.3403212690267986 1.9197403624309943 0.0008207487895164346 0.08763259374177788 0.07202003565096791 -0.0975956990421341 0.02551361355013896 -0.0878924018194161 -0.00011093382738418474 2.2415664773480453 1.8340474507359417 -2.4813814749004535 0.6457578527984857 -2.2481702505449084 -0.0028231914785100815 0.4322856743222089 1.2030519789716614 0.44420590157485335 0.26529976086986023 -0.26049665292751517 -0.002572482180087763 1.8270282611270432 10.693984916567494 5.472967289145791 0.3422615754414188 -0.14145611565946173 -0.00020159563390596938 -0.34922629991640264 -1.8678644339190882 -1.6127198378192347 0.34027671813964844 1.9198167324066162 0.0008171743829734623 0.07443641871213913 0.0635259822010994 -0.08094146102666855 0.024040356278419495 -0.08441688120365143 2.3968450477696024e-05 0.3454284965991974 1.1035767793655396 0.4361617863178253 0.2517736256122589 -0.17568203806877136 0.014546919614076614 0.3499145805835724 1.0587159395217896 0.4392118453979492 0.24729764461517334 -0.16561108827590942 0.014546919614076614 0.3000080907218089 -0.19941504224742282 0.3999901796043875 -1.2090396848087577 1.209160140110449 -1.2091474594852776 -0.0007599862961005362 0.021118330073743266 0.0015549413070912402 -0.0021564417569690355 -0.006280996017088399 -0.009771736107714441 -1.8090602466266932 8.607017363775402 1.7188536858455563 -0.07930939483100109 0.5261657616592605 -1.1038271428517359 0.2999999999977242 -0.19933751998747193 0.3999999999952648 -1.2090987221600364 1.209048730554107 -1.2090487304984194 1.5015390192163038e-13 0.025479999999925985 3.3595585536363704e-13 -4.8813205113619945e-17 -2.785106881679255e-16 2.656409482213955e-16
809.064 -0.3482544186465413 -1.8670242441315406 -1.6138136498845723 0.3405408030379145 1.9189828100838644 0.0008197934165304945 0.10843079208296214 0.08898611657276197 -0.12052520077631258 0.03146247852025834 -0.10875161129291969 -0.00013703886871836832 2.5997747926480312 2.1207601152242566 -2.866187716772311 0.7436081212649224 -2.6074011841879483 -0.003263130166772947 0.4666779121634455 1.2285000481020336 0.4226343205215232 0.268956231618349 -0.27267435759126524 -0.003173976031378558 2.1178262447975453 10.890091800299851 5.38624269457892 0.35303387602290287 -0.16408203058879534 -0.00023301033581875583 -0.34855443636049444 -1.8672063986407679 -1.6135228315936487 0.34051644802093506 1.9191104173660278 0.0008171743829734623 0.09361118078231812 0.07953690737485886 -0.10543721169233322 0.03230947256088257 -0.09534649550914764 2.3968450477696024e-05 0.3229980766773224 1.0946046113967896 0.34465929865837097 0.2584875822067261 -0.22379876673221588 0.012308932840824127 0.3297272026538849 1.0946046113967896 0.33703410625457764 0.2528926134109497 -0.22267977893352509 0.014546919614076614 0.299980590973272 -0.1992123832667254 0.4000153815956797 -1.2089817325112475 1.2091031015353586 -1.2092369646414658 -0.0010157485597881973 0.027450908172280214 0.0009647751150698131 -0.002059373399063491 -0.006089967649752871 -0.001460215230362486 0.31129443423187714 9.25684516129587 4.46373648403964 -0.07162333988540993 0.6024373279788555 -0.9901548903637541 0.2999999999977158 -0.19911799998743895 0.39999999999525343 -1.2090987221600369 1.2090487305541067 -1.2090487304984197 2.0825703142024683e-13 0.031499999999888416 4.41806879382513e-13 -2.2352749491787757e-17 -7.848918259247024e-16 -2.5289117130319254e-16
809.072 -0.34732451724777924 -1.8662617676856508 -1.6148460443229506 0.340810064958874 1.9180501607668683 0.0008186193479159014 0.13232300036217465 0.10840387394501372 -0.14673292530074641 0.038235821360105914 -0.13271353658746754 -0.00016690045904150545 2.986526034901564 2.4272196715314687 -3.275965565554229 0.8466678549809469 -2.9952406618184817 -0.0037326987903921424 0.5044129703981637 1.2562405280864284 0.3987062286599093 0.2729153737417144 -0.2863264472239725 -0.0038614482221717055 2.431256255072024 11.09838944837284 5.293732862267665 0.36444770505471263 -0.18853078085208294 -0.0002665408225255317 -0.3476904074298304 -1.8664997259723108 -1.6144822279559534 0.34079205989837646 1.9181528091430664 0.0008048156159929931 0.11652501672506332 0.09756118059158325 -0.1299809068441391 0.035832833498716354 -0.12187957018613815 2.3968450477696024e-05 0.3386993706226349 1.043014645576477 0.3797352612018585 0.26184457540512085 -0.24282166361808777 0.01678490824997425 0.3252411186695099 1.069931149482727 0.3965107202529907 0.2562496066093445 -0.24058367311954498 0.014546919614076614 0.2999790736136214 -0.19896838440473721 0.4000167233825718 -1.2089364141081036 1.2091447704473768 -1.2093285610857754 -0.0006364213060652452 0.03364430483275216 0.0006936556850704702 -0.0010018705122436886 -0.003294075469197894 -0.005011878458246351 -4.874131086173646 15.18605487633767 4.109403042703187 -0.09533614423752351 1.2047193706908736 -1.4534588906756922 0.2999999999976989 -0.1988479999873995 0.39999999999523334 -1.2090987221600376 1.2090487305541076 -1.2090487304984188 2.8778029109646854e-13 0.038399999999749086 5.838770557382172e-13 5.30364835953613e-16 -2.458419186115698e-16 -1.731627468029433e-17
809.0799999999999 -0.3461946320522431 -1.8653371067990694 -1.6160971663424624 0.3411357313348902 1.9169169458820006 0.0008171959387788958 0.15954469053023226 0.13042752885573508 -0.17640900770875834 0.045869441669873855 -0.16001414667708455 -0.00020074802415866449 3.402711271007202 2.7529568638401702 -3.7095103010014903 0.9542025387209926 -3.412576261202126 -0.004230945639644879 0.5456499161860084 1.2863026647363718 0.3723312064776753 0.2771703226391919 -0.3015597052820236 -0.004640103482709602 2.767845636889678 11.318249762130963 5.195663283127051 0.37644508237578783 -0.2148661644652124 -0.0003021191352901218 -0.34664708772768194 -1.8656376043902796 -1.615657154713766 0.34111523628234863 1.9170637130737305 0.0008411427843384445 0.1438107043504715 0.1171194389462471 -0.1552915871143341 0.04350273683667183 -0.14671088755130768 2.3968450477696024e-05 0.3499145805835724 1.0317994356155396 0.43768683075904846 0.2920573949813843 -0.27862948179244995 0.014546919614076614 0.3566437065601349 1.0362855195999146 0.4148111939430237 0.29429537057876587 -0.2674395442008972 0.01342792622745037 0.29997577278072757 -0.19866800295924478 0.40001594452924927 -1.208883446666632 1.2091845144210793 -1.209339883432038 -9.620972635680053e-05 0.04152392738541415 0.0010558258987911982 -0.0016205237215550956 -0.005116410164550595 -0.002491986589474428 -9.37556948158096 20.624097507943368 2.8909349249307468 -0.08833398829805682 1.780446190142179 -1.8055715630771476 0.29999999999768184 -0.19852031998731876 0.399999999995201 -1.2090987221600382 1.2090487305541073 -1.2090487304984183 4.1522006397506534e-13 0.04623999999956566 7.835117868159636e-13 1.402171948432995e-15 -1.4790571776682847e-15 -1.2220655131029707e-15
809.088 -0.34483745275031374 -1.8642290275366475 -1.6175952069702246 0.3415247415393053 1.9155557803530832 0.0008154907391032344 0.19034005036878723 0.15520671876785655 -0.20973186420041923 0.05439201291988013 -0.1908980923939961 -0.0002388018298123223 3.849419979819371 3.0973987390151834 -4.165357061457612 1.065321406250784 -3.8604932146139443 -0.004756725706707228 0.5905647111832848 1.3187061433914835 0.34342586794485047 0.28170997532110637 -0.3184909010786381 -0.005514935157810161 3.1282420478845836 11.548942603730579 5.092311154693862 0.38895506378782807 -0.2431661607136131 -0.00033966351253884305 -0.34533912340273076 -1.864572827016012 -1.617035214100973 0.3414508104324341 1.9157114028930664 0.0008171743829734623 0.17422187328338623 0.14329297840595245 -0.1908368021249771 0.04863198846578598 -0.17602430284023285 2.3968450477696024e-05 0.2758941948413849 1.056472897529602 0.22418105602264404 0.31331828236579895 -0.2741535007953644 0.012308932840824127 0.2669220268726349 1.0587159395217896 0.22875617444515228 0.3245082199573517 -0.268558531999588 0.011189938522875309 0.2999789873163078 -0.19829360887103792 0.4000301829540961 -1.2088701333098624 1.2091841758975386 -1.2094023149714186 -0.00017481781958497496 0.05039504988990366 0.0006675854763510665 -0.00014216519450569904 -0.0011479701643081616 -0.001296492902298483 -0.26872506474849905 19.80143916075279 8.852605725332685 -0.08193367139543718 1.5444800942856272 -1.8378543522501245 0.2999999999976429 -0.19812727998721905 0.3999999999951504 -1.209098722160039 1.2090487305541076 -1.2090487304984179 5.593437267458875e-13 0.05507999999917695 1.0647448491346444e-12 2.3786576292304397e-15 -1.2141162133245415e-15 -1.7627889914536764e-15
809.096 -0.3432236806073954 -1.862915117200803 -1.6193697379353855 0.34198423607879075 1.913937287109892 0.0008134695726833892 0.22496379841567404 0.18288555055510552 -0.2468658437249211 0.06382368274837735 -0.22562051450057896 -0.00028127129082968844 4.327968505860851 3.4598539734061218 -4.6417474405627335 1.1789587285621532 -4.340302763322857 -0.005308682627170766 0.639352994020504 1.3534597371464379 0.31191548239798333 0.2865183395924617 -0.33724850006598794 -0.006490686460365179 3.5132312376901167 11.789623760295926 4.984012428479541 0.4018920862691189 -0.2735249624117268 -0.0003790771003583829 -0.3437312285052698 -1.8633273283587855 -1.6187379995929163 0.3418937921524048 1.9141788482666016 0.0008651112439110875 0.2053808569908142 0.16611094772815704 -0.2268134504556656 0.055942364037036896 -0.2082858383655548 2.3968450477696024e-05 0.2557068169116974 0.9151612520217896 0.3995607793331146 0.34576910734176636 -0.3088423013687134 0.011189938522875309 0.2781372368335724 0.9375916719436646 0.388885498046875 0.3558400571346283 -0.2909384071826935 0.011189938522875309 0.2999944784345964 -0.1978275133357988 0.40002511357467646 -1.2088768838091544 1.2091602510968245 -1.2092974724072945 0.0004507831506931333 0.05900715451275058 -0.0008626114485778527 0.001864107599828794 0.004336535108753574 -0.0022971922185320752 -14.379316350968688 36.36273111220121 6.437854123280983 -0.08092892789682707 3.1901016777371587 -3.1276074359889656 0.29999999999759286 -0.19766071998705878 0.39999999999507296 -1.2090987221600413 1.2090487305541082 -1.209048730498416 8.252703396886956e-13 0.06497999999865751 1.4670212672394725e-12 3.827905048363648e-15 -1.5356254707016248e-15 -2.5092454659024974e-15
809.1039999999999 -0.3413219372987175 -1.8613718321822539 -1.6214515903252593 0.34252148319293935 1.9120300062753386 0.0008110966300016479 0.2636832448432144 0.21360152587589742 -0.2879586013884028 0.07417452281580936 -0.2644490968819479 -0.00032835315537519544 4.839930803442548 3.8394969150989873 -5.1365947079352114 1.2938550084290006 -4.853572797671117 -0.005885233068188374 0.6922331732397298 1.390559798526406 0.27773586289044916 0.2915738377998392 -0.3579745925160463 -0.007571808922843306 3.9237563626385166 12.039321925224652 4.871169239469611 0.4151542731702907 -0.3060551721694872 -0.00042024683770012724 -0.3418358008014124 -1.861795727406637 -1.620824162160055 0.3423851728439331 1.9124078750610352 0.0008411427843384445 0.24194712936878204 0.195927694439888 -0.26684075593948364 0.06687197834253311 -0.24184167385101318 2.3968450477696024e-05 0.3297272026538849 0.9645081758499146 0.30805832147598267 0.34576910734176636 -0.2204417884349823 -0.002237987704575062 0.3342132866382599 0.957779049873352 0.30805832147598267 0.38045790791511536 -0.20589487254619598 -0.0033569815568625927 0.3000001381232867 -0.19727159828214597 0.4000164239935876 -1.208981886105715 1.2091070569217435 -1.209174722302522 0.00020020504179769005 0.06977391860785354 -0.0008259669218489943 0.001637854233930084 0.003644551549861231 0.0008190451434965363 -11.405854915875702 34.71406648214512 7.821688319811072 -0.02417307383222335 2.9479674036004018 -3.499798452472194 0.29999999999751403 -0.19711199998684598 0.39999999999495756 -1.2090987221600442 1.20904873055411 -1.2090487304984145 1.1749439612200633e-12 0.07599999999778558 2.04893622698138e-12 7.354008445972326e-15 -2.640922885330743e-15 -5.310494339602251e-15
809.112 -0.33909865635608405 -1.859574554881755 -1.6238727112543305 0.3431437925526284 1.9098002870290307 0.0008083345759449037 0.29217201652181907 0.23569935896425828 -0.317274460727385 0.08137412409394323 -0.2930156036967397 -0.0003621234226198626 3.56109645982558 2.7622291360451072 -3.6644824173727786 0.8999501597667346 -3.5708133518489724 -0.004221283405583397 0.6137470127742212 1.333463717512736 0.3016666587209855 0.28275070035154654 -0.3481391000272165 -0.00831141547281353 2.8781021935853195 11.253540819527824 5.199351549712627 0.3734343489691568 -0.2255977218117011 -0.0003014291841424936 -0.3396642843829554 -1.860011402760641 -1.6231978575335901 0.3429480791091919 1.91028892993927 0.000792831415310502 0.28085270524024963 0.22779615223407745 -0.3043513894081116 0.07796937227249146 -0.2853923439979553 2.3968450477696024e-05 0.2579498589038849 1.0632020235061646 0.4529372453689575 0.36591097712516785 -0.337936133146286 -0.002237987704575062 0.2781372368335724 1.0766602754592896 0.4483621120452881 0.34800708293914795 -0.32786521315574646 -0.004475975409150124 0.2999976189963257 -0.19664037944581655 0.4000206858407205 -1.2090544712002276 1.2090634264120628 -1.209147648933033 -0.00020949938180205604 0.08056179111064413 0.0006064416115398471 -0.00014787657941076879 -0.0015221782664728227 -0.003732346846878291 -10.692247556369589 30.917125551516225 2.0970430372150277 -0.027962668839479773 2.4370566449196294 -2.594483920427112 0.2999999999974104 -0.19647199998655404 0.39999999999478997 -1.209098722160048 1.2090487305541118 -1.2090487304984119 1.630098064659983e-12 0.08399999999672149 2.75262306602384e-12 1.1583956729838162e-14 -5.412293446664615e-15 -7.571574432602403e-15
809.12 -0.33664659602070746 -1.8576009524238186 -1.6265271902385798 0.34382298832069447 1.907341169897153 0.0008053032720696864 0.3208816712786235 0.2576809447333866 -0.34629352764495636 0.08839341108990949 -0.32180213311469535 -0.0003956624028080965 3.5887068446005532 2.7476982211410395 -3.6273833646964166 0.8774108744957817 -3.598316177244459 -0.004192372523529239 0.627979437622559 1.3415312635461298 0.2875509391328182 0.2836226619358914 -0.35828558818704076 -0.009073982394131671 2.894938845279465 11.218753428878893 5.2056416725834715 0.3718531573615949 -0.22756703936547112 -0.00029936474478765233 -0.33725291887392217 -1.8580964247332972 -1.6258347670184534 0.34363043308258057 1.9079430103302002 0.0008171743829734623 0.3042459189891815 0.2426949441432953 -0.33253827691078186 0.08611864596605301 -0.3111344575881958 2.3968450477696024e-05 0.3925323784351349 1.047500729560852 0.5612151622772217 0.29989033937454224 -0.40059980750083923 -0.0033569815568625927 0.3790741264820099 1.047500729560852 0.5596901178359985 0.2909384071826935 -0.3916478455066681 -0.007832957431674004 0.30000347183522824 -0.19594366411527894 0.40000562120282807 -1.2090857346130433 1.2090552646959156 -1.2090479484320686 0.00032865799339037863 0.08668500819601604 -0.0015288222079683652 0.0015709529952226168 0.0033140287060059335 -0.005999652420484363 -19.085652109718392 30.198704253126866 -2.4981020764471413 -0.026613576682738213 2.4184671729547484 -2.2904992318923574 0.29999999999729765 -0.19576799998624578 0.3999999999946074 -1.2090987221600527 1.2090487305541142 -1.2090487304984092 2.2119431506620084e-12 0.09199999999526187 3.723185728587487e-12 1.7263244719723788e-14 -8.215992997960798e-15 -1.155867904758623e-14
809.1279999999999 -0.33396390320086233 -1.855451999772745 -1.6294125430897148 0.34455756319583614 1.904650808993091 0.0008020046445362014 0.34983373459032846 0.27953502439338457 -0.374988371429076 0.09521623078132514 -0.35083013034901217 -0.00042895127101135735 3.619007913963121 2.7317599574997464 -3.5868554730149533 0.8528524614269568 -3.6284996542896018 -0.004161108525407603 0.6425046044467353 1.3492798441106995 0.2736018666035979 0.2844263002458849 -0.3686133953098792 -0.00983082332610629 2.9134672599184706 11.180768413830037 5.212542323798716 0.37012503202643804 -0.22972776523802757 -0.0002971322764737807 -0.3347213904010218 -1.8560016790973108 -1.6287477652179163 0.3443734645843506 1.9052618741989136 0.0008171743829734623 0.33500224351882935 0.2691560983657837 -0.3657825291156769 0.09400426596403122 -0.34018421173095703 2.3968450477696024e-05 0.3499145805835724 1.0407716035842896 0.4651375710964203 0.26408255100250244 -0.2741535007953644 -0.01342792622745037 0.3386993706226349 1.0721741914749146 0.47428780794143677 0.24953563511371613 -0.26296356320381165 -0.011189938522875309 0.2999870400411901 -0.1952242155488212 0.3999799844219224 -1.2090495629908817 1.209223666849807 -1.2090994032162115 -0.0003834898747830403 0.09562785126477802 -0.001100455917971905 0.0012041028743513052 0.0022667663266015613 -0.0042065049618144335 -14.961517980619355 32.740818575769836 -0.5536819314810848 0.016830987193612836 2.0998548294531774 -3.13620614073586 0.2999999999971735 -0.19499999998594644 0.3999999999944099 -1.2090987221600578 1.209048730554117 -1.209048730498406 2.8411608338264453e-12 0.09999999999372054 4.7717487945186326e-12 2.4411718821099846e-14 -1.148526006999143e-14 -1.5661158348528554e-14
809.136 -0.33104855214929696 -1.853128762285122 -1.6325260669348332 0.3453458817323551 1.901727186415263 0.0007984407666100066 0.3790498451509322 0.3012502553785398 -0.40333175211929606 0.1018267038442741 -0.380121154218737 -0.0004619720895814183 3.652013820075468 2.714403873144401 -3.5429225862775096 0.8263091328686196 -3.661377983715602 -0.004127602321257618 0.6573341081070685 1.3567035027114982 0.25983585086123395 0.285159014220773 -0.37913146612517984 -0.01058153195172442 2.933698409055696 11.139588021688613 5.220052444639067 0.36825185752420075 -0.23208091590491373 -0.0002947396989540427 -0.3319023291217249 -1.853727165852682 -1.6318171660052698 0.3451880216598511 1.9025328159332275 0.0008048156159929931 0.36384108662605286 0.2889828085899353 -0.38970303535461426 0.0992773249745369 -0.3742433786392212 2.3968450477696024e-05 0.3162689507007599 1.087875485420227 0.36753493547439575 0.2719154953956604 -0.37821993231773376 -0.014546919614076614 0.3028106987476349 1.0766602754592896 0.37363508343696594 0.27862948179244995 -0.3771009147167206 -0.01342792622745037 0.2999779293932493 -0.1944077544483511 0.39997769711646775 -1.209092985180437 1.2091287992561792 -1.2090486507480689 7.1317252866959e-05 0.10296159318989721 -0.0006149863186898876 0.0008516778823372093 0.0011321079854624437 -0.009365210639747894 -9.825633901593244 28.96416599307855 1.3841706079148204 0.018381779969618994 1.734511677962794 -2.3899356384835446 0.2999999999970481 -0.19416799998565093 0.3999999999941974 -1.209098722160064 1.2090487305541198 -1.2090487304984026 3.529134811503845e-12 0.10799999999222382 5.8993829029971915e-12 3.2095423803892814e-14 -1.570410239545888e-14 -2.0526172335600687e-14
809.144 -0.32789834355385317 -1.8506323964632303 -1.6358648417494734 0.34618618261971795 1.8985681113346062 0.0007946138512314758 0.40855175536210914 0.3228151899916764 -0.4312966217028172 0.10820924713897097 -0.4096968776437661 -0.0004947078914857043 3.687738776397116 2.695616826642079 -3.49560869794014 0.7978179118371086 -3.69696542812864 -0.004091975238035753 0.6724797420192288 1.3637961065712094 0.2462694746393501 0.2858182764586476 -0.38984896064734836 -0.011325724207468702 2.955643549174621 11.09521359813023 5.228171280705363 0.36623566357318466 -0.23462751086634517 -0.000292195675822419 -0.32884294191469365 -1.8512733618365687 -1.635113541279928 0.34602653980255127 1.899373173713684 0.0008291585836559534 0.3935619592666626 0.31229931116104126 -0.4153492748737335 0.10723485052585602 -0.4084703326225281 -2.3968450477696024e-05 0.3005676567554474 1.0901185274124146 0.2989080846309662 0.2920573949813843 -0.3536020517349243 -0.02014188840985298 0.3319702446460724 1.092361569404602 0.3065332770347595 0.29541438817977905 -0.3368171453475952 -0.021260883659124374 0.29997097033164377 -0.19354192886029034 0.39997497458973996 -1.2090300035448835 1.2092111062997162 -1.2090940294680224 -0.0004157990975653527 0.1108509417172535 0.0007736401361872478 -0.0009865986567496742 -0.004212025982008202 -0.013809479054973295 -7.12593096602009 29.10480439297672 3.522570983167451 0.04105188156113303 1.7631336763356182 -2.5660261769294888 0.2999999999969085 -0.19327199998535333 0.39999999999396946 -1.2090987221600695 1.2090487305541227 -1.2090487304984001 4.225250681538467e-12 0.11599999999074624 7.105464405438196e-12 4.125415222573222e-14 -1.9927412123637686e-14 -2.5815623248454225e-14
809.1519999999999 -0.32451090363470314 -1.8479641508929854 -1.6394257318865133 0.3470765811419748 1.895171219088677 0.0007905262429121063 0.43836132912805836 0.34421825058271793 -0.45885612185585595 0.11434859620857252 -0.43957908543808066 -0.0005271427652761021 3.726196720743653 2.6753825738801904 -3.4449375191298452 0.7674186337001936 -3.735275974289319 -0.004054359223799726 0.6879534837944992 1.3705513122645248 0.2329194951135436 0.28640163901147564 -0.4007752524760176 -0.012063040221020166 2.979314028852928 11.047645334069365 5.236898476110246 0.3640786229648171 -0.23736854839263913 -0.00028950962909386703 -0.32553178468813115 -1.848663632069723 -1.63855487505068 0.3469245433807373 1.89591383934021 0.0008048156159929931 0.42236244678497314 0.3342352509498596 -0.44322457909584045 0.10960772633552551 -0.43962931632995605 -2.3968450477696024e-05 0.4082336723804474 1.0407716035842896 0.2668822109699249 0.2898194193840027 -0.29877135157585144 -0.025736859068274498 0.4172058403491974 1.047500729560852 0.253156840801239 0.2853434383869171 -0.2887004017829895 -0.022379877045750618 0.2999690720607631 -0.19261349499961977 0.39998905128533896 -1.2089474683438386 1.2092456469758108 -1.2092583494899067 -0.0003837002958884653 0.11839703970952133 0.0005910410393864412 0.00022261604468829728 -0.0008636007642831304 -0.016091994582142517 -9.806116963109432 27.4011234197839 5.0239127983414384 0.06405486902952062 2.0362387711107592 -2.731536008558613 0.2999999999967737 -0.1923119999850751 0.3999999999937248 -1.2090987221600762 1.2090487305541262 -1.2090487304983968 4.993841472826329e-12 0.1239999999892583 8.392603959610041e-12 4.96986712808834e-14 -2.454773326790714e-14 -2.9265680345437274e-14
809.16 -0.32088368327123185 -1.8451253673951733 -1.6432053875727437 0.34801507181765645 1.8915339703054221 0.0007861804089441152 0.46850053658822416 0.3654477010006065 -0.4859835781020412 0.12022982792409333 -0.46978966903453717 -0.0005592619418437589 3.7674009325207245 2.6536813022360675 -3.390932030773154 0.7351539644401012 -3.7763229495570636 -0.004014897070957101 0.7037674773253733 1.3769625278482804 0.21980284713571557 0.2869067395500431 -0.41191992555299206 -0.012793146289993788 3.004721068513378 10.996881994947024 5.246234171200782 0.36178305044212083 -0.24030497798929 -0.0002866917551458337 -0.32200414339174444 -1.8459461371051233 -1.6422584692584437 0.3478114604949951 1.8922032117843628 0.0008411427843384445 0.45279279351234436 0.35494399070739746 -0.47560596466064453 0.11536015570163727 -0.4695659279823303 -2.3968450477696024e-05 0.4665527939796448 0.9914246797561646 0.28670772910118103 0.2842244505882263 -0.2752724885940552 -0.027974845841526985 0.4777680039405823 0.993667721748352 0.3019581437110901 0.28198644518852234 -0.2517736256122589 -0.022379877045750618 0.2999831440616345 -0.19163548090832438 0.3999648313147755 -1.2088805819870305 1.2094744141886014 -1.2092898079450793 -7.544444927872691e-05 0.12647302935820973 -0.0010440287529253267 0.002082643490888992 0.0047498783376344654 -0.015506452582463668 -13.94320928841841 29.22415215005301 4.9374232439092 0.07127065451148529 2.393424451112034 -3.0424910721663343 0.29999999999662563 -0.19128799998479987 0.3999999999934634 -1.2090987221600833 1.2090487305541295 -1.2090487304983935 5.741036227787181e-12 0.13199999998786707 9.766927205054688e-12 5.962158724261214e-14 -2.964031045242349e-14 -3.4452885725603246e-14
809.168 -0.31701395718463754 -1.8421174824208872 -1.6472002463439912 0.3489995312219255 1.8876536500827654 0.0007815789299081496 0.49899144538363505 0.38649161405181814 -0.5126524902772552 0.12583838343206993 -0.5003506177368977 -0.0005910518831482766 3.8113635994263606 2.630489131401459 -3.3336140219017567 0.7010694384970758 -3.8201185877950667 -0.00397374266306471 0.7199340108570121 1.3830228713087196 0.21084499255705677 0.28733130795705025 -0.5231367556077416 -0.013515736906067615 3.0318755098922376 10.94292063217447 5.256179103353423 0.35935140272391664 -0.24343766924633212 -0.0002837530423414617 -0.318153206502096 -1.843001667653219 -1.6462987104998987 0.3487813472747803 1.8883850574493408 0.000792831415310502 0.48723065853118896 0.37728258967399597 -0.5090180039405823 0.12358133494853973 -0.49504438042640686 -2.3968450477696024e-05 0.3992615044116974 1.078903317451477 0.41023609042167664 0.337936133146286 -0.3916478455066681 -0.0335698164999485 0.3835602104663849 1.0766602754592896 0.41023609042167664 0.3356981575489044 -0.39500483870506287 -0.02349887043237686 0.29999792607095094 -0.19055271382304714 0.3999297588214088 -1.2089916445426228 1.209526100247299 -1.2092062513954442 0.00028363664327279216 0.13624894118424583 -0.0022579468315705067 0.002917703754952583 0.007472228604536336 -0.006455237136445168 -14.465340344517436 34.434396764993394 0.6937529766089572 0.0934051580077186 2.477085914549381 -3.447735119875473 0.29999999999647503 -0.19019999998455553 0.3999999999931842 -1.209098722160091 1.2090487305541326 -1.2090487304983901 6.5554888269125e-12 0.139999999986491 1.1229117776537386e-11 7.022416217651993e-14 -3.460848386341224e-14 -3.921131375655737e-14
809.1759999999999 -0.3128988232057228 -1.838942028724091 -1.651406534388972 0.3500277209941416 1.8835273672535224 0.0007767244894627527 0.5298562080135794 0.407337834711041 -0.5388365192336809 0.1311600915926948 -0.5312840060559527 -0.0006225003730905874 3.8580953287430386 2.6057775824028586 -3.2730036195532106 0.6652135200781069 -3.866673539881876 -0.0039310612427888485 0.7293526954182599 1.3887251253174062 0.2063731135912779 0.2876731734425209 -0.5270559145631528 -0.014230536828312585 3.0607875320719224 10.885756278363313 5.266734709638833 0.35678627998437457 -0.2467673767180094 -0.0002807052901638233 -0.3141220251666468 -1.8399127165423792 -1.6503985563861292 0.34979963302612305 1.8842318058013916 0.000768862955737859 0.5169898867607117 0.39818307757377625 -0.5283845067024231 0.127560093998909 -0.5376123785972595 -2.3968450477696024e-05 0.3925323784351349 1.1618958711624146 0.4483621120452881 0.3177942633628845 -0.39948081970214844 -0.02909383922815323 0.3992615044116974 1.1439515352249146 0.44073688983917236 0.3066043257713318 -0.3513640761375427 -0.02685585245490074 0.3000036926340412 -0.18943383544477316 0.39992956350052844 -1.2089490934496356 1.20959027749559 -1.2093094469352397 0.00013152340138068063 0.1429732636170345 -0.0004243650700274852 0.001221052395755558 0.0022166580940574786 -0.019220035828852417 -12.963631269792213 33.922643434637465 -2.3796218776196056 0.0694557086621322 1.97678081650226 -3.3872909091106655 0.29999999999632565 -0.18904799998433955 0.3999999999928867 -1.2090987221600993 1.2090487305541355 -1.2090487304983877 7.385002291603923e-12 0.14799999998526933 1.278371934907462e-11 8.193616111828582e-14 -3.92885748847516e-14 -4.473635132426727e-14
809.184 -0.3085352016611189 -1.8356006373464178 -1.6558202677715013 0.35109729103558124 1.8791520537689372 0.0007716198633976021 0.5611170447862068 0.4279739388130442 -0.5645094697224057 0.13618119311935883 -0.5626119766334141 -0.0006535966107267072 3.9076045965784343 2.5795130127503967 -3.2091188110905944 0.6276376908330057 -3.915996322182674 -0.003887029704514969 0.7387734416803393 1.3940616880335075 0.20208551489303675 0.28793027224264256 -0.5310624371738348 -0.014937303210266649 3.0914663298533402 10.825381625145319 5.277903231188114 0.3540904289456681 -0.25029470036690615 -0.0002775611301103004 -0.30976707140077764 -1.8366573492633265 -1.6546900908099573 0.3508654832839966 1.8798874616622925 0.0008171743829734623 0.5472093224525452 0.4188534617424011 -0.5514661073684692 0.13316871225833893 -0.5566193461418152 -2.3968450477696024e-05 0.4373932480812073 1.1125489473342896 0.3522845208644867 0.2864624261856079 -0.46885842084884644 -0.024617865681648254 0.4418793320655823 1.119278073310852 0.3400841951370239 0.2730345129966736 -0.4621444642543793 -0.02909383922815323 0.30002322230197026 -0.188223146144921 0.3999345751126386 -1.208905430664336 1.2095717354938105 -1.2092763049856436 -0.0001091579027073428 0.1517270707730118 0.00037549473856733417 0.00026419305069645574 -0.0008377557104354637 -0.007950604470247128 -12.684604783710688 30.11292900043148 0.6775599489417192 0.045479360120646586 1.9405840968198582 -2.7691738962309267 0.299999999996162 -0.18783199998416586 0.3999999999925693 -1.2090987221601088 1.2090487305541402 -1.2090487304983841 8.209819077985912e-12 0.1559999999841895 1.4433635083731303e-11 9.431947210487073e-14 -4.385816176416905e-14 -4.811404792635292e-14
809.192 -0.3039198349153027 -1.8320950399513531 -1.6604372535004241 0.35220578290388516 1.8745244642382493 0.0007662679079309908 0.5927962218233844 0.4483871869664097 -0.5896452694378002 0.14088836566285234 -0.5943567182142041 -0.0006843313060325638 3.9598971296471994 2.551656019170692 -3.14197496442431 0.5883965679366887 -3.968092697598749 -0.0038418369132320815 0.7484391217443559 1.3990245199393303 0.19798826720307197 0.28810065600701923 -0.5351586559394094 -0.01563582778556062 3.1239197510930237 10.76178668518329 5.289687818034625 0.3512667479003094 -0.2540200411768457 -0.0002743340484631632 -0.3051717917071741 -1.833113972340719 -1.6592696348773401 0.35200369358062744 1.8751713037490845 0.0008291585836559534 0.5761631727218628 0.4417864680290222 -0.5804439783096313 0.1354696899652481 -0.6029742956161499 -2.3968450477696024e-05 0.5069275498390198 1.0587159395217896 0.21503080427646637 0.2674395442008972 -0.2909384071826935 -0.04252176731824875 0.5405731797218323 1.0676881074905396 0.1997803896665573 0.2719154953956604 -0.28086745738983154 -0.0335698164999485 0.3000098338300359 -0.18695170582256618 0.39996113051880844 -1.2087912182472407 1.2095713004295818 -1.2094145859897185 -0.0009354782140349999 0.15783149314556918 -1.2448639835707554e-05 0.0014867970680113281 0.002691263705962015 -0.02527296120097112 -9.922106586663386 28.020769545952987 5.300077531185635 0.12581382234015048 1.8982065825614844 -3.444015116255501 0.299999999995999 -0.18655199998404332 0.39999999999223185 -1.2090987221601188 1.2090487305541449 -1.2090487304983817 9.10823518138317e-12 0.16399999998332113 1.618703050936099e-11 1.0864036444673407e-13 -5.068784768754918e-14 -5.3348983870640646e-14
809.1999999999999 -0.2990492871103525 -1.8284270715471207 -1.6652530904165506 0.35335063341284895 1.869641175666284 0.0007606715472302699 0.6249160235164177 0.46856447342186597 -0.6142179442261069 0.14526875011072887 -0.6265404380640369 -0.0007146967784297597 4.014975211629163 2.5221608069320305 -3.071584348538339 0.547548055984566 -4.0229649812291015 -0.0037956840496494843 0.7583550763915046 1.4036050865363991 0.19408753987036545 0.2881825009628249 -0.5393468453038063 -0.016325939116866854 3.1581538877363737 10.69495843817432 5.302092633881548 0.34831829389336955 -0.25794355137257147 -0.0002710384109333207 -0.30033666292299444 -1.8294389883624476 -1.6641486326800745 0.35308146476745605 1.8702762126922607 0.000756878696847707 0.6100833415985107 0.46067360043525696 -0.6054190993309021 0.14297181367874146 -0.6242822408676147 -2.3968450477696024e-05 0.4822540879249573 1.034042477607727 0.3385591506958008 0.3591970205307007 -0.23386971652507782 -0.041402772068977356 0.5024414658546448 1.034042477607727 0.3324589729309082 0.3591970205307007 -0.21708481013774872 -0.0503547228872776 0.3000101343117682 -0.18561953883047821 0.39994150098189424 -1.2088782354144116 1.2096782080693687 -1.2094159417208332 -0.000499062042446999 0.16727076123231654 -0.0003123554646575725 0.0009960225730970644 0.0013594972652797267 -0.012596085576697587 -15.050502695321285 35.687897862130555 4.014371690822789 0.11753825903577614 2.868020331300161 -4.360464067018355 0.29999999999583216 -0.1852079999839511 0.3999999999918736 -1.2090987221601288 1.2090487305541482 -1.2090487304983801 1.0004747454872562e-11 0.1719999999827084 1.8044204331652053e-11 1.2353318116375915e-13 -5.787321676794406e-14 -5.706813839014531e-14
809.208 -0.29391994415042877 -1.824598673639711 -1.6702631698659793 0.3545291784484477 1.86449858743609 0.0007548337601323142 0.6574987187748143 0.48849226962299114 -0.6382015894819525 0.14930997839872112 -0.6591853281749377 -0.0007446870582960842 4.072836907299565 2.490974525140646 -2.9979556569807024 0.5051535359990311 -4.080611263862596 -0.00374878498329056 0.7685264500216423 1.407794296746184 0.19038961943391916 0.28817411794434683 -0.5436292048414857 -0.017007504913290422 3.1941726164053827 10.624880460857167 5.315122960214686 0.34524829227746356 -0.2620650787564143 -0.000267689489301829 -0.29527408281435186 -1.825524632130758 -1.6690276304828089 0.3542076349258423 1.8651536703109741 0.000792831415310502 0.6411272883415222 0.47961828112602234 -0.6275899410247803 0.14843662083148956 -0.6538593173027039 -2.3968450477696024e-05 0.5630035996437073 1.096847653388977 0.3629598021507263 0.3558400571346283 -0.3771009147167206 -0.03916478529572487 0.5450592637062073 1.105819821357727 0.3660098910331726 0.3547210395336151 -0.3412931263446808 -0.04587874934077263 0.29998263714556495 -0.1842235229615151 0.4000040962593981 -1.2087451729995453 1.2095938749270916 -1.2095302303720254 -0.0006352704721714782 0.17503635676447626 -2.744711289372115e-05 0.00045886245946579954 -0.0008229396770740388 -0.01107353190947219 -15.62033009553114 28.932858055555055 2.044000323902372 0.10451282610721309 2.5500037921397984 -3.1572542179397174 0.29999999999566546 -0.18379999998391894 0.39999999999149244 -1.2090987221601406 1.2090487305541524 -1.209048730498377 1.0922633123852439e-11 0.1799999999822473 2.0009477388145206e-11 1.3851870860147653e-13 -6.267300433598655e-14 -5.957454910785917e-14
809.216 -0.28852801398348404 -1.8206118978596475 -1.675462676129551 0.35573865701449264 1.8590929215891714 0.0007487575660391014 0.6905665203418846 0.5081565621730905 -0.66157033779479 0.1530002031634663 -0.6923135245329956 -0.0007742979917222952 4.1334751958837925 2.4580365687624157 -2.921093539104691 0.461278095593147 -4.141024544757232 -0.0037013666782763762 0.7789581369456162 1.409230345452686 0.18690092881317355 0.288073963407359 -0.5480078401800798 -0.01768043442223206 3.2319770828254475 10.551532542281993 5.328785298634824 0.34206014895973214 -0.2663841045502185 -0.00026430349039568117 -0.2899234930621546 -1.8215864340411585 -1.674122158681051 0.3554651737213135 1.8598756790161133 0.000756878696847707 0.6741845607757568 0.5032991170883179 -0.652876615524292 0.15514777600765228 -0.682693362236023 -2.3968450477696024e-05 0.5271149277687073 1.1394654512405396 0.3019581437110901 0.3356981575489044 -0.4610254764556885 -0.05706868693232536 0.6033783555030823 1.1215211153030396 0.3065332770347595 0.3424121141433716 -0.46662044525146484 -0.05371170490980148 0.2999841686227702 -0.18275425666636344 0.4000215106284773 -1.2087562683586093 1.209428610437102 -1.2095582952325297 -0.0017619120241783044 0.1837609405806783 0.0010589015312256653 -0.0009065687937048021 -0.005748161593060703 -0.00678973161006353 -11.567641459790952 26.462291531263176 2.595656019275618 0.18420045916492786 2.051150988119132 -2.5837587784955565 0.2999999999954992 -0.18232799998395877 0.3999999999910885 -1.2090987221601524 1.2090487305541566 -1.2090487304983755 1.1841395329622248e-11 0.18799999998208644 2.209297887634719e-11 1.5626069883114773e-13 -6.912903427505663e-14 -6.403003350584017e-14
809.2239999999999 -0.2828695272388284 -1.816468910108303 -1.680846586578694 0.3569762155240335 1.853420223461981 0.0007424460099613886 0.724141536376509 0.5275427849388284 -0.6842983229164332 0.15632812958831305 -0.7259470586482817 -0.0008035273487702375 4.196877004328053 2.4232778457172475 -2.8409981402054 0.41599080310584374 -4.2041917644107665 -0.0036536696309927867 0.7896547205924608 1.4070108160706516 0.18362804706108435 0.2878806515138801 -0.552484741420119 -0.018344680901510254 3.2715651241000727 10.474890283703253 5.3430874711527165 0.3387574655067489 -0.2708996740836384 -0.0002608975873403019 -0.2844279448138636 -1.8174203077899378 -1.6794570128070276 0.3567228317260742 1.8542146682739258 0.0008048156159929931 0.7117287516593933 0.5191183090209961 -0.676485538482666 0.15428492426872253 -0.7237513661384583 -2.3968450477696024e-05 0.4486084580421448 1.056472897529602 0.14792899787425995 0.32786521315574646 -0.4240986704826355 -0.05930667370557785 0.4665527939796448 1.0497437715530396 0.14335386455059052 0.3334601819515228 -0.4207416772842407 -0.05818767845630646 0.2999497898168988 -0.1812627236470803 0.4000455543779039 -1.2085979929128485 1.209488406046976 -1.2096905166088774 0.00023352331860714262 0.19199827058775307 -0.0007178633803438719 0.0016526918860715568 0.0025105007383804225 -0.010234178311990067 -7.632172922149299 29.270311961692897 8.437562024789102 0.19226597276084503 2.213646716528588 -3.007943110360125 0.29999999999532473 -0.1807919999840451 0.39999999999066094 -1.2090987221601641 1.2090487305541597 -1.2090487304983752 1.2760549393768519e-11 0.19599999998228573 2.429406405781494e-11 1.7380342376588397e-13 -7.514428022100617e-14 -6.620365570959837e-14
809.232 -0.27696016170268223 -1.8121862864023317 -1.686391204609568 0.35823474809244427 1.8474962348428356 0.0007359239081189639 0.7433632815686625 0.535925392810076 -0.6925286139905692 0.1561710069094031 -0.7451889130464304 -0.0008160666261306926 2.402718149019184 1.047825983905945 -1.0287863842669969 -0.019640334863742226 -2.4052317997685924 -0.0015674096700568911 0.668023065595224 1.3213686610013655 0.22997545306593944 0.27662568251997083 -0.5270181468363859 -0.018593989834018332 1.828107702057575 9.466335648900316 5.749593360844641 0.2924210145436001 -0.15712875243068355 -0.00011192402230975243 -0.2785852591144007 -1.8132432142840784 -1.6849949995623987 0.3580048084259033 1.8483622074127197 0.000744894496165216 0.7442107796669006 0.5382355451583862 -0.7003821134567261 0.1601571887731552 -0.7492058277130127 -0.0006950850947760046 0.4643097519874573 1.047500729560852 0.2928079068660736 0.26296356320381165 -0.3871718645095825 -0.0682586282491684 0.4732819199562073 1.043014645576477 0.2897578179836273 0.26520153880119324 -0.38157689571380615 -0.06378264725208282 0.2999642251536541 -0.17968748977831925 0.4000145662706048 -1.2086768992026955 1.2095230518246392 -1.2096760533742186 -0.00021812839505641447 0.2003348162507225 -0.0009637239655536395 0.0006332619058280536 0.0014712992163189768 -0.0031455123933617694 -10.560048320957653 23.752757689610277 2.958995531173825 0.23194779396914772 1.5940349712644912 -2.6062837423975487 0.29999999992490517 -0.1791973333505579 0.3999999999667191 -1.2090987221606215 1.2090487305542326 -1.2090487304985098 1.3698760927887705e-11 0.19999999998271736 2.6569687397725436e-11 1.9142256388383588e-13 -7.96734915157993e-14 -6.690859382534731e-14
809.24 -0.2709957392661009 -1.807908734783795 -1.6919081464704844 0.35947069629514283 1.8415172752584226 0.0007294109464451948 0.7477760120667736 0.5334838393260983 -0.6867393452531383 0.15282717932083287 -0.7495847525519743 -0.0008122240932066109 0.5515913122638855 -0.30519418549720956 0.7236585921788635 -0.4179784485712802 -0.5494799381929871 0.00048031661551021295 0.539804985621974 1.2350368602342332 0.2778529406799561 0.2656105332732855 -0.4990978875382731 -0.018471218926268605 0.3457466789167194 8.478355597876238 6.143150326044633 0.24947274785941087 -0.03938219454867193 3.429796856373777e-05 -0.2725022474872034 -1.8088138739215296 -1.6907246748553675 0.35925042629241943 1.8423420190811157 0.0007209260365925729 0.7550637125968933 0.5396928191184998 -0.7069255113601685 0.15380555391311646 -0.7615735530853271 -0.0006950850947760046 0.5136566758155823 1.096847653388977 0.2729823589324951 0.31331828236579895 -0.4543114900588989 -0.054830700159072876 0.5450592637062073 1.0856324434280396 0.27145734429359436 0.3021283447742462 -0.42857465147972107 -0.06042566895484924 0.299953934704499 -0.17804408579833073 0.40000812923314 -1.208752227606571 1.209500454045566 -1.2095976160252593 0.0003329268844320589 0.20173642592002852 -0.003352684981848302 0.003667888824102565 0.012500434990342054 -0.0046336067938324895 -4.85447100120896 6.474614935616499 3.7396724401918093 0.1693623526363047 1.058930706365346 -0.7413252976139365 0.29999999992739596 -0.17759742223849442 0.3999999999677511 -1.2090987221606158 1.2090487305542332 -1.2090487304985065 3.6584193846277133e-10 0.1999866668152812 1.463731385758787e-10 8.776795297516535e-13 -1.8892275434277086e-13 1.351681068139179e-13
809.2479999999999 -0.2649956583881963 -1.8036505311332895 -1.697379130934765 0.36068006569202626 1.8355027914350375 0.0007229280136030553 0.7522436415783159 0.5310635921772021 -0.681007245843368 0.1495191151201326 -0.7540356381922816 -0.0008085219875001866 0.5584536889427921 -0.3025308936120269 0.716512426221283 -0.41350802508753265 -0.5563607050384084 0.0004627632133030323 0.5412589066412402 1.2303265267697183 0.27866930516144195 0.26521082779650096 -0.49965182794371693 -0.018387285705844095 0.3513654733281125 8.430476217099377 6.139466666690702 0.25031038246482995 -0.03981989477306574 3.304453277232963e-05 -0.2664073149310511 -1.8045528570758265 -1.6963351408587855 0.3604600429534912 1.8363102674484253 0.000744894496165216 0.7498098015785217 0.5291658639907837 -0.6933113932609558 0.1504739373922348 -0.7630835771560669 -0.0006950850947760046 0.4530945420265198 1.123764157295227 0.2501067519187927 0.3435311019420624 -0.41626572608947754 -0.06154466047883034 0.4575806260108948 1.141708493232727 0.2501067519187927 0.33234116435050964 -0.4073137640953064 -0.05818767845630646 0.2999745085227452 -0.1764159690856751 0.3999710577976702 -1.2088369095868352 1.2095713262316778 -1.2094288333348808 0.00043380034833884754 0.1985473098375822 -0.0038844892689579766 0.0035516448428942974 0.012789955247912254 -0.011433914334979386 -1.467532785379752 8.186029813116582 4.524166665922847 0.20071094545676155 1.00940666605533 -1.0622905612459623 0.2999999999302793 -0.17599752594107587 0.3999999999689094 -1.209098722160609 1.2090487305542341 -1.2090487304985014 3.5343336528630033e-10 0.1999871112549638 1.413071092530966e-10 8.690051074257718e-13 -1.9026764427989664e-13 1.3011507901654332e-13
809.256 -0.2589598227703105 -1.7994117541604027 -1.7028042947318722 0.36186307112652466 1.8294526867388743 0.0007164743572494804 0.7567143441169422 0.5286268709762367 -0.6752838663758134 0.1462361758327703 -0.7584896171312894 -0.0008049048636932347 0.558837817328281 -0.30459015012067325 0.7154224334443293 -0.4103674109202891 -0.5567473673759732 0.0004521404758689896 0.5422641599303689 1.2253474260235115 0.2796505984463435 0.2647792642055665 -0.5001065216132647 -0.01830516657940126 0.3518277451992 8.379544444559198 6.13719162222067 0.2509953577171102 -0.03984428986130329 3.228599496037694e-05 -0.2602646986590784 -1.8003509680377405 -1.701693360005514 0.36163413524627686 1.8301225900650024 0.0007808471564203501 0.7535105347633362 0.5309491157531738 -0.6854737401008606 0.15085743367671967 -0.7737734913825989 -0.0006950850947760046 0.4441223740577698 1.065445065498352 0.18758006393909454 0.40171879529953003 -0.3771009147167206 -0.05818767845630646 0.4912262558937073 1.0587159395217896 0.2058805525302887 0.40171879529953003 -0.36255401372909546 -0.05818767845630646 0.3000049089193237 -0.17479650722202653 0.39997758132107125 -1.2087802192933466 1.2095964496486142 -1.209434289280568 -0.0010551038147164436 0.1981665799099811 -0.001583995815871925 0.000919424142452557 0.003139032773941592 -0.018455562029489437 -0.6923873516537878 8.989675300437808 8.679614084457915 0.18586111537992386 1.5841527192236613 -1.3131265640358762 0.2999999999330491 -0.17439762559432445 0.39999999997002356 -1.2090987221606029 1.2090487305542348 -1.2090487304984965 3.3906183580440163e-10 0.1999876297678712 1.356103813650488e-10 8.589987944000014e-13 -1.913416531649146e-13 1.225929490418416e-13
809.264 -0.2528882140862745 -1.795192541440354 -1.708183701849233 0.3630199136135859 1.8233669426932015 0.0007100492979779133 0.7611867855727932 0.5261723978125309 -0.6695679828617472 0.14297841649229806 -0.7629453529345611 -0.0008013728657780184 0.5590551819813772 -0.3068091454632299 0.7144854392582695 -0.4072199175590291 -0.5569669754089679 0.0004414997394020458 0.5432604112470416 1.2203735803242102 0.2806391626597682 0.2643509817493563 -0.5005585997752909 -0.018224984738444826 0.3521824031092701 8.328719973121629 6.134991798492648 0.251672721194884 -0.039857092037434226 3.1526171891481886e-05 -0.2541573683368128 -1.7960651556598108 -1.7070515791522425 0.3628321886062622 1.8239234685897827 0.000744894496165216 0.76286780834198 0.5290891528129578 -0.6748077869415283 0.14366689324378967 -0.7708253860473633 -0.0006950850947760046 0.4441223740577698 1.1753541231155396 0.19368022680282593 0.3905288577079773 -0.4789293706417084 -0.06490164250135422 0.4575806260108948 1.173111081123352 0.19215518236160278 0.39724281430244446 -0.4610254764556885 -0.07385359704494476 0.29999417333161893 -0.17318883451356928 0.4000099360570966 -1.2086972121783983 1.2095324473780347 -1.2095963731775667 -8.624766959420027e-05 0.20018503642239677 -0.00032664005380271896 0.0005792368811052963 0.001563350886743146 -0.006183287979779237 3.4468482064562496 3.582777044178046 6.147207439217243 0.21708014058619707 0.8375113988116433 -0.3961558010562437 0.29999999993570725 -0.1727977212344258 0.3999999999710943 -1.2090987221605964 1.2090487305542355 -1.2090487304984918 3.252584019784558e-10 0.1999881280341139 1.3013407722724152e-10 8.49569391173562e-13 -1.9257226878903112e-13 1.148940612834476e-13
809.2719999999999 -0.24678082244938437 -1.7909930390858797 -1.7135174087312297 0.3641507951703815 1.8172455492733937 0.000703652152642147 0.7656599549107861 0.5236991479513605 -0.6638587166611686 0.13974598415529746 -0.7674018331603175 -0.0007979265285478594 0.5591461672491138 -0.309156232646296 0.7136582750723319 -0.4040540421250752 -0.5570600282195498 0.00043079215376987416 0.5442503055313531 1.2154069229070112 0.28163403066584985 0.2639262274385048 -0.5010085732103825 -0.018146753190345123 0.3524623047421291 8.278027770609045 6.132857408600929 0.25234343391850056 -0.03986084527690623 3.0761575324245403e-05 -0.2479785124408167 -1.7917922178851526 -1.7125056425677698 0.3639339208602905 1.8177361488342285 0.0007089418359100819 0.7608736753463745 0.5274593234062195 -0.6773484349250793 0.14103037118911743 -0.7754273414611816 -0.0006950850947760046 0.5562744736671448 1.1798402070999146 0.3187336027622223 0.39500483870506287 -0.4890003204345703 -0.06042566895484924 0.5428162217140198 1.191055417060852 0.31110841035842896 0.409551739692688 -0.4744533896446228 -0.07049661129713058 0.299994991211319 -0.1715680145368483 0.39999930542399836 -1.208761909838132 1.2095773765764841 -1.2095649088750806 -0.0013927955905484578 0.19827279782560642 -0.0023154370741424605 0.002178881957323364 0.00818331484007375 -0.012766690198975982 -2.5652542870702453 1.567771442436754 2.367304678043208 0.19672170495556715 1.0237881178919603 -0.1849233227402619 0.2999999999382601 -0.1711978130221835 0.39999999997212304 -1.2090987221605907 1.209048730554237 -1.2090487304984872 3.120132884455526e-10 0.19998860623462086 1.2487483511109238e-10 8.400455758548767e-13 -1.9340073359469008e-13 1.0828336143518342e-13
809.28 -0.24063764616603045 -1.7868134013934664 -1.7188054648866533 0.365255919070147 1.8110885046588923 0.0006972822337740956 0.7701328132427041 0.5212060990940364 -0.6581552110713947 0.1365390454327644 -0.7718580175799925 -0.0007945663960614412 0.5591072914897521 -0.3116311071655192 0.7129381987217298 -0.4008673403166317 -0.5570230524593739 0.00042001656080227587 0.5452334284568437 1.210447513842437 0.2826353097164394 0.2635050131538256 -0.5014562767621078 -0.018070484330294963 0.35266526863322994 8.22747122237983 6.130787777378684 0.25300747176593086 -0.03985529910618629 2.9992122557208113e-05 -0.241859261189596 -1.7875192801104944 -1.717816177998678 0.3651440143585205 1.8115489482879639 0.000744894496165216 0.7656098008155823 0.5257143974304199 -0.6688156723976135 0.14373880624771118 -0.7851585149765015 -0.0006950850947760046 0.6437531113624573 1.1080628633499146 0.21350575983524323 0.25960657000541687 -0.3849338889122009 -0.07273460179567337 0.6975861191749573 1.096847653388977 0.2257061004638672 0.26296356320381165 -0.3916478455066681 -0.07049661129713058 0.2999623940502937 -0.16996897261054186 0.40003315243545556 -1.2086103268526172 1.2094916716063502 -1.2096852619427703 -0.0020469858883122543 0.19805957240871017 -0.0008182778660433424 -5.334772963208261e-06 -0.001057281105876737 -0.017794148828660608 -2.373415061893096 -1.4819371115304516 3.9146923917733263 0.2539653325774827 0.41292752271045796 -0.4197233538314216 0.29999999994071264 -0.16959790111274736 0.39999999997311203 -1.2090987221605842 1.209048730554238 -1.2090487304984823 2.9929463822503455e-10 0.19998906517340928 1.1982564952270743e-10 8.313639699484485e-13 -1.95416823796578e-13 1.011995580849806e-13
809.288 -0.23445869197616176 -1.7826537908355746 -1.7240479130476256 0.36633548999376303 1.8048958154731827 0.0006909388495267789 0.7746042910531024 0.5186922296082196 -0.6524566286654712 0.1333577856010263 -0.7763128353975273 -0.000791293019115688 0.5589347262997812 -0.3142336857270972 0.7123228007404475 -0.39765747896726433 -0.5568522271918452 0.00040917211821914787 0.5462093352280183 1.205495404700099 0.28364310898928946 0.26308735122270116 -0.5019015367973169 -0.017996190701421937 0.3527888395196127 8.17705361411901 6.128782281485778 0.2536647985344774 -0.03984018064879956 2.921775344567469e-05 -0.23571664491762334 -1.783257309590475 -1.7229941526996058 0.3662461042404175 1.8052183389663696 0.0007209260365925729 0.772416889667511 0.5225121974945068 -0.660714328289032 0.1401914656162262 -0.7817310094833374 -0.0006950850947760046 0.5988922715187073 0.966751217842102 0.1296284943819046 0.3189132511615753 -0.3692679703235626 -0.08280554413795471 0.6145935654640198 0.971237301826477 0.1326785832643509 0.32898420095443726 -0.38269588351249695 -0.07385359704494476 0.29993148192118546 -0.1683838999328744 0.4000875353298215 -1.2084364607406246 1.2094557391584735 -1.2099456417344883 -0.0014737759867143657 0.19933668086396875 -0.00042045235346102415 -0.00018186099505949376 -0.00239902226989472 -0.007584030639407027 -4.031016628965168 2.838460229495602 10.348047852619782 0.3021869723453234 1.4473626171064167 -0.850458183613564 0.2999999999430667 -0.1679979856550276 0.39999999997406244 -1.2090987221605785 1.2090487305542386 -1.2090487304984776 2.8707703086253003e-10 0.19998950562622858 1.1497525399433812e-10 8.214917340855363e-13 -1.974192713683481e-13 9.400766537206094e-14
809.2959999999999 -0.22824397529962326 -1.7785143780554087 -1.729244789322074 0.3673897141774594 1.798667497029655 0.0006846213036201017 0.7790732878821025 0.5161565185128 -0.6467621508698989 0.1302024081960415 -0.7807651849314166 -0.0007881069553376233 0.5586246036250186 -0.3169638869274516 0.7118097244465382 -0.39442217562309784 -0.556543691736161 0.00039825797225808974 0.5471775718094402 1.2005506516726214 0.2846575321900656 0.26267325594738183 -0.5023441758946356 -0.01792388500252995 0.3528305327506985 8.126778283045997 6.126840286166983 0.25431537260500137 -0.03981521422207052 2.8438407025033413e-05 -0.22940570512880498 -1.7790797392474573 -1.7283051649676722 0.36735999584198 1.7988393306732178 0.0007329102954827249 0.7779775261878967 0.5194826126098633 -0.6615292429924011 0.1378425657749176 -0.7887058258056641 -0.0006950850947760046 0.6258087754249573 1.029556393623352 0.21198073029518127 0.2931763827800751 -0.41738471388816833 -0.07273460179567337 0.6482391953468323 1.0228272676467896 0.21350575983524323 0.29429537057876587 -0.4420025646686554 -0.07609158009290695 0.29993683380320835 -0.1667635289884222 0.40007362764601123 -1.2084041339787968 1.2095183647414298 -1.2099603152798024 -0.0012047360043647096 0.1994206573000068 -0.0023447710491105965 0.0012302821576129865 0.0036351420539808476 -0.00899051172345879 -4.990214345394111 0.9884874935974419 6.093242732027857 0.2553519320446685 1.0330458131583893 -0.4760480797652372 0.2999999999453225 -0.1663980667919781 0.39999999997497643 -1.2090987221605718 1.2090487305542392 -1.2090487304984736 2.753521209351987e-10 0.1999899283376297 1.1031799357585627e-10 8.129101115246855e-13 -1.9864751111196422e-13 8.684089327012172e-14
809.304 -0.2219935204848298 -1.7743953418616032 -1.7343961233430436 0.3684187995572719 1.79240357357981 0.0006783288952856799 0.7835386720478783 0.5135979455047576 -0.6410709775815902 0.12707313460493233 -0.7852139333365135 -0.000785008769304535 0.5581730207219748 -0.31982162600530106 0.711396661038588 -0.39115919888864714 -0.5560935506371129 0.00038727325413602867 0.5481376751549691 1.1956133159062672 0.28567867751043474 0.2622627435353184 -0.5027840128981494 -0.017853580090896146 0.35278783760643073 8.076648621652128 6.124961144191349 0.25495914700943995 -0.039780121676356583 2.76540212580914e-05 -0.2231667677508753 -1.7750099341021937 -1.7334111372577112 0.36840224266052246 1.7925689220428467 0.0007329102954827249 0.7876991629600525 0.5126180648803711 -0.6489458084106445 0.13379189372062683 -0.784511387348175 -0.0006950850947760046 0.6101074814796448 1.1349793672561646 0.3187336027622223 0.268558531999588 -0.438645601272583 -0.06266365945339203 0.5719757676124573 1.119278073310852 0.3065332770347595 0.2730345129966736 -0.44871652126312256 -0.07273460179567337 0.299947570526802 -0.16516921495995449 0.4000717285912981 -1.208383828937295 1.2095276775482835 -1.2099734775346256 0.0007215273180828014 0.2014659585137297 -0.0019068484681101401 0.0008341840056699043 0.0020215623229721856 0.004889105572668602 -4.4057609762910195 1.0483295725559598 0.30331878833606374 0.20840422580788873 0.4047244942251608 -0.3841151596582075 0.2999999999474963 -0.16479814466073203 0.39999999997585495 -1.2090987221605651 1.2090487305542401 -1.2090487304984705 2.6411895113254084e-10 0.19999033402238223 1.0584214511523998e-10 8.030426996732266e-13 -1.991928832691793e-13 8.107814141122056e-14
809.312 -0.21570736105958055 -1.7702968692225882 -1.739501938415012 0.3694229559102039 1.7861040785636109 0.0006720609192108007 0.7879992803903784 0.5110154910157367 -0.6353823268081229 0.12397020365109723 -0.789657916347099 -0.0007819990326531804 0.5575760428125076 -0.32280681112760445 0.7110813466834065 -0.3878663692293872 -0.5554978763231966 0.0003762170814193257 0.5490891732769525 1.19068346374598 0.286706637632839 0.26185583201933077 -0.5032208629380679 -0.017785288984733805 0.35265821872611836 8.026668080374137 6.123144195228741 0.255596069457976 -0.03973462258831949 2.686453313290979e-05 -0.2168195883380335 -1.7708924452411097 -1.7385533491717737 0.36943209171295166 1.7862977981567383 0.0007089418359100819 0.7898275256156921 0.5108156204223633 -0.6448232531547546 0.1300288438796997 -0.7842956185340881 -0.0006950850947760046 0.4687958359718323 1.083389401435852 0.19063015282154083 0.27751046419143677 -0.4061947762966156 -0.06937761604785919 0.4777680039405823 1.096847653388977 0.19520527124404907 0.2864624261856079 -0.4028377830982208 -0.07273460179567337 0.2999534015186428 -0.16354636187755106 0.40007047143988395 -1.2084326026759675 1.2094472879180695 -1.2099244020342943 0.0001969329774874401 0.20117352130583108 -0.00214282470646167 0.0011298331514281751 0.0034398504646629023 0.007221974009261892 0.49153321547465945 6.453082880625087 5.296040688944814 0.24021922091578848 0.5364123752503974 -0.982875880727112 0.2999999999495803 -0.16319821939297202 0.3999999999766994 -1.209098722160559 1.209048730554241 -1.2090487304984656 2.532948935816228e-10 0.19999072336615195 1.0154427488870737e-10 7.930799492342962e-13 -2.0040629711900933e-13 7.632665142928936e-14
809.3199999999999 -0.20938553998379206 -1.7662191552603552 -1.7445622516574497 0.3704023949920391 1.7797690548617537 0.0006658166654814129 0.7924539180466296 0.5084081363011709 -0.6296954343323926 0.12089387117115882 -0.7940959380515594 -0.000779078324204499 0.5568297070314004 -0.32591933932073214 0.7108615594662859 -0.38454155999230116 -0.5547527130575491 0.00036508855608518155 0.5500315854124076 1.1857611670028398 0.2877414997288135 0.2614525411735153 -0.5036545374750304 -0.01771902486606525 0.35243911857211896 7.976840170440011 6.121388765216877 0.2562260823515213 -0.039678434539111206 2.606987852437456e-05 -0.21050817171205694 -1.7667267958270472 -1.7436240355121058 0.37049829959869385 1.7800390720367432 0.0006969575770199299 0.7921860218048096 0.5073641538619995 -0.6415156126022339 0.12660135328769684 -0.7884421944618225 -0.0006950850947760046 0.5831909775733948 1.0587159395217896 0.15097907185554504 0.24505965411663055 -0.4710964262485504 -0.07721057534217834 0.5742188096046448 1.078903317451477 0.1662294864654541 0.24729764461517334 -0.46773943305015564 -0.07385359704494476 0.2999253690609556 -0.1619363981632557 0.4001039008723795 -1.208372887000153 1.209262272462853 -1.209979993258278 0.00010374286872817636 0.20049412335405972 -0.003121049433571044 0.0019788671791430607 0.006914957057870935 0.0054275274209556554 -0.42480757750342124 -0.9509835202230401 6.201073754581598 0.276310127072779 0.392476316193688 -0.07264698855580065 0.2999999999515793 -0.16159829111499213 0.39999999997751134 -1.209098722160553 1.209048730554242 -1.2090487304984614 2.429203791842032e-10 0.19999109702735204 9.741660756971842e-11 7.838469183147e-13 -2.0195988854063442e-13 6.876260853782475e-14
809.328 -0.20302810990395503 -1.762162403243412 -1.7495770741457566 0.37135733067173204 1.773398555049674 0.0006595954195241912 0.796901358247297 0.5057748635589323 -0.6240095533977544 0.11784440958287251 -0.7985267706883203 -0.0007762472300791792 0.5559300250834315 -0.329159092779821 0.7107351168297721 -0.38118269853578896 -0.5538540795951147 0.0003538867656649686 0.5509644220963547 1.1808465032097666 0.2887833454639333 0.2610528924292996 -0.5040848443267939 -0.0176548010833335 0.3521279587753406 7.927168466501721 6.11969416582215 0.2568491227983332 -0.039611273310529375 2.5269992275838412e-05 -0.20422155061830694 -1.7625730673419397 -1.7485984007464808 0.37148070335388184 1.773720383644104 0.0006969575770199299 0.7965962290763855 0.5065204501152039 -0.6366979479789734 0.11847605556249619 -0.8080004453659058 -0.0006950850947760046 0.4777680039405823 1.101333737373352 0.2501067519187927 0.22379876673221588 -0.4565494954586029 -0.07497258484363556 0.4822540879249573 1.1035767793655396 0.25163179636001587 0.22267977893352509 -0.45207351446151733 -0.09063850343227386 0.29988991298516454 -0.16034744727884845 0.4001495580285339 -1.2082619788395148 1.2091457049820813 -1.2100884356277943 0.00010138292563074149 0.19921821490947203 -0.003197945220932964 0.0029286812055735246 0.01095862605587292 -0.00973232900490361 -1.148042978217401 6.189970256775829 1.9086990601310685 0.2665848250420169 0.13342873671613037 -0.7304034008775736 0.2999999999535022 -0.15999835994806752 0.3999999999782921 -1.2090987221605463 1.2090487305542434 -1.2090487304984578 2.3297134273558673e-10 0.19999145563745246 9.345090160348144e-11 7.747598597592777e-13 -2.031506906658189e-13 6.257502525773813e-14
809.336 -0.1966351334090577 -1.7581268245786346 -1.7545464110497946 0.3722879790623033 1.766992641653021 0.0006533964620476089 0.8013403421499311 0.5031146560823232 -0.6183239544171919 0.11482210744270589 -0.802949154478519 -0.0007735063438202424 0.5548729878292608 -0.3325259345761389 0.7106998725703167 -0.3777877675208274 -0.5527979737748323 0.00034261078236709757 0.5518871853782941 1.1759395559121497 0.28983225098862175 0.2606569087876886 -0.5045115877290725 -0.017592631154208515 0.3517221430325725 7.877656609579749 6.118059693825403 0.2574651226193843 -0.039532853207586115 2.4464808136487337e-05 -0.19788629213442022 -1.758467976246969 -1.7536209265338343 0.37242698669433594 1.7670189142227173 0.0007329102954827249 0.7986096143722534 0.507249116897583 -0.6278296113014221 0.11519237607717514 -0.8045250177383423 -0.0006950850947760046 0.6415100693702698 1.0138550996780396 0.31110841035842896 0.19470493495464325 -0.3256272077560425 -0.08280554413795471 0.6078644394874573 1.051986813545227 0.3095833659172058 0.19918090105056763 -0.31555625796318054 -0.09287648648023605 0.29986512048665614 -0.1587850903914174 0.40015899676135214 -1.208041116063539 1.209400994330447 -1.2103338877631915 -0.0011083746786906793 0.19928993240436269 -0.0012375587881919166 0.0016308800287579996 0.0047888941283217015 -0.0042759752861256045 -8.598517360112831 4.795262520813624 1.0761011110465726 0.30412102704192273 0.5342064101793003 -1.2257959195260135 0.29999999995534954 -0.15839842600854998 0.3999999999790431 -1.2090987221605396 1.2090487305542439 -1.209048730498454 2.2340187874526575e-10 0.1999917998028293 8.964202217944164e-11 7.648129111434948e-13 -2.057413955376925e-13 5.692523714302019e-14
809.3439999999999 -0.19020668328775958 -1.754112638801793 -1.759470261770148 0.37319455864814577 1.760551387404385 0.0006472190689820976 0.8057695786980837 0.5004264984418881 -0.6126379246995057 0.1118272689915912 -0.8073617974845295 -0.0007708562665096291 0.5536545685190797 -0.33601970505438283 0.7107537147107712 -0.3743548063893359 -0.5515803757513149 0.00033125966382666224 0.5527993689453298 1.1710404149246314 0.2908882869474058 0.2602646147279891 -0.504934568378296 -0.017532528768228934 0.35121905886843235 7.828308309541822 6.11648463069486 0.2580740083447456 -0.03944288729519749 2.365425881487047e-05 -0.19151527086366826 -1.7543614546405237 -1.7586553732501429 0.37331342697143555 1.760521650314331 0.0006969575770199299 0.8092324137687683 0.5025704503059387 -0.621406078338623 0.11202853918075562 -0.8055316805839539 -0.0006950850947760046 0.5652466416358948 0.9331055879592896 0.1860550194978714 0.26296356320381165 -0.4789293706417084 -0.09175749868154526 0.5562744736671448 0.9331055879592896 0.1860550194978714 0.2573685944080353 -0.4621444642543793 -0.09623347222805023 0.29983844436358925 -0.15720267229649912 0.4001567524053741 -1.2080278667199722 1.2095029190869262 -1.2104130020255444 0.0003655689325956801 0.20131171320803906 -0.0017064411479773161 0.0018350498602046168 0.006202163008023565 0.005323309752767654 -6.4708871525787135 4.4909146262586646 7.858285533947294 0.34616906906146716 1.2194120522843765 -0.489467529087544 0.2999999999571197 -0.15679848940814756 0.3999999999797654 -1.2090987221605338 1.209048730554244 -1.2090487304984505 2.1421062074662206e-10 0.19999213010524136 8.598113861401999e-11 7.547328844402149e-13 -2.0616997352230172e-13 5.161337951759597e-14
809.352 -0.1837428427865273 -1.7501200735664773 -1.7643486200722869 0.374077290408649 1.754074875500994 0.0006410625114191967 0.8101877445183227 0.49770937670158677 -0.606950768197212 0.10886021368802415 -0.8117633755064079 -0.0007682976068929742 0.5522707275298633 -0.3396402175376706 0.7108945627867097 -0.3708819129458821 -0.5501972527347937 0.0003198324520818711 0.5537004583555935 1.165492963168047 0.2919515184700911 0.25987603611520094 -0.5053535835019441 -0.017474507789660827 0.35061608056923343 7.779127348002931 6.114968242046459 0.2586757012106082 -0.03934108773348299 2.283827590581017e-05 -0.1850960890399378 -1.7504237333880823 -1.7635696570025843 0.37421154975891113 1.7539756298065186 0.0006490207160823047 0.8103829026222229 0.49534156918525696 -0.615581750869751 0.11030281335115433 -0.8140884041786194 -0.0006950850947760046 0.5742188096046448 0.998153805732727 0.17537973821163177 0.26408255100250244 -0.44535955786705017 -0.09623347222805023 0.5809479355812073 1.007125973701477 0.19520527124404907 0.26408255100250244 -0.4420025646686554 -0.09063850343227386 0.29984615898923833 -0.1556238525028761 0.4001304938671046 -1.2080451910039225 1.2096296864278655 -1.2104796492409746 0.000853404185386568 0.1998131812721438 -0.0030221446676070643 0.002320123392347899 0.00930109660998858 -0.0020954283017117947 -2.819642473285555 2.0829472526994257 6.878286894488385 0.3667240785994016 0.791372432011903 -0.4497703418313775 0.2999999999588206 -0.15519855025400667 0.39999999998046015 -1.2090987221605272 1.2090487305542448 -1.2090487304984472 2.0540549447014768e-10 0.1999924471032296 8.246474432838961e-11 7.458826751962676e-13 -2.0664320483711256e-13 4.624515825836581e-14
809.36 -0.1772437058684817 -1.7461493646311785 -1.7691814742187777 0.3749363979380316 1.747563199863128 0.0006349260555497452 0.8145934838485283 0.4949622786657651 -0.6012618052713294 0.10592127572721223 -0.8161525320096191 -0.0007658309815021217 0.5507174162757006 -0.3433872544777103 0.7111203657353266 -0.3673672451014898 -0.548644562901407 0.00030832817385656344 0.5545899312168071 1.1598195625569447 0.2930220051748615 0.25949120010409765 -0.505768426919584 -0.01741858226028249 0.3499105714097778 7.730117580911522 6.113509777236025 0.25927011714970083 -0.0392271660613948 2.2016789910575627e-05 -0.17853290239442998 -1.7464855352984827 -1.7683404127704065 0.3750743865966797 1.7474416494369507 0.0006969575770199299 0.8163079023361206 0.49499642848968506 -0.6052273511886597 0.10428673028945923 -0.822477400302887 -0.0006950850947760046 0.6998291611671448 1.007125973701477 0.21655584871768951 0.2584875822067261 -0.3424121141433716 -0.08280554413795471 0.6616974472999573 1.007125973701477 0.21198073029518127 0.26184457540512085 -0.33122217655181885 -0.09511447697877884 0.2998655170279149 -0.15400754044730494 0.40013799639482334 -1.208001744738639 1.2095990220161086 -1.2104264706878445 0.0007090228849472418 0.2000099136936635 -0.0011863760805602196 0.0015841549073779882 0.005381180395388648 -0.004594126018365019 -4.666111738309636 -1.7978739165392503 5.265132827029188 0.3047348610330497 0.7451866577122712 -0.6110606887548685 0.2999999999604594 -0.15359860864900954 0.3999999999811282 -1.2090987221605214 1.2090487305542457 -1.2090487304984427 1.9694623774845824e-10 0.19999275133252511 7.908517540056809e-11 7.360246675810452e-13 -2.0763207050819842e-13 4.143537200378989e-14
