Fleaurent/UniversalRobot/csv/robolib_movej_Trapez.csv
timestamp target_q_0 target_q_1 target_q_2 target_q_3 target_q_4 target_q_5 target_qd_0 target_qd_1 target_qd_2 target_qd_3 target_qd_4 target_qd_5 target_qdd_0 target_qdd_1 target_qdd_2 target_qdd_3 target_qdd_4 target_qdd_5 actual_TCP_pose_0 actual_TCP_pose_1 actual_TCP_pose_2 actual_TCP_pose_3 actual_TCP_pose_4 actual_TCP_pose_5
0.0 0.0 -1.5707963267948966 -1.5707963267948966 0.0 1.5707963267948966 0.0 0.0 0.0 0.0 0.0 0.0 0.0 1.0 0.0 0.0 0.0 0.0 0.0 295.15 -112.34999999999998 480.9 -1.2091995761561454 1.2091995761561456 -1.2091995761561458 
0.008 3.2e-05 -1.5707963267948966 -1.5707963267948966 0.0 1.5707963267948966 0.0 0.008 0.0 0.0 0.0 0.0 0.0 1.0 0.0 0.0 0.0 0.0 0.0 295.1535950488826 -112.34055514247841 480.9 -1.2092147055764364 1.2091760113249628 -1.209176011324963 
0.016 0.000128 -1.5707963267948966 -1.5707963267948966 0.0 1.5707963267948966 0.0 0.016 0.0 0.0 0.0 0.0 0.0 1.0 0.0 0.0 0.0 0.0 0.0 295.1643783820919 -112.31221987973194 480.9 -1.2092600917893326 1.209105316402997 -1.2091053164029972 
0.024 0.000288 -1.5707963267948966 -1.5707963267948966 0.0 1.5707963267948966 0.0 0.024 0.0 0.0 0.0 0.0 0.0 1.0 0.0 0.0 0.0 0.0 0.0 295.182344559092 -112.2649921417959 480.9 -1.2093357286510245 1.2089874901051165 -1.2089874901051167 
0.032 0.000512 -1.5707963267948966 -1.5707963267948966 0.0 1.5707963267948966 0.0 0.032 0.0 0.0 0.0 0.0 0.0 1.0 0.0 0.0 0.0 0.0 0.0 295.2074845115868 -112.19886848066349 480.9 -1.2094416059222521 1.2088225302898576 -1.2088225302898579 
0.04 0.0008 -1.5707963267948966 -1.5707963267948966 0.0 1.5707963267948966 0.0 0.04 0.0 0.0 0.0 0.0 0.0 1.0 0.0 0.0 0.0 0.0 0.0 295.23978554241785 -112.11384407318803 480.9 -1.209577709268942 1.2086104339600623 -1.2086104339600627 
0.048 0.001152 -1.5707963267948966 -1.5707963267948966 0.0 1.5707963267948966 0.0 0.048 0.0 0.0 0.0 0.0 0.0 1.0 0.0 0.0 0.0 0.0 0.0 295.2792313240216 -112.00991272514642 480.9 -1.2097440202630958 1.2083511972637653 -1.2083511972637655 
0.056 0.0015680000000000002 -1.5707963267948966 -1.5707963267948966 0.0 1.5707963267948966 0.0 0.056 0.0 0.0 0.0 0.0 0.0 1.0 0.0 0.0 0.0 0.0 0.0 295.32580189645034 -111.88706687646494 480.9 -1.2099405163839287 1.208044815495334 -1.2080448154953343 
0.064 0.002048 -1.5707963267948966 -1.5707963267948966 0.0 1.5707963267948966 0.0 0.064 0.0 0.0 0.0 0.0 0.0 1.0 0.0 0.0 0.0 0.0 0.0 295.379473664957 -111.74529760760825 480.9 -1.21016717101927 1.2076912830968698 -1.20769128309687 
0.072 0.0025920000000000006 -1.5707963267948966 -1.5707963267948966 0.0 1.5707963267948966 0.0 0.07200000000000001 0.0 0.0 0.0 0.0 0.0 1.0 0.0 0.0 0.0 0.0 0.0 295.4402193971484 -111.58459464713222 480.9 -1.2104239534672074 1.2072905936598501 -1.2072905936598504 
0.08 0.0032 -1.5707963267948966 -1.5707963267948966 0.0 1.5707963267948966 0.0 0.08 0.0 0.0 0.0 0.0 0.0 1.0 0.0 0.0 0.0 0.0 0.0 295.50800821970904 -111.40494638040256 480.9 -1.2107108289379842 1.2068427399270305 -1.206842739927031 
0.088 0.0038719999999999996 -1.5707963267948966 -1.5707963267948966 0.0 1.5707963267948966 0.0 0.088 0.0 0.0 0.0 0.0 0.0 1.0 0.0 0.0 0.0 0.0 0.0 295.5828056147004 -111.20633985948024 480.9 -1.2110277585561553 1.206347713794597 -1.2063477137945973 
0.096 0.004608 -1.5707963267948966 -1.5707963267948966 0.0 1.5707963267948966 0.0 0.096 0.0 0.0 0.0 0.0 0.0 1.0 0.0 0.0 0.0 0.0 0.0 295.6645734154394 -110.98876081417534 480.9 -1.2113746993629853 1.2058055063145694 -1.2058055063145698 
0.104 0.005408000000000001 -1.5707963267948966 -1.5707963267948966 0.0 1.5707963267948966 0.0 0.10400000000000001 0.0 0.0 0.0 0.0 0.0 1.0 0.0 0.0 0.0 0.0 0.0 295.75326980196127 -110.75219366427145 480.9 -1.211751604319099 1.2052161076974512 -1.2052161076974515 
0.112 0.006272000000000001 -1.5707963267948966 -1.5707963267948966 0.0 1.5707963267948966 0.0 0.112 0.0 0.0 0.0 0.0 0.0 1.0 0.0 0.0 0.0 0.0 0.0 295.8488492960722 -110.49662153292248 480.9 -1.212158422307384 1.204579507315135 -1.2045795073151353 
0.12 0.0072 -1.5707963267948966 -1.5707963267948966 0.0 1.5707963267948966 0.0 0.12 0.0 0.0 0.0 0.0 0.0 1.0 0.0 0.0 0.0 0.0 0.0 295.95126275599847 -110.22202626122389 480.9 -1.212595098136135 1.203895693704051 -1.2038956937040513 
0.128 0.008192 -1.5707963267948966 -1.5707963267948966 0.0 1.5707963267948966 0.0 0.128 0.0 0.0 0.0 0.0 0.0 1.0 0.0 0.0 0.0 0.0 0.0 296.06045737063687 -109.92838842396122 480.9 -1.2130615725424498 1.2031646545685644 -1.2031646545685646 
0.136 0.009248000000000001 -1.5707963267948966 -1.5707963267948966 0.0 1.5707963267948966 0.0 0.136 0.0 0.0 0.0 0.0 0.0 1.0 0.0 0.0 0.0 0.0 0.0 296.17637665341584 -109.61568734653784 480.9 -1.2135577821958687 1.202386376784623 -1.2023863767846232 
0.144 0.010368000000000002 -1.5707963267948966 -1.5707963267948966 0.0 1.5707963267948966 0.0 0.14400000000000002 0.0 0.0 0.0 0.0 0.0 1.0 0.0 0.0 0.0 0.0 0.0 296.2989604357729 -109.28390112308516 480.9 -1.2140836597022584 1.201560846403644 -1.2015608464036442 
0.152 0.011552 -1.5707963267948966 -1.5707963267948966 0.0 1.5707963267948966 0.0 0.152 0.0 0.0 0.0 0.0 0.0 1.0 0.0 0.0 0.0 0.0 0.0 296.4281448602577 -108.93300663575795 480.9 -1.2146391336079376 1.2006880486566487 -1.200688048656649 
0.16 0.0128 -1.5707963267948966 -1.5707963267948966 0.0 1.5707963267948966 0.0 0.16 0.0 0.0 0.0 0.0 0.0 1.0 0.0 0.0 0.0 0.0 0.0 296.5638623732683 -108.56297957521768 480.9 -1.2152241284040484 1.1997679679586404 -1.1997679679586406 
0.168 0.014112000000000001 -1.5707963267948966 -1.5707963267948966 0.0 1.5707963267948966 0.0 0.168 0.0 0.0 0.0 0.0 0.0 1.0 0.0 0.0 0.0 0.0 0.0 296.70604171743196 -108.1737944623074 480.9 -1.2158385645311605 1.1988005879132215 -1.1988005879132217 
0.176 0.015487999999999998 -1.5707963267948966 -1.5707963267948966 0.0 1.5707963267948966 0.0 0.176 0.0 0.0 0.0 0.0 0.0 1.0 0.0 0.0 0.0 0.0 0.0 296.8546079236366 -107.7654246709212 480.9 -1.21648235838412 1.1977858913174522 -1.1977858913174524 
0.184 0.016928 -1.5707963267948966 -1.5707963267948966 0.0 1.5707963267948966 0.0 0.184 0.0 0.0 0.0 0.0 0.0 1.0 0.0 0.0 0.0 0.0 0.0 297.0094823027274 -107.33784245207201 480.9 -1.2171554223171324 1.1967238601669474 -1.1967238601669477 
0.192 0.018432 -1.5707963267948966 -1.5707963267948966 0.0 1.5707963267948966 0.0 0.192 0.0 0.0 0.0 0.0 0.0 1.0 0.0 0.0 0.0 0.0 0.0 297.1705824368763 -106.891018959161 480.9 -1.217857664649078 1.195614475661211 -1.1956144756612113 
0.2 0.020000000000000004 -1.5707963267948966 -1.5707963267948966 0.0 1.5707963267948966 0.0 0.2 0.0 0.0 0.0 0.0 0.0 1.0 0.0 0.0 0.0 0.0 0.0 297.3378221706364 -106.42492427445274 480.9 -1.2185889896690676 1.194457718209207 -1.1944577182092075 
0.208 0.021632000000000005 -1.5707963267948966 -1.5707963267948966 0.0 1.5707963267948966 0.0 0.20800000000000002 0.0 0.0 0.0 0.0 0.0 1.0 0.0 0.0 0.0 0.0 0.0 297.51111160169467 -105.93952743675972 480.9 -1.2193492976422196 1.1932535674351608 -1.193253567435161 
0.216 0.023327999999999998 -1.5707963267948966 -1.5707963267948966 0.0 1.5707963267948966 0.0 0.216 0.0 0.0 0.0 0.0 0.0 1.0 0.0 0.0 0.0 0.0 0.0 297.69035707133327 -105.4347964703403 480.9 -1.2201384848156724 1.192002002184595 -1.1920020021845952 
0.224 0.025088000000000003 -1.5707963267948966 -1.5707963267948966 0.0 1.5707963267948966 0.0 0.224 0.0 0.0 0.0 0.0 0.0 1.0 0.0 0.0 0.0 0.0 0.0 297.8754611546139 -104.91069841501428 480.9 -1.2209564434248221 1.1907030005305959 -1.190703000530596 
0.232 0.026912000000000002 -1.5707963267948966 -1.5707963267948966 0.0 1.5707963267948966 0.0 0.232 0.0 0.0 0.0 0.0 0.0 1.0 0.0 0.0 0.0 0.0 0.0 298.0663226502984 -104.36719935750016 480.9 -1.2218030616997861 1.1893565397803083 -1.1893565397803085 
0.24 0.0288 -1.5707963267948966 -1.5707963267948966 0.0 1.5707963267948966 0.0 0.24 0.0 0.0 0.0 0.0 0.0 1.0 0.0 0.0 0.0 0.0 0.0 298.2628365705195 -103.80426446397853 480.9 -1.2226782238720857 1.187962596481655 -1.1879625964816551 
0.248 0.030751999999999998 -1.5707963267948966 -1.5707963267948966 0.0 1.5707963267948966 0.0 0.248 0.0 0.0 0.0 0.0 0.0 1.0 0.0 0.0 0.0 0.0 0.0 298.46489413021624 -103.2218580138858 480.9 -1.2235818101815525 1.1865211464302812 -1.1865211464302814 
0.256 0.032768 -1.5707963267948966 -1.5707963267948966 0.0 1.5707963267948966 0.0 0.256 0.0 0.0 0.0 0.0 0.0 1.0 0.0 0.0 0.0 0.0 0.0 298.6723827363506 -102.61994343494302 480.9 -1.2245136968834491 1.1850321646767241 -1.1850321646767243 
0.264 0.034848000000000004 -1.5707963267948966 -1.5707963267948966 0.0 1.5707963267948966 0.0 0.264 0.0 0.0 0.0 0.0 0.0 1.0 0.0 0.0 0.0 0.0 0.0 298.8851859769186 -101.99848333942413 480.9 -1.2254737562558078 1.1834956255337983 -1.1834956255337985 
0.272 0.036992000000000004 -1.5707963267948966 -1.5707963267948966 0.0 1.5707963267948966 0.0 0.272 0.0 0.0 0.0 0.0 0.0 1.0 0.0 0.0 0.0 0.0 0.0 299.10318360977504 -101.35743956166809 480.9 -1.2264618566069785 1.1819115025842022 -1.1819115025842024 
0.28 0.039200000000000006 -1.5707963267948966 -1.5707963267948966 0.0 1.5707963267948966 0.0 0.28 0.0 0.0 0.0 0.0 0.0 1.0 0.0 0.0 0.0 0.0 0.0 299.32625155128665 -100.69677319684001 480.9 -1.227477862283392 1.180279768688341 -1.1802797686883413 
0.288 0.04147200000000001 -1.5707963267948966 -1.5707963267948966 0.0 1.5707963267948966 0.0 0.28800000000000003 0.0 0.0 0.0 0.0 0.0 1.0 0.0 0.0 0.0 0.0 0.0 299.5542618648326 -100.01644464094551 480.9 -1.228521633677521 1.1786003959923594 -1.1786003959923597 
0.296 0.04380799999999999 -1.5707963267948966 -1.5707963267948966 0.0 1.5707963267948966 0.0 0.296 0.0 0.0 0.0 0.0 0.0 1.0 0.0 0.0 0.0 0.0 0.0 299.78708274916875 -99.3164136321033 480.9 -1.229593027236055 1.1768733559363898 -1.17687335593639 
0.304 0.046208 -1.5707963267948966 -1.5707963267948966 0.0 1.5707963267948966 0.0 0.304 0.0 0.0 0.0 0.0 0.0 1.0 0.0 0.0 0.0 0.0 0.0 300.0245785266769 -98.59663929308057 480.9 -1.230691895468271 1.1750986192630084 -1.1750986192630086 
0.312 0.048672 -1.5707963267948966 -1.5707963267948966 0.0 1.5707963267948966 0.0 0.312 0.0 0.0 0.0 0.0 0.0 1.0 0.0 0.0 0.0 0.0 0.0 300.26660963151534 -97.85708017509612 480.9 -1.2318180869546018 1.1732761560258933 -1.1732761560258935 
0.32 0.0512 -1.5707963267948966 -1.5707963267948966 0.0 1.5707963267948966 0.0 0.32 0.0 0.0 0.0 0.0 0.0 1.0 0.0 0.0 0.0 0.0 0.0 300.51303259769185 -97.09769430289576 480.9 -1.2329714463554022 1.1714059355986934 -1.1714059355986937 
0.328 0.053792000000000006 -1.5707963267948966 -1.5707963267948966 0.0 1.5707963267948966 0.0 0.328 0.0 0.0 0.0 0.0 0.0 1.0 0.0 0.0 0.0 0.0 0.0 300.76370004708065 -96.31843922110498 480.9 -1.2341518144199064 1.1694879266840952 -1.1694879266840954 
0.336 0.056448000000000005 -1.5707963267948966 -1.5707963267948966 0.0 1.5707963267948966 0.0 0.336 0.0 0.0 0.0 0.0 0.0 1.0 0.0 0.0 0.0 0.0 0.0 301.0184606774018 -95.51927204186333 480.9 -1.2353590279953721 1.1675220973230866 -1.1675220973230869 
0.344 0.05916800000000001 -1.5707963267948966 -1.5707963267948966 0.0 1.5707963267948966 0.0 0.34400000000000003 0.0 0.0 0.0 0.0 0.0 1.0 0.0 0.0 0.0 0.0 0.0 301.2771592501865 -94.7001494937454 480.9 -1.2365929200364143 1.1655084149044206 -1.1655084149044208 
0.352 0.06195199999999999 -1.5707963267948966 -1.5707963267948966 0.0 1.5707963267948966 0.0 0.352 0.0 0.0 0.0 0.0 0.0 1.0 0.0 0.0 0.0 0.0 0.0 301.5396365787498 -93.86102797197294 480.9 -1.2378533196145127 1.163446846174269 -1.1634468461742693 
0.36 0.0648 -1.5707963267948966 -1.5707963267948966 0.0 1.5707963267948966 0.0 0.36 0.0 0.0 0.0 0.0 0.0 1.0 0.0 0.0 0.0 0.0 0.0 301.8057295161929 -93.00186358992268 480.9 -1.2391400519277098 1.1613373572460712 -1.1613373572460715 
0.368 0.067712 -1.5707963267948966 -1.5707963267948966 0.0 1.5707963267948966 0.0 0.368 0.0 0.0 0.0 0.0 0.0 1.0 0.0 0.0 0.0 0.0 0.0 302.0752709434597 -92.12261223193445 480.9 -1.240452938310473 1.159179913610567 -1.1591799136105674 
0.376 0.070688 -1.5707963267948966 -1.5707963267948966 0.0 1.5707963267948966 0.0 0.376 0.0 0.0 0.0 0.0 0.0 1.0 0.0 0.0 0.0 0.0 0.0 302.3480897574701 -91.22322960742385 480.9 -1.2417917962437328 1.1569744801460164 -1.156974480146017 
0.384 0.073728 -1.5707963267948966 -1.5707963267948966 0.0 1.5707963267948966 0.0 0.384 0.0 0.0 0.0 0.0 0.0 1.0 0.0 0.0 0.0 0.0 0.0 302.62401085935505 -90.30367130630366 480.9 -1.2431564393650893 1.1547210211286019 -1.154721021128602 
0.392 0.07683200000000001 -1.5707963267948966 -1.5707963267948966 0.0 1.5707963267948966 0.0 0.392 0.0 0.0 0.0 0.0 0.0 1.0 0.0 0.0 0.0 0.0 0.0 302.902855142819 -89.36389285571877 480.9 -1.244546677479181 1.1524195002430102 -1.1524195002430104 
0.4 0.08000000000000002 -1.5707963267948966 -1.5707963267948966 0.0 1.5707963267948966 0.0 0.4 0.0 0.0 0.0 0.0 0.0 1.0 0.0 0.0 0.0 0.0 0.0 303.1844394826546 -88.40384977809795 480.9 -1.245962316568212 1.1500698805931906 -1.1500698805931908 
0.408 0.08323200000000001 -1.5707963267948966 -1.5707963267948966 0.0 1.5707963267948966 0.0 0.40800000000000003 0.0 0.0 0.0 0.0 0.0 1.0 0.0 0.0 0.0 0.0 0.0 303.4685767234366 -87.42349765052661 480.9 -1.247403158802641 1.1476721247132875 -1.1476721247132877 
0.416 0.08652800000000002 -1.5707963267948966 -1.5707963267948966 0.0 1.5707963267948966 0.0 0.41600000000000004 0.0 0.0 0.0 0.0 0.0 1.0 0.0 0.0 0.0 0.0 0.0 303.7550756684213 -86.42279216544465 480.9 -1.2488690025520166 1.145226194578745 -1.1452261945787452 
0.424 0.089888 -1.5707963267948966 -1.5707963267948966 0.0 1.5707963267948966 0.0 0.424 0.0 0.0 0.0 0.0 0.0 1.0 0.0 0.0 0.0 0.0 0.0 304.04374106867937 -85.40168919267246 480.9 -1.2503596423959624 1.1427320516175752 -1.1427320516175754 
0.432 0.09331199999999999 -1.5707963267948966 -1.5707963267948966 0.0 1.5707963267948966 0.0 0.432 0.0 0.0 0.0 0.0 0.0 1.0 0.0 0.0 0.0 0.0 0.0 304.3343736124907 -84.36014484276872 480.9 -1.2518748691353065 1.140189656721796 -1.1401896567217962 
0.44 0.0968 -1.5707963267948966 -1.5707963267948966 0.0 1.5707963267948966 0.0 0.44 0.0 0.0 0.0 0.0 0.0 1.0 0.0 0.0 0.0 0.0 0.0 304.6267699150285 -83.29811553172306 480.9 -1.2534144698033538 1.1375989702590303 -1.1375989702590306 
0.448 0.10035200000000001 -1.5707963267948966 -1.5707963267948966 0.0 1.5707963267948966 0.0 0.448 0.0 0.0 0.0 0.0 0.0 1.0 0.0 0.0 0.0 0.0 0.0 304.9207225083637 -82.21555804698657 480.9 -1.254978227677287 1.1349599520842613 -1.1349599520842617 
0.456 0.103968 -1.5707963267948966 -1.5707963267948966 0.0 1.5707963267948966 0.0 0.456 0.0 0.0 0.0 0.0 0.0 1.0 0.0 0.0 0.0 0.0 0.0 305.21601983181864 -81.11242961484298 480.9 -1.256565922289704 1.132272561551745 -1.1322725615517453 
0.464 0.10764800000000001 -1.5707963267948966 -1.5707963267948966 0.0 1.5707963267948966 0.0 0.464 0.0 0.0 0.0 0.0 0.0 1.0 0.0 0.0 0.0 0.0 0.0 305.5124462227003 -79.9886879691225 480.9 -1.2581773294402823 1.129536757527078 -1.1295367575270783 
0.472 0.11139200000000002 -1.5707963267948966 -1.5707963267948966 0.0 1.5707963267948966 0.0 0.47200000000000003 0.0 0.0 0.0 0.0 0.0 1.0 0.0 0.0 0.0 0.0 0.0 305.8097819074453 -78.84429142126089 480.9 -1.2598122212075618 1.1267524983994113 -1.1267524983994115 
0.48 0.1152 -1.5707963267948966 -1.5707963267948966 0.0 1.5707963267948966 0.0 0.48 0.0 0.0 0.0 0.0 0.0 1.0 0.0 0.0 0.0 0.0 0.0 306.1078029932077 -77.67919893170574 480.9 -1.2614703659608488 1.1239197420938114 -1.1239197420938116 
0.488 0.119072 -1.5707963267948966 -1.5707963267948966 0.0 1.5707963267948966 0.0 0.488 0.0 0.0 0.0 0.0 0.0 1.0 0.0 0.0 0.0 0.0 0.0 306.4062814599219 -76.49337018267077 480.9 -1.2631515283722325 1.1210384460837686 -1.1210384460837688 
0.496 0.12300799999999999 -1.5707963267948966 -1.5707963267948966 0.0 1.5707963267948966 0.0 0.496 0.0 0.0 0.0 0.0 0.0 1.0 0.0 0.0 0.0 0.0 0.0 306.704985152874 -75.28676565224029 480.9 -1.26485546942871 1.1181085674038405 -1.1181085674038407 
0.504 0.127008 -1.5707963267948966 -1.5707963267948966 0.0 1.5707963267948966 0.0 0.504 0.0 0.0 0.0 0.0 0.0 1.0 0.0 0.0 0.0 0.0 0.0 307.00367777581505 -74.05934668982387 480.9 -1.2665819464444141 1.1151300626624359 -1.1151300626624363 
0.512 0.131072 -1.5707963267948966 -1.5707963267948966 0.0 1.5707963267948966 0.0 0.512 0.0 0.0 0.0 0.0 0.0 1.0 0.0 0.0 0.0 0.0 0.0 307.3021188846506 -72.81107559296223 480.9 -1.268330713072941 1.1121028880547332 -1.1121028880547335 
0.52 0.13520000000000001 -1.5707963267948966 -1.5707963267948966 0.0 1.5707963267948966 0.0 0.52 0.0 0.0 0.0 0.0 0.0 1.0 0.0 0.0 0.0 0.0 0.0 307.6000638817408 -71.54191568548418 480.9 -1.2701015193197747 1.1090269993757274 -1.1090269993757278 
0.528 0.13939200000000002 -1.5707963267948966 -1.5707963267948966 0.0 1.5707963267948966 0.0 0.528 0.0 0.0 0.0 0.0 0.0 1.0 0.0 0.0 0.0 0.0 0.0 307.8972640108474 -70.25183139701446 480.9 -1.271894111554794 1.1059023520334073 -1.1059023520334075 
0.536 0.14364800000000003 -1.5707963267948966 -1.5707963267948966 0.0 1.5707963267948966 0.0 0.536 0.0 0.0 0.0 0.0 0.0 1.0 0.0 0.0 0.0 0.0 0.0 308.193466352762 -68.94078834383129 480.9 -1.2737082325248719 1.1027289010620551 -1.1027289010620553 
0.544 0.14796800000000002 -1.5707963267948966 -1.5707963267948966 0.0 1.5707963267948966 0.0 0.544 0.0 0.0 0.0 0.0 0.0 1.0 0.0 0.0 0.0 0.0 0.0 308.48841382165506 -67.60875341107318 480.9 -1.2755436213665516 1.0995066011356742 -1.0995066011356744 
0.552 0.15235200000000002 -1.5707963267948966 -1.5707963267948966 0.0 1.5707963267948966 0.0 0.552 0.0 0.0 0.0 0.0 0.0 1.0 0.0 0.0 0.0 0.0 0.0 308.7818451621793 -66.25569483629245 480.9 -1.2774000136187915 1.0962354065815236 -1.0962354065815239 
0.56 0.15680000000000002 -1.5707963267948966 -1.5707963267948966 0.0 1.5707963267948966 0.0 0.56 0.0 0.0 0.0 0.0 0.0 1.0 0.0 0.0 0.0 0.0 0.0 309.07349494736843 -64.88158229435392 480.9 -1.2792771412357875 1.0929152713937798 -1.09291527139378 
0.568 0.16131200000000004 -1.5707963267948966 -1.5707963267948966 0.0 1.5707963267948966 0.0 0.5680000000000001 0.0 0.0 0.0 0.0 0.0 1.0 0.0 0.0 0.0 0.0 0.0 309.36309357736735 -63.48638698367569 480.9 -1.2811747325998544 1.089546149247304 -1.0895461492473042 
0.576 0.16588800000000004 -1.5707963267948966 -1.5707963267948966 0.0 1.5707963267948966 0.0 0.5760000000000001 0.0 0.0 0.0 0.0 0.0 1.0 0.0 0.0 0.0 0.0 0.0 309.65036727903464 -62.07008171380913 480.9 -1.283092512534367 1.086127993511522 -1.0861279935115224 
0.584 0.17052799999999999 -1.5707963267948966 -1.5707963267948966 0.0 1.5707963267948966 0.0 0.584 0.0 0.0 0.0 0.0 0.0 1.0 0.0 0.0 0.0 0.0 0.0 309.9350381064552 -60.63264099435358 480.9 -1.2850302023167552 1.0826607572644071 -1.0826607572644074 
0.592 0.17523199999999997 -1.5707963267948966 -1.5707963267948966 0.0 1.5707963267948966 0.0 0.592 0.0 0.0 0.0 0.0 0.0 1.0 0.0 0.0 0.0 0.0 0.0 310.21682394240463 -59.17404112520218 480.9 -1.2869875196915488 1.0791443933065696 -1.0791443933065699 
0.6 0.18 -1.5707963267948966 -1.5707963267948966 0.0 1.5707963267948966 0.0 0.6 0.0 0.0 0.0 0.0 0.0 1.0 0.0 0.0 0.0 0.0 0.0 310.49543850080534 -57.694260288113426 480.9 -1.2889641788834592 1.0755788541754445 -1.0755788541754447 
0.608 0.184832 -1.5707963267948966 -1.5707963267948966 0.0 1.5707963267948966 0.0 0.608 0.0 0.0 0.0 0.0 0.0 1.0 0.0 0.0 0.0 0.0 0.0 310.7705913302158 -56.19327863960257 480.9 -1.290959890610505 1.0719640921595757 -1.0719640921595759 
0.616 0.189728 -1.5707963267948966 -1.5707963267948966 0.0 1.5707963267948966 0.0 0.616 0.0 0.0 0.0 0.0 0.0 1.0 0.0 0.0 0.0 0.0 0.0 311.04198781839443 -54.67107840514705 480.9 -1.2929743620971663 1.0683000593129957 -1.0683000593129959 
0.624 0.194688 -1.5707963267948966 -1.5707963267948966 0.0 1.5707963267948966 0.0 0.624 0.0 0.0 0.0 0.0 0.0 1.0 0.0 0.0 0.0 0.0 0.0 311.30932919798215 -53.12764397469877 480.9 -1.2950072970875648 1.064586707469696 -1.0645867074696962 
0.632 0.199712 -1.5707963267948966 -1.5707963267948966 0.0 1.5707963267948966 0.0 0.632 0.0 0.0 0.0 0.0 0.0 1.0 0.0 0.0 0.0 0.0 0.0 311.57231255334386 -51.5629619994952 480.9 -1.2970583958586641 1.0608239882581854 -1.0608239882581856 
0.64 0.2048 -1.5707963267948966 -1.5707963267948966 0.0 1.5707963267948966 0.0 0.64 0.0 0.0 0.0 0.0 0.0 1.0 0.0 0.0 0.0 0.0 0.0 311.83063082861486 -49.97702149016153 480.9 -1.299127355233488 1.0570118531161334 -1.0570118531161337 
0.648 0.209952 -1.5707963267948966 -1.5707963267948966 0.0 1.5707963267948966 0.0 0.648 0.0 0.0 0.0 0.0 0.0 1.0 0.0 0.0 0.0 0.0 0.0 312.08397283699526 -48.3698139160942 480.9 -1.3012138685943437 1.0531502533050965 -1.053150253305097 
0.656 0.21516800000000003 -1.5707963267948966 -1.5707963267948966 0.0 1.5707963267948966 0.0 0.656 0.0 0.0 0.0 0.0 0.0 1.0 0.0 0.0 0.0 0.0 0.0 312.3320232713363 -46.741333306116 480.9 -1.3033176258960528 1.0492391399253238 -1.049239139925324 
0.664 0.22044800000000003 -1.5707963267948966 -1.5707963267948966 0.0 1.5707963267948966 0.0 0.664 0.0 0.0 0.0 0.0 0.0 1.0 0.0 0.0 0.0 0.0 0.0 312.57446271606506 -45.09157635039213 480.9 -1.3054383136791738 1.0452784639306374 -1.0452784639306376 
0.672 0.22579200000000002 -1.5707963267948966 -1.5707963267948966 0.0 1.5707963267948966 0.0 0.672 0.0 0.0 0.0 0.0 0.0 1.0 0.0 0.0 0.0 0.0 0.0 312.8109676604921 -43.42054250359524 480.9 -1.307575615083226 1.0412681761433915 -1.0412681761433917 
0.68 0.23120000000000004 -1.5707963267948966 -1.5707963267948966 0.0 1.5707963267948966 0.0 0.68 0.0 0.0 0.0 0.0 0.0 1.0 0.0 0.0 0.0 0.0 0.0 313.0412105135488 -41.72823408930752 480.9 -1.3097292098598872 1.0372082272694958 -1.0372082272694962 
0.688 0.23667200000000005 -1.5707963267948966 -1.5707963267948966 0.0 1.5707963267948966 0.0 0.6880000000000001 0.0 0.0 0.0 0.0 0.0 1.0 0.0 0.0 0.0 0.0 0.0 313.26485961999964 -40.01465640564612 480.9 -1.3118987743861812 1.0330985679135136 -1.0330985679135138 
0.696 0.24220800000000003 -1.5707963267948966 -1.5707963267948966 0.0 1.5707963267948966 0.0 0.6960000000000001 0.0 0.0 0.0 0.0 0.0 1.0 0.0 0.0 0.0 0.0 0.0 313.48157927817925 -38.27981783209776 480.9 -1.3140839816776364 1.0289391485938213 -1.0289391485938215 
0.704 0.24780799999999997 -1.5707963267948966 -1.5707963267948966 0.0 1.5707963267948966 0.0 0.704 0.0 0.0 0.0 0.0 0.0 1.0 0.0 0.0 0.0 0.0 0.0 313.6910297592985 -36.52372993754742 480.9 -1.3162845014014093 1.0247299197578326 -1.0247299197578328 
0.712 0.253472 -1.5707963267948966 -1.5707963267948966 0.0 1.5707963267948966 0.0 0.712 0.0 0.0 0.0 0.0 0.0 1.0 0.0 0.0 0.0 0.0 0.0 313.8928673283695 -34.746407589484825 480.9 -1.3184999998893734 1.0204708317972837 -1.020470831797284 
0.72 0.2592 -1.5707963267948966 -1.5707963267948966 0.0 1.5707963267948966 0.0 0.72 0.0 0.0 0.0 0.0 0.0 1.0 0.0 0.0 0.0 0.0 0.0 314.08674426679806 -32.947869064371886 480.9 -1.3207301401511626 1.0161618350635744 -1.0161618350635746 
0.728 0.264992 -1.5707963267948966 -1.5707963267948966 0.0 1.5707963267948966 0.0 0.728 0.0 0.0 0.0 0.0 0.0 1.0 0.0 0.0 0.0 0.0 0.0 314.27230889669113 -31.128136159152554 480.9 -1.3229745818871645 1.011802879883167 -1.0118028798831673 
0.736 0.270848 -1.5707963267948966 -1.5707963267948966 0.0 1.5707963267948966 0.0 0.736 0.0 0.0 0.0 0.0 0.0 1.0 0.0 0.0 0.0 0.0 0.0 314.4492056069299 -29.287234303886187 480.9 -1.325232981501457 1.0073939165730368 -1.007393916573037 
0.744 0.276768 -1.5707963267948966 -1.5707963267948966 0.0 1.5707963267948966 0.0 0.744 0.0 0.0 0.0 0.0 0.0 1.0 0.0 0.0 0.0 0.0 0.0 314.6170748810569 -27.425192675483903 480.9 -1.3275049921146813 1.0029348954561714 -1.0029348954561716 
0.752 0.282752 -1.5707963267948966 -1.5707963267948966 0.0 1.5707963267948966 0.0 0.752 0.0 0.0 0.0 0.0 0.0 1.0 0.0 0.0 0.0 0.0 0.0 314.7755533270284 -25.54204431252707 480.9 -1.3297902635768493 0.9984257668771235 -0.9984257668771237 
0.76 0.2888 -1.5707963267948966 -1.5707963267948966 0.0 1.5707963267948966 0.0 0.76 0.0 0.0 0.0 0.0 0.0 1.0 0.0 0.0 0.0 0.0 0.0 314.924273708881 -23.637826231144622 480.9 -1.3320884424800694 0.9938664812176029 -0.9938664812176031 
0.768 0.294912 -1.5707963267948966 -1.5707963267948966 0.0 1.5707963267948966 0.0 0.768 0.0 0.0 0.0 0.0 0.0 1.0 0.0 0.0 0.0 0.0 0.0 315.0628649803647 -21.712579541926345 480.9 -1.3343991721711972 0.9892569889121167 -0.9892569889121169 
0.776 0.301088 -1.5707963267948966 -1.5707963267948966 0.0 1.5707963267948966 0.0 0.776 0.0 0.0 0.0 0.0 0.0 1.0 0.0 0.0 0.0 0.0 0.0 315.1909523205919 -19.76634956784679 480.9 -1.3367220927643941 0.9845972404636498 -0.98459724046365 
0.784 0.30732800000000005 -1.5707963267948966 -1.5707963267948966 0.0 1.5707963267948966 0.0 0.784 0.0 0.0 0.0 0.0 0.0 1.0 0.0 0.0 0.0 0.0 0.0 315.3081571717553 -17.799185963174043 480.9 -1.3390568411535937 0.9798871864593842 -0.9798871864593844 
0.792 0.313632 -1.5707963267948966 -1.5707963267948966 0.0 1.5707963267948966 0.0 0.792 0.0 0.0 0.0 0.0 0.0 1.0 0.0 0.0 0.0 0.0 0.0 315.4140972789641 -15.81114283333594 480.9 -1.3414030510248645 0.975126777586456 -0.9751267775864563 
0.8 0.32000000000000006 -1.5707963267948966 -1.5707963267948966 0.0 1.5707963267948966 0.0 0.8 0.0 0.0 0.0 0.0 0.0 1.0 0.0 0.0 0.0 0.0 0.0 315.50838673225326 -13.802278855715038 480.9 -1.3437603528686695 0.9703159646477474 -0.9703159646477476 
0.808 0.3264000000000001 -1.5707963267948966 -1.5707963267948966 0.0 1.5707963267948966 0.0 0.8 0.0 0.0 0.0 0.0 0.0 0.0 0.0 0.0 0.0 0.0 0.0 315.5902591241956 -11.78275629566603 480.9 -1.3461166250400376 0.965478889190115 -0.9654788891901153 
0.816 0.3328000000000001 -1.5707963267948966 -1.5707963267948966 0.0 1.5707963267948966 0.0 0.8 0.0 0.0 0.0 0.0 0.0 0.0 0.0 0.0 0.0 0.0 0.0 315.6592049832469 -9.762751115566477 480.9 -1.3484600024213886 0.9606397346610869 -0.9606397346610871 
0.824 0.33920000000000006 -1.5707963267948966 -1.5707963267948966 0.0 1.5707963267948966 0.0 0.8 0.0 0.0 0.0 0.0 0.0 0.0 0.0 0.0 0.0 0.0 0.0 315.7152214853944 -7.742346054546179 480.9 -1.3507904978479464 0.9557985147721534 -0.9557985147721536 
0.832 0.3456000000000001 -1.5707963267948966 -1.5707963267948966 0.0 1.5707963267948966 0.0 0.8 0.0 0.0 0.0 0.0 0.0 0.0 0.0 0.0 0.0 0.0 0.0 315.75830633621 -5.721623868113934 480.9 -1.3531081240791623 0.9509552431835191 -0.9509552431835194 
0.84 0.3520000000000001 -1.5707963267948966 -1.5707963267948966 0.0 1.5707963267948966 0.0 0.8 0.0 0.0 0.0 0.0 0.0 0.0 0.0 0.0 0.0 0.0 0.0 315.7884577709442 -3.7006673247679984 480.9 -1.3554128937988612 0.946109933504494 -0.9461099335044942 
0.848 0.3584000000000001 -1.5707963267948966 -1.5707963267948966 0.0 1.5707963267948966 0.0 0.8 0.0 0.0 0.0 0.0 0.0 0.0 0.0 0.0 0.0 0.0 0.0 315.80567455459845 -1.6795592026058301 480.9 -1.3577048196153765 0.9412625992938795 -0.9412625992938798 
0.856 0.3648000000000001 -1.5707963267948966 -1.5707963267948966 0.0 1.5707963267948966 0.0 0.8 0.0 0.0 0.0 0.0 0.0 0.0 0.0 0.0 0.0 0.0 0.0 315.8099559819757 0.3416177140664729 480.9 -1.359983914061698 0.9364132540603576 -0.9364132540603578 
0.864 0.3712000000000001 -1.5707963267948966 -1.5707963267948966 0.0 1.5707963267948966 0.0 0.8 0.0 0.0 0.0 0.0 0.0 0.0 0.0 0.0 0.0 0.0 0.0 315.8013018777093 2.362780638124949 480.9 -1.362250189595611 0.9315619112628726 -0.9315619112628728 
0.872 0.3776000000000001 -1.5707963267948966 -1.5707963267948966 0.0 1.5707963267948966 0.0 0.8 0.0 0.0 0.0 0.0 0.0 0.0 0.0 0.0 0.0 0.0 0.0 315.7797125962702 4.383846783018825 480.9 -1.3645036585998342 0.9267085843110139 -0.926708584311014 
0.88 0.3840000000000001 -1.5707963267948966 -1.5707963267948966 0.0 1.5707963267948966 0.0 0.8 0.0 0.0 0.0 0.0 0.0 0.0 0.0 0.0 0.0 0.0 0.0 315.7451890219522 6.404733366161395 480.9 -1.3667443333821638 0.9218532865653957 -0.9218532865653959 
0.888 0.39040000000000014 -1.5707963267948966 -1.5707963267948966 0.0 1.5707963267948966 0.0 0.8 0.0 0.0 0.0 0.0 0.0 0.0 0.0 0.0 0.0 0.0 0.0 315.6977325688363 8.425357612320724 480.9 -1.3689722261756112 0.9169960313380348 -0.916996031338035 
0.896 0.39680000000000015 -1.5707963267948966 -1.5707963267948966 0.0 1.5707963267948966 0.0 0.8 0.0 0.0 0.0 0.0 0.0 0.0 0.0 0.0 0.0 0.0 0.0 315.63734518073204 10.445636757010206 480.9 -1.3711873491385398 0.9121368318927251 -0.9121368318927253 
0.904 0.4032000000000001 -1.5707963267948966 -1.5707963267948966 0.0 1.5707963267948966 0.0 0.8 0.0 0.0 0.0 0.0 0.0 0.0 0.0 0.0 0.0 0.0 0.0 315.56402933109837 12.465488049878498 480.9 -1.373389714354805 0.9072757014454121 -0.9072757014454123 
0.912 0.40960000000000013 -1.5707963267948966 -1.5707963267948966 0.0 1.5707963267948966 0.0 0.8 0.0 0.0 0.0 0.0 0.0 0.0 0.0 0.0 0.0 0.0 0.0 315.4777880229423 14.48482875809908 480.9 -1.3755793338338944 0.9024126531645639 -0.9024126531645641 
0.92 0.41600000000000015 -1.5707963267948966 -1.5707963267948966 0.0 1.5707963267948966 0.0 0.8 0.0 0.0 0.0 0.0 0.0 0.0 0.0 0.0 0.0 0.0 0.0 315.37862478869573 16.503576169758862 480.9 -1.377756219511061 0.8975477001715411 -0.8975477001715413 
0.928 0.42240000000000016 -1.5707963267948966 -1.5707963267948966 0.0 1.5707963267948966 0.0 0.8 0.0 0.0 0.0 0.0 0.0 0.0 0.0 0.0 0.0 0.0 0.0 315.26654369007093 18.521647597246112 480.9 -1.3799203832474607 0.8926808555409622 -0.8926808555409623 
0.936 0.4288000000000002 -1.5707963267948966 -1.5707963267948966 0.0 1.5707963267948966 0.0 0.8 0.0 0.0 0.0 0.0 0.0 0.0 0.0 0.0 0.0 0.0 0.0 315.1415493178939 20.53896038063728 480.9 -1.3820718368302893 0.8878121323010713 -0.8878121323010715 
0.944 0.43520000000000014 -1.5707963267948966 -1.5707963267948966 0.0 1.5707963267948966 0.0 0.8 0.0 0.0 0.0 0.0 0.0 0.0 0.0 0.0 0.0 0.0 0.0 315.0036467919168 22.555431891082772 480.9 -1.384210591972919 0.8829415434341004 -0.8829415434341006 
0.952 0.44160000000000016 -1.5707963267948966 -1.5707963267948966 0.0 1.5707963267948966 0.0 0.8 0.0 0.0 0.0 0.0 0.0 0.0 0.0 0.0 0.0 0.0 0.0 314.85284176060776 24.5709795341915 480.9 -1.3863366603150298 0.8780691018766302 -0.8780691018766302 
0.96 0.4480000000000002 -1.5707963267948966 -1.5707963267948966 0.0 1.5707963267948966 0.0 0.8 0.0 0.0 0.0 0.0 0.0 0.0 0.0 0.0 0.0 0.0 0.0 314.68914040091977 26.585520753413775 480.9 -1.3884500534227466 0.8731948205199499 -0.87319482051995 
0.968 0.4544000000000002 -1.5707963267948966 -1.5707963267948966 0.0 1.5707963267948966 0.0 0.8 0.0 0.0 0.0 0.0 0.0 0.0 0.0 0.0 0.0 0.0 0.0 314.51254941803757 28.598973033422926 480.9 -1.3905507827887726 0.868318712210415 -0.8683187122104151 
0.976 0.4608000000000002 -1.5707963267948966 -1.5707963267948966 0.0 1.5707963267948966 0.0 0.8 0.0 0.0 0.0 0.0 0.0 0.0 0.0 0.0 0.0 0.0 0.0 314.3230760451032 30.611253903495044 480.9 -1.392638859832521 0.8634407897498023 -0.8634407897498024 
0.984 0.46720000000000017 -1.5707963267948966 -1.5707963267948966 0.0 1.5707963267948966 0.0 0.8 0.0 0.0 0.0 0.0 0.0 0.0 0.0 0.0 0.0 0.0 0.0 314.12072804291955 32.62228094088701 480.9 -1.3947142959002474 0.8585610658956636 -0.8585610658956637 
0.992 0.47360000000000024 -1.5707963267948966 -1.5707963267948966 0.0 1.5707963267948966 0.0 0.8 0.0 0.0 0.0 0.0 0.0 0.0 0.0 0.0 0.0 0.0 0.0 313.9055136996324 34.63197177421258 480.9 -1.3967771022651843 0.853679553361678 -0.8536795533616781 
1.0 0.4800000000000002 -1.5707963267948966 -1.5707963267948966 0.0 1.5707963267948966 0.0 0.8 0.0 0.0 0.0 0.0 0.0 0.0 0.0 0.0 0.0 0.0 0.0 313.67744183039133 36.64024408681614 480.9 -1.398827290127669 0.8487962648180005 -0.8487962648180006 
1.008 0.4864000000000002 -1.5707963267948966 -1.5707963267948966 0.0 1.5707963267948966 0.0 0.8 0.0 0.0 0.0 0.0 0.0 0.0 0.0 0.0 0.0 0.0 0.0 313.436521776988 38.64701562014461 480.9 -1.400864870615276 0.843911212891611 -0.843911212891611 
1.016 0.49280000000000024 -1.5707963267948966 -1.5707963267948966 0.0 1.5707963267948966 0.0 0.8 0.0 0.0 0.0 0.0 0.0 0.0 0.0 0.0 0.0 0.0 0.0 313.1827634074743 40.652204177116516 480.9 -1.4028898547829463 0.8390244101666599 -0.83902441016666 
1.024 0.4992000000000002 -1.5707963267948966 -1.5707963267948966 0.0 1.5707963267948966 0.0 0.8 0.0 0.0 0.0 0.0 0.0 0.0 0.0 0.0 0.0 0.0 0.0 312.9161771157575 42.655727625488886 480.9 -1.4049022536131173 0.8341358691848129 -0.834135869184813 
1.032 0.5056000000000003 -1.5707963267948966 -1.5707963267948966 0.0 1.5707963267948966 0.0 0.8 0.0 0.0 0.0 0.0 0.0 0.0 0.0 0.0 0.0 0.0 0.0 312.63677382117476 44.65750390122145 480.9 -1.4069020780158517 0.8292456024455933 -0.8292456024455935 
1.04 0.5120000000000002 -1.5707963267948966 -1.5707963267948966 0.0 1.5707963267948966 0.0 0.8 0.0 0.0 0.0 0.0 0.0 0.0 0.0 0.0 0.0 0.0 0.0 312.34456496804603 46.65745101183774 480.9 -1.4088893388289643 0.8243536224067226 -0.8243536224067227 
1.048 0.5184000000000002 -1.5707963267948966 -1.5707963267948966 0.0 1.5707963267948966 0.0 0.8 0.0 0.0 0.0 0.0 0.0 0.0 0.0 0.0 0.0 0.0 0.0 312.03956252520516 48.65548703978376 480.9 -1.4108640468181513 0.8194599414844593 -0.8194599414844594 
1.056 0.5248000000000003 -1.5707963267948966 -1.5707963267948966 0.0 1.5707963267948966 0.0 0.8 0.0 0.0 0.0 0.0 0.0 0.0 0.0 0.0 0.0 0.0 0.0 311.72177898550945 50.651530145783205 480.9 -1.4128262126771143 0.8145645720539357 -0.8145645720539358 
1.064 0.5312000000000002 -1.5707963267948966 -1.5707963267948966 0.0 1.5707963267948966 0.0 0.8 0.0 0.0 0.0 0.0 0.0 0.0 0.0 0.0 0.0 0.0 0.0 311.3912273653283 52.645498572189396 480.9 -1.4147758470276903 0.8096675264494951 -0.8096675264494952 
1.072 0.5376000000000003 -1.5707963267948966 -1.5707963267948966 0.0 1.5707963267948966 0.0 0.8 0.0 0.0 0.0 0.0 0.0 0.0 0.0 0.0 0.0 0.0 0.0 311.04792120400987 54.63731064633449 480.9 -1.416712960419974 0.8047688169650228 -0.8047688169650229 
1.08 0.5440000000000003 -1.5707963267948966 -1.5707963267948966 0.0 1.5707963267948966 0.0 0.8 0.0 0.0 0.0 0.0 0.0 0.0 0.0 0.0 0.0 0.0 0.0 310.69187456332645 56.62688478387434 480.9 -1.4186375633324433 0.7998684558542803 -0.7998684558542805 
1.088 0.5504000000000002 -1.5707963267948966 -1.5707963267948966 0.0 1.5707963267948966 0.0 0.8 0.0 0.0 0.0 0.0 0.0 0.0 0.0 0.0 0.0 0.0 0.0 310.3231020268988 58.614139492130406 480.9 -1.420549666172086 0.7949664553312351 -0.7949664553312352 
1.096 0.5568000000000003 -1.5707963267948966 -1.5707963267948966 0.0 1.5707963267948966 0.0 0.8 0.0 0.0 0.0 0.0 0.0 0.0 0.0 0.0 0.0 0.0 0.0 309.9416186995984 60.59899337342775 480.9 -1.4224492792745191 0.7900628275703875 -0.7900628275703876 
1.104 0.5632000000000003 -1.5707963267948966 -1.5707963267948966 0.0 1.5707963267948966 0.0 0.8 0.0 0.0 0.0 0.0 0.0 0.0 0.0 0.0 0.0 0.0 0.0 309.5474402069289 62.58136512842883 480.9 -1.4243364129041154 0.7851575847071003 -0.7851575847071004 
1.112 0.5696000000000003 -1.5707963267948966 -1.5707963267948966 0.0 1.5707963267948966 0.0 0.8 0.0 0.0 0.0 0.0 0.0 0.0 0.0 0.0 0.0 0.0 0.0 309.14058269438647 64.56117355946378 480.9 -1.4262110772541239 0.7802507388379221 -0.7802507388379222 
1.12 0.5760000000000003 -1.5707963267948966 -1.5707963267948966 0.0 1.5707963267948966 0.0 0.8 0.0 0.0 0.0 0.0 0.0 0.0 0.0 0.0 0.0 0.0 0.0 308.72106282679766 66.53833757385601 480.9 -1.4280732824467912 0.7753423020209115 -0.7753423020209116 
1.128 0.5824000000000003 -1.5707963267948966 -1.5707963267948966 0.0 1.5707963267948966 0.0 0.8 0.0 0.0 0.0 0.0 0.0 0.0 0.0 0.0 0.0 0.0 0.0 308.28889778763784 68.5127761872439 480.9 -1.4299230385334836 0.7704322862759593 -0.7704322862759594 
1.136 0.5888000000000003 -1.5707963267948966 -1.5707963267948966 0.0 1.5707963267948966 0.0 0.8 0.0 0.0 0.0 0.0 0.0 0.0 0.0 0.0 0.0 0.0 0.0 307.8441052783264 70.48440852689802 480.9 -1.4317603554948064 0.7655207035851079 -0.765520703585108 
1.144 0.5952000000000004 -1.5707963267948966 -1.5707963267948966 0.0 1.5707963267948966 0.0 0.8 0.0 0.0 0.0 0.0 0.0 0.0 0.0 0.0 0.0 0.0 0.0 307.3867035175025 72.45315383503328 480.9 -1.4335852432407232 0.760607565892872 -0.7606075658928722 
1.152 0.6016000000000004 -1.5707963267948966 -1.5707963267948966 0.0 1.5707963267948966 0.0 0.8 0.0 0.0 0.0 0.0 0.0 0.0 0.0 0.0 0.0 0.0 0.0 306.91671124027823 74.41893147211708 480.9 -1.4353977116106746 0.7556928851065536 -0.7556928851065537 
1.16 0.6080000000000003 -1.5707963267948966 -1.5707963267948966 0.0 1.5707963267948966 0.0 0.8 0.0 0.0 0.0 0.0 0.0 0.0 0.0 0.0 0.0 0.0 0.0 306.4341476974716 76.38166092017227 480.9 -1.4371977703736996 0.7507766730965595 -0.7507766730965596 
1.168 0.6144000000000003 -1.5707963267948966 -1.5707963267948966 0.0 1.5707963267948966 0.0 0.8 0.0 0.0 0.0 0.0 0.0 0.0 0.0 0.0 0.0 0.0 0.0 305.93903265481777 78.34126178607511 480.9 -1.438985429228547 0.7458589416967136 -0.7458589416967137 
1.176 0.6208000000000004 -1.5707963267948966 -1.5707963267948966 0.0 1.5707963267948966 0.0 0.8 0.0 0.0 0.0 0.0 0.0 0.0 0.0 0.0 0.0 0.0 0.0 305.43138639215965 80.29765380484812 480.9 -1.440760697803798 0.7409397027045707 -0.7409397027045708 
1.184 0.6272000000000004 -1.5707963267948966 -1.5707963267948966 0.0 1.5707963267948966 0.0 0.8 0.0 0.0 0.0 0.0 0.0 0.0 0.0 0.0 0.0 0.0 0.0 304.91122970261733 82.25075684294768 480.9 -1.4425235856579781 0.7360189678817277 -0.7360189678817278 
1.192 0.6336000000000004 -1.5707963267948966 -1.5707963267948966 0.0 1.5707963267948966 0.0 0.8 0.0 0.0 0.0 0.0 0.0 0.0 0.0 0.0 0.0 0.0 0.0 304.37858389173607 84.20049090154639 480.9 -1.4442741022796761 0.7310967489541318 -0.7310967489541319 
1.2 0.6400000000000003 -1.5707963267948966 -1.5707963267948966 0.0 1.5707963267948966 0.0 0.8 0.0 0.0 0.0 0.0 0.0 0.0 0.0 0.0 0.0 0.0 0.0 303.8334707766137 86.14677611980984 480.9 -1.4460122570876546 0.7261730576123896 -0.7261730576123897 
1.208 0.6464000000000003 -1.5707963267948966 -1.5707963267948966 0.0 1.5707963267948966 0.0 0.8 0.0 0.0 0.0 0.0 0.0 0.0 0.0 0.0 0.0 0.0 0.0 303.2759126850072 88.0895327781676 480.9 -1.4477380594309692 0.7212479055120735 -0.7212479055120736 
1.216 0.6528000000000004 -1.5707963267948966 -1.5707963267948966 0.0 1.5707963267948966 0.0 0.8 0.0 0.0 0.0 0.0 0.0 0.0 0.0 0.0 0.0 0.0 0.0 302.7059324544182 90.0286813015786 480.9 -1.4494515185890762 0.7163213042740257 -0.7163213042740258 
1.224 0.6592000000000005 -1.5707963267948966 -1.5707963267948966 0.0 1.5707963267948966 0.0 0.8 0.0 0.0 0.0 0.0 0.0 0.0 0.0 0.0 0.0 0.0 0.0 302.1235534311571 91.96414226279039 480.9 -1.45115264377195 0.7113932654846635 -0.7113932654846636 
1.232 0.6656000000000004 -1.5707963267948966 -1.5707963267948966 0.0 1.5707963267948966 0.0 0.8 0.0 0.0 0.0 0.0 0.0 0.0 0.0 0.0 0.0 0.0 0.0 301.52879946938737 93.89583638559256 480.9 -1.452841444120192 0.7064638006962802 -0.7064638006962803 
1.24 0.6720000000000004 -1.5707963267948966 -1.5707963267948966 0.0 1.5707963267948966 0.0 0.8 0.0 0.0 0.0 0.0 0.0 0.0 0.0 0.0 0.0 0.0 0.0 300.9216949301481 95.82368454806397 480.9 -1.4545179287051428 0.7015329214273465 -0.7015329214273465 
1.248 0.6784000000000003 -1.5707963267948966 -1.5707963267948966 0.0 1.5707963267948966 0.0 0.8 0.0 0.0 0.0 0.0 0.0 0.0 0.0 0.0 0.0 0.0 0.0 300.3022646803563 97.74760778581336 480.9 -1.456182106528993 0.6966006391628088 -0.6966006391628089 
1.256 0.6848000000000004 -1.5707963267948966 -1.5707963267948966 0.0 1.5707963267948966 0.0 0.8 0.0 0.0 0.0 0.0 0.0 0.0 0.0 0.0 0.0 0.0 0.0 299.67053409178845 99.66752729521394 480.9 -1.457833986524892 0.6916669653543881 -0.6916669653543882 
1.264 0.6912000000000005 -1.5707963267948966 -1.5707963267948966 0.0 1.5707963267948966 0.0 0.8 0.0 0.0 0.0 0.0 0.0 0.0 0.0 0.0 0.0 0.0 0.0 299.02652904004117 101.58336443663111 480.9 -1.4594735775570578 0.6867319114208765 -0.6867319114208766 
1.272 0.6976000000000004 -1.5707963267948966 -1.5707963267948966 0.0 1.5707963267948966 0.0 0.8 0.0 0.0 0.0 0.0 0.0 0.0 0.0 0.0 0.0 0.0 0.0 298.3702759034713 103.49504073764322 480.9 -1.4611008884208856 0.6817954887484322 -0.6817954887484323 
1.28 0.7040000000000004 -1.5707963267948966 -1.5707963267948966 0.0 1.5707963267948966 0.0 0.8 0.0 0.0 0.0 0.0 0.0 0.0 0.0 0.0 0.0 0.0 0.0 297.70180156211546 105.40247789625636 480.9 -1.4627159278430546 0.6768577086908726 -0.6768577086908727 
1.288 0.7104000000000004 -1.5707963267948966 -1.5707963267948966 0.0 1.5707963267948966 0.0 0.8 0.0 0.0 0.0 0.0 0.0 0.0 0.0 0.0 0.0 0.0 0.0 297.02113339658933 107.30559778411117 480.9 -1.4643187044816346 0.6719185825699675 -0.6719185825699676 
1.296 0.7168000000000004 -1.5707963267948966 -1.5707963267948966 0.0 1.5707963267948966 0.0 0.8 0.0 0.0 0.0 0.0 0.0 0.0 0.0 0.0 0.0 0.0 0.0 296.3282992869659 109.20432244968322 480.9 -1.465909226926194 0.6669781216757297 -0.6669781216757298 
1.304 0.7232000000000005 -1.5707963267948966 -1.5707963267948966 0.0 1.5707963267948966 0.0 0.8 0.0 0.0 0.0 0.0 0.0 0.0 0.0 0.0 0.0 0.0 0.0 295.62332761163316 111.09857412147555 480.9 -1.467487503697903 0.662036337266706 -0.6620363372667061 
1.312 0.7296000000000005 -1.5707963267948966 -1.5707963267948966 0.0 1.5707963267948966 0.0 0.8 0.0 0.0 0.0 0.0 0.0 0.0 0.0 0.0 0.0 0.0 0.0 294.90624724613264 112.9882752112045 480.9 -1.4690535432496399 0.6570932405702635 -0.6570932405702636 
1.32 0.7360000000000004 -1.5707963267948966 -1.5707963267948966 0.0 1.5707963267948966 0.0 0.8 0.0 0.0 0.0 0.0 0.0 0.0 0.0 0.0 0.0 0.0 0.0 294.17708756197567 114.87334831697771 480.9 -1.4706073539660938 0.6521488427828791 -0.6521488427828792 
1.328 0.7424000000000004 -1.5707963267948966 -1.5707963267948966 0.0 1.5707963267948966 0.0 0.8 0.0 0.0 0.0 0.0 0.0 0.0 0.0 0.0 0.0 0.0 0.0 293.4358784254411 116.75371622646426 480.9 -1.4721489441638698 0.6472031550704234 -0.6472031550704235 
1.336 0.7488000000000005 -1.5707963267948966 -1.5707963267948966 0.0 1.5707963267948966 0.0 0.8 0.0 0.0 0.0 0.0 0.0 0.0 0.0 0.0 0.0 0.0 0.0 292.68265019635146 118.62930192005754 480.9 -1.473678322091588 0.6422561885684464 -0.6422561885684464 
1.344 0.7552000000000005 -1.5707963267948966 -1.5707963267948966 0.0 1.5707963267948966 0.0 0.8 0.0 0.0 0.0 0.0 0.0 0.0 0.0 0.0 0.0 0.0 0.0 291.9174337268297 120.50002857402973 480.9 -1.4751954959299907 0.6373079543824608 -0.6373079543824609 
1.352 0.7616000000000005 -1.5707963267948966 -1.5707963267948966 0.0 1.5707963267948966 0.0 0.8 0.0 0.0 0.0 0.0 0.0 0.0 0.0 0.0 0.0 0.0 0.0 291.1402603600354 122.36581956367864 480.9 -1.4767004737920375 0.6323584635882243 -0.6323584635882245 
1.36 0.7680000000000005 -1.5707963267948966 -1.5707963267948966 0.0 1.5707963267948966 0.0 0.8 0.0 0.0 0.0 0.0 0.0 0.0 0.0 0.0 0.0 0.0 0.0 290.3511619288812 124.22659846646613 480.9 -1.4781932637230095 0.6274077272320197 -0.6274077272320198 
1.368 0.7744000000000004 -1.5707963267948966 -1.5707963267948966 0.0 1.5707963267948966 0.0 0.8 0.0 0.0 0.0 0.0 0.0 0.0 0.0 0.0 0.0 0.0 0.0 289.55017075472824 126.08228906514856 480.9 -1.479673873700608 0.6224557563309349 -0.622455756330935 
1.376 0.7808000000000005 -1.5707963267948966 -1.5707963267948966 0.0 1.5707963267948966 0.0 0.8 0.0 0.0 0.0 0.0 0.0 0.0 0.0 0.0 0.0 0.0 0.0 288.73731964606327 127.93281535089848 480.9 -1.4811423116350524 0.6175025618731412 -0.6175025618731413 
1.384 0.7872000000000006 -1.5707963267948966 -1.5707963267948966 0.0 1.5707963267948966 0.0 0.8 0.0 0.0 0.0 0.0 0.0 0.0 0.0 0.0 0.0 0.0 0.0 287.9126418971538 129.77810152641794 480.9 -1.4825985853691794 0.6125481548181718 -0.6125481548181719 
1.392 0.7936000000000005 -1.5707963267948966 -1.5707963267948966 0.0 1.5707963267948966 0.0 0.8 0.0 0.0 0.0 0.0 0.0 0.0 0.0 0.0 0.0 0.0 0.0 287.07617128668545 131.6180720090431 480.9 -1.4840427026785394 0.6075925460971963 -0.6075925460971964 
1.4 0.8000000000000005 -1.5707963267948966 -1.5707963267948966 0.0 1.5707963267948966 0.0 0.8 0.0 0.0 0.0 0.0 0.0 0.0 0.0 0.0 0.0 0.0 0.0 286.2279420763772 133.45265143384026 480.9 -1.4854746712714946 0.6026357466132956 -0.6026357466132957 
1.408 0.8064000000000004 -1.5707963267948966 -1.5707963267948966 0.0 1.5707963267948966 0.0 0.8 0.0 0.0 0.0 0.0 0.0 0.0 0.0 0.0 0.0 0.0 0.0 285.36798900957893 135.2817646566927 480.9 -1.4868944987893118 0.5976777672417365 -0.5976777672417366 
1.416 0.8128000000000005 -1.5707963267948966 -1.5707963267948966 0.0 1.5707963267948966 0.0 0.8 0.0 0.0 0.0 0.0 0.0 0.0 0.0 0.0 0.0 0.0 0.0 284.49634730984826 137.10533675737858 480.9 -1.4883021928062625 0.5927186188302445 -0.5927186188302446 
1.424 0.8192000000000006 -1.5707963267948966 -1.5707963267948966 0.0 1.5707963267948966 0.0 0.8 0.0 0.0 0.0 0.0 0.0 0.0 0.0 0.0 0.0 0.0 0.0 283.6130526795071 138.92329304263956 480.9 -1.4896977608297113 0.5877583121992739 -0.587758312199274 
1.432 0.8256000000000006 -1.5707963267948966 -1.5707963267948966 0.0 1.5707963267948966 0.0 0.8 0.0 0.0 0.0 0.0 0.0 0.0 0.0 0.0 0.0 0.0 0.0 282.71814129818017 140.73555904924032 480.9 -1.4910812103002138 0.5827968581422796 -0.5827968581422797 
1.44 0.8320000000000005 -1.5707963267948966 -1.5707963267948966 0.0 1.5707963267948966 0.0 0.8 0.0 0.0 0.0 0.0 0.0 0.0 0.0 0.0 0.0 0.0 0.0 281.81164982131247 142.54206054701868 480.9 -1.4924525485916071 0.5778342674259848 -0.5778342674259849 
1.448 0.8384000000000006 -1.5707963267948966 -1.5707963267948966 0.0 1.5707963267948966 0.0 0.8 0.0 0.0 0.0 0.0 0.0 0.0 0.0 0.0 0.0 0.0 0.0 280.89361537866813 144.34272354192586 480.9 -1.4938117830111057 0.5728705507906507 -0.5728705507906509 
1.456 0.8448000000000006 -1.5707963267948966 -1.5707963267948966 0.0 1.5707963267948966 0.0 0.8 0.0 0.0 0.0 0.0 0.0 0.0 0.0 0.0 0.0 0.0 0.0 279.9640755728096 146.13747427905724 480.9 -1.4951589207993863 0.5679057189503426 -0.5679057189503427 
1.464 0.8512000000000005 -1.5707963267948966 -1.5707963267948966 0.0 1.5707963267948966 0.0 0.8 0.0 0.0 0.0 0.0 0.0 0.0 0.0 0.0 0.0 0.0 0.0 279.02306847755744 147.92623924567368 480.9 -1.4964939691306844 0.5629397825931957 -0.5629397825931958 
1.472 0.8576000000000006 -1.5707963267948966 -1.5707963267948966 0.0 1.5707963267948966 0.0 0.8 0.0 0.0 0.0 0.0 0.0 0.0 0.0 0.0 0.0 0.0 0.0 278.07063263643056 149.7089451742122 480.9 -1.4978169351128807 0.5579727523816801 -0.5579727523816801 
1.48 0.8640000000000005 -1.5707963267948966 -1.5707963267948966 0.0 1.5707963267948966 0.0 0.8 0.0 0.0 0.0 0.0 0.0 0.0 0.0 0.0 0.0 0.0 0.0 277.1068070610679 151.48551904528716 480.9 -1.499127825787592 0.5530046389528652 -0.5530046389528653 
1.488 0.8704000000000006 -1.5707963267948966 -1.5707963267948966 0.0 1.5707963267948966 0.0 0.8 0.0 0.0 0.0 0.0 0.0 0.0 0.0 0.0 0.0 0.0 0.0 276.1316312296304 153.25588809068117 480.9 -1.5004266481302582 0.5480354529186822 -0.5480354529186823 
1.496 0.8768000000000006 -1.5707963267948966 -1.5707963267948966 0.0 1.5707963267948966 0.0 0.8 0.0 0.0 0.0 0.0 0.0 0.0 0.0 0.0 0.0 0.0 0.0 275.14514508518363 155.0199797963257 480.9 -1.5017134090502302 0.543065204866185 -0.5430652048661851 
1.504 0.8832000000000005 -1.5707963267948966 -1.5707963267948966 0.0 1.5707963267948966 0.0 0.8 0.0 0.0 0.0 0.0 0.0 0.0 0.0 0.0 0.0 0.0 0.0 274.1473890340622 156.7777219052711 480.9 -1.5029881153908577 0.5380939053578122 -0.5380939053578123 
1.512 0.8896000000000006 -1.5707963267948966 -1.5707963267948966 0.0 1.5707963267948966 0.0 0.8 0.0 0.0 0.0 0.0 0.0 0.0 0.0 0.0 0.0 0.0 0.0 273.1384039442145 158.5290424206464 480.9 -1.5042507739295727 0.5331215649316456 -0.5331215649316458 
1.52 0.8960000000000006 -1.5707963267948966 -1.5707963267948966 0.0 1.5707963267948966 0.0 0.8 0.0 0.0 0.0 0.0 0.0 0.0 0.0 0.0 0.0 0.0 0.0 272.11823114352865 160.27386960860804 480.9 -1.5055013913779787 0.5281481941016705 -0.5281481941016706 
1.528 0.9024000000000006 -1.5707963267948966 -1.5707963267948966 0.0 1.5707963267948966 0.0 0.8 0.0 0.0 0.0 0.0 0.0 0.0 0.0 0.0 0.0 0.0 0.0 271.08691241814 162.01213200127842 480.9 -1.506739974381931 0.5231738033580313 -0.5231738033580314 
1.536 0.9088000000000006 -1.5707963267948966 -1.5707963267948966 0.0 1.5707963267948966 0.0 0.8 0.0 0.0 0.0 0.0 0.0 0.0 0.0 0.0 0.0 0.0 0.0 270.0444900107194 163.74375839967288 480.9 -1.5079665295216231 0.5181984031672903 -0.5181984031672904 
1.544 0.9152000000000006 -1.5707963267948966 -1.5707963267948966 0.0 1.5707963267948966 0.0 0.8 0.0 0.0 0.0 0.0 0.0 0.0 0.0 0.0 0.0 0.0 0.0 268.99100661874286 165.4686778766163 480.9 -1.5091810633116682 0.5132220039726824 -0.5132220039726825 
1.552 0.9216000000000006 -1.5707963267948966 -1.5707963267948966 0.0 1.5707963267948966 0.0 0.8 0.0 0.0 0.0 0.0 0.0 0.0 0.0 0.0 0.0 0.0 0.0 267.9265053927428 167.18681977964815 480.9 -1.5103835822011829 0.5082446161943693 -0.5082446161943694 
1.56 0.9280000000000006 -1.5707963267948966 -1.5707963267948966 0.0 1.5707963267948966 0.0 0.8 0.0 0.0 0.0 0.0 0.0 0.0 0.0 0.0 0.0 0.0 0.0 266.8510299345407 168.89811373391612 480.9 -1.5115740925738668 0.5032662502296954 -0.5032662502296955 
1.568 0.9344000000000007 -1.5707963267948966 -1.5707963267948966 0.0 1.5707963267948966 0.0 0.8 0.0 0.0 0.0 0.0 0.0 0.0 0.0 0.0 0.0 0.0 0.0 265.7646242954608 170.60248964505922 480.9 -1.5127526007480847 0.49828691645343864 -0.49828691645343876 
1.576 0.9408000000000006 -1.5707963267948966 -1.5707963267948966 0.0 1.5707963267948966 0.0 0.8 0.0 0.0 0.0 0.0 0.0 0.0 0.0 0.0 0.0 0.0 0.0 264.6673329745264 172.29987770207836 480.9 -1.5139191129769454 0.4933066252180641 -0.49330662521806423 
1.584 0.9472000000000007 -1.5707963267948966 -1.5707963267948966 0.0 1.5707963267948966 0.0 0.8 0.0 0.0 0.0 0.0 0.0 0.0 0.0 0.0 0.0 0.0 0.0 263.5592009166364 173.99020838019607 480.9 -1.5150736354483818 0.488325386853974 -0.4883253868539741 
1.592 0.9536000000000007 -1.5707963267948966 -1.5707963267948966 0.0 1.5707963267948966 0.0 0.8 0.0 0.0 0.0 0.0 0.0 0.0 0.0 0.0 0.0 0.0 0.0 262.44027351072515 175.6734124437041 480.9 -1.5162161742852283 0.48334321166975847 -0.4833432116697585 
1.6 0.9600000000000006 -1.5707963267948966 -1.5707963267948966 0.0 1.5707963267948966 0.0 0.8 0.0 0.0 0.0 0.0 0.0 0.0 0.0 0.0 0.0 0.0 0.0 261.31059658790264 177.3494209487993 480.9 -1.517346735545298 0.47836010995244466 -0.47836010995244477 
1.608 0.9664000000000007 -1.5707963267948966 -1.5707963267948966 0.0 1.5707963267948966 0.0 0.8 0.0 0.0 0.0 0.0 0.0 0.0 0.0 0.0 0.0 0.0 0.0 260.1702164195777 179.01816524640765 480.9 -1.5184653252214613 0.4733760919677459 -0.47337609196774594 
1.616 0.9728000000000007 -1.5707963267948966 -1.5707963267948966 0.0 1.5707963267948966 0.0 0.8 0.0 0.0 0.0 0.0 0.0 0.0 0.0 0.0 0.0 0.0 0.0 259.0191797155625 180.67957698499606 480.9 -1.5195719492417201 0.4683911679603078 -0.4683911679603079 
1.624 0.9792000000000007 -1.5707963267948966 -1.5707963267948966 0.0 1.5707963267948966 0.0 0.8 0.0 0.0 0.0 0.0 0.0 0.0 0.0 0.0 0.0 0.0 0.0 257.8575336221597 182.33358811337195 480.9 -1.5206666134692832 0.46340534815395645 -0.46340534815395656 
1.632 0.9856000000000007 -1.5707963267948966 -1.5707963267948966 0.0 1.5707963267948966 0.0 0.8 0.0 0.0 0.0 0.0 0.0 0.0 0.0 0.0 0.0 0.0 0.0 256.68532572023076 183.98013088347076 480.9 -1.5217493237026427 0.4584186427519437 -0.45841864275194383 
1.64 0.9920000000000007 -1.5707963267948966 -1.5707963267948966 0.0 1.5707963267948966 0.0 0.8 0.0 0.0 0.0 0.0 0.0 0.0 0.0 0.0 0.0 0.0 0.0 255.5026040232475 185.61913785313084 480.9 -1.5228200856756455 0.45343106193719235 -0.4534310619371924 
1.648 0.9984000000000007 -1.5707963267948966 -1.5707963267948966 0.0 1.5707963267948966 0.0 0.8 0.0 0.0 0.0 0.0 0.0 0.0 0.0 0.0 0.0 0.0 0.0 254.30941697532523 187.25054188885582 480.9 -1.5238789050575658 0.4484426158725394 -0.44844261587253953 
1.656 1.0048000000000008 -1.5707963267948966 -1.5707963267948966 0.0 1.5707963267948966 0.0 0.8 0.0 0.0 0.0 0.0 0.0 0.0 0.0 0.0 0.0 0.0 0.0 253.1058134492386 188.8742761685646 480.9 -1.5249257874531799 0.4434533147009812 -0.4434533147009813 
1.664 1.0112000000000008 -1.5707963267948966 -1.5707963267948966 0.0 1.5707963267948966 0.0 0.8 0.0 0.0 0.0 0.0 0.0 0.0 0.0 0.0 0.0 0.0 0.0 251.89184274441985 190.49027418432797 480.9 -1.5259607384028355 0.4384631685459149 -0.438463168545915 
1.672 1.0176000000000007 -1.5707963267948966 -1.5707963267948966 0.0 1.5707963267948966 0.0 0.8 0.0 0.0 0.0 0.0 0.0 0.0 0.0 0.0 0.0 0.0 0.0 250.6675545849393 192.09846974509313 480.9 -1.5269837633825216 0.43347218751138006 -0.43347218751138017 
1.68 1.0240000000000007 -1.5707963267948966 -1.5707963267948966 0.0 1.5707963267948966 0.0 0.8 0.0 0.0 0.0 0.0 0.0 0.0 0.0 0.0 0.0 0.0 0.0 249.43299911746874 193.6987969793949 480.9 -1.5279948678039408 0.4284803816823002 -0.4284803816823003 
1.688 1.0304000000000006 -1.5707963267948966 -1.5707963267948966 0.0 1.5707963267948966 0.0 0.8 0.0 0.0 0.0 0.0 0.0 0.0 0.0 0.0 0.0 0.0 0.0 248.18822690922752 195.29119033805333 480.9 -1.5289940570145766 0.4234877611247233 -0.4234877611247234 
1.696 1.0368000000000008 -1.5707963267948966 -1.5707963267948966 0.0 1.5707963267948966 0.0 0.8 0.0 0.0 0.0 0.0 0.0 0.0 0.0 0.0 0.0 0.0 0.0 246.93328894591122 196.87558459685926 480.9 -1.5299813362977615 0.41849433588606005 -0.4184943358860601 
1.704 1.0432000000000008 -1.5707963267948966 -1.5707963267948966 0.0 1.5707963267948966 0.0 0.8 0.0 0.0 0.0 0.0 0.0 0.0 0.0 0.0 0.0 0.0 0.0 245.6682366296036 198.45191485924522 480.9 -1.5309567108727444 0.41350011599532444 -0.41350011599532455 
1.712 1.0496000000000008 -1.5707963267948966 -1.5707963267948966 0.0 1.5707963267948966 0.0 0.8 0.0 0.0 0.0 0.0 0.0 0.0 0.0 0.0 0.0 0.0 0.0 244.39312177667034 200.02011655894404 480.9 -1.5319201858947589 0.40850511146336965 -0.40850511146336976 
1.72 1.0560000000000007 -1.5707963267948966 -1.5707963267948966 0.0 1.5707963267948966 0.0 0.8 0.0 0.0 0.0 0.0 0.0 0.0 0.0 0.0 0.0 0.0 0.0 243.10799661563777 201.58012546263348 480.9 -1.5328717664550864 0.4035093322831266 -0.4035093322831267 
1.728 1.0624000000000007 -1.5707963267948966 -1.5707963267948966 0.0 1.5707963267948966 0.0 0.8 0.0 0.0 0.0 0.0 0.0 0.0 0.0 0.0 0.0 0.0 0.0 241.81291378505273 203.13187767256684 480.9 -1.5338114575811244 0.39851278842984034 -0.39851278842984045 
1.736 1.0688000000000009 -1.5707963267948966 -1.5707963267948966 0.0 1.5707963267948966 0.0 0.8 0.0 0.0 0.0 0.0 0.0 0.0 0.0 0.0 0.0 0.0 0.0 240.50792633132684 204.67530962919062 480.9 -1.534739264236448 0.39351548986130525 -0.3935154898613053 
1.744 1.0752000000000008 -1.5707963267948966 -1.5707963267948966 0.0 1.5707963267948966 0.0 0.8 0.0 0.0 0.0 0.0 0.0 0.0 0.0 0.0 0.0 0.0 0.0 239.19308770656392 206.2103581137476 480.9 -1.5356551913208738 0.3885174465181008 -0.3885174465181009 
1.752 1.0816000000000008 -1.5707963267948966 -1.5707963267948966 0.0 1.5707963267948966 0.0 0.8 0.0 0.0 0.0 0.0 0.0 0.0 0.0 0.0 0.0 0.0 0.0 237.86845176637004 207.7369602508665 480.9 -1.5365592436705255 0.3835186683238256 -0.3835186683238257 
1.76 1.0880000000000007 -1.5707963267948966 -1.5707963267948966 0.0 1.5707963267948966 0.0 0.8 0.0 0.0 0.0 0.0 0.0 0.0 0.0 0.0 0.0 0.0 0.0 236.53407276764824 209.25505351113725 480.9 -1.5374514260578913 0.3785191651853307 -0.3785191651853308 
1.768 1.0944000000000007 -1.5707963267948966 -1.5707963267948966 0.0 1.5707963267948966 0.0 0.8 0.0 0.0 0.0 0.0 0.0 0.0 0.0 0.0 0.0 0.0 0.0 235.1900053663756 210.764575713672 480.9 -1.5383317431918895 0.37351894699295374 -0.37351894699295385 
1.776 1.1008000000000009 -1.5707963267948966 -1.5707963267948966 0.0 1.5707963267948966 0.0 0.8 0.0 0.0 0.0 0.0 0.0 0.0 0.0 0.0 0.0 0.0 0.0 233.8363046153651 212.26546502865273 480.9 -1.5392001997179257 0.3685180236207498 -0.3685180236207498 
1.784 1.1072000000000009 -1.5707963267948966 -1.5707963267948966 0.0 1.5707963267948966 0.0 0.8 0.0 0.0 0.0 0.0 0.0 0.0 0.0 0.0 0.0 0.0 0.0 232.47302596201024 213.75765997986252 480.9 -1.5400568002179529 0.36351640492672466 -0.3635164049267247 
1.792 1.1136000000000008 -1.5707963267948966 -1.5707963267948966 0.0 1.5707963267948966 0.0 0.8 0.0 0.0 0.0 0.0 0.0 0.0 0.0 0.0 0.0 0.0 0.0 231.10022524601396 215.24109944720504 480.9 -1.5409015492105322 0.35851410075306445 -0.3585141007530645 
1.8 1.1200000000000008 -1.5707963267948966 -1.5707963267948966 0.0 1.5707963267948966 0.0 0.8 0.0 0.0 0.0 0.0 0.0 0.0 0.0 0.0 0.0 0.0 0.0 229.71795869710178 216.71572266920703 480.9 -1.5417344511508888 0.3535111209263673 -0.35351112092636733 
1.808 1.1264000000000007 -1.5707963267948966 -1.5707963267948966 0.0 1.5707963267948966 0.0 0.8 0.0 0.0 0.0 0.0 0.0 0.0 0.0 0.0 0.0 0.0 0.0 228.32628293271813 218.1814692455075 480.9 -1.5425555104309698 0.34850747525787185 -0.3485074752578719 
1.816 1.132800000000001 -1.5707963267948966 -1.5707963267948966 0.0 1.5707963267948966 0.0 0.8 0.0 0.0 0.0 0.0 0.0 0.0 0.0 0.0 0.0 0.0 0.0 226.92525495570789 219.6382791393317 480.9 -1.5433647313795018 0.3435031735436874 -0.3435031735436875 
1.824 1.1392000000000009 -1.5707963267948966 -1.5707963267948966 0.0 1.5707963267948966 0.0 0.8 0.0 0.0 0.0 0.0 0.0 0.0 0.0 0.0 0.0 0.0 0.0 225.51493215198104 221.08609267994984 480.9 -1.5441621182620429 0.3384982255650224 -0.33849822556502246 
1.832 1.1456000000000008 -1.5707963267948966 -1.5707963267948966 0.0 1.5707963267948966 0.0 0.8 0.0 0.0 0.0 0.0 0.0 0.0 0.0 0.0 0.0 0.0 0.0 224.0953722881625 222.5248505651219 480.9 -1.5449476752810434 0.33349264108841187 -0.3334926410884119 
1.84 1.1520000000000008 -1.5707963267948966 -1.5707963267948966 0.0 1.5707963267948966 0.0 0.8 0.0 0.0 0.0 0.0 0.0 0.0 0.0 0.0 0.0 0.0 0.0 222.66663350922582 223.95449386352595 480.9 -1.5457214065758937 0.32848642986594495 -0.328486429865945 
1.848 1.1584000000000008 -1.5707963267948966 -1.5707963267948966 0.0 1.5707963267948966 0.0 0.8 0.0 0.0 0.0 0.0 0.0 0.0 0.0 0.0 0.0 0.0 0.0 221.2287743361116 225.3749640171725 480.9 -1.5464833162229825 0.32347960163549183 -0.3234796016354919 
1.856 1.164800000000001 -1.5707963267948966 -1.5707963267948966 0.0 1.5707963267948966 0.0 0.8 0.0 0.0 0.0 0.0 0.0 0.0 0.0 0.0 0.0 0.0 0.0 219.7818536633305 226.78620284380258 480.9 -1.547233408235746 0.3184721661209299 -0.3184721661209299 
1.864 1.171200000000001 -1.5707963267948966 -1.5707963267948966 0.0 1.5707963267948966 0.0 0.8 0.0 0.0 0.0 0.0 0.0 0.0 0.0 0.0 0.0 0.0 0.0 218.32593075655112 228.1881525392711 480.9 -1.547971686564721 0.31346413303236953 -0.3134641330323696 
1.872 1.1776000000000009 -1.5707963267948966 -1.5707963267948966 0.0 1.5707963267948966 0.0 0.8 0.0 0.0 0.0 0.0 0.0 0.0 0.0 0.0 0.0 0.0 0.0 216.86106525017203 229.5807556799146 480.9 -1.5486981550975962 0.3084555120663789 -0.3084555120663789 
1.88 1.1840000000000008 -1.5707963267948966 -1.5707963267948966 0.0 1.5707963267948966 0.0 0.8 0.0 0.0 0.0 0.0 0.0 0.0 0.0 0.0 0.0 0.0 0.0 215.3873171448797 230.96395522490306 480.9 -1.5494128176592619 0.3034463129062087 -0.30344631290620877 
1.888 1.1904000000000008 -1.5707963267948966 -1.5707963267948966 0.0 1.5707963267948966 0.0 0.8 0.0 0.0 0.0 0.0 0.0 0.0 0.0 0.0 0.0 0.0 0.0 213.90474680519034 232.3376945185766 480.9 -1.550115678011857 0.29843654522201596 -0.298436545222016 
1.896 1.196800000000001 -1.5707963267948966 -1.5707963267948966 0.0 1.5707963267948966 0.0 0.8 0.0 0.0 0.0 0.0 0.0 0.0 0.0 0.0 0.0 0.0 0.0 212.4134149569778 233.7019172927658 480.9 -1.5508067398548229 0.29342621867108776 -0.2934262186710878 
1.904 1.203200000000001 -1.5707963267948966 -1.5707963267948966 0.0 1.5707963267948966 0.0 0.8 0.0 0.0 0.0 0.0 0.0 0.0 0.0 0.0 0.0 0.0 0.0 210.9133826849862 235.05656766909652 480.9 -1.5514860068249452 0.2884153428980644 -0.2884153428980644 
1.912 1.209600000000001 -1.5707963267948966 -1.5707963267948966 0.0 1.5707963267948966 0.0 0.8 0.0 0.0 0.0 0.0 0.0 0.0 0.0 0.0 0.0 0.0 0.0 209.4047114303276 236.40159016127876 480.9 -1.5521534824964052 0.28340392753516114 -0.2834039275351612 
1.92 1.2160000000000009 -1.5707963267948966 -1.5707963267948966 0.0 1.5707963267948966 0.0 0.8 0.0 0.0 0.0 0.0 0.0 0.0 0.0 0.0 0.0 0.0 0.0 207.8874629879657 237.73692967737927 480.9 -1.5528091703808233 0.27839198220239086 -0.2783919822023909 
1.928 1.2224000000000008 -1.5707963267948966 -1.5707963267948966 0.0 1.5707963267948966 0.0 0.8 0.0 0.0 0.0 0.0 0.0 0.0 0.0 0.0 0.0 0.0 0.0 206.36169950418454 239.0625315220782 480.9 -1.5534530739273056 0.27337951650778514 -0.2733795165077852 
1.936 1.228800000000001 -1.5707963267948966 -1.5707963267948966 0.0 1.5707963267948966 0.0 0.8 0.0 0.0 0.0 0.0 0.0 0.0 0.0 0.0 0.0 0.0 0.0 204.82748347404305 240.37834139890938 480.9 -1.5540851965224884 0.2683665400476153 -0.26836654004761534 
1.944 1.235200000000001 -1.5707963267948966 -1.5707963267948966 0.0 1.5707963267948966 0.0 0.8 0.0 0.0 0.0 0.0 0.0 0.0 0.0 0.0 0.0 0.0 0.0 203.28487773881542 241.68430541248404 480.9 -1.5547055414905822 0.2633530624066135 -0.26335306240661355 
1.952 1.241600000000001 -1.5707963267948966 -1.5707963267948966 0.0 1.5707963267948966 0.0 0.8 0.0 0.0 0.0 0.0 0.0 0.0 0.0 0.0 0.0 0.0 0.0 201.73394548341687 242.9803700706989 480.9 -1.5553141120934122 0.2583390931581918 -0.25833909315819187 
1.96 1.2480000000000009 -1.5707963267948966 -1.5707963267948966 0.0 1.5707963267948966 0.0 0.8 0.0 0.0 0.0 0.0 0.0 0.0 0.0 0.0 0.0 0.0 0.0 200.17475023381573 244.2664822869267 480.9 -1.555910911530465 0.25332464186466236 -0.2533246418646624 
1.968 1.2544000000000008 -1.5707963267948966 -1.5707963267948966 0.0 1.5707963267948966 0.0 0.8 0.0 0.0 0.0 0.0 0.0 0.0 0.0 0.0 0.0 0.0 0.0 198.60735585443143 245.54258938219095 480.9 -1.5564959429389262 0.24830971807745647 -0.24830971807745653 
1.9714954 1.2571643267948966 -1.5707963267948966 -1.5707963267948966 0.0 1.5707963267948966 0.0 0.7919999999999998 0.0 0.0 0.0 0.0 0.0 -1.0 0.0 0.0 0.0 0.0 0.0 197.92783793093878 246.0906661618519 480.9 -1.556744994842659 0.24614349807301136 -0.24614349807301142 
1.9794954 1.2634683267948965 -1.5707963267948966 -1.5707963267948966 0.0 1.5707963267948966 0.0 0.7839999999999998 0.0 0.0 0.0 0.0 0.0 -1.0 0.0 0.0 0.0 0.0 0.0 196.37255979240237 247.3335051313901 480.9 -1.5573047447449075 0.24120315141863946 -0.24120315141863952 
1.9874954 1.2697083267948965 -1.5707963267948966 -1.5707963267948966 0.0 1.5707963267948966 0.0 0.7759999999999998 0.0 0.0 0.0 0.0 0.0 -1.0 0.0 0.0 0.0 0.0 0.0 194.82538561047224 248.5540466814628 480.9 -1.557847574545858 0.23631253108602093 -0.23631253108602096 
1.9954954 1.2758843267948967 -1.5707963267948966 -1.5707963267948966 0.0 1.5707963267948966 0.0 0.7679999999999998 0.0 0.0 0.0 0.0 0.0 -1.0 0.0 0.0 0.0 0.0 0.0 193.2866099786438 249.752540333354 480.9 -1.5583738309165005 0.2314716589073926 -0.23147165890739263 
2.0034955 1.2819963267948966 -1.5707963267948966 -1.5707963267948966 0.0 1.5707963267948966 0.0 0.7599999999999996 0.0 0.0 0.0 0.0 0.0 -1.0 0.0 0.0 0.0 0.0 0.0 191.75652170752213 250.92923580689555 480.9 -1.558883856781978 0.22668055603717738 -0.22668055603717743 
2.0114954 1.2880443267948969 -1.5707963267948966 -1.5707963267948966 0.0 1.5707963267948966 0.0 0.7519999999999996 0.0 0.0 0.0 0.0 0.0 -1.0 0.0 0.0 0.0 0.0 0.0 190.23540388785713 252.08438291100836 480.9 -1.5593779913313495 0.22193924296680806 -0.2219392429668081 
2.0194955 1.294028326794897 -1.5707963267948966 -1.5707963267948966 0.0 1.5707963267948966 0.0 0.7439999999999996 0.0 0.0 0.0 0.0 0.0 -1.0 0.0 0.0 0.0 0.0 0.0 188.7235339542746 253.21823143646225 480.9 -1.5598565700270435 0.2172477395393431 -0.21724773953934315 
2.0274954 1.2999483267948966 -1.5707963267948966 -1.5707963267948966 0.0 1.5707963267948966 0.0 0.7359999999999995 0.0 0.0 0.0 0.0 0.0 -1.0 0.0 0.0 0.0 0.0 0.0 187.22118374964592 254.33103105083603 480.9 -1.560319924614016 0.21260606496387258 -0.2126060649638726 
2.0354955 1.3058043267948967 -1.5707963267948966 -1.5707963267948966 0.0 1.5707963267948966 0.0 0.7279999999999995 0.0 0.0 0.0 0.0 0.0 -1.0 0.0 0.0 0.0 0.0 0.0 185.72861959004334 255.42303119565582 480.9 -1.5607683831286145 0.20801423782971756 -0.20801423782971762 
2.0434954 1.3115963267948965 -1.5707963267948966 -1.5707963267948966 0.0 1.5707963267948966 0.0 0.7199999999999995 0.0 0.0 0.0 0.0 0.0 -1.0 0.0 0.0 0.0 0.0 0.0 184.24610233023077 256.4944809856893 480.9 -1.5612022699071593 0.203472276120434 -0.20347227612043403 
2.0514953 1.3173243267948969 -1.5707963267948966 -1.5707963267948966 0.0 1.5707963267948966 0.0 0.7119999999999995 0.0 0.0 0.0 0.0 0.0 -1.0 0.0 0.0 0.0 0.0 0.0 182.77388742963436 257.54562911037596 480.9 -1.5616219055942415 0.19898019722760896 -0.19898019722760898 
2.0594954 1.3229883267948968 -1.5707963267948966 -1.5707963267948966 0.0 1.5707963267948966 0.0 0.7039999999999995 0.0 0.0 0.0 0.0 0.0 -1.0 0.0 0.0 0.0 0.0 0.0 181.31222501874748 258.57672373736784 480.9 -1.5620276071507506 0.19453801796446757 -0.1945380179644676 
2.0674953 1.328588326794897 -1.5707963267948966 -1.5707963267948966 0.0 1.5707963267948966 0.0 0.6959999999999995 0.0 0.0 0.0 0.0 0.0 -1.0 0.0 0.0 0.0 0.0 0.0 179.86135996591594 259.5880124181608 480.9 -1.5624196878616363 0.19014575457927976 -0.1901457545792798 
2.0754955 1.3341243267948966 -1.5707963267948966 -1.5707963267948966 0.0 1.5707963267948966 0.0 0.6879999999999995 0.0 0.0 0.0 0.0 0.0 -1.0 0.0 0.0 0.0 0.0 0.0 178.4215319444601 260.57974199578905 480.9 -1.562798457343408 0.18580342276858092 -0.18580342276858094 
2.0834954 1.3395963267948967 -1.5707963267948966 -1.5707963267948966 0.0 1.5707963267948966 0.0 0.6799999999999995 0.0 0.0 0.0 0.0 0.0 -1.0 0.0 0.0 0.0 0.0 0.0 176.9929755000822 261.5521585145634 480.9 -1.563164221551381 0.18151103769019722 -0.18151103769019727 
2.0914955 1.3450043267948966 -1.5707963267948966 -1.5707963267948966 0.0 1.5707963267948966 0.0 0.6719999999999995 0.0 0.0 0.0 0.0 0.0 -1.0 0.0 0.0 0.0 0.0 0.0 175.57592011851781 262.50550713182355 480.9 -1.5635172827866757 0.17726861397609084 -0.17726861397609087 
2.0994954 1.3503483267948966 -1.5707963267948966 -1.5707963267948966 0.0 1.5707963267948966 0.0 0.6639999999999995 0.0 0.0 0.0 0.0 0.0 -1.0 0.0 0.0 0.0 0.0 0.0 174.1705902933812 263.4400320316849 480.9 -1.5638579397029673 0.17307616574501372 -0.17307616574501372 
2.1074953 1.355628326794897 -1.5707963267948966 -1.5707963267948966 0.0 1.5707963267948966 0.0 0.6559999999999995 0.0 0.0 0.0 0.0 0.0 -1.0 0.0 0.0 0.0 0.0 0.0 172.77720559416503 264.3559763407509 480.9 -1.5641864873130105 0.1689337066149832 -0.16893370661498322 
2.1154954 1.3608443267948969 -1.5707963267948966 -1.5707963267948966 0.0 1.5707963267948966 0.0 0.6479999999999995 0.0 0.0 0.0 0.0 0.0 -1.0 0.0 0.0 0.0 0.0 0.0 171.39598073434914 265.25358204576736 480.9 -1.564503216994925 0.16484124971557598 -0.164841249715576 
2.1234953 1.365996326794897 -1.5707963267948966 -1.5707963267948966 0.0 1.5707963267948966 0.0 0.6399999999999995 0.0 0.0 0.0 0.0 0.0 -1.0 0.0 0.0 0.0 0.0 0.0 170.02712563957624 266.13308991319315 480.9 -1.5648084164982548 0.1607988077000407 -0.16079880770004074 
2.1314955 1.3710843267948967 -1.5707963267948966 -1.5707963267948966 0.0 1.5707963267948966 0.0 0.6319999999999995 0.0 0.0 0.0 0.0 0.0 -1.0 0.0 0.0 0.0 0.0 0.0 168.67084551585577 266.99473941066015 480.9 -1.565102369949814 0.15680639275723815 -0.15680639275723815 
2.1394954 1.3761083267948966 -1.5707963267948966 -1.5707963267948966 0.0 1.5707963267948966 0.0 0.6239999999999994 0.0 0.0 0.0 0.0 0.0 -1.0 0.0 0.0 0.0 0.0 0.0 167.32734091775322 267.8387686302974 480.9 -1.565385357859315 0.1528640166234026 -0.15286401662340263 
2.1474955 1.3810683267948967 -1.5707963267948966 -1.5707963267948966 0.0 1.5707963267948966 0.0 0.6159999999999994 0.0 0.0 0.0 0.0 0.0 -1.0 0.0 0.0 0.0 0.0 0.0 165.9968078165282 268.6654142138928 480.9 -1.565657657124785 0.1489716905937326 -0.14897169059373264 
2.1554954 1.3859643267948967 -1.5707963267948966 -1.5707963267948966 0.0 1.5707963267948966 0.0 0.6079999999999994 0.0 0.0 0.0 0.0 0.0 -1.0 0.0 0.0 0.0 0.0 0.0 164.679437668182 269.47491127986547 480.9 -1.5659195410377846 0.14512942553380936 -0.1451294255338094 
2.1634953 1.390796326794897 -1.5707963267948966 -1.5707963267948966 0.0 1.5707963267948966 0.0 0.5999999999999994 0.0 0.0 0.0 0.0 0.0 -1.0 0.0 0.0 0.0 0.0 0.0 163.37541748137733 270.26749335202277 480.9 -1.5661712792884246 0.1413372318908442 -0.14133723189084424 
2.1714954 1.3955643267948967 -1.5707963267948966 -1.5707963267948966 0.0 1.5707963267948966 0.0 0.5919999999999994 0.0 0.0 0.0 0.0 0.0 -1.0 0.0 0.0 0.0 0.0 0.0 162.0849298851959 271.04339229007434 480.9 -1.5664131379701904 0.1375951197047604 -0.13759511970476043 
2.1794953 1.400268326794897 -1.5707963267948966 -1.5707963267948966 0.0 1.5707963267948966 0.0 0.5839999999999994 0.0 0.0 0.0 0.0 0.0 -1.0 0.0 0.0 0.0 0.0 0.0 160.8081531966955 271.8028382218775 480.9 -1.5666453795845787 0.13390309861910354 -0.13390309861910357 
2.1874955 1.4049083267948965 -1.5707963267948966 -1.5707963267948966 0.0 1.5707963267948966 0.0 0.5759999999999994 0.0 0.0 0.0 0.0 0.0 -1.0 0.0 0.0 0.0 0.0 0.0 159.5452614882364 272.546059477385 480.9 -1.5668682630455526 0.13026117789179323 -0.13026117789179326 
2.1954954 1.4094843267948967 -1.5707963267948966 -1.5707963267948966 0.0 1.5707963267948966 0.0 0.5679999999999994 0.0 0.0 0.0 0.0 0.0 -1.0 0.0 0.0 0.0 0.0 0.0 158.29642465453884 273.2732825242707 480.9 -1.5670820436838144 0.12666936640570284 -0.12666936640570287 
2.2034955 1.4139963267948967 -1.5707963267948966 -1.5707963267948966 0.0 1.5707963267948966 0.0 0.5599999999999994 0.0 0.0 0.0 0.0 0.0 -1.0 0.0 0.0 0.0 0.0 0.0 157.06180847944407 273.9847319052039 480.9 -1.567286973250912 0.12312767267908442 -0.12312767267908445 
2.2114954 1.4184443267948967 -1.5707963267948966 -1.5707963267948966 0.0 1.5707963267948966 0.0 0.5519999999999994 0.0 0.0 0.0 0.0 0.0 -1.0 0.0 0.0 0.0 0.0 0.0 155.8415747023428 274.68063017674564 480.9 -1.5674832999231687 0.11963610487582636 -0.11963610487582639 
2.2194953 1.4228283267948971 -1.5707963267948966 -1.5707963267948966 0.0 1.5707963267948966 0.0 0.5439999999999994 0.0 0.0 0.0 0.0 0.0 -1.0 0.0 0.0 0.0 0.0 0.0 154.6358810842432 275.3611978498419 480.9 -1.5676712683054597 0.11619467081555333 -0.11619467081555336 
2.2274954 1.4271483267948968 -1.5707963267948966 -1.5707963267948966 0.0 1.5707963267948966 0.0 0.5359999999999994 0.0 0.0 0.0 0.0 0.0 -1.0 0.0 0.0 0.0 0.0 0.0 153.44488147344757 276.0266533318832 480.9 -1.567851119434818 0.11280337798356833 -0.11280337798356836 
2.2354953 1.4314043267948968 -1.5707963267948966 -1.5707963267948966 0.0 1.5707963267948966 0.0 0.5279999999999994 0.0 0.0 0.0 0.0 0.0 -1.0 0.0 0.0 0.0 0.0 0.0 152.26872587080737 276.67721287030656 480.9 -1.5680230907838957 0.10946223354063253 -0.10946223354063254 
2.2434955 1.4355963267948966 -1.5707963267948966 -1.5707963267948966 0.0 1.5707963267948966 0.0 0.5199999999999994 0.0 0.0 0.0 0.0 0.0 -1.0 0.0 0.0 0.0 0.0 0.0 151.1075604945308 277.3130904977111 480.9 -1.568187416264271 0.10617124433259423 -0.10617124433259426 
2.2514954 1.4397243267948967 -1.5707963267948966 -1.5707963267948966 0.0 1.5707963267948966 0.0 0.5119999999999993 0.0 0.0 0.0 0.0 0.0 -1.0 0.0 0.0 0.0 0.0 0.0 149.96152784451246 277.93449797846165 480.9 -1.5683443262296093 0.10293041689985667 -0.1029304168998567 
2.2594955 1.4437883267948968 -1.5707963267948966 -1.5707963267948966 0.0 1.5707963267948966 0.0 0.5039999999999993 0.0 0.0 0.0 0.0 0.0 -1.0 0.0 0.0 0.0 0.0 0.0 148.83076676616082 278.541644756752 480.9 -1.5684940474786861 0.09973975748669495 -0.09973975748669496 
2.2674954 1.4477883267948968 -1.5707963267948966 -1.5707963267948966 0.0 1.5707963267948966 0.0 0.49599999999999933 0.0 0.0 0.0 0.0 0.0 -1.0 0.0 0.0 0.0 0.0 0.0 147.7154125136957 279.13473790610277 480.9 -1.5686368032582694 0.09659927205041642 -0.09659927205041645 
2.2754953 1.4517243267948972 -1.5707963267948966 -1.5707963267948966 0.0 1.5707963267948966 0.0 0.4879999999999993 0.0 0.0 0.0 0.0 0.0 -1.0 0.0 0.0 0.0 0.0 0.0 146.6155968128912 279.71398208026665 480.9 -1.5687728132658743 0.09350896627036884 -0.09350896627036885 
2.2834954 1.4555963267948966 -1.5707963267948966 -1.5707963267948966 0.0 1.5707963267948966 0.0 0.4799999999999993 0.0 0.0 0.0 0.0 0.0 -1.0 0.0 0.0 0.0 0.0 0.0 145.53144792324036 280.2795794655136 480.9 -1.5689022936523835 0.09046884555679835 -0.09046884555679838 
2.2914953 1.4594043267948968 -1.5707963267948966 -1.5707963267948966 0.0 1.5707963267948966 0.0 0.4719999999999993 0.0 0.0 0.0 0.0 0.0 -1.0 0.0 0.0 0.0 0.0 0.0 144.46309069951502 280.83172973427287 480.9 -1.56902545702455 0.0874789150595505 -0.08747891505955051 
2.2994955 1.463148326794897 -1.5707963267948966 -1.5707963267948966 0.0 1.5707963267948966 0.0 0.4639999999999993 0.0 0.0 0.0 0.0 0.0 -1.0 0.0 0.0 0.0 0.0 0.0 143.41064665270258 281.3706300001009 480.9 -1.569142512447374 0.084539179676629 -0.08453917967662901 
2.3074954 1.4668283267948967 -1.5707963267948966 -1.5707963267948966 0.0 1.5707963267948966 0.0 0.4559999999999993 0.0 0.0 0.0 0.0 0.0 -1.0 0.0 0.0 0.0 0.0 0.0 142.37423401029193 281.8964747739543 480.9 -1.5692536654463647 0.08164964406259756 -0.08164964406259757 
2.3154955 1.4704443267948968 -1.5707963267948966 -1.5707963267948966 0.0 1.5707963267948966 0.0 0.4479999999999993 0.0 0.0 0.0 0.0 0.0 -1.0 0.0 0.0 0.0 0.0 0.0 141.35396777589 282.409455921739 480.9 -1.5693591180096953 0.07881031263683469 -0.0788103126368347 
2.3234954 1.4739963267948968 -1.5707963267948966 -1.5707963267948966 0.0 1.5707963267948966 0.0 0.4399999999999993 0.0 0.0 0.0 0.0 0.0 -1.0 0.0 0.0 0.0 0.0 0.0 140.34995978814814 282.9097626231113 480.9 -1.5694590685902394 0.07602118959164214 -0.07602118959164215 
2.3314955 1.4774843267948967 -1.5707963267948966 -1.5707963267948966 0.0 1.5707963267948966 0.0 0.4319999999999993 0.0 0.0 0.0 0.0 0.0 -1.0 0.0 0.0 0.0 0.0 0.0 139.36231877897586 283.3975813315052 480.9 -1.569553712107511 0.07328227890020271 -0.07328227890020272 
2.3394954 1.4809083267948966 -1.5707963267948966 -1.5707963267948966 0.0 1.5707963267948966 0.0 0.42399999999999927 0.0 0.0 0.0 0.0 0.0 -1.0 0.0 0.0 0.0 0.0 0.0 138.3911504310239 283.8730957353615 480.9 -1.569643239949499 0.07059358432439196 -0.07059358432439197 
2.3474953 1.4842683267948968 -1.5707963267948966 -1.5707963267948966 0.0 1.5707963267948966 0.0 0.41599999999999926 0.0 0.0 0.0 0.0 0.0 -1.0 0.0 0.0 0.0 0.0 0.0 137.43655743441667 284.3364867205338 480.9 -1.5697278399744061 0.0679551094224428 -0.06795510942244282 
2.3554955 1.487564326794897 -1.5707963267948966 -1.5707963267948966 0.0 1.5707963267948966 0.0 0.40799999999999925 0.0 0.0 0.0 0.0 0.0 -1.0 0.0 0.0 0.0 0.0 0.0 136.49863954271652 284.7879323338465 480.9 -1.5698076965122916 0.06536685755646525 -0.06536685755646526 
2.3634953 1.4907963267948972 -1.5707963267948966 -1.5707963267948966 0.0 1.5707963267948966 0.0 0.39999999999999925 0.0 0.0 0.0 0.0 0.0 -1.0 0.0 0.0 0.0 0.0 0.0 135.57749362810046 285.22760774778163 480.9 -1.5698829903666265 0.06282883189981843 -0.06282883189981844 
2.3714955 1.4939643267948972 -1.5707963267948966 -1.5707963267948966 0.0 1.5707963267948966 0.0 0.39199999999999924 0.0 0.0 0.0 0.0 0.0 -1.0 0.0 0.0 0.0 0.0 0.0 134.6732137357331 285.6556852262695 480.9 -1.5699538988157582 0.060341035444338637 -0.06034103544433865 
2.3794954 1.4970683267948972 -1.5707963267948966 -1.5707963267948966 0.0 1.5707963267948966 0.0 0.38399999999999923 0.0 0.0 0.0 0.0 0.0 -1.0 0.0 0.0 0.0 0.0 0.0 133.78589113731923 286.07233409156044 480.9 -1.5700205956142927 0.057903471007422505 -0.05790347100742252 
2.3874955 1.5001083267948967 -1.5707963267948966 -1.5707963267948966 0.0 1.5707963267948966 0.0 0.3759999999999992 0.0 0.0 0.0 0.0 0.0 -1.0 0.0 0.0 0.0 0.0 0.0 132.91561438381888 286.47772069215426 480.9 -1.5700832509943994 0.05551614123896612 -0.05551614123896614 
2.3954954 1.5030843267948966 -1.5707963267948966 -1.5707963267948966 0.0 1.5707963267948966 0.0 0.3679999999999992 0.0 0.0 0.0 0.0 0.0 -1.0 0.0 0.0 0.0 0.0 0.0 132.06246935730974 286.8720083717643 480.9 -1.57014203166703 0.05317904862815833 -0.05317904862815834 
2.4034953 1.5059963267948968 -1.5707963267948966 -1.5707963267948966 0.0 1.5707963267948966 0.0 0.3599999999999992 0.0 0.0 0.0 0.0 0.0 -1.0 0.0 0.0 0.0 0.0 0.0 131.2265393219826 287.25535743929333 480.9 -1.5701971008230755 0.05089219551013391 -0.05089219551013392 
2.4114954 1.5088443267948966 -1.5707963267948966 -1.5707963267948966 0.0 1.5707963267948966 0.0 0.3519999999999992 0.0 0.0 0.0 0.0 0.0 -1.0 0.0 0.0 0.0 0.0 0.0 130.4079049742543 287.62792513979906 480.9 -1.5702486181344384 0.04865558407248158 -0.04865558407248159 
2.4194953 1.5116283267948967 -1.5707963267948966 -1.5707963267948966 0.0 1.5707963267948966 0.0 0.3439999999999992 0.0 0.0 0.0 0.0 0.0 -1.0 0.0 0.0 0.0 0.0 0.0 129.60664449198308 287.98986562642915 480.9 -1.5702967397550498 0.04646921636160708 -0.046469216361607085 
2.4274955 1.5143483267948967 -1.5707963267948966 -1.5707963267948966 0.0 1.5707963267948966 0.0 0.3359999999999992 0.0 0.0 0.0 0.0 0.0 -1.0 0.0 0.0 0.0 0.0 0.0 128.8228335827762 288.3413299333003 480.9 -1.5703416183218097 0.044333094288958354 -0.04433309428895836 
2.4354954 1.5170043267948967 -1.5707963267948966 -1.5707963267948966 0.0 1.5707963267948966 0.0 0.3279999999999992 0.0 0.0 0.0 0.0 0.0 -1.0 0.0 0.0 0.0 0.0 0.0 128.05654553137296 288.68246594930457 480.9 -1.5703834029554737 0.0422472196371045 -0.0422472196371045 
2.4434955 1.5195963267948966 -1.5707963267948966 -1.5707963267948966 0.0 1.5707963267948966 0.0 0.3199999999999992 0.0 0.0 0.0 0.0 0.0 -1.0 0.0 0.0 0.0 0.0 0.0 127.30785124609257 289.01341839281923 480.9 -1.570422239261476 0.04021159406567446 -0.04021159406567447 
2.4514954 1.522124326794897 -1.5707963267948966 -1.5707963267948966 0.0 1.5707963267948966 0.0 0.31199999999999917 0.0 0.0 0.0 0.0 0.0 -1.0 0.0 0.0 0.0 0.0 0.0 126.57681930433449 289.33432878730076 480.9 -1.5704582693306948 0.03822621911715345 -0.03822621911715346 
2.4594953 1.5245883267948968 -1.5707963267948966 -1.5707963267948966 0.0 1.5707963267948966 0.0 0.30399999999999916 0.0 0.0 0.0 0.0 0.0 -1.0 0.0 0.0 0.0 0.0 0.0 125.86351599711965 289.64533543774326 480.9 -1.5704916317401676 0.036291096222539364 -0.03629109622253937 
2.4674954 1.526988326794897 -1.5707963267948966 -1.5707963267948966 0.0 1.5707963267948966 0.0 0.29599999999999915 0.0 0.0 0.0 0.0 0.0 -1.0 0.0 0.0 0.0 0.0 0.0 125.1680053726596 289.94657340798125 480.9 -1.5705224615537507 0.03440622670685423 -0.03440622670685424 
2.4754953 1.529324326794897 -1.5707963267948966 -1.5707963267948966 0.0 1.5707963267948966 0.0 0.28799999999999915 0.0 0.0 0.0 0.0 0.0 -1.0 0.0 0.0 0.0 0.0 0.0 124.49034927894614 290.23817449881744 480.9 -1.5705508903227323 0.032571611794519395 -0.0325716117945194 
2.4834955 1.5315963267948967 -1.5707963267948966 -1.5707963267948966 0.0 1.5707963267948966 0.0 0.27999999999999914 0.0 0.0 0.0 0.0 0.0 -1.0 0.0 0.0 0.0 0.0 0.0 123.83060740534768 290.52026722695723 480.9 -1.570577046086398 0.030787252614586348 -0.03078725261458635 
2.4914954 1.5338043267948966 -1.5707963267948966 -1.5707963267948966 0.0 1.5707963267948966 0.0 0.27199999999999913 0.0 0.0 0.0 0.0 0.0 -1.0 0.0 0.0 0.0 0.0 0.0 123.18883732320344 290.79297680473184 480.9 -1.5706010533725527 0.029053150205826755 -0.02905315020582676 
2.4994955 1.535948326794897 -1.5707963267948966 -1.5707963267948966 0.0 1.5707963267948966 0.0 0.2639999999999991 0.0 0.0 0.0 0.0 0.0 -1.0 0.0 0.0 0.0 0.0 0.0 122.56509452540763 291.05642512059046 480.9 -1.5706230331980011 0.02736930552168481 -0.027369305521684813 
2.5074954 1.5380283267948964 -1.5707963267948966 -1.5707963267948966 0.0 1.5707963267948966 0.0 0.2559999999999991 0.0 0.0 0.0 0.0 0.0 -1.0 0.0 0.0 0.0 0.0 0.0 121.95943246497185 291.31073072034604 480.9 -1.5706431030689878 0.025735719435087658 -0.02573571943508766 
2.5154953 1.5400443267948967 -1.5707963267948966 -1.5707963267948966 0.0 1.5707963267948966 0.0 0.2479999999999991 0.0 0.0 0.0 0.0 0.0 -1.0 0.0 0.0 0.0 0.0 0.0 121.37190259255688 291.5560087891568 480.9 -1.5706613769816018 0.02415239274311179 -0.024152392743111796 
2.5234954 1.5419963267948964 -1.5707963267948966 -1.5707963267948966 0.0 1.5707963267948966 0.0 0.2399999999999991 0.0 0.0 0.0 0.0 0.0 -1.0 0.0 0.0 0.0 0.0 0.0 120.80255439296924 291.7923711342257 480.9 -1.570677965422143 0.022619326171517583 -0.02261932617151759 
2.5314953 1.5438843267948965 -1.5707963267948966 -1.5707963267948966 0.0 1.5707963267948966 0.0 0.2319999999999991 0.0 0.0 0.0 0.0 0.0 -1.0 0.0 0.0 0.0 0.0 0.0 120.25143542060839 292.0199261682038 480.9 -1.5706929753674586 0.02113652037913472 -0.021136520379134723 
2.5394955 1.5457083267948966 -1.5707963267948966 -1.5707963267948966 0.0 1.5707963267948966 0.0 0.2239999999999991 0.0 0.0 0.0 0.0 0.0 -1.0 0.0 0.0 0.0 0.0 0.0 119.71859133386235 292.2387788932804 480.9 -1.5707065102852493 0.019703975962114675 -0.019703975962114678 
2.5474954 1.547468326794897 -1.5707963267948966 -1.5707963267948966 0.0 1.5707963267948966 0.0 0.21599999999999908 0.0 0.0 0.0 0.0 0.0 -1.0 0.0 0.0 0.0 0.0 0.0 119.20406592844033 292.44903088594435 480.9 -1.5707186701343427 0.01832169345803881 -0.018321693458038812 
2.5554955 1.549164326794897 -1.5707963267948966 -1.5707963267948966 0.0 1.5707963267948966 0.0 0.20799999999999907 0.0 0.0 0.0 0.0 0.0 -1.0 0.0 0.0 0.0 0.0 0.0 118.70790116963823 292.6507802824031 480.9 -1.5707295513649424 0.016989673349890107 -0.01698967334989011 
2.5634954 1.5507963267948968 -1.5707963267948966 -1.5707963267948966 0.0 1.5707963267948966 0.0 0.19999999999999907 0.0 0.0 0.0 0.0 0.0 -1.0 0.0 0.0 0.0 0.0 0.0 118.23013722352721 292.84412176464446 480.9 -1.570739246918852 0.015707916069881468 -0.01570791606988147 
2.5714953 1.552364326794897 -1.5707963267948966 -1.5707963267948966 0.0 1.5707963267948966 0.0 0.19199999999999906 0.0 0.0 0.0 0.0 0.0 -1.0 0.0 0.0 0.0 0.0 0.0 117.77081248706182 293.0291465471265 480.9 -1.5707478462296736 0.014476422003147455 -0.014476422003147457 
2.5794954 1.5538683267948972 -1.5707963267948966 -1.5707963267948966 0.0 1.5707963267948966 0.0 0.18399999999999905 0.0 0.0 0.0 0.0 0.0 -1.0 0.0 0.0 0.0 0.0 0.0 117.32996361709993 293.20594236408306 480.9 -1.570755435222986 0.013295191491296153 -0.013295191491296156 
2.5874953 1.5553083267948968 -1.5707963267948966 -1.5707963267948966 0.0 1.5707963267948966 0.0 0.17599999999999905 0.0 0.0 0.0 0.0 0.0 -1.0 0.0 0.0 0.0 0.0 0.0 116.90762555832852 293.37459345743224 480.9 -1.5707620963165059 0.012164224835820123 -0.012164224835820126 
2.5954955 1.5566843267948969 -1.5707963267948966 -1.5707963267948966 0.0 1.5707963267948966 0.0 0.16799999999999904 0.0 0.0 0.0 0.0 0.0 -1.0 0.0 0.0 0.0 0.0 0.0 116.50383157008973 293.53518056527423 480.9 -1.5707679084202217 0.011083522301367513 -0.011083522301367513 
2.6034954 1.5579963267948969 -1.5707963267948966 -1.5707963267948966 0.0 1.5707963267948966 0.0 0.15999999999999903 0.0 0.0 0.0 0.0 0.0 -1.0 0.0 0.0 0.0 0.0 0.0 116.11861325210354 293.6877809109674 480.9 -1.570772946936521 0.010053084118876905 -0.010053084118876907 
2.6114955 1.5592443267948963 -1.5707963267948966 -1.5707963267948966 0.0 1.5707963267948966 0.0 0.15199999999999902 0.0 0.0 0.0 0.0 0.0 -1.0 0.0 0.0 0.0 0.0 0.0 115.75200056907957 293.83246819277105 480.9 -1.5707772837602947 0.009072910488569666 -0.009072910488569667 
2.6194954 1.5604283267948966 -1.5707963267948966 -1.5707963267948966 0.0 1.5707963267948966 0.0 0.14399999999999902 0.0 0.0 0.0 0.0 0.0 -1.0 0.0 0.0 0.0 0.0 0.0 115.4040218742142 293.96931257404384 480.9 -1.570780987279029 0.008143001582802532 -0.008143001582802532 
2.6274955 1.5615483267948964 -1.5707963267948966 -1.5707963267948966 0.0 1.5707963267948966 0.0 0.135999999999999 0.0 0.0 0.0 0.0 0.0 -1.0 0.0 0.0 0.0 0.0 0.0 115.07470393157065 294.098380673987 480.9 -1.570784122372888 0.007263357548785825 -0.0072633575487858265 
2.6354954 1.5626043267948966 -1.5707963267948966 -1.5707963267948966 0.0 1.5707963267948966 0.0 0.127999999999999 0.0 0.0 0.0 0.0 0.0 -1.0 0.0 0.0 0.0 0.0 0.0 114.76407193733323 294.219735558923 480.9 -1.5707867504147797 0.006433978511155001 -0.006433978511155002 
2.6434953 1.5635963267948967 -1.5707963267948966 -1.5707963267948966 0.0 1.5707963267948966 0.0 0.119999999999999 0.0 0.0 0.0 0.0 0.0 -1.0 0.0 0.0 0.0 0.0 0.0 114.47214953993665 294.33343673409985 480.9 -1.5707889292704138 0.005654864574409554 -0.005654864574409555 
2.6514955 1.5645243267948967 -1.5707963267948966 -1.5707963267948966 0.0 1.5707963267948966 0.0 0.11199999999999899 0.0 0.0 0.0 0.0 0.0 -1.0 0.0 0.0 0.0 0.0 0.0 114.19895885906328 294.4395401360115 480.9 -1.57079071329835 0.004926015825208488 -0.004926015825208489 
2.6594954 1.5653883267948967 -1.5707963267948966 -1.5707963267948966 0.0 1.5707963267948966 0.0 0.10399999999999898 0.0 0.0 0.0 0.0 0.0 -1.0 0.0 0.0 0.0 0.0 0.0 113.94452050350633 294.5380981252273 480.9 -1.5707921533500395 0.004247432334528276 -0.004247432334528277 
2.6674955 1.566188326794897 -1.5707963267948966 -1.5707963267948966 0.0 1.5707963267948966 0.0 0.09599999999999898 0.0 0.0 0.0 0.0 0.0 -1.0 0.0 0.0 0.0 0.0 0.0 113.70885358789536 294.62915947972044 480.9 -1.5707932967698566 0.0036191141596808914 -0.003619114159680892 
2.6754954 1.566924326794897 -1.5707963267948966 -1.5707963267948966 0.0 1.5707963267948966 0.0 0.08799999999999897 0.0 0.0 0.0 0.0 0.0 -1.0 0.0 0.0 0.0 0.0 0.0 113.49197574828169 294.71276938869045 480.9 -1.5707941873951252 0.0030410613461943586 -0.003041061346194359 
2.6834955 1.5675963267948967 -1.5707963267948966 -1.5707963267948966 0.0 1.5707963267948966 0.0 0.07999999999999896 0.0 0.0 0.0 0.0 0.0 -1.0 0.0 0.0 0.0 0.0 0.0 113.29390315657912 294.78896944687 480.9 -1.5707948655561406 0.0025132739295506044 -0.0025132739295506044 
2.6914954 1.5682043267948964 -1.5707963267948966 -1.5707963267948966 0.0 1.5707963267948966 0.0 0.07199999999999895 0.0 0.0 0.0 0.0 0.0 -1.0 0.0 0.0 0.0 0.0 0.0 113.11465053386003 294.85779764931215 480.9 -1.5707953680761846 0.002035751936787585 -0.0020357519367875856 
2.6994953 1.5687483267948965 -1.5707963267948966 -1.5707963267948966 0.0 1.5707963267948966 0.0 0.06399999999999895 0.0 0.0 0.0 0.0 0.0 -1.0 0.0 0.0 0.0 0.0 0.0 112.95423116250207 294.91928838665 480.9 -1.5707957282715408 0.0016084953879601186 -0.0016084953879601188 
2.7074955 1.5692283267948965 -1.5707963267948966 -1.5707963267948966 0.0 1.5707963267948966 0.0 0.05599999999999894 0.0 0.0 0.0 0.0 0.0 -1.0 0.0 0.0 0.0 0.0 0.0 112.81265689718522 294.97347244082465 480.9 -1.5707959759515002 0.001231504297463262 -0.0012315042974632622 
2.7154953 1.5696443267948965 -1.5707963267948966 -1.5707963267948966 0.0 1.5707963267948966 0.0 0.04799999999999893 0.0 0.0 0.0 0.0 0.0 -1.0 0.0 0.0 0.0 0.0 0.0 112.68993817473567 295.02037698127606 480.9 -1.5707961374183717 0.0009047786752143966 -0.0009047786752143968 
2.7234955 1.5699963267948964 -1.5707963267948966 -1.5707963267948966 0.0 1.5707963267948966 0.0 0.039999999999998925 0.0 0.0 0.0 0.0 0.0 -1.0 0.0 0.0 0.0 0.0 0.0 112.58608402281583 295.0600255615922 480.9 -1.5707962354674836 0.0006283185276975166 -0.0006283185276975166 
2.7314954 1.5702843267948967 -1.5707963267948966 -1.5707963267948966 0.0 1.5707963267948966 0.0 0.03199999999999892 0.0 0.0 0.0 0.0 0.0 -1.0 0.0 0.0 0.0 0.0 0.0 112.50110206745867 295.09243811661327 480.9 -1.5707962893871883 0.0004021238588676252 -0.00040212385886762524 
2.7394955 1.5705083267948965 -1.5707963267948966 -1.5707963267948966 0.0 1.5707963267948966 0.0 0.02399999999999891 0.0 0.0 0.0 0.0 0.0 -1.0 0.0 0.0 0.0 0.0 0.0 112.43499853944576 295.11763095998657 480.9 -1.570796314958864 0.00022619467091768196 -0.00022619467091768202 
2.7474954 1.5706683267948967 -1.5707963267948966 -1.5707963267948966 0.0 1.5707963267948966 0.0 0.015999999999998904 0.0 0.0 0.0 0.0 0.0 -1.0 0.0 0.0 0.0 0.0 0.0 112.38777827952562 295.1356167821705 480.9 -1.5707963244569145 0.00010053096490252313 -0.00010053096490252316 
2.7554953 1.5707643267948967 -1.5707963267948966 -1.5707963267948966 0.0 1.5707963267948966 0.0 0.007999999999998897 0.0 0.0 0.0 0.0 0.0 -1.0 0.0 0.0 0.0 0.0 0.0 112.35944474247513 295.14640464888384 480.9 -1.5707963266487726 2.5132741228471948e-05 -2.513274122847195e-05 
2.7634954 1.5707963267948968 -1.5707963267948966 -1.5707963267948966 0.0 1.5707963267948966 0.0 -1.1102230246251565e-15 0.0 0.0 0.0 0.0 0.0 -1.0 0.0 0.0 0.0 0.0 0.0 112.34999999999994 295.15 480.9 -1.5707963267948963 -7.820989021434209e-17 7.820989021434211e-17 
