Fleaurent/UniversalRobot/csv/robolib_movej_Dreieck_Zeit.csv
timestamp target_q_0 target_q_1 target_q_2 target_q_3 target_q_4 target_q_5 target_qd_0 target_qd_1 target_qd_2 target_qd_3 target_qd_4 target_qd_5 target_qdd_0 target_qdd_1 target_qdd_2 target_qdd_3 target_qdd_4 target_qdd_5 actual_TCP_pose_0 actual_TCP_pose_1 actual_TCP_pose_2 actual_TCP_pose_3 actual_TCP_pose_4 actual_TCP_pose_5
0.0 0.0 -1.5707963267948966 -1.5707963267948966 0.0 1.5707963267948966 0.0 0.0 0.0 0.0 0.0 0.0 0.0 1.0 0.0 0.0 0.0 0.0 0.0 295.15 -112.34999999999998 480.9 -1.2091995761561454 1.2091995761561456 -1.2091995761561458 
0.008 3.2e-05 -1.5707963267948966 -1.5707963267948966 0.0 1.5707963267948966 0.0 0.008 0.0 0.0 0.0 0.0 0.0 1.0 0.0 0.0 0.0 0.0 0.0 295.1535950488826 -112.34055514247841 480.9 -1.2092147055764364 1.2091760113249628 -1.209176011324963 
0.016 0.000128 -1.5707963267948966 -1.5707963267948966 0.0 1.5707963267948966 0.0 0.016 0.0 0.0 0.0 0.0 0.0 1.0 0.0 0.0 0.0 0.0 0.0 295.1643783820919 -112.31221987973194 480.9 -1.2092600917893326 1.209105316402997 -1.2091053164029972 
0.024 0.000288 -1.5707963267948966 -1.5707963267948966 0.0 1.5707963267948966 0.0 0.024 0.0 0.0 0.0 0.0 0.0 1.0 0.0 0.0 0.0 0.0 0.0 295.182344559092 -112.2649921417959 480.9 -1.2093357286510245 1.2089874901051165 -1.2089874901051167 
0.032 0.000512 -1.5707963267948966 -1.5707963267948966 0.0 1.5707963267948966 0.0 0.032 0.0 0.0 0.0 0.0 0.0 1.0 0.0 0.0 0.0 0.0 0.0 295.2074845115868 -112.19886848066349 480.9 -1.2094416059222521 1.2088225302898576 -1.2088225302898579 
0.04 0.0008 -1.5707963267948966 -1.5707963267948966 0.0 1.5707963267948966 0.0 0.04 0.0 0.0 0.0 0.0 0.0 1.0 0.0 0.0 0.0 0.0 0.0 295.23978554241785 -112.11384407318803 480.9 -1.209577709268942 1.2086104339600623 -1.2086104339600627 
0.048 0.001152 -1.5707963267948966 -1.5707963267948966 0.0 1.5707963267948966 0.0 0.048 0.0 0.0 0.0 0.0 0.0 1.0 0.0 0.0 0.0 0.0 0.0 295.2792313240216 -112.00991272514642 480.9 -1.2097440202630958 1.2083511972637653 -1.2083511972637655 
0.056 0.0015680000000000002 -1.5707963267948966 -1.5707963267948966 0.0 1.5707963267948966 0.0 0.056 0.0 0.0 0.0 0.0 0.0 1.0 0.0 0.0 0.0 0.0 0.0 295.32580189645034 -111.88706687646494 480.9 -1.2099405163839287 1.208044815495334 -1.2080448154953343 
0.064 0.002048 -1.5707963267948966 -1.5707963267948966 0.0 1.5707963267948966 0.0 0.064 0.0 0.0 0.0 0.0 0.0 1.0 0.0 0.0 0.0 0.0 0.0 295.379473664957 -111.74529760760825 480.9 -1.21016717101927 1.2076912830968698 -1.20769128309687 
0.072 0.0025920000000000006 -1.5707963267948966 -1.5707963267948966 0.0 1.5707963267948966 0.0 0.07200000000000001 0.0 0.0 0.0 0.0 0.0 1.0 0.0 0.0 0.0 0.0 0.0 295.4402193971484 -111.58459464713222 480.9 -1.2104239534672074 1.2072905936598501 -1.2072905936598504 
0.08 0.0032 -1.5707963267948966 -1.5707963267948966 0.0 1.5707963267948966 0.0 0.08 0.0 0.0 0.0 0.0 0.0 1.0 0.0 0.0 0.0 0.0 0.0 295.50800821970904 -111.40494638040256 480.9 -1.2107108289379842 1.2068427399270305 -1.206842739927031 
0.088 0.0038719999999999996 -1.5707963267948966 -1.5707963267948966 0.0 1.5707963267948966 0.0 0.088 0.0 0.0 0.0 0.0 0.0 1.0 0.0 0.0 0.0 0.0 0.0 295.5828056147004 -111.20633985948024 480.9 -1.2110277585561553 1.206347713794597 -1.2063477137945973 
0.096 0.004608 -1.5707963267948966 -1.5707963267948966 0.0 1.5707963267948966 0.0 0.096 0.0 0.0 0.0 0.0 0.0 1.0 0.0 0.0 0.0 0.0 0.0 295.6645734154394 -110.98876081417534 480.9 -1.2113746993629853 1.2058055063145694 -1.2058055063145698 
0.104 0.005408000000000001 -1.5707963267948966 -1.5707963267948966 0.0 1.5707963267948966 0.0 0.10400000000000001 0.0 0.0 0.0 0.0 0.0 1.0 0.0 0.0 0.0 0.0 0.0 295.75326980196127 -110.75219366427145 480.9 -1.211751604319099 1.2052161076974512 -1.2052161076974515 
0.112 0.006272000000000001 -1.5707963267948966 -1.5707963267948966 0.0 1.5707963267948966 0.0 0.112 0.0 0.0 0.0 0.0 0.0 1.0 0.0 0.0 0.0 0.0 0.0 295.8488492960722 -110.49662153292248 480.9 -1.212158422307384 1.204579507315135 -1.2045795073151353 
0.12 0.0072 -1.5707963267948966 -1.5707963267948966 0.0 1.5707963267948966 0.0 0.12 0.0 0.0 0.0 0.0 0.0 1.0 0.0 0.0 0.0 0.0 0.0 295.95126275599847 -110.22202626122389 480.9 -1.212595098136135 1.203895693704051 -1.2038956937040513 
0.128 0.008192 -1.5707963267948966 -1.5707963267948966 0.0 1.5707963267948966 0.0 0.128 0.0 0.0 0.0 0.0 0.0 1.0 0.0 0.0 0.0 0.0 0.0 296.06045737063687 -109.92838842396122 480.9 -1.2130615725424498 1.2031646545685644 -1.2031646545685646 
0.136 0.009248000000000001 -1.5707963267948966 -1.5707963267948966 0.0 1.5707963267948966 0.0 0.136 0.0 0.0 0.0 0.0 0.0 1.0 0.0 0.0 0.0 0.0 0.0 296.17637665341584 -109.61568734653784 480.9 -1.2135577821958687 1.202386376784623 -1.2023863767846232 
0.144 0.010368000000000002 -1.5707963267948966 -1.5707963267948966 0.0 1.5707963267948966 0.0 0.14400000000000002 0.0 0.0 0.0 0.0 0.0 1.0 0.0 0.0 0.0 0.0 0.0 296.2989604357729 -109.28390112308516 480.9 -1.2140836597022584 1.201560846403644 -1.2015608464036442 
0.152 0.011552 -1.5707963267948966 -1.5707963267948966 0.0 1.5707963267948966 0.0 0.152 0.0 0.0 0.0 0.0 0.0 1.0 0.0 0.0 0.0 0.0 0.0 296.4281448602577 -108.93300663575795 480.9 -1.2146391336079376 1.2006880486566487 -1.200688048656649 
0.16 0.0128 -1.5707963267948966 -1.5707963267948966 0.0 1.5707963267948966 0.0 0.16 0.0 0.0 0.0 0.0 0.0 1.0 0.0 0.0 0.0 0.0 0.0 296.5638623732683 -108.56297957521768 480.9 -1.2152241284040484 1.1997679679586404 -1.1997679679586406 
0.168 0.014112000000000001 -1.5707963267948966 -1.5707963267948966 0.0 1.5707963267948966 0.0 0.168 0.0 0.0 0.0 0.0 0.0 1.0 0.0 0.0 0.0 0.0 0.0 296.70604171743196 -108.1737944623074 480.9 -1.2158385645311605 1.1988005879132215 -1.1988005879132217 
0.176 0.015487999999999998 -1.5707963267948966 -1.5707963267948966 0.0 1.5707963267948966 0.0 0.176 0.0 0.0 0.0 0.0 0.0 1.0 0.0 0.0 0.0 0.0 0.0 296.8546079236366 -107.7654246709212 480.9 -1.21648235838412 1.1977858913174522 -1.1977858913174524 
0.184 0.016928 -1.5707963267948966 -1.5707963267948966 0.0 1.5707963267948966 0.0 0.184 0.0 0.0 0.0 0.0 0.0 1.0 0.0 0.0 0.0 0.0 0.0 297.0094823027274 -107.33784245207201 480.9 -1.2171554223171324 1.1967238601669474 -1.1967238601669477 
0.192 0.018432 -1.5707963267948966 -1.5707963267948966 0.0 1.5707963267948966 0.0 0.192 0.0 0.0 0.0 0.0 0.0 1.0 0.0 0.0 0.0 0.0 0.0 297.1705824368763 -106.891018959161 480.9 -1.217857664649078 1.195614475661211 -1.1956144756612113 
0.19407412 0.018800381563983462 -1.5707963267948966 -1.5707963267948966 0.0 1.5707963267948966 0.0 0.18607411761480952 0.0 0.0 0.0 0.0 0.0 0.0 0.0 0.0 0.0 0.0 0.0 297.2099389529624 -106.78153954488748 480.9 -1.2180295535000858 1.1953427254165294 -1.1953427254165296 
0.20207411 0.020288974504901938 -1.5707963267948966 -1.5707963267948966 0.0 1.5707963267948966 0.0 0.18607411761480952 0.0 0.0 0.0 0.0 0.0 0.0 0.0 0.0 0.0 0.0 0.0 297.36856384522446 -106.33899678212431 480.9 -1.2187236800883694 1.1942445152622811 -1.1942445152622816 
0.21007411 0.021777567445820416 -1.5707963267948966 -1.5707963267948966 0.0 1.5707963267948966 0.0 0.18607411761480952 0.0 0.0 0.0 0.0 0.0 0.0 0.0 0.0 0.0 0.0 0.0 297.526529795948 -105.89621838187061 480.9 -1.219417070922931 1.1931461534706624 -1.1931461534706629 
0.21807411 0.023266160386738892 -1.5707963267948966 -1.5707963267948966 0.0 1.5707963267948966 0.0 0.18607411761480952 0.0 0.0 0.0 0.0 0.0 0.0 0.0 0.0 0.0 0.0 0.0 297.68383645509493 -105.45320532528282 480.9 -1.2201097262134812 1.1920476402517646 -1.1920476402517648 
0.22607411 0.02475475332765737 -1.5707963267948966 -1.5707963267948966 0.0 1.5707963267948966 0.0 0.18607411761480952 0.0 0.0 0.0 0.0 0.0 0.0 0.0 0.0 0.0 0.0 0.0 297.8404834740881 -105.00995859403734 480.9 -1.2208016461694882 1.1909489758154632 -1.1909489758154637 
0.23407412 0.02624334626857585 -1.5707963267948966 -1.5707963267948966 0.0 1.5707963267948966 0.0 0.18607411761480952 0.0 0.0 0.0 0.0 0.0 0.0 0.0 0.0 0.0 0.0 0.0 297.99647050581194 -104.5664791703284 480.9 -1.2214928310001758 1.189850160371422 -1.1898501603714222 
0.24207412 0.027731939209494325 -1.5707963267948966 -1.5707963267948966 0.0 1.5707963267948966 0.0 0.18607411761480952 0.0 0.0 0.0 0.0 0.0 0.0 0.0 0.0 0.0 0.0 0.0 298.15179720461356 -104.12276803686586 480.9 -1.2221832809145265 1.1887511941290891 -1.1887511941290894 
0.25007412 0.0292205321504128 -1.5707963267948966 -1.5707963267948966 0.0 1.5707963267948966 0.0 0.18607411761480952 0.0 0.0 0.0 0.0 0.0 0.0 0.0 0.0 0.0 0.0 0.0 298.30646322630315 -103.678826176873 480.9 -1.2228729961212779 1.1876520772976988 -1.187652077297699 
0.2580741 0.03070912509133128 -1.5707963267948966 -1.5707963267948966 0.0 1.5707963267948966 0.0 0.18607411761480952 0.0 0.0 0.0 0.0 0.0 0.0 0.0 0.0 0.0 0.0 0.0 298.4604682281549 -103.23465457408432 480.9 -1.223561976828925 1.186552810086274 -1.1865528100862741 
0.26607412 0.03219771803224976 -1.5707963267948966 -1.5707963267948966 0.0 1.5707963267948966 0.0 0.18607411761480952 0.0 0.0 0.0 0.0 0.0 0.0 0.0 0.0 0.0 0.0 0.0 298.61381186890793 -102.79025421274353 480.9 -1.2242502232457209 1.1854533927036226 -1.1854533927036228 
0.2740741 0.03368631097316824 -1.5707963267948966 -1.5707963267948966 0.0 1.5707963267948966 0.0 0.18607411761480952 0.0 0.0 0.0 0.0 0.0 0.0 0.0 0.0 0.0 0.0 0.0 298.76649380876665 -102.34562607760114 480.9 -1.2249377355796738 1.1843538253583408 -1.184353825358341 
0.28207412 0.035174903914086716 -1.5707963267948966 -1.5707963267948966 0.0 1.5707963267948966 0.0 0.18607411761480952 0.0 0.0 0.0 0.0 0.0 0.0 0.0 0.0 0.0 0.0 0.0 298.918513709402 -101.90077115391247 480.9 -1.2256245140385515 1.1832541082588137 -1.183254108258814 
0.2900741 0.036663496855005195 -1.5707963267948966 -1.5707963267948966 0.0 1.5707963267948966 0.0 0.18607411761480952 0.0 0.0 0.0 0.0 0.0 0.0 0.0 0.0 0.0 0.0 0.0 299.06987123395163 -101.45569042743531 480.9 -1.226310558829878 1.182154241613213 -1.1821542416132134 
0.29807413 0.03815208979592367 -1.5707963267948966 -1.5707963267948966 0.0 1.5707963267948966 0.0 0.18607411761480952 0.0 0.0 0.0 0.0 0.0 0.0 0.0 0.0 0.0 0.0 0.0 299.2205660470211 -101.01038488442785 480.9 -1.2269958701609358 1.1810542256295007 -1.181054225629501 
0.3060741 0.039640682736842146 -1.5707963267948966 -1.5707963267948966 0.0 1.5707963267948966 0.0 0.18607411761480952 0.0 0.0 0.0 0.0 0.0 0.0 0.0 0.0 0.0 0.0 0.0 299.37059781468463 -100.56485551164646 480.9 -1.2276804482387633 1.1799540605154253 -1.1799540605154257 
0.31407413 0.04112927567776062 -1.5707963267948966 -1.5707963267948966 0.0 1.5707963267948966 0.0 0.18607411761480952 0.0 0.0 0.0 0.0 0.0 0.0 0.0 0.0 0.0 0.0 0.0 299.5199662044854 -100.11910329634344 480.9 -1.2283642932701582 1.1788537464785276 -1.1788537464785278 
0.32207412 0.0426178686186791 -1.5707963267948966 -1.5707963267948966 0.0 1.5707963267948966 0.0 0.18607411761480952 0.0 0.0 0.0 0.0 0.0 0.0 0.0 0.0 0.0 0.0 0.0 299.6686708854368 -99.67312922626498 480.9 -1.2290474054616756 1.1777532837261349 -1.177753283726135 
0.33007413 0.044106461559597576 -1.5707963267948966 -1.5707963267948966 0.0 1.5707963267948966 0.0 0.18607411761480952 0.0 0.0 0.0 0.0 0.0 0.0 0.0 0.0 0.0 0.0 0.0 299.8167115280229 -99.2269342896488 480.9 -1.2297297850196287 1.1766526724653668 -1.176652672465367 
0.33807412 0.045595054500516055 -1.5707963267948966 -1.5707963267948966 0.0 1.5707963267948966 0.0 0.18607411761480952 0.0 0.0 0.0 0.0 0.0 0.0 0.0 0.0 0.0 0.0 0.0 299.9640878041991 -98.78051947522204 480.9 -1.230411432150088 1.1755519129031318 -1.1755519129031322 
0.3460741 0.047083647441434534 -1.5707963267948966 -1.5707963267948966 0.0 1.5707963267948966 0.0 0.18607411761480952 0.0 0.0 0.0 0.0 0.0 0.0 0.0 0.0 0.0 0.0 0.0 300.11079938739306 -98.33388577219911 480.9 -1.2310923470588844 1.174451005246131 -1.1744510052461312 
0.35407412 0.04857224038235301 -1.5707963267948966 -1.5707963267948966 0.0 1.5707963267948966 0.0 0.18607411761480952 0.0 0.0 0.0 0.0 0.0 0.0 0.0 0.0 0.0 0.0 0.0 300.25684595250533 -97.88703417027952 480.9 -1.2317725299516034 1.173349949700854 -1.1733499497008542 
0.3620741 0.050060833323271485 -1.5707963267948966 -1.5707963267948966 0.0 1.5707963267948966 0.0 0.18607411761480952 0.0 0.0 0.0 0.0 0.0 0.0 0.0 0.0 0.0 0.0 0.0 300.40222717591007 -97.43996565964544 480.9 -1.2324519810335925 1.1722487464735827 -1.1722487464735831 
0.37007412 0.051549426264189964 -1.5707963267948966 -1.5707963267948966 0.0 1.5707963267948966 0.0 0.18607411761480952 0.0 0.0 0.0 0.0 0.0 0.0 0.0 0.0 0.0 0.0 0.0 300.5469427354559 -96.99268123095987 480.9 -1.2331307005099557 1.1711473957703917 -1.171147395770392 
0.3780741 0.05303801920510844 -1.5707963267948966 -1.5707963267948966 0.0 1.5707963267948966 0.0 0.18607411761480952 0.0 0.0 0.0 0.0 0.0 0.0 0.0 0.0 0.0 0.0 0.0 300.6909923104662 -96.54518187536418 480.9 -1.2338086885855557 1.1700458977971468 -1.170045897797147 
0.38607413 0.05452661214602692 -1.5707963267948966 -1.5707963267948966 0.0 1.5707963267948966 0.0 0.18607411761480952 0.0 0.0 0.0 0.0 0.0 0.0 0.0 0.0 0.0 0.0 0.0 300.8343755817404 -96.09746858447599 480.9 -1.2344859454650154 1.1689442527595064 -1.1689442527595066 
0.3940741 0.0560152050869454 -1.5707963267948966 -1.5707963267948966 0.0 1.5707963267948966 0.0 0.18607411761480952 0.0 0.0 0.0 0.0 0.0 0.0 0.0 0.0 0.0 0.0 0.0 300.97709223155425 -95.64954235038701 480.9 -1.2351624713527152 1.1678424608629214 -1.1678424608629216 
0.40207413 0.05750379802786387 -1.5707963267948966 -1.5707963267948966 0.0 1.5707963267948966 0.0 0.18607411761480952 0.0 0.0 0.0 0.0 0.0 0.0 0.0 0.0 0.0 0.0 0.0 301.1191419436607 -95.2014041656608 480.9 -1.235838266452794 1.1667405223126361 -1.1667405223126364 
0.4100741 0.05899239096878235 -1.5707963267948966 -1.5707963267948966 0.0 1.5707963267948966 0.0 0.18607411761480952 0.0 0.0 0.0 0.0 0.0 0.0 0.0 0.0 0.0 0.0 0.0 301.2605244032907 -94.75305502333062 480.9 -1.2365133309691507 1.1656384373136879 -1.165638437313688 
0.41807413 0.06048098390970083 -1.5707963267948966 -1.5707963267948966 0.0 1.5707963267948966 0.0 0.18607411761480952 0.0 0.0 0.0 0.0 0.0 0.0 0.0 0.0 0.0 0.0 0.0 301.4012392971534 -94.30449591689711 480.9 -1.237187665105444 1.1645362060709086 -1.1645362060709088 
0.42607412 0.06196957685061931 -1.5707963267948966 -1.5707963267948966 0.0 1.5707963267948966 0.0 0.18607411761480952 0.0 0.0 0.0 0.0 0.0 0.0 0.0 0.0 0.0 0.0 0.0 301.5412863134377 -93.85572784032627 480.9 -1.2378612690650899 1.1634338287889232 -1.1634338287889234 
0.4340741 0.06345816979153779 -1.5707963267948966 -1.5707963267948966 0.0 1.5707963267948966 0.0 0.18607411761480952 0.0 0.0 0.0 0.0 0.0 0.0 0.0 0.0 0.0 0.0 0.0 301.6806651418121 -93.40675178804709 480.9 -1.238534143051265 1.1623313056721523 -1.1623313056721525 
0.44207412 0.06494676273245625 -1.5707963267948966 -1.5707963267948966 0.0 1.5707963267948966 0.0 0.18607411761480952 0.0 0.0 0.0 0.0 0.0 0.0 0.0 0.0 0.0 0.0 0.0 301.8193754734259 -92.95756875494945 480.9 -1.239206287266906 1.1612286369248108 -1.161228636924811 
0.4500741 0.06643535567337475 -1.5707963267948966 -1.5707963267948966 0.0 1.5707963267948966 0.0 0.18607411761480952 0.0 0.0 0.0 0.0 0.0 0.0 0.0 0.0 0.0 0.0 0.0 301.9574170009097 -92.50817973638183 480.9 -1.239877701914708 1.160125822750908 -1.1601258227509084 
0.45807412 0.06792394861429321 -1.5707963267948966 -1.5707963267948966 0.0 1.5707963267948966 0.0 0.18607411761480952 0.0 0.0 0.0 0.0 0.0 0.0 0.0 0.0 0.0 0.0 0.0 302.0947894183761 -92.0585857281492 480.9 -1.2405483871971257 1.15902286335425 -1.1590228633542503 
0.4660741 0.0694125415552117 -1.5707963267948966 -1.5707963267948966 0.0 1.5707963267948966 0.0 0.18607411761480952 0.0 0.0 0.0 0.0 0.0 0.0 0.0 0.0 0.0 0.0 0.0 302.23149242142034 -91.6087877265108 480.9 -1.241218343316374 1.157919758938438 -1.1579197589384382 
0.47407413 0.07090113449613017 -1.5707963267948966 -1.5707963267948966 0.0 1.5707963267948966 0.0 0.18607411761480952 0.0 0.0 0.0 0.0 0.0 0.0 0.0 0.0 0.0 0.0 0.0 302.36752570712116 -91.15878672817784 480.9 -1.241887570474429 1.15681650970687 -1.1568165097068706 
0.4820741 0.07238972743704865 -1.5707963267948966 -1.5707963267948966 0.0 1.5707963267948966 0.0 0.18607411761480952 0.0 0.0 0.0 0.0 0.0 0.0 0.0 0.0 0.0 0.0 0.0 302.5028889740412 -90.70858373031136 480.9 -1.2425560688730237 1.1557131158627396 -1.1557131158627398 
0.49007413 0.07387832037796713 -1.5707963267948966 -1.5707963267948966 0.0 1.5707963267948966 0.0 0.18607411761480952 0.0 0.0 0.0 0.0 0.0 0.0 0.0 0.0 0.0 0.0 0.0 302.63758192222775 -90.25817973052003 480.9 -1.2432238387136554 1.154609577609038 -1.1546095776090382 
0.4980741 0.0753669133188856 -1.5707963267948966 -1.5707963267948966 0.0 1.5707963267948966 0.0 0.18607411761480952 0.0 0.0 0.0 0.0 0.0 0.0 0.0 0.0 0.0 0.0 0.0 302.7716042532137 -89.80757572685792 480.9 -1.2438908801975772 1.1535058951485537 -1.153505895148554 
0.50607413 0.07685550625980409 -1.5707963267948966 -1.5707963267948966 0.0 1.5707963267948966 0.0 0.18607411761480952 0.0 0.0 0.0 0.0 0.0 0.0 0.0 0.0 0.0 0.0 0.0 302.9049556700178 -89.3567727178223 480.9 -1.244557193525806 1.1524020686838716 -1.1524020686838718 
0.51407415 0.07834409920072255 -1.5707963267948966 -1.5707963267948966 0.0 1.5707963267948966 0.0 0.18607411761480952 0.0 0.0 0.0 0.0 0.0 0.0 0.0 0.0 0.0 0.0 0.0 303.03763587714536 -88.90577170235139 480.9 -1.2452227788991173 1.1512980984173762 -1.1512980984173764 
0.5220741 0.07983269214164104 -1.5707963267948966 -1.5707963267948966 0.0 1.5707963267948966 0.0 0.18607411761480952 0.0 0.0 0.0 0.0 0.0 0.0 0.0 0.0 0.0 0.0 0.0 303.16964458058936 -88.45457367982218 480.9 -1.2458876365180473 1.1501939845512488 -1.150193984551249 
0.5300741 0.08132128508255951 -1.5707963267948966 -1.5707963267948966 0.0 1.5707963267948966 0.0 0.18607411761480952 0.0 0.0 0.0 0.0 0.0 0.0 0.0 0.0 0.0 0.0 0.0 303.3009814878305 -88.00317965004825 480.9 -1.2465517665828938 1.1490897272874703 -1.1490897272874705 
0.53807414 0.08280987802347799 -1.5707963267948966 -1.5707963267948966 0.0 1.5707963267948966 0.0 0.18607411761480952 0.0 0.0 0.0 0.0 0.0 0.0 0.0 0.0 0.0 0.0 0.0 303.43164630783826 -87.55159061327747 480.9 -1.247215169293715 1.1479853268278204 -1.1479853268278206 
0.5460741 0.08429847096439647 -1.5707963267948966 -1.5707963267948966 0.0 1.5707963267948966 0.0 0.18607411761480952 0.0 0.0 0.0 0.0 0.0 0.0 0.0 0.0 0.0 0.0 0.0 303.56163875107126 -87.09980757018982 480.9 -1.2478778448503283 1.1468807833738763 -1.1468807833738766 
0.5540741 0.08578706390531494 -1.5707963267948966 -1.5707963267948966 0.0 1.5707963267948966 0.0 0.18607411761480952 0.0 0.0 0.0 0.0 0.0 0.0 0.0 0.0 0.0 0.0 0.0 303.69095852947817 -86.6478315218952 480.9 -1.2485397934523146 1.145776097127017 -1.1457760971270172 
0.5620741 0.08727565684623342 -1.5707963267948966 -1.5707963267948966 0.0 1.5707963267948966 0.0 0.18607411761480952 0.0 0.0 0.0 0.0 0.0 0.0 0.0 0.0 0.0 0.0 0.0 303.81960535649824 -86.19566346993125 480.9 -1.2492010152990145 1.1446712682884208 -1.144671268288421 
0.57007414 0.0887642497871519 -1.5707963267948966 -1.5707963267948966 0.0 1.5707963267948966 0.0 0.18607411761480952 0.0 0.0 0.0 0.0 0.0 0.0 0.0 0.0 0.0 0.0 0.0 303.94757894706186 -85.74330441626094 480.9 -1.2498615105895305 1.143566297059066 -1.1435662970590663 
0.5780741 0.09025284272807038 -1.5707963267948966 -1.5707963267948966 0.0 1.5707963267948966 0.0 0.18607411761480952 0.0 0.0 0.0 0.0 0.0 0.0 0.0 0.0 0.0 0.0 0.0 304.0748790175912 -85.29075536327059 480.9 -1.2505212795227247 1.1424611836397311 -1.1424611836397314 
0.5860741 0.09174143566898886 -1.5707963267948966 -1.5707963267948966 0.0 1.5707963267948966 0.0 0.18607411761480952 0.0 0.0 0.0 0.0 0.0 0.0 0.0 0.0 0.0 0.0 0.0 304.20150528600095 -84.83801731376754 480.9 -1.2511803222972229 1.1413559282309964 -1.1413559282309969 
0.59407413 0.09323002860990734 -1.5707963267948966 -1.5707963267948966 0.0 1.5707963267948966 0.0 0.18607411761480952 0.0 0.0 0.0 0.0 0.0 0.0 0.0 0.0 0.0 0.0 0.0 304.32745747169895 -84.38509127097785 480.9 -1.2518386391114116 1.1402505310332431 -1.1402505310332434 
0.60207415 0.09471862155082582 -1.5707963267948966 -1.5707963267948966 0.0 1.5707963267948966 0.0 0.18607411761480952 0.0 0.0 0.0 0.0 0.0 0.0 0.0 0.0 0.0 0.0 0.0 304.4527352955866 -83.93197823854422 480.9 -1.252496230163437 1.139144992246653 -1.1391449922466532 
0.6100741 0.09620721449174428 -1.5707963267948966 -1.5707963267948966 0.0 1.5707963267948966 0.0 0.18607411761480952 0.0 0.0 0.0 0.0 0.0 0.0 0.0 0.0 0.0 0.0 0.0 304.5773384800598 -83.47867922052369 480.9 -1.253153095651211 1.138039312071212 -1.1380393120712122 
0.6180741 0.09769580743266276 -1.5707963267948966 -1.5707963267948966 0.0 1.5707963267948966 0.0 0.18607411761480952 0.0 0.0 0.0 0.0 0.0 0.0 0.0 0.0 0.0 0.0 0.0 304.70126674900916 -83.02519522138543 480.9 -1.2538092357724024 1.1369334907067055 -1.136933490706706 
0.62607414 0.09918440037358124 -1.5707963267948966 -1.5707963267948966 0.0 1.5707963267948966 0.0 0.18607411761480952 0.0 0.0 0.0 0.0 0.0 0.0 0.0 0.0 0.0 0.0 0.0 304.82451982782106 -82.5715272460085 480.9 -1.2544646507244461 1.1358275283527242 -1.1358275283527244 
0.6340741 0.10067299331449972 -1.5707963267948966 -1.5707963267948966 0.0 1.5707963267948966 0.0 0.18607411761480952 0.0 0.0 0.0 0.0 0.0 0.0 0.0 0.0 0.0 0.0 0.0 304.9470974433779 -82.11767629967962 480.9 -1.2551193407045373 1.1347214252086595 -1.13472142520866 
0.6420741 0.1021615862554182 -1.5707963267948966 -1.5707963267948966 0.0 1.5707963267948966 0.0 0.18607411761480952 0.0 0.0 0.0 0.0 0.0 0.0 0.0 0.0 0.0 0.0 0.0 305.06899932405895 -81.66364338809099 480.9 -1.2557733059096332 1.1336151814737079 -1.133615181473708 
0.6500741 0.10365017919633668 -1.5707963267948966 -1.5707963267948966 0.0 1.5707963267948966 0.0 0.18607411761480952 0.0 0.0 0.0 0.0 0.0 0.0 0.0 0.0 0.0 0.0 0.0 305.1902251997408 -81.20942951733802 480.9 -1.2564265465364541 1.1325087973468684 -1.1325087973468686 
0.65807414 0.10513877213725516 -1.5707963267948966 -1.5707963267948966 0.0 1.5707963267948966 0.0 0.18607411761480952 0.0 0.0 0.0 0.0 0.0 0.0 0.0 0.0 0.0 0.0 0.0 305.31077480179795 -80.75503569391708 480.9 -1.2570790627814814 1.1314022730269437 -1.131402273026944 
0.6660741 0.10662736507817364 -1.5707963267948966 -1.5707963267948966 0.0 1.5707963267948966 0.0 0.18607411761480952 0.0 0.0 0.0 0.0 0.0 0.0 0.0 0.0 0.0 0.0 0.0 305.4306478631035 -80.30046292472335 480.9 -1.2577308548409603 1.130295608712542 -1.1302956087125422 
0.6740741 0.10811595801909211 -1.5707963267948966 -1.5707963267948966 0.0 1.5707963267948966 0.0 0.18607411761480952 0.0 0.0 0.0 0.0 0.0 0.0 0.0 0.0 0.0 0.0 0.0 305.5498441180297 -79.84571221704849 480.9 -1.2583819229108975 1.129188804602074 -1.1291888046020742 
0.6820741 0.1096045509600106 -1.5707963267948966 -1.5707963267948966 0.0 1.5707963267948966 0.0 0.18607411761480952 0.0 0.0 0.0 0.0 0.0 0.0 0.0 0.0 0.0 0.0 0.0 305.66836330244865 -79.39078457857849 480.9 -1.2590322671870628 1.1280818608937573 -1.1280818608937575 
0.69007415 0.11109314390092906 -1.5707963267948966 -1.5707963267948966 0.0 1.5707963267948966 0.0 0.18607411761480952 0.0 0.0 0.0 0.0 0.0 0.0 0.0 0.0 0.0 0.0 0.0 305.78620515373257 -78.93568101739137 480.9 -1.2596818878649887 1.1269747777856138 -1.126974777785614 
0.6980741 0.11258173684184754 -1.5707963267948966 -1.5707963267948966 0.0 1.5707963267948966 0.0 0.18607411761480952 0.0 0.0 0.0 0.0 0.0 0.0 0.0 0.0 0.0 0.0 0.0 305.90336941075475 -78.48040254195502 480.9 -1.2603307851399712 1.1258675554754713 -1.1258675554754716 
0.7060741 0.11407032978276602 -1.5707963267948966 -1.5707963267948966 0.0 1.5707963267948966 0.0 0.18607411761480952 0.0 0.0 0.0 0.0 0.0 0.0 0.0 0.0 0.0 0.0 0.0 306.0198558138899 -78.02495016112485 480.9 -1.2609789592070686 1.124760194160963 -1.1247601941609633 
0.71407413 0.1155589227236845 -1.5707963267948966 -1.5707963267948966 0.0 1.5707963267948966 0.0 0.18607411761480952 0.0 0.0 0.0 0.0 0.0 0.0 0.0 0.0 0.0 0.0 0.0 306.1356641050148 -77.56932488414172 480.9 -1.2616264102611026 1.1236526940395293 -1.1236526940395295 
0.7220741 0.11704751566460297 -1.5707963267948966 -1.5707963267948966 0.0 1.5707963267948966 0.0 0.18607411761480952 0.0 0.0 0.0 0.0 0.0 0.0 0.0 0.0 0.0 0.0 0.0 306.2507940275089 -77.11352772062956 480.9 -1.2622731384966575 1.1225450553084155 -1.1225450553084158 
0.7300741 0.11853610860552145 -1.5707963267948966 -1.5707963267948966 0.0 1.5707963267948966 0.0 0.18607411761480952 0.0 0.0 0.0 0.0 0.0 0.0 0.0 0.0 0.0 0.0 0.0 306.3652453262548 -76.6575596805932 480.9 -1.2629191441080816 1.1214372781646749 -1.121437278164675 
0.7380741 0.12002470154643993 -1.5707963267948966 -1.5707963267948966 0.0 1.5707963267948966 0.0 0.18607411761480952 0.0 0.0 0.0 0.0 0.0 0.0 0.0 0.0 0.0 0.0 0.0 306.47901774763886 -76.20142177441609 480.9 -1.2635644272894866 1.1203293628051683 -1.1203293628051685 
0.74607414 0.12151329448735841 -1.5707963267948966 -1.5707963267948966 0.0 1.5707963267948966 0.0 0.18607411761480952 0.0 0.0 0.0 0.0 0.0 0.0 0.0 0.0 0.0 0.0 0.0 306.5921110395518 -75.74511501285812 480.9 -1.2642089882347476 1.119221309426563 -1.1192213094265633 
0.7540741 0.12300188742827689 -1.5707963267948966 -1.5707963267948966 0.0 1.5707963267948966 0.0 0.18607411761480952 0.0 0.0 0.0 0.0 0.0 0.0 0.0 0.0 0.0 0.0 0.0 306.7045249513893 -75.28864040705338 480.9 -1.2648528271375037 1.1181131182253352 -1.1181131182253354 
0.7620741 0.12449048036919536 -1.5707963267948966 -1.5707963267948966 0.0 1.5707963267948966 0.0 0.18607411761480952 0.0 0.0 0.0 0.0 0.0 0.0 0.0 0.0 0.0 0.0 0.0 306.8162592340524 -74.83199896850778 480.9 -1.2654959441911562 1.1170047893977686 -1.1170047893977688 
0.7700741 0.12597907331011382 -1.5707963267948966 -1.5707963267948966 0.0 1.5707963267948966 0.0 0.18607411761480952 0.0 0.0 0.0 0.0 0.0 0.0 0.0 0.0 0.0 0.0 0.0 306.92731363994807 -74.37519170909701 480.9 -1.2661383395888721 1.1158963231399548 -1.115896323139955 
0.77807415 0.1274676662510323 -1.5707963267948966 -1.5707963267948966 0.0 1.5707963267948966 0.0 0.18607411761480952 0.0 0.0 0.0 0.0 0.0 0.0 0.0 0.0 0.0 0.0 0.0 307.03768792298996 -73.91821964106417 480.9 -1.2667800135235814 1.1147877196477955 -1.1147877196477958 
0.7860741 0.1289562591919508 -1.5707963267948966 -1.5707963267948966 0.0 1.5707963267948966 0.0 0.18607411761480952 0.0 0.0 0.0 0.0 0.0 0.0 0.0 0.0 0.0 0.0 0.0 307.1473818385988 -73.46108377701755 480.9 -1.2674209661879787 1.1136789791170012 -1.1136789791170014 
0.7940741 0.13044485213286927 -1.5707963267948966 -1.5707963267948966 0.0 1.5707963267948966 0.0 0.18607411761480952 0.0 0.0 0.0 0.0 0.0 0.0 0.0 0.0 0.0 0.0 0.0 307.2563951437028 -73.00378512992847 480.9 -1.268061197774522 1.1125701017430913 -1.1125701017430916 
0.80207413 0.13193344507378774 -1.5707963267948966 -1.5707963267948966 0.0 1.5707963267948966 0.0 0.18607411761480952 0.0 0.0 0.0 0.0 0.0 0.0 0.0 0.0 0.0 0.0 0.0 307.36472759673853 -72.54632471312884 480.9 -1.2687007084754347 1.1114610877213953 -1.1114610877213955 
0.8100741 0.13342203801470623 -1.5707963267948966 -1.5707963267948966 0.0 1.5707963267948966 0.0 0.18607411761480952 0.0 0.0 0.0 0.0 0.0 0.0 0.0 0.0 0.0 0.0 0.0 307.4723789576511 -72.08870354030913 480.9 -1.269339498482703 1.1103519372470527 -1.110351937247053 
0.8180741 0.13491063095562472 -1.5707963267948966 -1.5707963267948966 0.0 1.5707963267948966 0.0 0.18607411761480952 0.0 0.0 0.0 0.0 0.0 0.0 0.0 0.0 0.0 0.0 0.0 307.579348987895 -71.63092262551599 480.9 -1.2699775679880791 1.1092426505150133 -1.1092426505150135 
0.8260741 0.1363992238965432 -1.5707963267948966 -1.5707963267948966 0.0 1.5707963267948966 0.0 0.18607411761480952 0.0 0.0 0.0 0.0 0.0 0.0 0.0 0.0 0.0 0.0 0.0 307.68563745043446 -71.17298298315006 480.9 -1.2706149171830794 1.1081332277200384 -1.1081332277200386 
0.83407414 0.13788781683746165 -1.5707963267948966 -1.5707963267948966 0.0 1.5707963267948966 0.0 0.18607411761480952 0.0 0.0 0.0 0.0 0.0 0.0 0.0 0.0 0.0 0.0 0.0 307.79124410974396 -70.71488562796372 480.9 -1.2712515462589837 1.1070236690566997 -1.1070236690567 
0.8420741 0.13937640977838012 -1.5707963267948966 -1.5707963267948966 0.0 1.5707963267948966 0.0 0.18607411761480952 0.0 0.0 0.0 0.0 0.0 0.0 0.0 0.0 0.0 0.0 0.0 307.8961687318087 -70.25663157505882 480.9 -1.271887455406839 1.10591397471938 -1.1059139747193802 
0.8500741 0.1408650027192986 -1.5707963267948966 -1.5707963267948966 0.0 1.5707963267948966 0.0 0.18607411761480952 0.0 0.0 0.0 0.0 0.0 0.0 0.0 0.0 0.0 0.0 0.0 308.00041108412546 -69.79822183988435 480.9 -1.2725226448174543 1.104804144902274 -1.1048041449022743 
0.8580741 0.1423535956602171 -1.5707963267948966 -1.5707963267948966 0.0 1.5707963267948966 0.0 0.18607411761480952 0.0 0.0 0.0 0.0 0.0 0.0 0.0 0.0 0.0 0.0 0.0 308.1039709357026 -69.33965743823447 480.9 -1.273157114681406 1.1036941797993896 -1.1036941797993898 
0.86607414 0.14384218860113557 -1.5707963267948966 -1.5707963267948966 0.0 1.5707963267948966 0.0 0.18607411761480952 0.0 0.0 0.0 0.0 0.0 0.0 0.0 0.0 0.0 0.0 0.0 308.20684805706105 -68.88093938624584 480.9 -1.273790865189035 1.1025840796045454 -1.1025840796045459 
0.8740741 0.14533078154205403 -1.5707963267948966 -1.5707963267948966 0.0 1.5707963267948966 0.0 0.18607411761480952 0.0 0.0 0.0 0.0 0.0 0.0 0.0 0.0 0.0 0.0 0.0 308.3090422202344 -68.42206870039578 480.9 -1.2744238965304466 1.101473844511373 -1.1014738445113732 
0.8820741 0.14681937448297253 -1.5707963267948966 -1.5707963267948966 0.0 1.5707963267948966 0.0 0.18607411761480952 0.0 0.0 0.0 0.0 0.0 0.0 0.0 0.0 0.0 0.0 0.0 308.4105531987699 -67.96304639749972 480.9 -1.2750562088955124 1.100363474713318 -1.1003634747133182 
0.89007413 0.148307967423891 -1.5707963267948966 -1.5707963267948966 0.0 1.5707963267948966 0.0 0.18607411761480952 0.0 0.0 0.0 0.0 0.0 0.0 0.0 0.0 0.0 0.0 0.0 308.5113807677284 -67.50387349470913 480.9 -1.2756878024738691 1.0992529704036382 -1.0992529704036385 
0.8980741 0.14979656036480948 -1.5707963267948966 -1.5707963267948966 0.0 1.5707963267948966 0.0 0.18607411761480952 0.0 0.0 0.0 0.0 0.0 0.0 0.0 0.0 0.0 0.0 0.0 308.6115247036852 -67.04455100950915 480.9 -1.2763186774549187 1.0981423317754053 -1.0981423317754055 
0.9060741 0.15128515330572795 -1.5707963267948966 -1.5707963267948966 0.0 1.5707963267948966 0.0 0.18607411761480952 0.0 0.0 0.0 0.0 0.0 0.0 0.0 0.0 0.0 0.0 0.0 308.7109847847306 -66.58507995971637 480.9 -1.276948834027829 1.0970315590215052 -1.0970315590215054 
0.9140741 0.15277374624664644 -1.5707963267948966 -1.5707963267948966 0.0 1.5707963267948966 0.0 0.18607411761480952 0.0 0.0 0.0 0.0 0.0 0.0 0.0 0.0 0.0 0.0 0.0 308.80976079047 -66.12546136347663 480.9 -1.2775782723815337 1.0959206523346376 -1.0959206523346379 
0.92207414 0.1542623391875649 -1.5707963267948966 -1.5707963267948966 0.0 1.5707963267948966 0.0 0.18607411761480952 0.0 0.0 0.0 0.0 0.0 0.0 0.0 0.0 0.0 0.0 0.0 308.9078525020251 -65.66569623926272 480.9 -1.278206992704732 1.0948096119073176 -1.0948096119073178 
0.9300741 0.1557509321284834 -1.5707963267948966 -1.5707963267948966 0.0 1.5707963267948966 0.0 0.18607411761480952 0.0 0.0 0.0 0.0 0.0 0.0 0.0 0.0 0.0 0.0 0.0 309.0052597020333 -65.20578560587207 480.9 -1.2788349951858888 1.0936984379318735 -1.0936984379318737 
0.9380741 0.15723952506940186 -1.5707963267948966 -1.5707963267948966 0.0 1.5707963267948966 0.0 0.18607411761480952 0.0 0.0 0.0 0.0 0.0 0.0 0.0 0.0 0.0 0.0 0.0 309.10198217464927 -64.74573048242459 480.9 -1.2794622800132365 1.0925871306004504 -1.0925871306004507 
0.9460741 0.15872811801032036 -1.5707963267948966 -1.5707963267948966 0.0 1.5707963267948966 0.0 0.18607411761480952 0.0 0.0 0.0 0.0 0.0 0.0 0.0 0.0 0.0 0.0 0.0 309.198019705545 -64.2855318883604 480.9 -1.2800888473747722 1.0914756901050087 -1.0914756901050089 
0.95407414 0.16021671095123882 -1.5707963267948966 -1.5707963267948966 0.0 1.5707963267948966 0.0 0.18607411761480952 0.0 0.0 0.0 0.0 0.0 0.0 0.0 0.0 0.0 0.0 0.0 309.2933720819099 -63.8251908434374 480.9 -1.2807146974582606 1.090364116637324 -1.0903641166373241 
0.9620741 0.1617053038921573 -1.5707963267948966 -1.5707963267948966 0.0 1.5707963267948966 0.0 0.18607411761480952 0.0 0.0 0.0 0.0 0.0 0.0 0.0 0.0 0.0 0.0 0.0 309.388039092452 -63.36470836772932 480.9 -1.2813398304512298 1.0892524103889876 -1.0892524103889878 
0.9700741 0.16319389683307578 -1.5707963267948966 -1.5707963267948966 0.0 1.5707963267948966 0.0 0.18607411761480952 0.0 0.0 0.0 0.0 0.0 0.0 0.0 0.0 0.0 0.0 0.0 309.4820205273977 -62.90408548162316 480.9 -1.2819642465409788 1.088140571551409 -1.0881405715514092 
0.97807413 0.16468248977399425 -1.5707963267948966 -1.5707963267948966 0.0 1.5707963267948966 0.0 0.18607411761480952 0.0 0.0 0.0 0.0 0.0 0.0 0.0 0.0 0.0 0.0 0.0 309.57531617849287 -62.44332320581712 480.9 -1.2825879459145693 1.0870286003158125 -1.0870286003158127 
0.9860741 0.16617108271491274 -1.5707963267948966 -1.5707963267948966 0.0 1.5707963267948966 0.0 0.18607411761480952 0.0 0.0 0.0 0.0 0.0 0.0 0.0 0.0 0.0 0.0 0.0 309.66792583900286 -61.982422561318266 480.9 -1.2832109287588325 1.0859164968732407 -1.0859164968732409 
0.9940741 0.1676596756558312 -1.5707963267948966 -1.5707963267948966 0.0 1.5707963267948966 0.0 0.18607411761480952 0.0 0.0 0.0 0.0 0.0 0.0 0.0 0.0 0.0 0.0 0.0 309.75984930371305 -61.52138456944027 480.9 -1.2838331952603645 1.0848042614145532 -1.0848042614145534 
1.0020741 0.1691482685967497 -1.5707963267948966 -1.5707963267948966 0.0 1.5707963267948966 0.0 0.18607411761480952 0.0 0.0 0.0 0.0 0.0 0.0 0.0 0.0 0.0 0.0 0.0 309.8510863689295 -61.060210251801166 480.9 -1.2844547456055293 1.0836918941304274 -1.0836918941304277 
1.0100741 0.17063686153766816 -1.5707963267948966 -1.5707963267948966 0.0 1.5707963267948966 0.0 0.18607411761480952 0.0 0.0 0.0 0.0 0.0 0.0 0.0 0.0 0.0 0.0 0.0 309.9416368324792 -60.598900630321026 480.9 -1.285075579980457 1.082579395211358 -1.0825793952113583 
1.0180742 0.17212545447858665 -1.5707963267948966 -1.5707963267948966 0.0 1.5707963267948966 0.0 0.18607411761480952 0.0 0.0 0.0 0.0 0.0 0.0 0.0 0.0 0.0 0.0 0.0 310.0315004937107 -60.13745672721979 480.9 -1.2856956985710464 1.0814667648476588 -1.081466764847659 
1.0260742 0.17361404741950512 -1.5707963267948966 -1.5707963267948966 0.0 1.5707963267948966 0.0 0.18607411761480952 0.0 0.0 0.0 0.0 0.0 0.0 0.0 0.0 0.0 0.0 0.0 310.1206771534943 -59.67587956501493 480.9 -1.2863151015629617 1.0803540032294627 -1.080354003229463 
1.0340741 0.17510264036042358 -1.5707963267948966 -1.5707963267948966 0.0 1.5707963267948966 0.0 0.18607411761480952 0.0 0.0 0.0 0.0 0.0 0.0 0.0 0.0 0.0 0.0 0.0 310.20916661422257 -59.214170166519274 480.9 -1.2869337891416353 1.0792411105467197 -1.07924111054672 
1.0420741 0.17659123330134208 -1.5707963267948966 -1.5707963267948966 0.0 1.5707963267948966 0.0 0.18607411761480952 0.0 0.0 0.0 0.0 0.0 0.0 0.0 0.0 0.0 0.0 0.0 310.296968679811 -58.75232955483853 480.9 -1.2875517614922674 1.0781280869892007 -1.078128086989201 
1.0500741 0.17807982624226054 -1.5707963267948966 -1.5707963267948966 0.0 1.5707963267948966 0.0 0.18607411761480952 0.0 0.0 0.0 0.0 0.0 0.0 0.0 0.0 0.0 0.0 0.0 310.38408315569836 -58.29035875336936 480.9 -1.288169018799825 1.0770149327464955 -1.0770149327464957 
1.0580741 0.17956841918317903 -1.5707963267948966 -1.5707963267948966 0.0 1.5707963267948966 0.0 0.18607411761480952 0.0 0.0 0.0 0.0 0.0 0.0 0.0 0.0 0.0 0.0 0.0 310.47050984884686 -57.82825878579669 480.9 -1.2887855612490429 1.0759016480080137 -1.075901648008014 
1.0660741 0.1810570121240975 -1.5707963267948966 -1.5707963267948966 0.0 1.5707963267948966 0.0 0.18607411761480952 0.0 0.0 0.0 0.0 0.0 0.0 0.0 0.0 0.0 0.0 0.0 310.55624856774284 -57.36603067609187 480.9 -1.2894013890244238 1.0747882329629852 -1.0747882329629856 
1.0740741 0.182545605065016 -1.5707963267948966 -1.5707963267948966 0.0 1.5707963267948966 0.0 0.18607411761480952 0.0 0.0 0.0 0.0 0.0 0.0 0.0 0.0 0.0 0.0 0.0 310.6412991223972 -56.90367544851007 480.9 -1.2900165023102386 1.0736746878004604 -1.0736746878004606 
1.0820742 0.18403419800593446 -1.5707963267948966 -1.5707963267948966 0.0 1.5707963267948966 0.0 0.18607411761480952 0.0 0.0 0.0 0.0 0.0 0.0 0.0 0.0 0.0 0.0 0.0 310.72566132434554 -56.44119412758818 480.9 -1.2906309012905257 1.0725610127093101 -1.0725610127093106 
1.0900741 0.18552279094685295 -1.5707963267948966 -1.5707963267948966 0.0 1.5707963267948966 0.0 0.18607411761480952 0.0 0.0 0.0 0.0 0.0 0.0 0.0 0.0 0.0 0.0 0.0 310.8093349866491 -55.97858773814255 480.9 -1.2912445861490907 1.0714472078782271 -1.0714472078782273 
1.0980741 0.18701138388777142 -1.5707963267948966 -1.5707963267948966 0.0 1.5707963267948966 0.0 0.18607411761480952 0.0 0.0 0.0 0.0 0.0 0.0 0.0 0.0 0.0 0.0 0.0 310.89231992389466 -55.51585730526659 480.9 -1.291857557069509 1.0703332734957243 -1.0703332734957245 
1.1060741 0.18849997682868988 -1.5707963267948966 -1.5707963267948966 0.0 1.5707963267948966 0.0 0.18607411761480952 0.0 0.0 0.0 0.0 0.0 0.0 0.0 0.0 0.0 0.0 0.0 310.9746159521951 -55.05300385432863 480.9 -1.2924698142351232 1.069219209750137 -1.0692192097501372 
1.1140741 0.18998856976960837 -1.5707963267948966 -1.5707963267948966 0.0 1.5707963267948966 0.0 0.18607411761480952 0.0 0.0 0.0 0.0 0.0 0.0 0.0 0.0 0.0 0.0 0.0 311.0562228891901 -54.590028410969545 480.9 -1.293081357829045 1.0681050168296224 -1.0681050168296227 
1.1220741 0.19147716271052684 -1.5707963267948966 -1.5707963267948966 0.0 1.5707963267948966 0.0 0.18607411761480952 0.0 0.0 0.0 0.0 0.0 0.0 0.0 0.0 0.0 0.0 0.0 311.137140554046 -54.12693200110063 480.9 -1.2936921880341539 1.0669906949221606 -1.0669906949221608 
1.1300741 0.19296575565144533 -1.5707963267948966 -1.5707963267948966 0.0 1.5707963267948966 0.0 0.18607411761480952 0.0 0.0 0.0 0.0 0.0 0.0 0.0 0.0 0.0 0.0 0.0 311.21736876745683 -53.663715650901125 480.9 -1.2943023050330977 1.0658762442155525 -1.0658762442155527 
1.1380742 0.1944543485923638 -1.5707963267948966 -1.5707963267948966 0.0 1.5707963267948966 0.0 0.18607411761480952 0.0 0.0 0.0 0.0 0.0 0.0 0.0 0.0 0.0 0.0 0.0 311.296907351644 -53.200380386816136 480.9 -1.294911709008294 1.0647616648974245 -1.0647616648974247 
1.1460742 0.1959429415332823 -1.5707963267948966 -1.5707963267948966 0.0 1.5707963267948966 0.0 0.18607411761480952 0.0 0.0 0.0 0.0 0.0 0.0 0.0 0.0 0.0 0.0 0.0 311.37575613035744 -52.736927235554184 480.9 -1.2955204001419287 1.0636469571552238 -1.0636469571552243 
1.1540741 0.19743153447420075 -1.5707963267948966 -1.5707963267948966 0.0 1.5707963267948966 0.0 0.18607411761480952 0.0 0.0 0.0 0.0 0.0 0.0 0.0 0.0 0.0 0.0 0.0 311.45391492887546 -52.2733572240851 480.9 -1.2961283786159552 1.0625321211762222 -1.0625321211762226 
1.1620741 0.19892012741511925 -1.5707963267948966 -1.5707963267948966 0.0 1.5707963267948966 0.0 0.18607411761480952 0.0 0.0 0.0 0.0 0.0 0.0 0.0 0.0 0.0 0.0 0.0 311.5313835740052 -51.80967137963761 480.9 -1.2967356446120983 1.0614171571475157 -1.061417157147516 
1.1700741 0.2004087203560377 -1.5707963267948966 -1.5707963267948966 0.0 1.5707963267948966 0.0 0.18607411761480952 0.0 0.0 0.0 0.0 0.0 0.0 0.0 0.0 0.0 0.0 0.0 311.6081618940833 -51.345870729697126 480.9 -1.2973421983118503 1.0603020652560233 -1.0603020652560236 
1.1780741 0.2018973132969562 -1.5707963267948966 -1.5707963267948966 0.0 1.5707963267948966 0.0 0.18607411761480952 0.0 0.0 0.0 0.0 0.0 0.0 0.0 0.0 0.0 0.0 0.0 311.684249718976 -50.88195630200348 480.9 -1.2979480398964733 1.0591868456884899 -1.05918684568849 
1.1860741 0.20338590623787467 -1.5707963267948966 -1.5707963267948966 0.0 1.5707963267948966 0.0 0.18607411761480952 0.0 0.0 0.0 0.0 0.0 0.0 0.0 0.0 0.0 0.0 0.0 311.7596468800797 -50.417929124548635 480.9 -1.298553169546998 1.0580714986314832 -1.0580714986314834 
1.1940742 0.20487449917879313 -1.5707963267948966 -1.5707963267948966 0.0 1.5707963267948966 0.0 0.18607411761480952 0.0 0.0 0.0 0.0 0.0 0.0 0.0 0.0 0.0 0.0 0.0 311.83435321032107 -49.953790225574316 480.9 -1.2991575874442254 1.0569560242713976 -1.0569560242713978 
1.2020742 0.20636309211971163 -1.5707963267948966 -1.5707963267948966 0.0 1.5707963267948966 0.0 0.18607411761480952 0.0 0.0 0.0 0.0 0.0 0.0 0.0 0.0 0.0 0.0 0.0 311.90836854415784 -49.489540633569916 480.9 -1.299761293768725 1.0558404227944518 -1.055840422794452 
1.2100741 0.2078516850606301 -1.5707963267948966 -1.5707963267948966 0.0 1.5707963267948966 0.0 0.18607411761480952 0.0 0.0 0.0 0.0 0.0 0.0 0.0 0.0 0.0 0.0 0.0 311.98169271757877 -49.02518137727005 480.9 -1.3003642887008373 1.0547246943866908 -1.054724694386691 
1.2180741 0.20934027800154859 -1.5707963267948966 -1.5707963267948966 0.0 1.5707963267948966 0.0 0.18607411761480952 0.0 0.0 0.0 0.0 0.0 0.0 0.0 0.0 0.0 0.0 0.0 312.05432556810416 -48.56071348565236 480.9 -1.3009665724206714 1.053608839233985 -1.0536088392339853 
1.2260741 0.21082887094246705 -1.5707963267948966 -1.5707963267948966 0.0 1.5707963267948966 0.0 0.18607411761480952 0.0 0.0 0.0 0.0 0.0 0.0 0.0 0.0 0.0 0.0 0.0 312.1262669347863 -48.09613798793522 480.9 -1.3015681451081058 1.0524928575220314 -1.0524928575220318 
1.2340741 0.21231746388338554 -1.5707963267948966 -1.5707963267948966 0.0 1.5707963267948966 0.0 0.18607411761480952 0.0 0.0 0.0 0.0 0.0 0.0 0.0 0.0 0.0 0.0 0.0 312.1975166582097 -47.631455913575415 480.9 -1.30216900694279 1.0513767494363526 -1.0513767494363528 
1.2420741 0.213806056824304 -1.5707963267948966 -1.5707963267948966 0.0 1.5707963267948966 0.0 0.18607411761480952 0.0 0.0 0.0 0.0 0.0 0.0 0.0 0.0 0.0 0.0 0.0 312.2680745804914 -47.16666829226595 480.9 -1.3027691581041434 1.0502605151622997 -1.0502605151623 
1.2500741 0.2152946497652225 -1.5707963267948966 -1.5707963267948966 0.0 1.5707963267948966 0.0 0.18607411761480952 0.0 0.0 0.0 0.0 0.0 0.0 0.0 0.0 0.0 0.0 0.0 312.3379405452816 -46.70177615393369 480.9 -1.3033685987713552 1.0491441548850495 -1.0491441548850498 
1.2580742 0.21678324270614097 -1.5707963267948966 -1.5707963267948966 0.0 1.5707963267948966 0.0 0.18607411761480952 0.0 0.0 0.0 0.0 0.0 0.0 0.0 0.0 0.0 0.0 0.0 312.4071143977637 -46.23678052873704 480.9 -1.3039673291233846 1.0480276687896064 -1.0480276687896066 
1.2660741 0.21827183564705943 -1.5707963267948966 -1.5707963267948966 0.0 1.5707963267948966 0.0 0.18607411761480952 0.0 0.0 0.0 0.0 0.0 0.0 0.0 0.0 0.0 0.0 0.0 312.4755959846547 -45.77168244706384 480.9 -1.304565349338962 1.0469110570608031 -1.0469110570608033 
1.2740741 0.21976042858797792 -1.5707963267948966 -1.5707963267948966 0.0 1.5707963267948966 0.0 0.18607411761480952 0.0 0.0 0.0 0.0 0.0 0.0 0.0 0.0 0.0 0.0 0.0 312.54338515420574 -45.30648293952883 480.9 -1.3051626595965866 1.0457943198832995 -1.0457943198832997 
1.2820741 0.2212490215288964 -1.5707963267948966 -1.5707963267948966 0.0 1.5707963267948966 0.0 0.18607411761480952 0.0 0.0 0.0 0.0 0.0 0.0 0.0 0.0 0.0 0.0 0.0 312.61048175620215 -44.841183036971614 480.9 -1.3057592600745298 1.0446774574415847 -1.044677457441585 
1.2900741 0.22273761446981488 -1.5707963267948966 -1.5707963267948966 0.0 1.5707963267948966 0.0 0.18607411761480952 0.0 0.0 0.0 0.0 0.0 0.0 0.0 0.0 0.0 0.0 0.0 312.6768856419641 -44.3757837704542 480.9 -1.3063551509508333 1.0435604699199754 -1.0435604699199756 
1.2980741 0.22422620741073335 -1.5707963267948966 -1.5707963267948966 0.0 1.5707963267948966 0.0 0.18607411761480952 0.0 0.0 0.0 0.0 0.0 0.0 0.0 0.0 0.0 0.0 0.0 312.74259666434654 -43.91028617125881 480.9 -1.3069503324033083 1.0424433575026177 -1.042443357502618 
1.3060741 0.22571480035165184 -1.5707963267948966 -1.5707963267948966 0.0 1.5707963267948966 0.0 0.18607411761480952 0.0 0.0 0.0 0.0 0.0 0.0 0.0 0.0 0.0 0.0 0.0 312.80761467773993 -43.44469127088553 480.9 -1.3075448046095381 1.0413261203734874 -1.0413261203734876 
1.3140742 0.2272033932925703 -1.5707963267948966 -1.5707963267948966 0.0 1.5707963267948966 0.0 0.18607411761480952 0.0 0.0 0.0 0.0 0.0 0.0 0.0 0.0 0.0 0.0 0.0 312.87193953807025 -42.97900010105009 480.9 -1.3081385677468775 1.0402087587163888 -1.0402087587163893 
1.3220742 0.2286919862334888 -1.5707963267948966 -1.5707963267948966 0.0 1.5707963267948966 0.0 0.18607411761480952 0.0 0.0 0.0 0.0 0.0 0.0 0.0 0.0 0.0 0.0 0.0 312.9355711027996 -42.513213693681514 480.9 -1.3087316219924503 1.0390912727149564 -1.0390912727149566 
1.3300741 0.23018057917440726 -1.5707963267948966 -1.5707963267948966 0.0 1.5707963267948966 0.0 0.18607411761480952 0.0 0.0 0.0 0.0 0.0 0.0 0.0 0.0 0.0 0.0 0.0 312.9985092309262 -42.047333080919884 480.9 -1.309323967523153 1.037973662552655 -1.0379736625526552 
1.3380741 0.23166917211532573 -1.5707963267948966 -1.5707963267948966 0.0 1.5707963267948966 0.0 0.18607411761480952 0.0 0.0 0.0 0.0 0.0 0.0 0.0 0.0 0.0 0.0 0.0 313.06075378298476 -41.58135929511403 480.9 -1.3099156045156526 1.0368559284127787 -1.036855928412779 
1.3460741 0.23315776505624422 -1.5707963267948966 -1.5707963267948966 0.0 1.5707963267948966 0.0 0.18607411761480952 0.0 0.0 0.0 0.0 0.0 0.0 0.0 0.0 0.0 0.0 0.0 313.12230462104725 -41.11529336881922 480.9 -1.3105065331463883 1.035738070478454 -1.0357380704784542 
1.3540741 0.23464635799716269 -1.5707963267948966 -1.5707963267948966 0.0 1.5707963267948966 0.0 0.18607411761480952 0.0 0.0 0.0 0.0 0.0 0.0 0.0 0.0 0.0 0.0 0.0 313.18316160872257 -40.64913633479495 480.9 -1.3110967535915703 1.0346200889326371 -1.0346200889326373 
1.3620741 0.23613495093808118 -1.5707963267948966 -1.5707963267948966 0.0 1.5707963267948966 0.0 0.18607411761480952 0.0 0.0 0.0 0.0 0.0 0.0 0.0 0.0 0.0 0.0 0.0 313.2433246111572 -40.18288922600256 480.9 -1.31168626602718 1.0335019839581157 -1.0335019839581159 
1.3700742 0.23762354387899964 -1.5707963267948966 -1.5707963267948966 0.0 1.5707963267948966 0.0 0.18607411761480952 0.0 0.0 0.0 0.0 0.0 0.0 0.0 0.0 0.0 0.0 0.0 313.3027934950354 -39.71655307560296 480.9 -1.3122750706289712 1.032383755737509 -1.0323837557375093 
1.3780742 0.23911213681991814 -1.5707963267948966 -1.5707963267948966 0.0 1.5707963267948966 0.0 0.18607411761480952 0.0 0.0 0.0 0.0 0.0 0.0 0.0 0.0 0.0 0.0 0.0 313.3615681285796 -39.25012891695444 480.9 -1.312863167572468 1.0312654044532676 -1.0312654044532679 
1.3860741 0.2406007297608366 -1.5707963267948966 -1.5707963267948966 0.0 1.5707963267948966 0.0 0.18607411761480952 0.0 0.0 0.0 0.0 0.0 0.0 0.0 0.0 0.0 0.0 0.0 313.4196483815506 -38.78361778361031 480.9 -1.3134505570329682 1.0301469302876753 -1.0301469302876756 
1.3940741 0.2420893227017551 -1.5707963267948966 -1.5707963267948966 0.0 1.5707963267948966 0.0 0.18607411761480952 0.0 0.0 0.0 0.0 0.0 0.0 0.0 0.0 0.0 0.0 0.0 313.4770341252478 -38.317020709316495 480.9 -1.3140372391855408 1.0290283334228476 -1.029028333422848 
1.4020741 0.24357791564267356 -1.5707963267948966 -1.5707963267948966 0.0 1.5707963267948966 0.0 0.18607411761480952 0.0 0.0 0.0 0.0 0.0 0.0 0.0 0.0 0.0 0.0 0.0 313.53372523250977 -37.850338728009476 480.9 -1.314623214205026 1.027909614040732 -1.0279096140407322 
1.4100741 0.24506650858359202 -1.5707963267948966 -1.5707963267948966 0.0 1.5707963267948966 0.0 0.18607411761480952 0.0 0.0 0.0 0.0 0.0 0.0 0.0 0.0 0.0 0.0 0.0 313.58972157771404 -37.38357287381385 480.9 -1.3152084822660381 1.0267907723231107 -1.0267907723231111 
1.4180741 0.24655510152451052 -1.5707963267948966 -1.5707963267948966 0.0 1.5707963267948966 0.0 0.18607411761480952 0.0 0.0 0.0 0.0 0.0 0.0 0.0 0.0 0.0 0.0 0.0 313.64502303677796 -36.91672418104001 480.9 -1.3157930435429621 1.0256718084515974 -1.0256718084515977 
1.4260741 0.24804369446542898 -1.5707963267948966 -1.5707963267948966 0.0 1.5707963267948966 0.0 0.18607411761480952 0.0 0.0 0.0 0.0 0.0 0.0 0.0 0.0 0.0 0.0 0.0 313.6996294871585 -36.44979368418201 480.9 -1.3163768982099553 1.0245527226076403 -1.0245527226076405 
1.4340742 0.24953228740634747 -1.5707963267948966 -1.5707963267948966 0.0 1.5707963267948966 0.0 0.18607411761480952 0.0 0.0 0.0 0.0 0.0 0.0 0.0 0.0 0.0 0.0 0.0 313.7535408078528 -35.98278241791511 480.9 -1.3169600464409488 1.0234335149725213 -1.0234335149725216 
1.4420741 0.25102088034726594 -1.5707963267948966 -1.5707963267948966 0.0 1.5707963267948966 0.0 0.18607411761480952 0.0 0.0 0.0 0.0 0.0 0.0 0.0 0.0 0.0 0.0 0.0 313.8067568793982 -35.51569141709355 480.9 -1.3175424884096447 1.0223141857273566 -1.0223141857273568 
1.4500741 0.2525094732881844 -1.5707963267948966 -1.5707963267948966 0.0 1.5707963267948966 0.0 0.18607411761480952 0.0 0.0 0.0 0.0 0.0 0.0 0.0 0.0 0.0 0.0 0.0 313.85927758387294 -35.04852171674826 480.9 -1.318124224289519 1.0211947350530965 -1.0211947350530968 
1.4580741 0.2539980662291029 -1.5707963267948966 -1.5707963267948966 0.0 1.5707963267948966 0.0 0.18607411761480952 0.0 0.0 0.0 0.0 0.0 0.0 0.0 0.0 0.0 0.0 0.0 313.9111028048958 -34.58127435208456 480.9 -1.31870525425382 1.0200751631305254 -1.0200751631305256 
1.4660741 0.2554866591700214 -1.5707963267948966 -1.5707963267948966 0.0 1.5707963267948966 0.0 0.18607411761480952 0.0 0.0 0.0 0.0 0.0 0.0 0.0 0.0 0.0 0.0 0.0 313.96223242762676 -34.113950358479904 480.9 -1.319285578475569 1.0189554701402646 -1.0189554701402648 
1.4740741 0.25697525211093986 -1.5707963267948966 -1.5707963267948966 0.0 1.5707963267948966 0.0 0.18607411761480952 0.0 0.0 0.0 0.0 0.0 0.0 0.0 0.0 0.0 0.0 0.0 314.0126663387674 -33.6465507714815 480.9 -1.3198651971275597 1.0178356562627682 -1.0178356562627684 
1.4820741 0.2584638450518584 -1.5707963267948966 -1.5707963267948966 0.0 1.5707963267948966 0.0 0.18607411761480952 0.0 0.0 0.0 0.0 0.0 0.0 0.0 0.0 0.0 0.0 0.0 314.0624044265608 -33.17907662680408 480.9 -1.3204441103823596 1.016715721678328 -1.0167157216783282 
1.4900742 0.2599524379927768 -1.5707963267948966 -1.5707963267948966 0.0 1.5707963267948966 0.0 0.18607411761480952 0.0 0.0 0.0 0.0 0.0 0.0 0.0 0.0 0.0 0.0 0.0 314.11144658079184 -32.71152896032762 480.9 -1.321022318412309 1.0155956665670707 -1.015595666567071 
1.4980742 0.2614410309336953 -1.5707963267948966 -1.5707963267948966 0.0 1.5707963267948966 0.0 0.18607411761480952 0.0 0.0 0.0 0.0 0.0 0.0 0.0 0.0 0.0 0.0 0.0 314.1597926927875 -32.243908808094915 480.9 -1.3215998213895224 1.0144754911089588 -1.014475491108959 
1.5060741 0.26292962387461377 -1.5707963267948966 -1.5707963267948966 0.0 1.5707963267948966 0.0 0.18607411761480952 0.0 0.0 0.0 0.0 0.0 0.0 0.0 0.0 0.0 0.0 0.0 314.2074426554174 -31.77621720630951 480.9 -1.322176619485886 1.0133551954837918 -1.0133551954837918 
1.5140741 0.26441821681553224 -1.5707963267948966 -1.5707963267948966 0.0 1.5707963267948966 0.0 0.18607411761480952 0.0 0.0 0.0 0.0 0.0 0.0 0.0 0.0 0.0 0.0 0.0 314.25439636309346 -31.308455191333216 480.9 -1.3227527128730605 1.0122347798712057 -1.012234779871206 
1.5220741 0.26590680975645076 -1.5707963267948966 -1.5707963267948966 0.0 1.5707963267948966 0.0 0.18607411761480952 0.0 0.0 0.0 0.0 0.0 0.0 0.0 0.0 0.0 0.0 0.0 314.3006537117706 -30.840623799683822 480.9 -1.3233281017224805 1.0111142444506733 -1.0111142444506735 
1.5300741 0.2673954026973692 -1.5707963267948966 -1.5707963267948966 0.0 1.5707963267948966 0.0 0.18607411761480952 0.0 0.0 0.0 0.0 0.0 0.0 0.0 0.0 0.0 0.0 0.0 314.34621459894674 -30.37272406803298 480.9 -1.3239027862053534 1.0099935894015055 -1.0099935894015057 
1.5380741 0.2688839956382877 -1.5707963267948966 -1.5707963267948966 0.0 1.5707963267948966 0.0 0.18607411761480952 0.0 0.0 0.0 0.0 0.0 0.0 0.0 0.0 0.0 0.0 0.0 314.39107892366326 -29.90475703320365 480.9 -1.324476766492661 1.0088728149028494 -1.0088728149028496 
1.5460742 0.27037258857920615 -1.5707963267948966 -1.5707963267948966 0.0 1.5707963267948966 0.0 0.18607411761480952 0.0 0.0 0.0 0.0 0.0 0.0 0.0 0.0 0.0 0.0 0.0 314.43524658650466 -29.43672373216797 480.9 -1.3250500427551593 1.0077519211336912 -1.0077519211336914 
1.5540742 0.2718611815201246 -1.5707963267948966 -1.5707963267948966 0.0 1.5707963267948966 0.0 0.18607411761480952 0.0 0.0 0.0 0.0 0.0 0.0 0.0 0.0 0.0 0.0 0.0 314.47871748959966 -28.968625202044954 480.9 -1.3256226151633768 1.0066309082728542 -1.0066309082728544 
1.5620741 0.2733497744610431 -1.5707963267948966 -1.5707963267948966 0.0 1.5707963267948966 0.0 0.18607411761480952 0.0 0.0 0.0 0.0 0.0 0.0 0.0 0.0 0.0 0.0 0.0 314.5214915366206 -28.500462480098136 480.9 -1.3261944838876178 1.005509776499001 -1.0055097764990013 
1.5700741 0.2748383674019616 -1.5707963267948966 -1.5707963267948966 0.0 1.5707963267948966 0.0 0.18607411761480952 0.0 0.0 0.0 0.0 0.0 0.0 0.0 0.0 0.0 0.0 0.0 314.56356863278415 -28.03223660373322 480.9 -1.32676564909796 1.004388525990632 -1.0043885259906322 
1.5780741 0.27632696034288007 -1.5707963267948966 -1.5707963267948966 0.0 1.5707963267948966 0.0 0.18607411761480952 0.0 0.0 0.0 0.0 0.0 0.0 0.0 0.0 0.0 0.0 0.0 314.6049486848513 -27.56394861049602 480.9 -1.3273361109642554 1.0032671569260876 -1.0032671569260878 
1.5860741 0.27781555328379853 -1.5707963267948966 -1.5707963267948966 0.0 1.5707963267948966 0.0 0.18607411761480952 0.0 0.0 0.0 0.0 0.0 0.0 0.0 0.0 0.0 0.0 0.0 314.6456316011276 -27.09559953806982 480.9 -1.3279058696561303 1.0021456694835462 -1.0021456694835464 
1.5940741 0.279304146224717 -1.5707963267948966 -1.5707963267948966 0.0 1.5707963267948966 0.0 0.18607411761480952 0.0 0.0 0.0 0.0 0.0 0.0 0.0 0.0 0.0 0.0 0.0 314.6856172914636 -26.62719042427337 480.9 -1.3284749253429868 1.0010240638410275 -1.0010240638410277 
1.6020741 0.2807927391656355 -1.5707963267948966 -1.5707963267948966 0.0 1.5707963267948966 0.0 0.18607411761480952 0.0 0.0 0.0 0.0 0.0 0.0 0.0 0.0 0.0 0.0 0.0 314.7249056672544 -26.15872230705838 480.9 -1.329043278193999 0.9999023401763888 -0.999902340176389 
1.6100742 0.282281332106554 -1.5707963267948966 -1.5707963267948966 0.0 1.5707963267948966 0.0 0.18607411761480952 0.0 0.0 0.0 0.0 0.0 0.0 0.0 0.0 0.0 0.0 0.0 314.7634966414408 -25.690196224507392 480.9 -1.3296109283781172 0.9987804986673288 -0.998780498667329 
1.618074 0.28376992504747245 -1.5707963267948966 -1.5707963267948966 0.0 1.5707963267948966 0.0 0.18607411761480952 0.0 0.0 0.0 0.0 0.0 0.0 0.0 0.0 0.0 0.0 0.0 314.8013901285085 -25.22161321483134 480.9 -1.3301778760640677 0.9976585394913866 -0.9976585394913868 
1.6260741 0.2852585179883909 -1.5707963267948966 -1.5707963267948966 0.0 1.5707963267948966 0.0 0.18607411761480952 0.0 0.0 0.0 0.0 0.0 0.0 0.0 0.0 0.0 0.0 0.0 314.83858604448926 -24.752974316367318 480.9 -1.330744121420349 0.9965364628259418 -0.996536462825942 
1.6340741 0.28674711092930943 -1.5707963267948966 -1.5707963267948966 0.0 1.5707963267948966 0.0 0.18607411761480952 0.0 0.0 0.0 0.0 0.0 0.0 0.0 0.0 0.0 0.0 0.0 314.8750843069601 -24.284280567576232 480.9 -1.3313096646152371 0.9954142688482145 -0.9954142688482147 
1.6420741 0.2882357038702279 -1.5707963267948966 -1.5707963267948966 0.0 1.5707963267948966 0.0 0.18607411761480952 0.0 0.0 0.0 0.0 0.0 0.0 0.0 0.0 0.0 0.0 0.0 314.9108848350443 -23.815533007040592 480.9 -1.3318745058167811 0.9942919577352664 -0.9942919577352666 
1.6500741 0.28972429681114636 -1.5707963267948966 -1.5707963267948966 0.0 1.5707963267948966 0.0 0.18607411761480952 0.0 0.0 0.0 0.0 0.0 0.0 0.0 0.0 0.0 0.0 0.0 314.9459875494112 -23.346732673462107 480.9 -1.3324386451928065 0.9931695296640006 -0.9931695296640008 
1.6580741 0.29121288975206483 -1.5707963267948966 -1.5707963267948966 0.0 1.5707963267948966 0.0 0.18607411761480952 0.0 0.0 0.0 0.0 0.0 0.0 0.0 0.0 0.0 0.0 0.0 314.98039237227636 -22.877880605659445 480.9 -1.3330020829109146 0.992046984811162 -0.9920469848111623 
1.6660742 0.2927014826929833 -1.5707963267948966 -1.5707963267948966 0.0 1.5707963267948966 0.0 0.18607411761480952 0.0 0.0 0.0 0.0 0.0 0.0 0.0 0.0 0.0 0.0 0.0 315.01409922740186 -22.408977842565893 480.9 -1.3335648191384795 0.9909243233533377 -0.9909243233533379 
1.6740742 0.2941900756339018 -1.5707963267948966 -1.5707963267948966 0.0 1.5707963267948966 0.0 0.18607411761480952 0.0 0.0 0.0 0.0 0.0 0.0 0.0 0.0 0.0 0.0 0.0 315.0471080400963 -21.94002542322705 480.9 -1.3341268540426545 0.9898015454669569 -0.9898015454669571 
1.6820741 0.2956786685748203 -1.5707963267948966 -1.5707963267948966 0.0 1.5707963267948966 0.0 0.18607411761480952 0.0 0.0 0.0 0.0 0.0 0.0 0.0 0.0 0.0 0.0 0.0 315.07941873721535 -21.47102438679868 480.9 -1.3346881877903656 0.988678651328291 -0.9886786513282912 
1.6900741 0.29716726151573875 -1.5707963267948966 -1.5707963267948966 0.0 1.5707963267948966 0.0 0.18607411761480952 0.0 0.0 0.0 0.0 0.0 0.0 0.0 0.0 0.0 0.0 0.0 315.1110312471613 -21.00197577254409 480.9 -1.3352488205483148 0.987555641113455 -0.9875556411134552 
1.6980741 0.2986558544566572 -1.5707963267948966 -1.5707963267948966 0.0 1.5707963267948966 0.0 0.18607411761480952 0.0 0.0 0.0 0.0 0.0 0.0 0.0 0.0 0.0 0.0 0.0 315.1419454998838 -20.53288061983216 480.9 -1.335808752482982 0.9864325149984066 -0.9864325149984068 
1.7060741 0.30014444739757573 -1.5707963267948966 -1.5707963267948966 0.0 1.5707963267948966 0.0 0.18607411761480952 0.0 0.0 0.0 0.0 0.0 0.0 0.0 0.0 0.0 0.0 0.0 315.1721614268796 -20.063739968134808 480.9 -1.33636798376062 0.9853092731589468 -0.9853092731589471 
1.7140741 0.3016330403384942 -1.5707963267948966 -1.5707963267948966 0.0 1.5707963267948966 0.0 0.18607411761480952 0.0 0.0 0.0 0.0 0.0 0.0 0.0 0.0 0.0 0.0 0.0 315.20167896119307 -19.594554857024843 480.9 -1.33692651454726 0.9841859157707208 -0.9841859157707209 
1.7220742 0.30312163327941266 -1.5707963267948966 -1.5707963267948966 0.0 1.5707963267948966 0.0 0.18607411761480952 0.0 0.0 0.0 0.0 0.0 0.0 0.0 0.0 0.0 0.0 0.0 315.23049803741606 -19.12532632617354 480.9 -1.3374843450087075 0.9830624430092174 -0.9830624430092176 
1.7300742 0.3046102262203311 -1.5707963267948966 -1.5707963267948966 0.0 1.5707963267948966 0.0 0.18607411761480952 0.0 0.0 0.0 0.0 0.0 0.0 0.0 0.0 0.0 0.0 0.0 315.25861859168805 -18.6560554153484 480.9 -1.3380414753105463 0.9819388550497695 -0.9819388550497697 
1.7380741 0.3060988191612496 -1.5707963267948966 -1.5707963267948966 0.0 1.5707963267948966 0.0 0.18607411761480952 0.0 0.0 0.0 0.0 0.0 0.0 0.0 0.0 0.0 0.0 0.0 315.28604056169655 -18.186743164410835 480.9 -1.338597905618134 0.9808151520675553 -0.9808151520675555 
1.7460741 0.3075874121021681 -1.5707963267948966 -1.5707963267948966 0.0 1.5707963267948966 0.0 0.18607411761480952 0.0 0.0 0.0 0.0 0.0 0.0 0.0 0.0 0.0 0.0 0.0 315.31276388667686 -17.717390613313874 480.9 -1.339153636096607 0.9796913342375966 -0.9796913342375967 
1.7540741 0.3090760050430866 -1.5707963267948966 -1.5707963267948966 0.0 1.5707963267948966 0.0 0.18607411761480952 0.0 0.0 0.0 0.0 0.0 0.0 0.0 0.0 0.0 0.0 0.0 315.3387885074127 -17.24799880209986 480.9 -1.339708666910876 0.9785674017347613 -0.9785674017347615 
1.7620741 0.31056459798400504 -1.5707963267948966 -1.5707963267948966 0.0 1.5707963267948966 0.0 0.18607411761480952 0.0 0.0 0.0 0.0 0.0 0.0 0.0 0.0 0.0 0.0 0.0 315.36411436623575 -16.77856877089808 480.9 -1.3402629982256293 0.9774433547337614 -0.9774433547337619 
1.7700741 0.3120531909249235 -1.5707963267948966 -1.5707963267948966 0.0 1.5707963267948966 0.0 0.18607411761480952 0.0 0.0 0.0 0.0 0.0 0.0 0.0 0.0 0.0 0.0 0.0 315.3887414070263 -16.30910155992257 480.9 -1.3408166302053321 0.9763191934091566 -0.9763191934091568 
1.7780741 0.313541783865842 -1.5707963267948966 -1.5707963267948966 0.0 1.5707963267948966 0.0 0.18607411761480952 0.0 0.0 0.0 0.0 0.0 0.0 0.0 0.0 0.0 0.0 0.0 315.41266957521304 -15.83959820946972 480.9 -1.3413695630142266 0.9751949179353504 -0.9751949179353506 
1.7860742 0.3150303768067605 -1.5707963267948966 -1.5707963267948966 0.0 1.5707963267948966 0.0 0.18607411761480952 0.0 0.0 0.0 0.0 0.0 0.0 0.0 0.0 0.0 0.0 0.0 315.43589881777336 -15.370059759916014 480.9 -1.3419217968163306 0.9740705284865933 -0.9740705284865935 
1.794074 0.31651896974767896 -1.5707963267948966 -1.5707963267948966 0.0 1.5707963267948966 0.0 0.18607411761480952 0.0 0.0 0.0 0.0 0.0 0.0 0.0 0.0 0.0 0.0 0.0 315.4584290832335 -14.900487251715717 480.9 -1.3424733317754398 0.9729460252369821 -0.9729460252369826 
1.8020741 0.3180075626885974 -1.5707963267948966 -1.5707963267948966 0.0 1.5707963267948966 0.0 0.18607411761480952 0.0 0.0 0.0 0.0 0.0 0.0 0.0 0.0 0.0 0.0 0.0 315.4802603216682 -14.430881725398539 480.9 -1.3430241680551271 0.9718214083604607 -0.9718214083604609 
1.8100741 0.3194961556295159 -1.5707963267948966 -1.5707963267948966 0.0 1.5707963267948966 0.0 0.18607411761480952 0.0 0.0 0.0 0.0 0.0 0.0 0.0 0.0 0.0 0.0 0.0 315.5013924847016 -13.961244221567402 480.9 -1.3435743058187422 0.9706966780308194 -0.9706966780308195 
1.8180741 0.3209847485704344 -1.5707963267948966 -1.5707963267948966 0.0 1.5707963267948966 0.0 0.18607411761480952 0.0 0.0 0.0 0.0 0.0 0.0 0.0 0.0 0.0 0.0 0.0 315.52182552550676 -13.491575780896007 480.9 -1.344123745229412 0.9695718344216956 -0.9695718344216958 
1.8260741 0.3224733415113529 -1.5707963267948966 -1.5707963267948966 0.0 1.5707963267948966 0.0 0.18607411761480952 0.0 0.0 0.0 0.0 0.0 0.0 0.0 0.0 0.0 0.0 0.0 315.5415593988059 -13.021877444126723 480.9 -1.3446724864500401 0.9684468777065748 -0.968446877706575 
1.8340741 0.32396193445227134 -1.5707963267948966 -1.5707963267948966 0.0 1.5707963267948966 0.0 0.18607411761480952 0.0 0.0 0.0 0.0 0.0 0.0 0.0 0.0 0.0 0.0 0.0 315.56059406087047 -12.552150252068074 480.9 -1.3452205296433104 0.9673218080587908 -0.967321808058791 
1.8420742 0.3254505273931898 -1.5707963267948966 -1.5707963267948966 0.0 1.5707963267948966 0.0 0.18607411761480952 0.0 0.0 0.0 0.0 0.0 0.0 0.0 0.0 0.0 0.0 0.0 315.57892946952154 -12.08239524559255 480.9 -1.3457678749716804 0.9661966256515234 -0.9661966256515236 
1.8500742 0.3269391203341083 -1.5707963267948966 -1.5707963267948966 0.0 1.5707963267948966 0.0 0.18607411761480952 0.0 0.0 0.0 0.0 0.0 0.0 0.0 0.0 0.0 0.0 0.0 315.5965655841295 -11.612613465634272 480.9 -1.3463145225973883 0.9650713306578029 -0.9650713306578032 
1.8580741 0.3284277132750268 -1.5707963267948966 -1.5707963267948966 0.0 1.5707963267948966 0.0 0.18607411761480952 0.0 0.0 0.0 0.0 0.0 0.0 0.0 0.0 0.0 0.0 0.0 315.61350236561424 -11.142805953186706 480.9 -1.346860472682448 0.9639459232505065 -0.9639459232505068 
1.8660741 0.32991630621594525 -1.5707963267948966 -1.5707963267948966 0.0 1.5707963267948966 0.0 0.18607411761480952 0.0 0.0 0.0 0.0 0.0 0.0 0.0 0.0 0.0 0.0 0.0 315.62973977644555 -10.672973749300354 480.9 -1.3474057253886533 0.9628204036023619 -0.9628204036023621 
1.8740741 0.3314048991568637 -1.5707963267948966 -1.5707963267948966 0.0 1.5707963267948966 0.0 0.18607411761480952 0.0 0.0 0.0 0.0 0.0 0.0 0.0 0.0 0.0 0.0 0.0 315.6452777806427 -10.20311789508036 480.9 -1.347950280877574 0.9616947718859444 -0.9616947718859447 
1.8820741 0.3328934920977822 -1.5707963267948966 -1.5707963267948966 0.0 1.5707963267948966 0.0 0.18607411761480952 0.0 0.0 0.0 0.0 0.0 0.0 0.0 0.0 0.0 0.0 0.0 315.6601163437749 -9.733239431684364 480.9 -1.3484941393105592 0.9605690282736795 -0.9605690282736797 
1.8900741 0.3343820850387007 -1.5707963267948966 -1.5707963267948966 0.0 1.5707963267948966 0.0 0.18607411761480952 0.0 0.0 0.0 0.0 0.0 0.0 0.0 0.0 0.0 0.0 0.0 315.6742554329613 -9.263339400320014 480.9 -1.3490373008487353 0.9594431729378421 -0.9594431729378423 
1.8980742 0.33587067797961917 -1.5707963267948966 -1.5707963267948966 0.0 1.5707963267948966 0.0 0.18607411761480952 0.0 0.0 0.0 0.0 0.0 0.0 0.0 0.0 0.0 0.0 0.0 315.68769501687086 -8.793418842242847 480.9 -1.3495797656530077 0.958317206050557 -0.9583172060505573 
1.9060742 0.33735927092053763 -1.5707963267948966 -1.5707963267948966 0.0 1.5707963267948966 0.0 0.18607411761480952 0.0 0.0 0.0 0.0 0.0 0.0 0.0 0.0 0.0 0.0 0.0 315.7004350657228 -8.3234787987538 480.9 -1.3501215338840602 0.9571911277837996 -0.9571911277837997 
1.9140741 0.3388478638614561 -1.5707963267948966 -1.5707963267948966 0.0 1.5707963267948966 0.0 0.18607411761480952 0.0 0.0 0.0 0.0 0.0 0.0 0.0 0.0 0.0 0.0 0.0 315.7124755512864 -7.8535203111971015 480.9 -1.3506626057023539 0.956064938309395 -0.9560649383093952 
1.9220741 0.3403364568023746 -1.5707963267948966 -1.5707963267948966 0.0 1.5707963267948966 0.0 0.18607411761480952 0.0 0.0 0.0 0.0 0.0 0.0 0.0 0.0 0.0 0.0 0.0 315.7238164468809 -7.383544420957659 480.9 -1.3512029812681292 0.9549386377990197 -0.9549386377990199 
1.9300741 0.3418250497432931 -1.5707963267948966 -1.5707963267948966 0.0 1.5707963267948966 0.0 0.18607411761480952 0.0 0.0 0.0 0.0 0.0 0.0 0.0 0.0 0.0 0.0 0.0 315.7344577273759 -6.913552169459113 480.9 -1.3517426607414056 0.9538122264242007 -0.9538122264242009 
1.9380741 0.34331364268421155 -1.5707963267948966 -1.5707963267948966 0.0 1.5707963267948966 0.0 0.18607411761480952 0.0 0.0 0.0 0.0 0.0 0.0 0.0 0.0 0.0 0.0 0.0 315.74439936919146 -6.443544598161338 480.9 -1.3522816442819805 0.9526857043563166 -0.9526857043563167 
1.9460741 0.34480223562513 -1.5707963267948966 -1.5707963267948966 0.0 1.5707963267948966 0.0 0.18607411761480952 0.0 0.0 0.0 0.0 0.0 0.0 0.0 0.0 0.0 0.0 0.0 315.7536413502977 -5.973522748558121 480.9 -1.3528199320494305 0.9515590717665974 -0.9515590717665976 
1.9540741 0.3462908285660485 -1.5707963267948966 -1.5707963267948966 0.0 1.5707963267948966 0.0 0.18607411761480952 0.0 0.0 0.0 0.0 0.0 0.0 0.0 0.0 0.0 0.0 0.0 315.76218365021526 -5.503487662174834 480.9 -1.3533575242031113 0.9504323288261245 -0.9504323288261247 
1.9620742 0.347779421506967 -1.5707963267948966 -1.5707963267948966 0.0 1.5707963267948966 0.0 0.18607411761480952 0.0 0.0 0.0 0.0 0.0 0.0 0.0 0.0 0.0 0.0 0.0 315.7700262500152 -5.033440380566244 480.9 -1.3538944209021573 0.9493054757058321 -0.9493054757058323 
1.9700742 0.34926801444788547 -1.5707963267948966 -1.5707963267948966 0.0 1.5707963267948966 0.0 0.18607411761480952 0.0 0.0 0.0 0.0 0.0 0.0 0.0 0.0 0.0 0.0 0.0 315.777169132319 -4.563381945314195 480.9 -1.3544306223054816 0.9481785125765061 -0.9481785125765062 
1.9780741 0.35075660738880393 -1.5707963267948966 -1.5707963267948966 0.0 1.5707963267948966 0.0 0.18607411761480952 0.0 0.0 0.0 0.0 0.0 0.0 0.0 0.0 0.0 0.0 0.0 315.7836122812986 -4.093313398025153 480.9 -1.3549661285717773 0.9470514396087849 -0.947051439608785 
1.9860741 0.3522452003297224 -1.5707963267948966 -1.5707963267948966 0.0 1.5707963267948966 0.0 0.18607411761480952 0.0 0.0 0.0 0.0 0.0 0.0 0.0 0.0 0.0 0.0 0.0 315.7893556826767 -3.623235780327974 480.9 -1.3555009398595173 0.9459242569731605 -0.9459242569731607 
1.9940741 0.3537337932706409 -1.5707963267948966 -1.5707963267948966 0.0 1.5707963267948966 0.0 0.18607411761480952 0.0 0.0 0.0 0.0 0.0 0.0 0.0 0.0 0.0 0.0 0.0 315.79439932372657 -3.1531501338717156 480.9 -1.3560350563269519 0.944796964839977 -0.9447969648399772 
2.002074 0.3552223862115594 -1.5707963267948966 -1.5707963267948966 0.0 1.5707963267948966 0.0 0.18607411761480952 0.0 0.0 0.0 0.0 0.0 0.0 0.0 0.0 0.0 0.0 0.0 315.79874319327166 -2.683057500323205 480.9 -1.3565684781321126 0.9436695633794324 -0.9436695633794326 
2.0100741 0.35671097915247785 -1.5707963267948966 -1.5707963267948966 0.0 1.5707963267948966 0.0 0.18607411761480952 0.0 0.0 0.0 0.0 0.0 0.0 0.0 0.0 0.0 0.0 0.0 315.80238728168655 -2.2129589213646454 480.9 -1.35710120543281 0.9425420527615784 -0.9425420527615787 
2.018074 0.3581995720933963 -1.5707963267948966 -1.5707963267948966 0.0 1.5707963267948966 0.0 0.18607411761480952 0.0 0.0 0.0 0.0 0.0 0.0 0.0 0.0 0.0 0.0 0.0 315.8053315808962 -1.7428554386915422 480.9 -1.3576332383866347 0.9414144331563205 -0.9414144331563206 
2.0260742 0.3596881650343148 -1.5707963267948966 -1.5707963267948966 0.0 1.5707963267948966 0.0 0.18607411761480952 0.0 0.0 0.0 0.0 0.0 0.0 0.0 0.0 0.0 0.0 0.0 315.80757608437636 -1.2727480940101898 480.9 -1.3581645771509563 0.9402867047334176 -0.9402867047334177 
2.034074 0.3611767579752333 -1.5707963267948966 -1.5707963267948966 0.0 1.5707963267948966 0.0 0.18607411761480952 0.0 0.0 0.0 0.0 0.0 0.0 0.0 0.0 0.0 0.0 0.0 315.8091207871534 -0.8026379290354662 480.9 -1.3586952218829254 0.9391588676624845 -0.9391588676624847 
2.0420742 0.36266535091615176 -1.5707963267948966 -1.5707963267948966 0.0 1.5707963267948966 0.0 0.18607411761480952 0.0 0.0 0.0 0.0 0.0 0.0 0.0 0.0 0.0 0.0 0.0 315.8099656858044 -0.33252598548851964 480.9 -1.3592251727394713 0.9380309221129891 -0.9380309221129893 
2.050074 0.36415394385707023 -1.5707963267948966 -1.5707963267948966 0.0 1.5707963267948966 0.0 0.18607411761480952 0.0 0.0 0.0 0.0 0.0 0.0 0.0 0.0 0.0 0.0 0.0 315.8101107784571 0.13758669490560393 480.9 -1.3597544298773043 0.9369028682542555 -0.9369028682542557 
2.0580742 0.3656425367979887 -1.5707963267948966 -1.5707963267948966 0.0 1.5707963267948966 0.0 0.18607411761480952 0.0 0.0 0.0 0.0 0.0 0.0 0.0 0.0 0.0 0.0 0.0 315.8095560647901 0.6076990704201819 480.9 -1.3602829934529146 0.9357747062554622 -0.9357747062554624 
2.0660741 0.3671311297389072 -1.5707963267948966 -1.5707963267948966 0.0 1.5707963267948966 0.0 0.18607411761480952 0.0 0.0 0.0 0.0 0.0 0.0 0.0 0.0 0.0 0.0 0.0 315.80830154603245 1.0778100993292306 480.9 -1.3608108636225729 0.9346464362856431 -0.9346464362856433 
2.074074 0.3686197226798257 -1.5707963267948966 -1.5707963267948966 0.0 1.5707963267948966 0.0 0.18607411761480952 0.0 0.0 0.0 0.0 0.0 0.0 0.0 0.0 0.0 0.0 0.0 315.80634722496416 1.5479187399096617 480.9 -1.361338040542329 0.9335180585136882 -0.9335180585136884 
2.0820742 0.37010831562074414 -1.5707963267948966 -1.5707963267948966 0.0 1.5707963267948966 0.0 0.18607411761480952 0.0 0.0 0.0 0.0 0.0 0.0 0.0 0.0 0.0 0.0 0.0 315.8036931059157 2.0180239504437516 480.9 -1.3618645243680156 0.9323895731083434 -0.9323895731083436 
2.090074 0.3715969085616626 -1.5707963267948966 -1.5707963267948966 0.0 1.5707963267948966 0.0 0.18607411761480952 0.0 0.0 0.0 0.0 0.0 0.0 0.0 0.0 0.0 0.0 0.0 315.8003391947685 2.48812468922133 480.9 -1.362390315255244 0.9312609802382107 -0.9312609802382109 
2.0980742 0.3730855015025811 -1.5707963267948966 -1.5707963267948966 0.0 1.5707963267948966 0.0 0.18607411761480952 0.0 0.0 0.0 0.0 0.0 0.0 0.0 0.0 0.0 0.0 0.0 315.7962854989545 2.958219914542216 480.9 -1.3629154133594055 0.9301322800717482 -0.9301322800717484 
2.106074 0.3745740944434996 -1.5707963267948966 -1.5707963267948966 0.0 1.5707963267948966 0.0 0.18607411761480952 0.0 0.0 0.0 0.0 0.0 0.0 0.0 0.0 0.0 0.0 0.0 315.79153202745624 3.428308584718316 480.9 -1.3634398188356749 0.9290034727772717 -0.9290034727772719 
2.1140742 0.37606268738441806 -1.5707963267948966 -1.5707963267948966 0.0 1.5707963267948966 0.0 0.18607411761480952 0.0 0.0 0.0 0.0 0.0 0.0 0.0 0.0 0.0 0.0 0.0 315.78607879080704 3.8983896580761623 480.9 -1.3639635318390053 0.9278745585229529 -0.927874558522953 
2.1220741 0.3775512803253365 -1.5707963267948966 -1.5707963267948966 0.0 1.5707963267948966 0.0 0.18607411761480952 0.0 0.0 0.0 0.0 0.0 0.0 0.0 0.0 0.0 0.0 0.0 315.7799258010907 4.368462092959106 480.9 -1.3644865525241325 0.9267455374768216 -0.9267455374768219 
2.130074 0.379039873266255 -1.5707963267948966 -1.5707963267948966 0.0 1.5707963267948966 0.0 0.18607411761480952 0.0 0.0 0.0 0.0 0.0 0.0 0.0 0.0 0.0 0.0 0.0 315.7730730719418 4.838524847729619 480.9 -1.3650088810455723 0.925616409806765 -0.9256164098067651 
2.1380742 0.3805284662071735 -1.5707963267948966 -1.5707963267948966 0.0 1.5707963267948966 0.0 0.18607411761480952 0.0 0.0 0.0 0.0 0.0 0.0 0.0 0.0 0.0 0.0 0.0 315.7655206185453 5.308576880771614 480.9 -1.3655305175576204 0.924487175680527 -0.9244871756805272 
2.146074 0.382017059148092 -1.5707963267948966 -1.5707963267948966 0.0 1.5707963267948966 0.0 0.18607411761480952 0.0 0.0 0.0 0.0 0.0 0.0 0.0 0.0 0.0 0.0 0.0 315.75726845763666 5.778617150492792 480.9 -1.3660514622143576 0.923357835265711 -0.9233578352657112 
2.1540742 0.38350565208901044 -1.5707963267948966 -1.5707963267948966 0.0 1.5707963267948966 0.0 0.18607411761480952 0.0 0.0 0.0 0.0 0.0 0.0 0.0 0.0 0.0 0.0 0.0 315.748316607502 6.248644615326931 480.9 -1.3665717151696413 0.9222283887297777 -0.9222283887297779 
2.162074 0.3849942450299289 -1.5707963267948966 -1.5707963267948966 0.0 1.5707963267948966 0.0 0.18607411761480952 0.0 0.0 0.0 0.0 0.0 0.0 0.0 0.0 0.0 0.0 0.0 315.73866508797784 6.718658233736097 480.9 -1.367091276577114 0.9210988362400468 -0.9210988362400471 
2.1700742 0.3864828379708474 -1.5707963267948966 -1.5707963267948966 0.0 1.5707963267948966 0.0 0.18607411761480952 0.0 0.0 0.0 0.0 0.0 0.0 0.0 0.0 0.0 0.0 0.0 315.728313920451 7.18865696421317 480.9 -1.367610146590198 0.9199691779636968 -0.919969177963697 
2.1780741 0.3879714309117659 -1.5707963267948966 -1.5707963267948966 0.0 1.5707963267948966 0.0 0.18607411761480952 0.0 0.0 0.0 0.0 0.0 0.0 0.0 0.0 0.0 0.0 0.0 315.71726312785876 7.658639765283926 480.9 -1.3681283253620964 0.9188394140677645 -0.9188394140677647 
2.186074 0.38946002385268436 -1.5707963267948966 -1.5707963267948966 0.0 1.5707963267948966 0.0 0.18607411761480952 0.0 0.0 0.0 0.0 0.0 0.0 0.0 0.0 0.0 0.0 0.0 315.7055127346886 8.128605595509448 480.9 -1.368645813045796 0.9177095447191468 -0.9177095447191469 
2.1940742 0.3909486167936028 -1.5707963267948966 -1.5707963267948966 0.0 1.5707963267948966 0.0 0.18607411761480952 0.0 0.0 0.0 0.0 0.0 0.0 0.0 0.0 0.0 0.0 0.0 315.6930627669784 8.598553413488467 480.9 -1.3691626097940643 0.9165795700846001 -0.9165795700846003 
2.202074 0.3924372097345213 -1.5707963267948966 -1.5707963267948966 0.0 1.5707963267948966 0.0 0.18607411761480952 0.0 0.0 0.0 0.0 0.0 0.0 0.0 0.0 0.0 0.0 0.0 315.6799132523161 9.06848217785959 480.9 -1.3696787157594512 0.9154494903307403 -0.9154494903307405 
2.2100742 0.3939258026754398 -1.5707963267948966 -1.5707963267948966 0.0 1.5707963267948966 0.0 0.18607411761480952 0.0 0.0 0.0 0.0 0.0 0.0 0.0 0.0 0.0 0.0 0.0 315.6660642198399 9.53839084730366 480.9 -1.3701941310942873 0.9143193056240435 -0.9143193056240437 
2.218074 0.39541439561635827 -1.5707963267948966 -1.5707963267948966 0.0 1.5707963267948966 0.0 0.18607411761480952 0.0 0.0 0.0 0.0 0.0 0.0 0.0 0.0 0.0 0.0 0.0 315.65151570023784 10.008278380546027 480.9 -1.3707088559506864 0.9131890161308458 -0.9131890161308459 
2.2260742 0.39690298855727674 -1.5707963267948966 -1.5707963267948966 0.0 1.5707963267948966 0.0 0.18607411761480952 0.0 0.0 0.0 0.0 0.0 0.0 0.0 0.0 0.0 0.0 0.0 315.6362677257482 10.478143736358948 480.9 -1.3712228904805446 0.912058622017344 -0.9120586220173443 
2.234074 0.3983915814981952 -1.5707963267948966 -1.5707963267948966 0.0 1.5707963267948966 0.0 0.18607411761480952 0.0 0.0 0.0 0.0 0.0 0.0 0.0 0.0 0.0 0.0 0.0 315.6203203301591 10.947985873563724 480.9 -1.3717362348355393 0.9109281234495963 -0.9109281234495965 
2.242074 0.3998801744391137 -1.5707963267948966 -1.5707963267948966 0.0 1.5707963267948966 0.0 0.18607411761480952 0.0 0.0 0.0 0.0 0.0 0.0 0.0 0.0 0.0 0.0 0.0 315.6036735488085 11.417803751033166 480.9 -1.3722488891671314 0.9097975205935215 -0.9097975205935216 
2.2500741 0.4013687673800322 -1.5707963267948966 -1.5707963267948966 0.0 1.5707963267948966 0.0 0.18607411761480952 0.0 0.0 0.0 0.0 0.0 0.0 0.0 0.0 0.0 0.0 0.0 315.5863274185841 11.887596327693817 480.9 -1.3727608536265625 0.908666813614899 -0.9086668136148993 
2.258074 0.40285736032095065 -1.5707963267948966 -1.5707963267948966 0.0 1.5707963267948966 0.0 0.18607411761480952 0.0 0.0 0.0 0.0 0.0 0.0 0.0 0.0 0.0 0.0 0.0 315.56828197792345 12.357362562528312 480.9 -1.3732721283648595 0.9075360026793713 -0.9075360026793715 
2.2660742 0.4043459532618691 -1.5707963267948966 -1.5707963267948966 0.0 1.5707963267948966 0.0 0.18607411761480952 0.0 0.0 0.0 0.0 0.0 0.0 0.0 0.0 0.0 0.0 0.0 315.5495372668135 12.827101414577658 480.9 -1.3737827135328282 0.9064050879524413 -0.9064050879524416 
2.274074 0.4058345462027876 -1.5707963267948966 -1.5707963267948966 0.0 1.5707963267948966 0.0 0.18607411761480952 0.0 0.0 0.0 0.0 0.0 0.0 0.0 0.0 0.0 0.0 0.0 315.53009332679085 13.296811842943502 480.9 -1.374292609281061 0.9052740695994748 -0.905274069599475 
2.2820742 0.4073231391437061 -1.5707963267948966 -1.5707963267948966 0.0 1.5707963267948966 0.0 0.18607411761480952 0.0 0.0 0.0 0.0 0.0 0.0 0.0 0.0 0.0 0.0 0.0 315.5099502009415 13.766492806790499 480.9 -1.3748018157599309 0.9041429477856999 -0.9041429477857001 
2.290074 0.40881173208462457 -1.5707963267948966 -1.5707963267948966 0.0 1.5707963267948966 0.0 0.18607411761480952 0.0 0.0 0.0 0.0 0.0 0.0 0.0 0.0 0.0 0.0 0.0 315.4891079339007 14.236143265348563 480.9 -1.3753103331195933 0.9030117226762066 -0.9030117226762068 
2.298074 0.41030032502554303 -1.5707963267948966 -1.5707963267948966 0.0 1.5707963267948966 0.0 0.18607411761480952 0.0 0.0 0.0 0.0 0.0 0.0 0.0 0.0 0.0 0.0 0.0 315.4675665718531 14.705762177915314 480.9 -1.3758181615099885 0.9018803944359485 -0.9018803944359487 
2.3060741 0.4117889179664615 -1.5707963267948966 -1.5707963267948966 0.0 1.5707963267948966 0.0 0.18607411761480952 0.0 0.0 0.0 0.0 0.0 0.0 0.0 0.0 0.0 0.0 0.0 315.4453261625324 15.1753485038581 480.9 -1.376325301080838 0.9007489632297417 -0.900748963229742 
2.314074 0.41327751090738 -1.5707963267948966 -1.5707963267948966 0.0 1.5707963267948966 0.0 0.18607411761480952 0.0 0.0 0.0 0.0 0.0 0.0 0.0 0.0 0.0 0.0 0.0 315.4223867552212 15.644901202616683 480.9 -1.3768317519816484 0.8996174292222662 -0.8996174292222664 
2.3220742 0.4147661038482985 -1.5707963267948966 -1.5707963267948966 0.0 1.5707963267948966 0.0 0.18607411761480952 0.0 0.0 0.0 0.0 0.0 0.0 0.0 0.0 0.0 0.0 0.0 315.39874840075123 16.114419233705124 480.9 -1.3773375143617081 0.898485792578065 -0.8984857925780653 
2.330074 0.41625469678921695 -1.5707963267948966 -1.5707963267948966 0.0 1.5707963267948966 0.0 0.18607411761480952 0.0 0.0 0.0 0.0 0.0 0.0 0.0 0.0 0.0 0.0 0.0 315.3744111515029 16.583901556714455 480.9 -1.377842588370089 0.8973540534615451 -0.8973540534615452 
2.3380742 0.4177432897301354 -1.5707963267948966 -1.5707963267948966 0.0 1.5707963267948966 0.0 0.18607411761480952 0.0 0.0 0.0 0.0 0.0 0.0 0.0 0.0 0.0 0.0 0.0 315.34937506140534 17.053347131314805 480.9 -1.3783469741556473 0.8962222120369778 -0.896222212036978 
2.346074 0.4192318826710539 -1.5707963267948966 -1.5707963267948966 0.0 1.5707963267948966 0.0 0.18607411761480952 0.0 0.0 0.0 0.0 0.0 0.0 0.0 0.0 0.0 0.0 0.0 315.32364018593614 17.522754917257682 480.9 -1.378850671867022 0.8950902684684985 -0.8950902684684987 
2.354074 0.4207204756119724 -1.5707963267948966 -1.5707963267948966 0.0 1.5707963267948966 0.0 0.18607411761480952 0.0 0.0 0.0 0.0 0.0 0.0 0.0 0.0 0.0 0.0 0.0 315.2972065821215 17.992123874378446 480.9 -1.3793536816526355 0.893958222920107 -0.8939582229201072 
2.3620741 0.42220906855289086 -1.5707963267948966 -1.5707963267948966 0.0 1.5707963267948966 0.0 0.18607411761480952 0.0 0.0 0.0 0.0 0.0 0.0 0.0 0.0 0.0 0.0 0.0 315.2700743085359 18.461452962598305 480.9 -1.3798560036606955 0.8928260755556685 -0.8928260755556687 
2.370074 0.42369766149380933 -1.5707963267948966 -1.5707963267948966 0.0 1.5707963267948966 0.0 0.18607411761480952 0.0 0.0 0.0 0.0 0.0 0.0 0.0 0.0 0.0 0.0 0.0 315.2422434253019 18.93074114192699 480.9 -1.3803576380391913 0.8916938265389125 -0.8916938265389127 
2.3780742 0.4251862544347278 -1.5707963267948966 -1.5707963267948966 0.0 1.5707963267948966 0.0 0.18607411761480952 0.0 0.0 0.0 0.0 0.0 0.0 0.0 0.0 0.0 0.0 0.0 315.2137139940903 19.399987372464818 480.9 -1.3808585849358979 0.8905614760334343 -0.8905614760334345 
2.386074 0.4266748473756463 -1.5707963267948966 -1.5707963267948966 0.0 1.5707963267948966 0.0 0.18607411761480952 0.0 0.0 0.0 0.0 0.0 0.0 0.0 0.0 0.0 0.0 0.0 315.1844860781197 19.86919061440509 480.9 -1.3813588444983738 0.8894290242026944 -0.8894290242026947 
2.3940742 0.4281634403165648 -1.5707963267948966 -1.5707963267948966 0.0 1.5707963267948966 0.0 0.18607411761480952 0.0 0.0 0.0 0.0 0.0 0.0 0.0 0.0 0.0 0.0 0.0 315.1545597421564 20.33834982803626 480.9 -1.381858416873961 0.88829647121002 -0.8882964712100201 
2.402074 0.42965203325748325 -1.5707963267948966 -1.5707963267948966 0.0 1.5707963267948966 0.0 0.18607411761480952 0.0 0.0 0.0 0.0 0.0 0.0 0.0 0.0 0.0 0.0 0.0 315.1239350525144 20.807463973744493 480.9 -1.3823573022097866 0.8871638172186028 -0.887163817218603 
2.4100742 0.4311406261984017 -1.5707963267948966 -1.5707963267948966 0.0 1.5707963267948966 0.0 0.18607411761480952 0.0 0.0 0.0 0.0 0.0 0.0 0.0 0.0 0.0 0.0 0.0 315.0926120770553 21.276532012015718 480.9 -1.3828555006527612 0.886031062391502 -0.8860310623915022 
2.4180741 0.4326292191393202 -1.5707963267948966 -1.5707963267948966 0.0 1.5707963267948966 0.0 0.18607411761480952 0.0 0.0 0.0 0.0 0.0 0.0 0.0 0.0 0.0 0.0 0.0 315.06059088518793 21.745552903438064 480.9 -1.3833530123495803 0.884898206891643 -0.8848982068916432 
2.426074 0.4341178120802387 -1.5707963267948966 -1.5707963267948966 0.0 1.5707963267948966 0.0 0.18607411761480952 0.0 0.0 0.0 0.0 0.0 0.0 0.0 0.0 0.0 0.0 0.0 315.0278715478683 22.214525608704154 480.9 -1.3838498374467239 0.8837652508818181 -0.8837652508818183 
2.4340742 0.43560640502115716 -1.5707963267948966 -1.5707963267948966 0.0 1.5707963267948966 0.0 0.18607411761480952 0.0 0.0 0.0 0.0 0.0 0.0 0.0 0.0 0.0 0.0 0.0 314.9944541375995 22.68344908861334 480.9 -1.3843459760904562 0.8826321945246863 -0.8826321945246866 
2.442074 0.4370949979620756 -1.5707963267948966 -1.5707963267948966 0.0 1.5707963267948966 0.0 0.18607411761480952 0.0 0.0 0.0 0.0 0.0 0.0 0.0 0.0 0.0 0.0 0.0 314.96033872843145 23.152322304074115 480.9 -1.3848414284268267 0.8814990379827741 -0.8814990379827742 
2.4500742 0.4385835909029941 -1.5707963267948966 -1.5707963267948966 0.0 1.5707963267948966 0.0 0.18607411761480952 0.0 0.0 0.0 0.0 0.0 0.0 0.0 0.0 0.0 0.0 0.0 314.9255253959607 23.621144216106284 480.9 -1.3853361946016687 0.8803657814184753 -0.8803657814184755 
2.458074 0.4400721838439126 -1.5707963267948966 -1.5707963267948966 0.0 1.5707963267948966 0.0 0.18607411761480952 0.0 0.0 0.0 0.0 0.0 0.0 0.0 0.0 0.0 0.0 0.0 314.89001421733053 24.089913785843407 480.9 -1.3858302747606006 0.8792324249940519 -0.879232424994052 
2.4660742 0.4415607767848311 -1.5707963267948966 -1.5707963267948966 0.0 1.5707963267948966 0.0 0.18607411761480952 0.0 0.0 0.0 0.0 0.0 0.0 0.0 0.0 0.0 0.0 0.0 314.8538052712304 24.558629974534952 480.9 -1.3863236690490264 0.8780989688716334 -0.8780989688716335 
2.4740741 0.44304936972574954 -1.5707963267948966 -1.5707963267948966 0.0 1.5707963267948966 0.0 0.18607411761480952 0.0 0.0 0.0 0.0 0.0 0.0 0.0 0.0 0.0 0.0 0.0 314.816898637896 25.027291743548737 480.9 -1.3868163776121347 0.8769654132132179 -0.8769654132132179 
2.482074 0.444537962666668 -1.5707963267948966 -1.5707963267948966 0.0 1.5707963267948966 0.0 0.18607411761480952 0.0 0.0 0.0 0.0 0.0 0.0 0.0 0.0 0.0 0.0 0.0 314.77929439910906 25.495898054373157 480.9 -1.3873084005948986 0.8758317581806715 -0.8758317581806716 
2.4900742 0.4460265556075865 -1.5707963267948966 -1.5707963267948966 0.0 1.5707963267948966 0.0 0.18607411761480952 0.0 0.0 0.0 0.0 0.0 0.0 0.0 0.0 0.0 0.0 0.0 314.74099263819727 25.9644478686195 480.9 -1.3877997381420781 0.8746980039357298 -0.8746980039357299 
2.498074 0.447515148548505 -1.5707963267948966 -1.5707963267948966 0.0 1.5707963267948966 0.0 0.18607411761480952 0.0 0.0 0.0 0.0 0.0 0.0 0.0 0.0 0.0 0.0 0.0 314.70199344003356 26.43294014802423 480.9 -1.3882903903982167 0.8735641506399966 -0.8735641506399967 
2.5060742 0.44900374148942346 -1.5707963267948966 -1.5707963267948966 0.0 1.5707963267948966 0.0 0.18607411761480952 0.0 0.0 0.0 0.0 0.0 0.0 0.0 0.0 0.0 0.0 0.0 314.6622968910369 26.901373854451244 480.9 -1.3887803575076434 0.8724301984549454 -0.8724301984549455 
2.514074 0.4504923344303419 -1.5707963267948966 -1.5707963267948966 0.0 1.5707963267948966 0.0 0.18607411761480952 0.0 0.0 0.0 0.0 0.0 0.0 0.0 0.0 0.0 0.0 0.0 314.621903079171 27.369747949894368 480.9 -1.389269639614474 0.871296147541919 -0.871296147541919 
2.5220742 0.4519809273712604 -1.5707963267948966 -1.5707963267948966 0.0 1.5707963267948966 0.0 0.18607411761480952 0.0 0.0 0.0 0.0 0.0 0.0 0.0 0.0 0.0 0.0 0.0 314.5808120939448 27.83806139647942 480.9 -1.3897582368626094 0.87016199806213 -0.8701619980621301 
2.5300741 0.4534695203121789 -1.5707963267948966 -1.5707963267948966 0.0 1.5707963267948966 0.0 0.18607411761480952 0.0 0.0 0.0 0.0 0.0 0.0 0.0 0.0 0.0 0.0 0.0 314.53902402641245 28.30631315646666 480.9 -1.3902461493957348 0.8690277501766606 -0.8690277501766607 
2.538074 0.4549581132530974 -1.5707963267948966 -1.5707963267948966 0.0 1.5707963267948966 0.0 0.18607411761480952 0.0 0.0 0.0 0.0 0.0 0.0 0.0 0.0 0.0 0.0 0.0 314.4965389691721 28.77450219225297 480.9 -1.3907333773573232 0.8678934040464634 -0.8678934040464635 
2.5460742 0.45644670619401584 -1.5707963267948966 -1.5707963267948966 0.0 1.5707963267948966 0.0 0.18607411761480952 0.0 0.0 0.0 0.0 0.0 0.0 0.0 0.0 0.0 0.0 0.0 314.4533570163671 29.242627466374305 480.9 -1.3912199208906313 0.8667589598323614 -0.8667589598323615 
2.554074 0.4579352991349343 -1.5707963267948966 -1.5707963267948966 0.0 1.5707963267948966 0.0 0.18607411761480952 0.0 0.0 0.0 0.0 0.0 0.0 0.0 0.0 0.0 0.0 0.0 314.40947826368455 29.71068794150784 480.9 -1.391705780138704 0.8656244176950488 -0.8656244176950489 
2.5620742 0.45942389207585277 -1.5707963267948966 -1.5707963267948966 0.0 1.5707963267948966 0.0 0.18607411761480952 0.0 0.0 0.0 0.0 0.0 0.0 0.0 0.0 0.0 0.0 0.0 314.36490280835574 30.178682580474405 480.9 -1.3921909552443705 0.8644897777950894 -0.8644897777950895 
2.570074 0.4609124850167713 -1.5707963267948966 -1.5707963267948966 0.0 1.5707963267948966 0.0 0.18607411761480952 0.0 0.0 0.0 0.0 0.0 0.0 0.0 0.0 0.0 0.0 0.0 314.31963074915586 30.646610346240717 480.9 -1.3926754463502466 0.8633550402929192 -0.8633550402929193 
2.5780742 0.46240107795768975 -1.5707963267948966 -1.5707963267948966 0.0 1.5707963267948966 0.0 0.18607411761480952 0.0 0.0 0.0 0.0 0.0 0.0 0.0 0.0 0.0 0.0 0.0 314.2736621864036 31.11447020192156 480.9 -1.3931592535987345 0.8622202053488454 -0.8622202053488455 
2.586074 0.4638896708986082 -1.5707963267948966 -1.5707963267948966 0.0 1.5707963267948966 0.0 0.18607411761480952 0.0 0.0 0.0 0.0 0.0 0.0 0.0 0.0 0.0 0.0 0.0 314.22699722196114 31.582261110782337 480.9 -1.3936423771320223 0.8610852731230466 -0.8610852731230467 
2.594074 0.4653782638395267 -1.5707963267948966 -1.5707963267948966 0.0 1.5707963267948966 0.0 0.18607411761480952 0.0 0.0 0.0 0.0 0.0 0.0 0.0 0.0 0.0 0.0 0.0 314.1796359592337 32.0499820362412 480.9 -1.3941248170920855 0.8599502437755735 -0.8599502437755736 
2.6020741 0.4668668567804452 -1.5707963267948966 -1.5707963267948966 0.0 1.5707963267948966 0.0 0.18607411761480952 0.0 0.0 0.0 0.0 0.0 0.0 0.0 0.0 0.0 0.0 0.0 314.1315785031695 32.51763194187133 480.9 -1.3946065736206843 0.8588151174663485 -0.8588151174663486 
2.610074 0.46835544972136367 -1.5707963267948966 -1.5707963267948966 0.0 1.5707963267948966 0.0 0.18607411761480952 0.0 0.0 0.0 0.0 0.0 0.0 0.0 0.0 0.0 0.0 0.0 314.08282496025964 32.98520979140331 480.9 -1.3950876468593667 0.8576798943551667 -0.8576798943551668 
2.6180742 0.46984404266228214 -1.5707963267948966 -1.5707963267948966 0.0 1.5707963267948966 0.0 0.18607411761480952 0.0 0.0 0.0 0.0 0.0 0.0 0.0 0.0 0.0 0.0 0.0 314.0333754385373 33.45271454872741 480.9 -1.3955680369494676 0.8565445746016954 -0.8565445746016955 
2.626074 0.4713326356032006 -1.5707963267948966 -1.5707963267948966 0.0 1.5707963267948966 0.0 0.18607411761480952 0.0 0.0 0.0 0.0 0.0 0.0 0.0 0.0 0.0 0.0 0.0 313.9832300475783 33.92014517789582 480.9 -1.396047744032107 0.855409158365475 -0.8554091583654753 
2.6340742 0.47282122854411907 -1.5707963267948966 -1.5707963267948966 0.0 1.5707963267948966 0.0 0.18607411761480952 0.0 0.0 0.0 0.0 0.0 0.0 0.0 0.0 0.0 0.0 0.0 313.9323888985 34.38750064312505 480.9 -1.396526768248194 0.8542736458059194 -0.8542736458059195 
2.642074 0.4743098214850376 -1.5707963267948966 -1.5707963267948966 0.0 1.5707963267948966 0.0 0.18607411761480952 0.0 0.0 0.0 0.0 0.0 0.0 0.0 0.0 0.0 0.0 0.0 313.88085210396196 34.854779908798136 480.9 -1.397005109738423 0.8531380370823146 -0.8531380370823147 
2.650074 0.47579841442595605 -1.5707963267948966 -1.5707963267948966 0.0 1.5707963267948966 0.0 0.18607411761480952 0.0 0.0 0.0 0.0 0.0 0.0 0.0 0.0 0.0 0.0 0.0 313.8286197781648 35.32198193946693 480.9 -1.3974827686432754 0.852002332353821 -0.8520023323538211 
2.6580741 0.4772870073668745 -1.5707963267948966 -1.5707963267948966 0.0 1.5707963267948966 0.0 0.18607411761480952 0.0 0.0 0.0 0.0 0.0 0.0 0.0 0.0 0.0 0.0 0.0 313.7756920368508 35.7891056998545 480.9 -1.3979597451030203 0.8508665317794724 -0.8508665317794725 
2.666074 0.478775600307793 -1.5707963267948966 -1.5707963267948966 0.0 1.5707963267948966 0.0 0.18607411761480952 0.0 0.0 0.0 0.0 0.0 0.0 0.0 0.0 0.0 0.0 0.0 313.7220689973028 36.25615015485728 480.9 -1.398436039257714 0.8497306355181771 -0.8497306355181772 
2.6740742 0.4802641932487115 -1.5707963267948966 -1.5707963267948966 0.0 1.5707963267948966 0.0 0.18607411761480952 0.0 0.0 0.0 0.0 0.0 0.0 0.0 0.0 0.0 0.0 0.0 313.6677507783446 36.72311426954752 480.9 -1.3989116512471997 0.8485946437287167 -0.8485946437287168 
2.682074 0.48175278618962997 -1.5707963267948966 -1.5707963267948966 0.0 1.5707963267948966 0.0 0.18607411761480952 0.0 0.0 0.0 0.0 0.0 0.0 0.0 0.0 0.0 0.0 0.0 313.6127375003406 37.18999700917543 480.9 -1.3993865812111075 0.847458556569748 -0.8474585565697481 
2.6900742 0.48324137913054843 -1.5707963267948966 -1.5707963267948966 0.0 1.5707963267948966 0.0 0.18607411761480952 0.0 0.0 0.0 0.0 0.0 0.0 0.0 0.0 0.0 0.0 0.0 313.55702928519486 37.656797339171575 480.9 -1.3998608292888564 0.8463223741998023 -0.8463223741998024 
2.698074 0.4847299720714669 -1.5707963267948966 -1.5707963267948966 0.0 1.5707963267948966 0.0 0.18607411761480952 0.0 0.0 0.0 0.0 0.0 0.0 0.0 0.0 0.0 0.0 0.0 313.5006262563519 38.12351422514911 480.9 -1.4003343956196517 0.8451860967772858 -0.845186096777286 
2.706074 0.4862185650123854 -1.5707963267948966 -1.5707963267948966 0.0 1.5707963267948966 0.0 0.18607411761480952 0.0 0.0 0.0 0.0 0.0 0.0 0.0 0.0 0.0 0.0 0.0 313.4435285387956 38.59014663290609 480.9 -1.4008072803424865 0.8440497244604799 -0.84404972446048 
2.7140741 0.4877071579533039 -1.5707963267948966 -1.5707963267948966 0.0 1.5707963267948966 0.0 0.18607411761480952 0.0 0.0 0.0 0.0 0.0 0.0 0.0 0.0 0.0 0.0 0.0 313.3857362590494 39.05669352842782 480.9 -1.401279483596142 0.8429132574075412 -0.8429132574075413 
2.722074 0.48919575089422235 -1.5707963267948966 -1.5707963267948966 0.0 1.5707963267948966 0.0 0.18607411761480952 0.0 0.0 0.0 0.0 0.0 0.0 0.0 0.0 0.0 0.0 0.0 313.3272495451755 39.52315387788901 480.9 -1.4017510055191869 0.8417766957765024 -0.8417766957765025 
2.7300742 0.4906843438351408 -1.5707963267948966 -1.5707963267948966 0.0 1.5707963267948966 0.0 0.18607411761480952 0.0 0.0 0.0 0.0 0.0 0.0 0.0 0.0 0.0 0.0 0.0 313.2680685267753 39.98952664765621 480.9 -1.4022218462499771 0.8406400397252712 -0.8406400397252713 
2.738074 0.4921729367760593 -1.5707963267948966 -1.5707963267948966 0.0 1.5707963267948966 0.0 0.18607411761480952 0.0 0.0 0.0 0.0 0.0 0.0 0.0 0.0 0.0 0.0 0.0 313.20819333498844 40.45581080429002 480.9 -1.4026920059266579 0.8395032894116324 -0.8395032894116325 
2.7460742 0.4936615297169778 -1.5707963267948966 -1.5707963267948966 0.0 1.5707963267948966 0.0 0.18607411761480952 0.0 0.0 0.0 0.0 0.0 0.0 0.0 0.0 0.0 0.0 0.0 313.14762410249284 40.92200531454742 480.9 -1.4031614846871623 0.8383664449932466 -0.8383664449932468 
2.754074 0.49515012265789626 -1.5707963267948966 -1.5707963267948966 0.0 1.5707963267948966 0.0 0.18607411761480952 0.0 0.0 0.0 0.0 0.0 0.0 0.0 0.0 0.0 0.0 0.0 313.0863609635044 41.388109145383964 480.9 -1.4036302826692106 0.837229506627651 -0.8372295066276512 
2.7620742 0.49663871559881473 -1.5707963267948966 -1.5707963267948966 0.0 1.5707963267948966 0.0 0.18607411761480952 0.0 0.0 0.0 0.0 0.0 0.0 0.0 0.0 0.0 0.0 0.0 313.02440405377666 41.85412126395624 480.9 -1.4040984000103118 0.8360924744722599 -0.83609247447226 
2.7700741 0.4981273085397332 -1.5707963267948966 -1.5707963267948966 0.0 1.5707963267948966 0.0 0.18607411761480952 0.0 0.0 0.0 0.0 0.0 0.0 0.0 0.0 0.0 0.0 0.0 312.9617535106005 42.32004063762399 480.9 -1.4045658368477627 0.8349553486843636 -0.8349553486843637 
2.778074 0.4996159014806517 -1.5707963267948966 -1.5707963267948966 0.0 1.5707963267948966 0.0 0.18607411761480952 0.0 0.0 0.0 0.0 0.0 0.0 0.0 0.0 0.0 0.0 0.0 312.8984094728037 42.78586623395251 480.9 -1.4050325933186498 0.8338181294211311 -0.8338181294211312 
2.7860742 0.5011044944215701 -1.5707963267948966 -1.5707963267948966 0.0 1.5707963267948966 0.0 0.18607411761480952 0.0 0.0 0.0 0.0 0.0 0.0 0.0 0.0 0.0 0.0 0.0 312.8343720807508 43.251597020714875 480.9 -1.405498669559847 0.832680816839608 -0.8326808168396082 
2.794074 0.5025930873624886 -1.5707963267948966 -1.5707963267948966 0.0 1.5707963267948966 0.0 0.18607411761480952 0.0 0.0 0.0 0.0 0.0 0.0 0.0 0.0 0.0 0.0 0.0 312.76964147634305 43.71723196589429 480.9 -1.4059640657080172 0.831543411096718 -0.8315434110967181 
2.8020742 0.5040816803034072 -1.5707963267948966 -1.5707963267948966 0.0 1.5707963267948966 0.0 0.18607411761480952 0.0 0.0 0.0 0.0 0.0 0.0 0.0 0.0 0.0 0.0 0.0 312.7042178030173 44.18277003768629 480.9 -1.4064287818996122 0.8304059123492624 -0.8304059123492625 
2.810074 0.5055702732443256 -1.5707963267948966 -1.5707963267948966 0.0 1.5707963267948966 0.0 0.18607411761480952 0.0 0.0 0.0 0.0 0.0 0.0 0.0 0.0 0.0 0.0 0.0 312.63810120574664 44.64821020450102 480.9 -1.4068928182708713 0.829268320753921 -0.8292683207539211 
2.8180742 0.5070588661852441 -1.5707963267948966 -1.5707963267948966 0.0 1.5707963267948966 0.0 0.18607411761480952 0.0 0.0 0.0 0.0 0.0 0.0 0.0 0.0 0.0 0.0 0.0 312.57129183103916 45.11355143496578 480.9 -1.407356174957824 0.8281306364672516 -0.8281306364672517 
2.8219259 0.5077435799161525 -1.5707963267948966 -1.5707963267948966 0.0 1.5707963267948966 0.0 0.1780741176148095 0.0 0.0 0.0 0.0 0.0 -1.0 0.0 0.0 0.0 0.0 0.0 312.54032869348663 45.327562698288844 480.9 -1.4075690787039266 0.8276073004382541 -0.8276073004382543 
2.8299258 0.5091361728570711 -1.5707963267948966 -1.5707963267948966 0.0 1.5707963267948966 0.0 0.1700741176148095 0.0 0.0 0.0 0.0 0.0 -1.0 0.0 0.0 0.0 0.0 0.0 312.47690281300623 45.762760060895125 480.9 -1.4080016457151459 0.826542862350636 -0.8265428623506361 
2.837926 0.5104647657979897 -1.5707963267948966 -1.5707963267948966 0.0 1.5707963267948966 0.0 0.1620741176148095 0.0 0.0 0.0 0.0 0.0 -1.0 0.0 0.0 0.0 0.0 0.0 312.41582696521954 46.17787415676436 480.9 -1.4084137788527484 0.8255272677963938 -0.825527267796394 
2.8459258 0.5117293587389082 -1.5707963267948966 -1.5707963267948966 0.0 1.5707963267948966 0.0 0.1540741176148095 0.0 0.0 0.0 0.0 0.0 -1.0 0.0 0.0 0.0 0.0 0.0 312.35718096017007 46.57291597715955 480.9 -1.408805556412459 0.8245605275061891 -0.8245605275061892 
2.853926 0.5129299516798267 -1.5707963267948966 -1.5707963267948966 0.0 1.5707963267948966 0.0 0.14607411761480948 0.0 0.0 0.0 0.0 0.0 -1.0 0.0 0.0 0.0 0.0 0.0 312.3010407399934 46.94789614793161 480.9 -1.4091770528967704 0.8236426516688756 -0.8236426516688757 
2.8619258 0.5140665446207451 -1.5707963267948966 -1.5707963267948966 0.0 1.5707963267948966 0.0 0.13807411761480948 0.0 0.0 0.0 0.0 0.0 -1.0 0.0 0.0 0.0 0.0 0.0 312.24747838211454 47.30282490518858 480.9 -1.4095283390181768 0.8227736499352053 -0.8227736499352053 
2.869926 0.5151391375616635 -1.5707963267948966 -1.5707963267948966 0.0 1.5707963267948966 0.0 0.13007411761480947 0.0 0.0 0.0 0.0 0.0 -1.0 0.0 0.0 0.0 0.0 0.0 312.1965621023486 47.637712072205744 480.9 -1.4098594817022454 0.8219535314213453 -0.8219535314213454 
2.8779259 0.5161477305025818 -1.5707963267948966 -1.5707963267948966 0.0 1.5707963267948966 0.0 0.12207411761480946 0.0 0.0 0.0 0.0 0.0 -1.0 0.0 0.0 0.0 0.0 0.0 312.14835625789686 47.9525670375747 480.9 -1.4101705440905081 0.8211823047121998 -0.8211823047121999 
2.8859258 0.5170923234435 -1.5707963267948966 -1.5707963267948966 0.0 1.5707963267948966 0.0 0.11407411761480946 0.0 0.0 0.0 0.0 0.0 -1.0 0.0 0.0 0.0 0.0 0.0 312.10292135022604 48.2473987345907 480.9 -1.4104615855431855 0.8204599778645406 -0.8204599778645407 
2.893926 0.517972916384419 -1.5707963267948966 -1.5707963267948966 0.0 1.5707963267948966 0.0 0.10607411761480945 0.0 0.0 0.0 0.0 0.0 -1.0 0.0 0.0 0.0 0.0 0.0 312.0603140278239 48.52221562187701 480.9 -1.4107326616417435 0.8197865584099491 -0.8197865584099492 
2.9019258 0.5187895093253371 -1.5707963267948966 -1.5707963267948966 0.0 1.5707963267948966 0.0 0.09807411761480944 0.0 0.0 0.0 0.0 0.0 -1.0 0.0 0.0 0.0 0.0 0.0 312.02058708882043 48.77702566524328 480.9 -1.4109838241912784 0.8191620533575679 -0.819162053357568 
2.909926 0.519542102266256 -1.5707963267948966 -1.5707963267948966 0.0 1.5707963267948966 0.0 0.09007411761480943 0.0 0.0 0.0 0.0 0.0 -1.0 0.0 0.0 0.0 0.0 0.0 311.983789483468 49.011836320781654 480.9 -1.4112151212227393 0.8185864691966592 -0.8185864691966593 
2.9179258 0.5202306952071739 -1.5707963267948966 -1.5707963267948966 0.0 1.5707963267948966 0.0 0.08207411761480943 0.0 0.0 0.0 0.0 0.0 -1.0 0.0 0.0 0.0 0.0 0.0 311.94996631647217 49.22665451919199 480.9 -1.4114265969949822 0.8180598118989836 -0.8180598118989836 
2.925926 0.5208552881480928 -1.5707963267948966 -1.5707963267948966 0.0 1.5707963267948966 0.0 0.07407411761480942 0.0 0.0 0.0 0.0 0.0 -1.0 0.0 0.0 0.0 0.0 0.0 311.9191588491656 49.42148665134374 480.9 -1.4116182919966604 0.8175820869209779 -0.817582086920978 
2.9339259 0.5214158810890115 -1.5707963267948966 -1.5707963267948966 0.0 1.5707963267948966 0.0 0.06607411761480941 0.0 0.0 0.0 0.0 0.0 -1.0 0.0 0.0 0.0 0.0 0.0 311.89140450152087 49.596338555065365 480.9 -1.4117902429479514 0.8171532992057603 -0.8171532992057604 
2.9419258 0.5219124740299292 -1.5707963267948966 -1.5707963267948966 0.0 1.5707963267948966 0.0 0.058074117614809406 0.0 0.0 0.0 0.0 0.0 -1.0 0.0 0.0 0.0 0.0 0.0 311.86673685399256 49.751215503166705 480.9 -1.4119424828021183 0.816773453184936 -0.816773453184936 
2.949926 0.5223450669708478 -1.5707963267948966 -1.5707963267948966 0.0 1.5707963267948966 0.0 0.0500741176148094 0.0 0.0 0.0 0.0 0.0 -1.0 0.0 0.0 0.0 0.0 0.0 311.8451856491869 49.88612219269135 480.9 -1.4120750407469154 0.8164425527802208 -0.8164425527802209 
2.9579258 0.5227136599117663 -1.5707963267948966 -1.5707963267948966 0.0 1.5707963267948966 0.0 0.04207411761480939 0.0 0.0 0.0 0.0 0.0 -1.0 0.0 0.0 0.0 0.0 0.0 311.8267767933521 50.00106273539524 480.9 -1.4121879422058232 0.8161606014048819 -0.816160601404882 
2.965926 0.5230182528526848 -1.5707963267948966 -1.5707963267948966 0.0 1.5707963267948966 0.0 0.034074117614809385 0.0 0.0 0.0 0.0 0.0 -1.0 0.0 0.0 0.0 0.0 0.0 311.81153235768556 50.09604064945641 480.9 -1.4122812088391288 0.8159276019649865 -0.8159276019649866 
2.9739258 0.5232588457936032 -1.5707963267948966 -1.5707963267948966 0.0 1.5707963267948966 0.0 0.026074117614809378 0.0 0.0 0.0 0.0 0.0 -1.0 0.0 0.0 0.0 0.0 0.0 311.7994705794541 50.17105885241114 480.9 -1.4123548585448455 0.8157435568604692 -0.8157435568604693 
2.981926 0.5234354387345224 -1.5707963267948966 -1.5707963267948966 0.0 1.5707963267948966 0.0 0.01807411761480937 0.0 0.0 0.0 0.0 0.0 -1.0 0.0 0.0 0.0 0.0 0.0 311.79060586292474 50.226119655317724 480.9 -1.4124089054594688 0.8156084679860109 -0.815608467986011 
2.9899259 0.5235480316754406 -1.5707963267948966 -1.5707963267948966 0.0 1.5707963267948966 0.0 0.010074117614809364 0.0 0.0 0.0 0.0 0.0 -1.0 0.0 0.0 0.0 0.0 0.0 311.78494878010247 50.26122475814583 480.9 -1.4124433599585748 0.815522336731737 -0.8155223367317371 
2.997926 0.5235966246163588 -1.5707963267948966 -1.5707963267948966 0.0 1.5707963267948966 0.0 0.0020741176148093565 0.0 0.0 0.0 0.0 0.0 -1.0 0.0 0.0 0.0 0.0 0.0 311.7825060712735 50.27637524639483 480.9 -1.4124582286572624 0.8154851639837243 -0.8154851639837244 
3.005926 0.5235812175572769 -1.5707963267948966 -1.5707963267948966 0.0 1.5707963267948966 0.0 -0.005925882385190651 0.0 0.0 0.0 0.0 0.0 -1.0 0.0 0.0 0.0 0.0 0.0 311.7832806453522 50.271571588936055 480.9 -1.4124535144104287 0.8154969501243265 -0.8154969501243267 
