Fleaurent/UniversalRobot/csv/robolib_movel_x400_Singular.csv
timestamp target_q_0 target_q_1 target_q_2 target_q_3 target_q_4 target_q_5 target_qd_0 target_qd_1 target_qd_2 target_qd_3 target_qd_4 target_qd_5 target_TCP_pose_0 target_TCP_pose_1 target_TCP_pose_2 target_TCP_pose_3 target_TCP_pose_4 target_TCP_pose_5 target_TCP_speed_0 target_TCP_speed_1 target_TCP_speed_2 target_TCP_speed_3 target_TCP_speed_4 target_TCP_speed_5 target_TCP_acc_0 target_TCP_acc_1 target_TCP_acc_2 target_TCP_acc_3 target_TCP_acc_4 target_TCP_acc_5
0.0 -0.5325564462264847 -1.595267091148341 -1.9351178277208148 0.3887636286132983 2.103514506141045 -0.00013977898740433916 0.0 0.0 0.0 0.0 0.0 0.0 0.2 -0.2 0.4 2.4186 -2.4185 2.4185 0.0 0.0 0.0 0.0 0.0 0.0 0.0 1.0 0.0 0.0 0.0 0.0 
0.008 -0.5324208250519904 -1.5951391347010324 -1.935249639779419 0.3887670445561149 2.103378884967878 -0.0001397678130313183 0.03390926398469963 0.0319934503839883 -0.03295495784229043 0.0009620885729642478 -0.03390926397036562 1.144467413538823e-06 0.2 -0.199968 0.4 2.4186 -2.4185 2.4185 0.0 0.008 0.0 0.0 0.0 0.0 0.0 1.0 0.0 0.0 0.0 0.0 
0.016 -0.5320137704061803 -1.594755231905445 -1.9356449891760668 0.38877935482496184 2.102971830326041 -0.00013973430032161943 0.06786634161784877 0.0639952935290972 -0.06588824415812193 0.0018940780812988598 -0.06786634159083951 2.221978457123091e-06 0.2 -0.19987200000000002 0.4 2.4186 -2.4185 2.4185 0.0 0.016 0.0 0.0 0.0 0.0 0.0 1.0 0.0 0.0 0.0 0.0 
0.024 -0.5313347083331683 -1.594115282231302 -1.9363036155795625 0.38879780582576906 2.102292768259656 -0.00013967848055173741 0.10191912264052132 0.09601389738041867 -0.09877811982265201 0.002765926505072828 -0.10191912259930816 3.362238420764659e-06 0.2 -0.199712 0.4 2.4186 -2.4185 2.4185 0.0 0.024 0.0 0.0 0.0 0.0 0.0 1.0 0.0 0.0 0.0 0.0 
0.032 -0.530382680274033 -1.5932191175640065 -1.9372250851244563 0.38882320466422726 2.1013407402098014 -0.00013960040601092492 0.13611587230602867 0.12805779024185965 -0.13160292652366307 0.0035473996466819447 -0.13611587225135047 4.473026688013456e-06 0.2 -0.199488 0.4 2.4186 -2.4185 2.4185 0.0 0.032 0.0 0.0 0.0 0.0 0.0 1.0 0.0 0.0 0.0 0.0 
0.04 -0.5291563401085577 -1.592066501359174 -1.9384087904368557 0.38885476035343824 2.1001144000562677 -0.00013950015024530088 0.17050528428425948 0.16013561189964037 -0.16434099361842436 0.004208162418097961 -0.1705052842180033 5.506936649062491e-06 0.2 -0.19920000000000002 0.4 2.4186 -2.4185 2.4185 0.0 0.04 0.0 0.0 0.0 0.0 0.0 1.0 0.0 0.0 0.0 0.0 
0.048 -0.5276539499944151 -1.590657127460425 -1.9398539506625836 0.3888913644423697 2.0986120099567307 -0.00013937780840255504 0.20513664508446885 0.19225616789943928 -0.19697065056770327 0.004717718836178979 -0.20513664500936332 6.425462177447068e-06 0.2 -0.19884800000000002 0.4 2.4186 -2.4185 2.4185 0.0 0.048 0.0 0.0 0.0 0.0 0.0 1.0 0.0 0.0 0.0 0.0 
0.056 -0.5258733749844704 -1.588990618581951 -1.941559611489708 0.3889309920624413 2.0968314349640638 -0.00013923349768025164 0.2400599221854474 0.22442840958551494 -0.2294701624703193 0.005045458210065003 -0.24005992210061844 7.379531922468873e-06 0.2 -0.198432 0.4 2.4186 -2.4185 2.4185 0.0 0.056 0.0 0.0 0.0 0.0 0.0 1.0 0.0 0.0 0.0 0.0 
0.064 -0.523812076397185 -1.5870665244577775 -1.9435246451552426 0.38897252463675613 2.0947701363967344 -0.00013906735788166169 0.2753260837206098 0.25666162759659944 -0.2618178830932236 0.0051603906558758935 -0.27532608362761124 8.264950355267285e-06 0.2 -0.19795200000000002 0.4 2.4186 -2.4185 2.4185 0.0 0.064 0.0 0.0 0.0 0.0 0.0 1.0 0.0 0.0 0.0 0.0 
0.072 -0.5214671039093517 -1.5848843196601865 -1.9457477504235774 0.38901418951279876 2.092425163931545 -0.00013887955208403998 0.3109871416613591 0.2889653815574382 -0.29399213602197954 0.005031263348547081 -0.3109871415624029 9.048659879540154e-06 0.2 -0.197408 0.4 2.4186 -2.4185 2.4185 0.0 0.07200000000000001 0.0 0.0 0.0 0.0 0.0 1.0 0.0 0.0 0.0 0.0 
0.08 -0.5188350863345006 -1.5824434010902833 -1.9482274525220014 0.3890532366335844 2.0897931463820387 -0.00013867026742531431 0.3470962404537435 0.32134946877710546 -0.32597113542420814 0.004626616187508178 -0.3470962403455934 9.978724830468744e-06 0.2 -0.1968 0.4 2.4186 -2.4185 2.4185 0.0 0.08 0.0 0.0 0.0 0.0 0.0 1.0 0.0 0.0 0.0 0.0 
0.088 -0.5159122210442737 -1.579743085144271 -1.9509621030165103 0.38908938358013767 2.086870281119869 -0.00013843971601629418 0.3837083371549576 0.35382443459870005 -0.3577334542459654 0.003914059639048945 -0.3837083370521299 1.0213386336907027e-05 0.2 -0.19612800000000002 0.4 2.4186 -2.4185 2.4185 0.0 0.088 0.0 0.0 0.0 0.0 0.0 1.0 0.0 0.0 0.0 0.0 
0.096 -0.5126942619838974 -1.5767826045596909 -1.9539498796089332 0.3891172376066514 2.083652322090274 -0.00013818813598675 0.42087923422681056 0.38640055172876175 -0.3892569383476711 0.0028617412238037855 -0.4208792341193933 1.0912892227267346e-05 0.2 -0.195392 0.4 2.4186 -2.4185 2.4185 0.0 0.096 0.0 0.0 0.0 0.0 0.0 1.0 0.0 0.0 0.0 0.0 
0.104 -0.5091765062265203 -1.5735611049466274 -1.9571887858342967 0.3891364405138802 2.0801345663664166 -0.00013791579267507929 0.4586673688653625 0.41908933943489446 -0.4205201905201421 0.0014361783879081075 -0.4586673687661753 1.0925568324979422e-05 0.2 -0.19459200000000001 0.4 2.4186 -2.4185 2.4185 0.0 0.10400000000000001 0.0 0.0 0.0 0.0 0.0 1.0 0.0 0.0 0.0 0.0 
0.112 -0.5053537790046518 -1.5700776410097377 -1.9606766506352624 0.38914141296226745 2.0763118391808275 -0.00013762297997278768 0.49713225125828614 0.45190198626527706 -0.4515009237507069 -0.000395497466099619 -0.4971322511566091 1.1491895380120259e-05 0.2 -0.193728 0.4 2.4186 -2.4185 2.4185 0.0 0.112 0.0 0.0 0.0 0.0 0.0 1.0 0.0 0.0 0.0 0.0 
0.12 -0.5012204171502344 -1.566331172467998 -1.9644111277883958 0.3891305638388465 2.0721784773654623 -0.00013731002183669762 0.5363363832664747 0.4848509593206425 -0.48217752201446024 -0.0026678276195776073 -0.5363363831688202 1.1671333179778686e-05 0.2 -0.1928 0.4 2.4186 -2.4185 2.4185 0.0 0.12 0.0 0.0 0.0 0.0 0.0 1.0 0.0 0.0 0.0 0.0 
0.128 -0.4967702508680176 -1.5623205596802339 -1.968389695154991 0.3891009973339994 2.0677283111250953 -0.00013697727398368463 0.5763445224929845 0.5179491669005252 -0.5125281349572959 -0.005415842119651264 -0.5763445224135383 1.0886275944291169e-05 0.2 -0.191808 0.4 2.4186 -2.4185 2.4185 0.0 0.128 0.0 0.0 0.0 0.0 0.0 1.0 0.0 0.0 0.0 0.0 
0.136 -0.4919965837598399 -1.5580445589858982 -1.9726096537271578 0.38904454556509016 2.0629546440615862 -0.00013662512578485996 0.6172227433635817 0.551208957219386 -0.5425296327005245 -0.008673694180600025 -0.6172227432742506 1.1915324851081926e-05 0.2 -0.190752 0.4 2.4186 -2.4185 2.4185 0.0 0.136 0.0 0.0 0.0 0.0 0.0 1.0 0.0 0.0 0.0 0.0 
0.144 -0.48689217101028337 -1.5535018177722364 -1.9770681264378736 0.38896292747196615 2.057850231359542 -0.0001362540023785208 0.6590425961154811 0.5846456706218228 -0.5721610497269797 -0.012479607647315791 -0.6590425960475007 1.0711508611366685e-05 0.2 -0.18963200000000002 0.4 2.4186 -2.4185 2.4185 0.0 0.14400000000000002 0.0 0.0 0.0 0.0 0.0 1.0 0.0 0.0 0.0 0.0 
0.152 -0.4814491956368907 -1.5486908692809447 -1.9817620567017111 0.38884580159655613 2.0524072560365285 -0.00013586436702390652 0.7018755338781589 0.6182724637059979 -0.601398416867027 -0.01686873833810645 -0.7018755338046713 1.1460309477080129e-05 0.2 -0.188448 0.4 2.4186 -2.4185 2.4185 0.0 0.152 0.0 0.0 0.0 0.0 0.0 1.0 0.0 0.0 0.0 0.0 
0.16 -0.4756592427008588 -1.5436101271698057 -1.9866882066509715 0.3886996158191991 2.0466173031537767 -0.00013545672372090314 0.7458015797683822 0.652107789130676 -0.6302220056877924 -0.021883452771167752 -0.7458015797546679 5.088043207183836e-06 0.2 -0.1872 0.4 2.4186 -2.4185 2.4185 0.0 0.16 0.0 0.0 0.0 0.0 0.0 1.0 0.0 0.0 0.0 0.0 
0.168 -0.4695132713668544 -1.5382578798475897 -1.9918431550299889 0.38849196116353557 2.0404713318759784 -0.00013503162012437384 0.790891654932069 0.6861596758487526 -0.6586010220795453 -0.027552062358862026 -0.7908916548254487 1.4563546676943891e-05 0.2 -0.185888 0.4 2.4186 -2.4185 2.4185 0.0 0.168 0.0 0.0 0.0 0.0 0.0 1.0 0.0 0.0 0.0 0.0 
0.176 -0.46300158469356134 -1.5326322846039209 -1.9972232947083506 0.38825712473750684 2.0339596452618554 -0.00013458965078585956 0.8372435402909402 0.7204568939998968 -0.6865236057466694 -0.03393086277406878 -0.837243540276853 5.428795140986798e-06 0.2 -0.184512 0.4 2.4186 -2.4185 2.4185 0.0 0.176 0.0 0.0 0.0 0.0 0.0 1.0 0.0 0.0 0.0 0.0 
0.184 -0.4561137970297455 -1.526731361559813 -2.0028248297718383 0.387934918900414 2.0270718576602116 -0.00013413146076005523 0.8849249550102857 0.7549993232466062 -0.7139491225774999 -0.041037770429942576 -0.8849249546478918 2.821157851264766e-05 0.2 -0.183072 0.4 2.4186 -2.4185 2.4185 0.0 0.184 0.0 0.0 0.0 0.0 0.0 1.0 0.0 0.0 0.0 0.0 
0.192 -0.44883879888438827 -1.5205529874694443 -2.0086437721478587 0.38747793493084703 2.0197968595800644 -0.00013365774961885446 0.9340083352956211 0.7897883739386299 -0.7408377136533636 -0.04889387992633556 -0.9340083278613138 0.00013081062327672142 0.2 -0.181568 0.4 2.4186 -2.4185 2.4185 0.0 0.192 0.0 0.0 0.0 0.0 0.0 1.0 0.0 0.0 0.0 0.0 
0.2 -0.4411647191339019 -1.514094889409502 -2.014675937720117 0.3871781735398261 2.0121227798978745 -0.00013316927592197996 0.9847217433752242 0.8249532097981312 -0.7672676303368171 -0.057685579461314244 -0.9847217433752242 -2.1860723897144755e-16 0.2 -0.18 0.4 2.4186 -2.4185 2.4185 0.0 0.2 0.0 0.0 0.0 0.0 0.0 0.0 0.0 0.0 0.0 0.0 
0.208 -0.4332384060701804 -1.507486984261904 -2.020794936253874 0.38677533508013395 2.0041964669041743 -0.00013267665364685968 0.9969264857236212 0.8272811305071566 -0.762712607360701 -0.06460822815227646 -0.9969264820311416 -9.454495805895011e-05 0.2 -0.1784 0.4 2.4186 -2.4185 2.4185 0.0 0.2 0.0 0.0 0.0 0.0 0.0 0.0 0.0 0.0 0.0 0.0 
0.216 -0.42521401015643434 -1.500860565884619 -2.026877202968175 0.3861591195022025 1.996172071060796 -0.00013219006255072832 1.0092472709923348 0.8295881147666808 -0.7580888319731656 -0.07150568588576235 -1.0092472708933686 -1.5516513856430936e-05 0.2 -0.17679999999999998 0.4 2.4186 -2.4185 2.4185 0.0 0.2 0.0 0.0 0.0 0.0 0.0 0.0 0.0 0.0 0.0 0.0 
0.224 -0.4170900012000667 -1.4942153132214486 -2.032922636241991 0.3855581465626077 1.9880480621751502 -0.00013170966105258253 1.0217938082561313 0.8319624974852327 -0.7534771828089764 -0.07849113528016766 -1.021793808171762 -1.4363012960978256e-05 0.2 -0.1752 0.4 2.4186 -2.4185 2.4185 0.0 0.2 0.0 0.0 0.0 0.0 0.0 0.0 0.0 0.0 0.0 0.0 
0.232 -0.4088648262602588 -1.4875509087082222 -2.0389311264062817 0.3849029881266546 1.9798228873064279 -0.00013123561310894046 1.0345367544068527 0.8343770911462101 -0.7488519854425033 -0.08553120751856141 -1.034536754311086 -1.534212619230844e-05 0.2 -0.1736 0.4 2.4186 -2.4185 2.4185 0.0 0.2 0.0 0.0 0.0 0.0 0.0 0.0 0.0 0.0 0.0 0.0 
0.24 -0.4005369096247635 -1.4808670385078533 -2.044902555759438 0.3841894113527604 1.9714949707423912 -0.00013076808845511454 1.0474770810126564 0.8368298954210657 -0.744210867561563 -0.09262456146088652 -1.0474770809312053 -1.4186475635817505e-05 0.2 -0.172 0.4 2.4186 -2.4185 2.4185 0.0 0.2 0.0 0.0 0.0 0.0 0.0 0.0 0.0 0.0 0.0 0.0 
0.248 -0.39210465281519236 -1.4741633927613496 -2.0508367985815528 0.38342499108189854 1.963062714004662 -0.00013030726285905405 1.060621728933343 0.839323661176957 -0.7395557233257787 -0.09977559613338077 -1.0606217287718005 -2.0032984468950263e-05 0.2 -0.1704 0.4 2.4186 -2.4185 2.4185 0.0 0.2 0.0 0.0 0.0 0.0 0.0 0.0 0.0 0.0 0.0 0.0 
0.256 -0.38356643462319795 -1.4674396658554671 -2.0567337211476895 0.38259897767826234 1.9545244958849035 -0.00012985331838851724 1.0739682667508623 0.8418536388791875 -0.7348818241712745 -0.10697972553462597 -1.0739682665721255 -2.1130467836311387e-05 0.2 -0.1688 0.4 2.4186 -2.4185 2.4185 0.0 0.2 0.0 0.0 0.0 0.0 0.0 0.0 0.0 0.0 0.0 0.0 
0.264 -0.37492061118012665 -1.4606955567077489 -2.0625931817403305 0.38171691865303825 1.9458786725144726 -0.00012940644369238694 1.0875226258310524 0.8444217026525435 -0.7301903403693981 -0.11424028292319727 -1.0875226255950345 -2.4350104329544457e-05 0.2 -0.1672 0.4 2.4186 -2.4185 2.4185 0.0 0.2 0.0 0.0 0.0 0.0 0.0 0.0 0.0 0.0 0.0 0.0 
0.272 -0.3661655160628716 -1.4539307690697116 -2.06841503066119 0.3807764253174879 1.9371235774702744 -0.0001289668342969973 1.1012866023161776 0.8470264263655567 -0.7254795696235715 -0.12155669223750942 -1.101286602017773 -2.7458970328166182e-05 0.2 -0.1656 0.4 2.4186 -2.4185 2.4185 0.0 0.2 0.0 0.0 0.0 0.0 0.0 0.0 0.0 0.0 0.0 0.0 
0.28 -0.35729946043882954 -1.447145011848996 -2.07419911024257 0.3797778207922584 1.9282575219197162 -0.00012853469291840256 1.1152634178944174 0.8496674742318051 -0.7207487975277812 -0.12892965398301226 -1.115263417507174 -3.137288315845012e-05 0.2 -0.16399999999999998 0.4 2.4186 -2.4185 2.4185 0.0 0.2 0.0 0.0 0.0 0.0 0.0 0.0 0.0 0.0 0.0 0.0 
0.288 -0.34832073325305735 -1.4403379994513394 -2.0799452548584534 0.37871870740876457 1.9192787948078678 -0.00012811022979158189 1.1294547322533364 0.8523432946761343 -0.7159963158504961 -0.13635851217686262 -1.1294547318072097 -3.377540503323999e-05 0.2 -0.1624 0.4 2.4186 -2.4185 2.4185 0.0 0.2 0.0 0.0 0.0 0.0 0.0 0.0 0.0 0.0 0.0 0.0 
0.296 -0.339227601460907 -1.4335094521432614 -2.0856532909355217 0.37760125805686373 1.910185663090093 -0.00012769366301764636 1.1438647810435734 0.8550542709005919 -0.7112220936955215 -0.14384476436328697 -1.143864780487953 -3.780934234145057e-05 0.2 -0.1608 0.4 2.4186 -2.4185 2.4185 0.0 0.2 0.0 0.0 0.0 0.0 0.0 0.0 0.0 0.0 0.0 0.0 
0.304 -0.3300183103096348 -1.4266590964364179 -2.091323036964297 0.3764235479224669 1.900976372013662 -0.00012728521893018918 1.1584954185698184 0.8577989586360154 -0.7064245996838532 -0.15138788557855862 -1.1584954178975226 -4.1721373436931784e-05 0.2 -0.1592 0.4 2.4186 -2.4185 2.4185 0.0 0.2 0.0 0.0 0.0 0.0 0.0 0.0 0.0 0.0 0.0 0.0 
0.312 -0.32069108367268395 -1.419786665494621 -2.0969543035106 0.3751846420433429 1.8916491454520301 -0.0001268851324820028 1.1733489899297032 0.8605762782042335 -0.7016026649012153 -0.15898777873653613 -1.1733489891555136 -4.491602019337055e-05 0.2 -0.1576 0.4 2.4186 -2.4185 2.4185 0.0 0.2 0.0 0.0 0.0 0.0 0.0 0.0 0.0 0.0 0.0 0.0 
0.32 -0.31124412444057814 -1.4128918995645714 -2.1025468932275406 0.3738853345020714 1.8822021862957348 -0.00012649364765347594 1.1884288555968607 0.863385878820306 -0.6967557622394123 -0.16664510993860435 -1.1884288546839863 -4.89343851848015e-05 0.2 -0.156 0.4 2.4186 -2.4185 2.4185 0.0 0.2 0.0 0.0 0.0 0.0 0.0 0.0 0.0 0.0 0.0 0.0 
0.328 -0.3016756149725901 -1.405974546431418 -2.1081006008682346 0.37252419535150105 1.8726336769040652 -0.00012611101788407688 1.203736946331022 0.866226344330899 -0.6918825434289959 -0.17435943001719012 -1.2037369452843567 -5.257460458616087e-05 0.2 -0.15439999999999998 0.4 2.4186 -2.4185 2.4185 0.0 0.2 0.0 0.0 0.0 0.0 0.0 0.0 0.0 0.0 0.0 0.0 
0.336 -0.2919837176136111 -1.399034361900311 -2.1136152132994734 0.3711015464961229 1.862941779621927 -0.00012573750652843623 1.2192762280731024 0.8690970003179417 -0.6869823119208393 -0.18213105226663442 -1.2192762268590809 -5.681752513487902e-05 0.2 -0.1528 0.4 2.4186 -2.4185 2.4185 0.0 0.2 0.0 0.0 0.0 0.0 0.0 0.0 0.0 0.0 0.0 0.0 
0.344 -0.28216657528090616 -1.3920711103051797 -2.119090509516551 0.369616291775114 1.8531246373666004 -0.0001253733873386522 1.2350486739934845 0.8719964472643169 -0.6820538451559965 -0.189959556911568 -1.2350486726104113 -6.085878564030666e-05 0.2 -0.1512 0.4 2.4186 -2.4185 2.4185 0.0 0.2 0.0 0.0 0.0 0.0 0.0 0.0 0.0 0.0 0.0 0.0 
0.352 -0.2722223121257157 -1.385084565046042 -2.1245262606594837 0.36806826795216363 1.8431803742893418 -0.00012501894497456313 1.2510567765924117 0.874923652256034 -0.6770962697814223 -0.1978448886298162 -1.25105677502259 -6.507178543856179e-05 0.2 -0.1496 0.4 2.4186 -2.4185 2.4185 0.0 0.2 0.0 0.0 0.0 0.0 0.0 0.0 0.0 0.0 0.0 0.0 
0.36 -0.2621490342749577 -1.3780745091562125 -2.12992223003084 0.3664568998439437 1.833107096517087 -0.00012467447554386426 1.267302655071595 0.8778773134963175 -0.6721085602078571 -0.20578672425610356 -1.2673026533041227 -6.930223260608597e-05 0.2 -0.148 0.4 2.4186 -2.4185 2.4185 0.0 0.2 0.0 0.0 0.0 0.0 0.0 0.0 0.0 0.0 0.0 0.0 
0.368 -0.2519448306585872 -1.3710407359008725 -2.1352781731154193 0.36478193804234005 1.8229028929798083 -0.00012434028717408634 1.2837885465111503 0.8808562101179573 -0.6670898149462648 -0.213784808705497 -1.2837885445209225 -7.381816303047797e-05 0.2 -0.1464 0.4 2.4186 -2.4185 2.4185 0.0 0.2 0.0 0.0 0.0 0.0 0.0 0.0 0.0 0.0 0.0 0.0 
0.376 -0.2416077739284912 -1.3639830494085279 -2.140593837602018 0.36304269239840203 1.8125658363294108 -0.0001240167006186103 1.3005162508453991 0.8838588212897011 -0.6620389681875736 -0.2218386007909443 -1.300516248623173 -7.830426436247356e-05 0.2 -0.14479999999999998 0.4 2.4186 -2.4185 2.4185 0.0 0.2 0.0 0.0 0.0 0.0 0.0 0.0 0.0 0.0 0.0 0.0 
0.384 -0.23113592147513007 -1.3569012653369854 -2.1458689634075205 0.3612388769898627 1.8020939839563743 -0.00012370404989905712 1.3174877226378405 0.8868837390096739 -0.6569551082421304 -0.2299476518031548 -1.3174877201623374 -8.297403538335343e-05 0.2 -0.1432 0.4 2.4186 -2.4185 2.4185 0.0 0.2 0.0 0.0 0.0 0.0 0.0 0.0 0.0 0.0 0.0 0.0 
0.392 -0.22052731654848845 -1.3497952115755756 -2.151103282703572 0.3593701146009085 1.7914853791107037 -0.00012340268298657593 1.334704706053661 0.8899294196857366 -0.6518372910962955 -0.2381113742369211 -1.3347047032967376 -8.791900534115177e-05 0.2 -0.1416 0.4 2.4186 -2.4185 2.4185 0.0 0.2 0.0 0.0 0.0 0.0 0.0 0.0 0.0 0.0 0.0 0.0 
0.4 -0.20977998949026322 -1.3426647289854334 -2.1562965199460797 0.35743575117923454 1.7807380521341163 -0.00012311296252474842 1.352168563766323 0.8929940777991852 -0.6466844691894812 -0.24632895769310764 -1.3521685607172462 -9.284459541089357e-05 0.2 -0.13999999999999999 0.4 2.4186 -2.4185 2.4185 0.0 0.2 0.0 0.0 0.0 0.0 0.0 0.0 0.0 0.0 0.0 0.0 
0.408 -0.19889195908460255 -1.3355096721797934 -2.1614483919078085 0.3554354855471782 1.7698500218107822 -0.0001228352665970445 1.3698807487154738 0.8960760063673411 -0.6414957309996778 -0.2545996398535972 -1.3698807453520656 -9.792813621024221e-05 0.2 -0.1384 0.4 2.4186 -2.4185 2.4185 0.0 0.2 0.0 0.0 0.0 0.0 0.0 0.0 0.0 0.0 0.0 0.0 
0.416 -0.18786123403509958 -1.3283299103463353 -2.166558607714333 0.353368867950723 1.7588192968443161 -0.00012256998954199478 1.387842400588793 0.8991733122023908 -0.6362701105534085 -0.2629224793429366 -1.3878423968905347 -0.00010313500741813507 0.2 -0.13679999999999998 0.4 2.4186 -2.4185 2.4185 0.0 0.2 0.0 0.0 0.0 0.0 0.0 0.0 0.0 0.0 0.0 0.0 
0.424 -0.1766858145761807 -1.321125328113788 -2.1716268688836102 0.35123537904214963 1.7476438774691687 -0.00012231754281949998 1.4060543803213377 0.9022839472646121 -0.6310066171319714 -0.27129638629097913 -1.4060543762781978 -0.00010831844886043424 0.2 -0.1352 0.4 2.4186 -2.4185 2.4185 0.0 0.2 0.0 0.0 0.0 0.0 0.0 0.0 0.0 0.0 0.0 0.0 
0.432 -0.16536369422744146 -1.3138958264651048 -2.176652869369465 0.34903487847683223 1.736321757204961 -0.00012207835593197386 1.4245176364126042 0.9054059493428404 -0.6257044080446806 -0.2797203020540481 -1.424517631985808 -0.00011385984881092368 0.2 -0.1336 0.4 2.4186 -2.4185 2.4185 0.0 0.2 0.0 0.0 0.0 0.0 0.0 0.0 0.0 0.0 0.0 0.0 
0.44 -0.15389286169995176 -1.3066413236996972 -2.1816362956092434 0.34676682459998975 1.7248509247627866 -0.00012185287740431501 1.4432325217824395 0.9085370083106631 -0.6203624888983817 -0.2881928649989666 -1.4432325169469784 -0.00011955731129469272 0.2 -0.132 0.4 2.4186 -2.4185 2.4185 0.0 0.2 0.0 0.0 0.0 0.0 0.0 0.0 0.0 0.0 0.0 0.0 
0.448 -0.1422713029640219 -1.2993617564473683 -2.1865768265759398 0.34443077744531236 1.7132293661129847 -0.00012164157582703099 1.4621991916584447 0.9116747311474511 -0.6149799067036859 -0.29671261583055514 -1.4621991863951234 -0.00012533388117274262 0.2 -0.1304 0.4 2.4186 -2.4185 2.4185 0.0 0.2 0.0 0.0 0.0 0.0 0.0 0.0 0.0 0.0 0.0 0.0 
0.456 -0.1304970034884061 -1.2920570807367766 -2.1914741338350754 0.342026489863283 1.701455066724336 -0.00012144494096719506 1.4814176759597861 0.9148166910770659 -0.6095557859428002 -0.3052780221799296 -1.4814176702330046 -0.0001313792380980465 0.2 -0.1288 0.4 2.4186 -2.4185 2.4185 0.0 0.2 0.0 0.0 0.0 0.0 0.0 0.0 0.0 0.0 0.0 0.0 
0.464 -0.11856795066143722 -1.2847272731214396 -2.1963278816066274 0.3395534545814918 1.689526013985204 -0.00012126348495230385 1.5008874371366585 0.9179601590896221 -0.6040891531367603 -0.3138872904383413 -1.5008874309285913 -0.00013747874327889968 0.2 -0.12719999999999998 0.4 2.4186 -2.4185 2.4185 0.0 0.2 0.0 0.0 0.0 0.0 0.0 0.0 0.0 0.0 0.0 0.0 
0.472 -0.10648213640512094 -1.2773723318665184 -2.2011377268322976 0.3370114491147036 1.6774401998176238 -0.00012109774353252949 1.5206078525827527 0.9211024109133868 -0.598579148595779 -0.3225385709021741 -1.5206078458584154 -0.00014382111119779577 0.2 -0.1256 0.4 2.4186 -2.4185 2.4185 0.0 0.2 0.0 0.0 0.0 0.0 0.0 0.0 0.0 0.0 0.0 0.0 
0.48 -0.0942375599937586 -1.2699922781998403 -2.205903319248425 0.3344001459199202 1.6651956234959298 -0.00012094827742732232 1.5405778230707095 0.9242404921246332 -0.5930248752614181 -0.33122979504683925 -1.5405778157928345 -0.00015041704266562962 0.2 -0.124 0.4 2.4186 -2.4185 2.4185 0.0 0.2 0.0 0.0 0.0 0.0 0.0 0.0 0.0 0.0 0.0 0.0 
0.488 -0.08183223108925608 -1.262587157630879 -2.2106243014648537 0.3317190992938772 1.6527902946820607 -0.00012081567376282652 1.5607957151169316 0.9273711949700121 -0.5874253931852089 -0.3399586658071618 -1.5607957072670315 -0.00015706579598926827 0.2 -0.1224 0.4 2.4186 -2.4185 2.4185 0.0 0.2 0.0 0.0 0.0 0.0 0.0 0.0 0.0 0.0 0.0 0.0 
0.496 -0.0692641730058603 -1.2551570413416822 -2.2153003090500367 0.32896813132692326 1.6402222366902992 -0.00012070054760712377 1.5812597248052325 0.930491284617618 -0.5817798710233895 -0.34872278695614983 -1.58125971634652 -0.00016395180989566373 0.2 -0.12079999999999999 0.4 2.4186 -2.4185 2.4185 0.0 0.2 0.0 0.0 0.0 0.0 0.0 0.0 0.0 0.0 0.0 0.0 
0.504 -0.05653142621768881 -1.247702027654044 -2.219930970622715 0.3261469398836996 1.6274894899948005 -0.00012060354361092442 1.6019674478224708 0.9335972496876792 -0.5760874327828372 -0.35751950833010054 -1.6019674387212643 -0.00017103682732084758 0.2 -0.1192 0.4 2.4186 -2.4185 2.4185 0.0 0.2 0.0 0.0 0.0 0.0 0.0 0.0 0.0 0.0 0.0 0.0 
0.512 -0.0436320521230551 -1.240222243577542 -2.224515907950452 0.3232552943379401 1.6145901159939153 -0.00012052533776198622 1.6229160454301708 0.9366854108562569 -0.5703472347777372 -0.3663459847013223 -1.622916035647842 -0.00017836135043264038 0.2 -0.11759999999999998 0.4 2.4186 -2.4185 2.4185 0.0 0.2 0.0 0.0 0.0 0.0 0.0 0.0 0.0 0.0 0.0 0.0 
0.52 -0.030564137080268505 -1.2327178464434336 -2.2290547360553465 0.3202929476334373 1.6015222010459942 -0.00012046663926226432 1.6441021130533604 0.9397518531170781 -0.5645584312356577 -0.3751991329863103 -1.6441021025531115 -0.00018590206953641072 0.2 -0.11599999999999999 0.4 2.4186 -2.4185 2.4185 0.0 0.2 0.0 0.0 0.0 0.0 0.0 0.0 0.0 0.0 0.0 0.0 
0.528 -0.017325796730261134 -1.2251890256297928 -2.23354706332723 0.3172596749722132 1.5882838607920127 -0.00012042819253758742 1.665521681270473 0.9427924366546213 -0.5587201897167932 -0.38407563286225943 -1.6655216700185034 -0.00019362918837557706 0.2 -0.11439999999999999 0.4 2.4186 -2.4185 2.4185 0.0 0.2 0.0 0.0 0.0 0.0 0.0 0.0 0.0 0.0 0.0 0.0 
0.536 -0.0039151806221260355 -1.2176360043837098 -2.237992491644648 0.3141552959973215 1.5748732447811071 -0.000120410779390521 1.6871702008439424 0.9458027978912815 -0.5528317001616689 -0.3929719193900363 -1.6871701888066977 -0.0002015401591640472 0.2 -0.11279999999999998 0.4 2.4186 -2.4185 2.4185 0.0 0.2 0.0 0.0 0.0 0.0 0.0 0.0 0.0 0.0 0.0 0.0 
0.544 0.009669522841606826 -1.210059041746856 -2.242390616503941 0.3109797303075652 1.5612885414158555 -0.00012041522130802909 1.7090425708094807 0.9487783740342612 -0.546892197334521 -0.40188418244485336 -1.7090425579390365 -0.00020975283452205585 0.2 -0.11119999999999998 0.4 2.4186 -2.4185 2.4185 0.0 0.2 0.0 0.0 0.0 0.0 0.0 0.0 0.0 0.0 0.0 0.0 
0.552 0.02343008112236422 -1.2024584345912435 -2.246741027156718 0.3077328524131584 1.5475279832348803 -0.00012044238193658392 1.731132918332238 0.9517142892559014 -0.5409009033368779 -0.41080830786490835 -1.73113290458085 -0.00021825844002213874 0.2 -0.10959999999999999 0.4 2.4186 -2.4185 2.4185 0.0 0.2 0.0 0.0 0.0 0.0 0.0 0.0 0.0 0.0 0.0 0.0 
0.56 0.037368211907185866 -1.1948345197725834 -2.251043306756019 0.30441446440163045 1.5335898525511935 -0.00012049316973851408 1.7534345018622846 0.9546053140581746 -0.5348570165310668 -0.41973985877209474 -1.7534344872068315 -0.00022686111734895845 0.2 -0.10799999999999998 0.4 2.4186 -2.4185 2.4185 0.0 0.2 0.0 0.0 0.0 0.0 0.0 0.0 0.0 0.0 0.0 0.0 
0.568 0.05148557709539903 -1.1871876764092901 -2.255297032511468 0.30102470540113924 1.5194724874655237 -0.00012056854084462987 1.7759401930049081 0.9574461385361461 -0.5287598756389382 -0.42867416147200954 -1.7759401773801498 -0.00023588920452452425 0.2 -0.10639999999999998 0.4 2.4186 -2.4185 2.4185 0.0 0.2 0.0 0.0 0.0 0.0 0.0 0.0 0.0 0.0 0.0 0.0 
0.576 0.0657837763901985 -1.179518328295876 -2.2595017758536895 0.2975634280070989 1.505174288274732 -0.00012066950211953275 1.7986416121408895 0.9602309102275358 -0.5226087103150714 -0.4376061273449852 -1.798641595512568 -0.0002451022409675629 0.2 -0.10479999999999998 0.4 2.4186 -2.4185 2.4185 0.0 0.2 0.0 0.0 0.0 0.0 0.0 0.0 0.0 0.0 0.0 0.0 
0.584 0.08026434047409192 -1.171826946460258 -2.263657102608273 0.29403074134437635 1.4906937242963734 -0.00012079711445751884 1.821529784484186 0.9629536017735418 -0.516402858794499 -0.4465303675268497 -1.821529766799618 -0.0002546391437894324 0.2 -0.1032 0.4 2.4186 -2.4185 2.4185 0.0 0.2 0.0 0.0 0.0 0.0 0.0 0.0 0.0 0.0 0.0 0.0 
0.592 0.09492872374623462 -1.1641140518753268 -2.2677625731795548 0.2904267101192226 1.4760293411313554 -0.00012095249632862947 1.844594680038511 0.9656077720553807 -0.5101416473307151 -0.45544109809038336 -1.844594661247327 -0.0002644816987895525 0.2 -0.1016 0.4 2.4186 -2.4185 2.4185 0.0 0.2 0.0 0.0 0.0 0.0 0.0 0.0 0.0 0.0 0.0 0.0 
0.6 0.10977829659864469 -1.156380218336099 -2.271817742744469 0.28675144510417994 1.4611797683877281 -0.00012113682759620652 1.8678252687820116 0.9681866071093659 -0.5038244264962861 -0.4643321393094215 -1.8678252488371845 -0.0002746076888866333 0.2 -0.09999999999999999 0.4 2.4186 -2.4185 2.4185 0.0 0.2 0.0 0.0 0.0 0.0 0.0 0.0 0.0 0.0 0.0 0.0 
0.608 0.12481433720726343 -1.1486260755147626 -2.27582216145672 0.28300513930067384 1.4461437278896208 -0.00012135135362928635 1.8912095085816167 0.9706829229154084 -0.497450585815547 -0.473196896409686 -1.8912094874313006 -0.00028505332670460636 0.2 -0.09839999999999999 0.4 2.4186 -2.4185 2.4185 0.0 0.2 0.0 0.0 0.0 0.0 0.0 0.0 0.0 0.0 0.0 0.0 
0.616 0.14003802281269162 -1.140852312207076 -2.279775374661499 0.2791880177307995 1.4309200423965085 -0.00012159738973533252 1.9147342012954391 0.973089099544811 -0.49101953345536836 -0.4820283235635289 -1.9147341788889873 -0.00029581369916942767 0.2 -0.0968 0.4 2.4186 -2.4185 2.4185 0.0 0.2 0.0 0.0 0.0 0.0 0.0 0.0 0.0 0.0 0.0 0.0 
0.624 0.1554504204642666 -1.1330596797848225 -2.283676923120977 0.27530040921146703 1.4155076448591337 -0.00012187632594117806 1.938385029878058 0.9753971085708536 -0.48453072516294926 -0.490818905278059 -1.938385006152517 -0.00030697335192413186 0.2 -0.09519999999999999 0.4 2.4186 -2.4185 2.4185 0.0 0.2 0.0 0.0 0.0 0.0 0.0 0.0 0.0 0.0 0.0 0.0 
0.632 0.1710524771998927 -1.1252489958703782 -2.287526343250753 0.2713426158453549 1.399905588239676 -0.00012218963215264496 1.962146271966951 0.9775983757472713 -0.47798361116985455 -0.4995606097218729 -1.962146246873352 -0.00031844524382353183 0.2 -0.09359999999999999 0.4 2.4186 -2.4185 2.4185 0.0 0.2 0.0 0.0 0.0 0.0 0.0 0.0 0.0 0.0 0.0 0.0 
0.64 0.1868450096327139 -1.1174211482509562 -2.29132316736746 0.26731507989428094 1.3841130559250807 -0.0001225388637261478 1.986000982843412 0.9796838811859058 -0.4713777035681134 -0.5082448761359687 -1.986000956324938 -0.0003302866969457991 0.2 -0.09199999999999998 0.4 2.4186 -2.4185 2.4185 0.0 0.2 0.0 0.0 0.0 0.0 0.0 0.0 0.0 0.0 0.0 0.0 
0.648 0.20282869291430794 -1.109577099051727 -2.29506692394767 0.2632183235365524 1.368129372763864 -0.00012292566748869043 2.0099308184160196 0.9816440753903217 -0.46471255158470826 -0.516862568940266 -2.0099307904039345 -0.0003425776951326336 0.2 -0.09039999999999998 0.4 2.4186 -2.4185 2.4185 0.0 0.2 0.0 0.0 0.0 0.0 0.0 0.0 0.0 0.0 0.0 0.0 
0.656 0.2190040490425691 -1.1017178891888109 -2.298757137898253 0.2590528521164468 1.3519540167582318 -0.0001233517882460516 2.0339157703019493 0.9834687549065793 -0.45798770170804287 -0.5254039369709372 -2.0339157407461435 -0.0003552111357391709 0.2 -0.08879999999999999 0.4 2.4186 -2.4185 2.4185 0.0 0.2 0.0 0.0 0.0 0.0 0.0 0.0 0.0 0.0 0.0 0.0 
0.664 0.23537143448083597 -1.0938446431251077 -2.3023933308382896 0.2548193519180302 1.3355866314449512 -0.00012381907582264572 2.0579344132202766 0.9851471875778005 -0.4512027775635802 -0.5338585820810283 -2.0579343820559695 -0.0003682860777208654 0.2 -0.08719999999999999 0.4 2.4186 -2.4185 2.4185 0.0 0.2 0.0 0.0 0.0 0.0 0.0 0.0 0.0 0.0 0.0 0.0 
0.672 0.2519310270530988 -1.0859585739540698 -2.3059750213926367 0.25051853524216483 1.3190270390001448 -0.00012432949268055996 2.081963531035956 0.986667932398545 -0.4443574161611459 -0.5422154081590754 -2.0819634982039683 -0.0003817794510292134 0.2 -0.08559999999999998 0.4 2.4186 -2.4185 2.4185 0.0 0.2 0.0 0.0 0.0 0.0 0.0 0.0 0.0 0.0 0.0 0.0 
0.68 0.2686828120782656 -1.0780609888388497 -2.3095017254971966 0.2461512426541863 1.3022752541050238 -0.00012488512216962802 2.105978193459349 0.9880188776086846 -0.43745130866759996 -0.5504625749649534 -2.105978158892998 -0.00039574700877638983 0.2 -0.08399999999999998 0.4 2.4186 -2.4185 2.4185 0.0 0.2 0.0 0.0 0.0 0.0 0.0 0.0 0.0 0.0 0.0 0.0 
0.688 0.2856265677044889 -1.070153294836797 -2.312972956715926 0.24171839526816008 1.2853314986115618 -0.00012548817746511998 2.1299515545906975 0.989187143000372 -0.4304841799419249 -0.558587446442754 -2.129951518221728 -0.00041021015801043627 0.2 -0.08239999999999997 0.4 2.4186 -2.4185 2.4185 0.0 0.2 0.0 0.0 0.0 0.0 0.0 0.0 0.0 0.0 0.0 0.0 
0.696 0.30276184940244333 -1.0622370051419958 -2.3163882265695803 0.23722099822727394 1.2681962170492198 -0.00012614101125472295 2.153854734173323 0.9901590212421892 -0.42345578874214623 -0.5665765376083955 -2.153854695940101 -0.00042514609970382413 0.2 -0.08079999999999998 0.4 2.4186 -2.4185 2.4185 0.0 0.2 0.0 0.0 0.0 0.0 0.0 0.0 0.0 0.0 0.0 0.0 
0.704 0.32008797357418617 -1.0543137457815037 -2.319747044876153 0.23266020706433554 1.2508700930160834 -0.0001268461262419625 2.17765682485392 0.9909199747381552 -0.4163659533882542 -0.5744154478179613 -2.177656784686078 -0.00044062021385216695 0.2 -0.07919999999999999 0.4 2.4186 -2.4185 2.4185 0.0 0.2 0.0 0.0 0.0 0.0 0.0 0.0 0.0 0.0 0.0 0.0 
0.712 0.33760400023184745 -1.0463852628040797 -2.3230489201029427 0.22803727235795934 1.2333540665001745 -0.00012760618653907777 2.2013246464396863 0.9914545127263592 -0.409214527572592 -0.5820888009672921 -2.2013246042674375 -0.0004566467757549343 0.2 -0.07759999999999999 0.4 2.4186 -2.4185 2.4185 0.0 0.2 0.0 0.0 0.0 0.0 0.0 0.0 0.0 0.0 0.0 0.0 
0.72 0.3553087146978817 -1.0384534300035737 -2.3262933597301396 0.2233535722585298 1.215649352179203 -0.00012842403002859745 2.2248226685412162 0.9917461442755338 -0.40200141176692156 -0.589580172759831 -2.2248226242953186 -0.00047324249850320873 0.2 -0.07599999999999998 0.4 2.4186 -2.4185 2.4185 0.0 0.2 0.0 0.0 0.0 0.0 0.0 0.0 0.0 0.0 0.0 0.0 
0.728 0.37320060827600576 -1.0305202572226766 -2.3294798706257698 0.2186106222585784 1.1977574587496234 -0.00012930268177945226 2.248112881245802 0.9917773039488683 -0.39472655508431925 -0.596872013377145 -2.2481128348569928 -0.0004904293308839599 0.2 -0.07439999999999998 0.4 2.4186 -2.4185 2.4185 0.0 0.2 0.0 0.0 0.0 0.0 0.0 0.0 0.0 0.0 0.0 0.0 
0.736 0.3912778578392506 -1.022587899286446 -2.332607959431821 0.21381008654974876 1.1796802093385907 -0.00013024536861035364 2.271154661608745 0.9915292721595796 -0.3873899574925237 -0.6039455632183 -2.271154613006123 -0.0005082398670878506 0.2 -0.07279999999999998 0.4 2.4186 -2.4185 2.4185 0.0 0.2 0.0 0.0 0.0 0.0 0.0 0.0 0.0 0.0 0.0 0.0 
0.744 0.4095383042788727 -1.0146586656188625 -2.335677132961302 0.2089537849987586 1.161419763055045 -0.00013125553490030408 2.2939046213728456 0.9909820834896333 -0.37999166992482636 -0.6107807629902824 -2.293904570483474 -0.0005267106311754701 0.2 -0.07119999999999999 0.4 2.4186 -2.4185 2.4185 0.0 0.2 0.0 0.0 0.0 0.0 0.0 0.0 0.0 0.0 0.0 0.0 
0.752 0.42797942975523506 -1.0067350305995437 -2.3386868986059652 0.20404370589198084 1.142978637738834 -0.00013233685975337815 2.3163164586368192 0.9901144327060424 -0.3725317963886532 -0.617356155191821 -2.316316405384306 -0.0005458873889729662 0.2 -0.06959999999999998 0.4 2.4186 -2.4185 2.4185 0.0 0.2 0.0 0.0 0.0 0.0 0.0 0.0 0.0 0.0 0.0 0.0 
0.76 0.446598333689324 -0.9988196447216371 -2.3416367647543526 0.19908200214239757 1.124359733969197 -0.0001334932756321803 2.338340757676192 0.9889035541495104 -0.3650104890103676 -0.6236487846841743 -2.338340701986937 -0.0005657860431164542 0.2 -0.06799999999999998 0.4 2.4186 -2.4185 2.4185 0.0 0.2 0.0 0.0 0.0 0.0 0.0 0.0 0.0 0.0 0.0 0.0 
0.768 0.4653917074314766 -0.9909153466156138 -2.3445262412198105 0.19407101759509882 1.105566360396038 -0.00013472898858144354 2.359924851828127 0.9873251236288851 -0.35742795488617346 -0.6296340812734752 -2.3599247936311833 -0.0005864263281020587 0.2 -0.06639999999999997 0.4 2.4186 -2.4185 2.4185 0.0 0.2 0.0 0.0 0.0 0.0 0.0 0.0 0.0 0.0 0.0 0.0 
0.776 0.48435580754233976 -0.9830251760071351 -2.347354839678023 0.1890133156949494 1.086602260458967 -0.0001360485001698117 2.3810126878647404 0.9853531547323728 -0.3497844633706262 -0.6352857293107262 -2.3810126270834044 -0.0006078731630222132 0.2 -0.06479999999999997 0.4 2.4186 -2.4185 2.4185 0.0 0.2 0.0 0.0 0.0 0.0 0.0 0.0 0.0 0.0 0.0 0.0 
0.784 0.503486427620393 -0.9751523876800641 -2.3501220741136084 0.183911668962784 1.0674716405597815 -0.00013745663128357768 2.401544576175139 0.9829598415784851 -0.34208033708534363 -0.6405755467475431 -2.4015445127311725 -0.0006301724639480591 0.2 -0.06319999999999998 0.4 2.4186 -2.4185 2.4185 0.0 0.2 0.0 0.0 0.0 0.0 0.0 0.0 0.0 0.0 0.0 0.0 
0.792 0.5227788686109287 -0.96730046651781 -2.352827461275245 0.17876908031328576 1.0481791997534853 -0.00013895854791056114 2.4214570104929964 0.9801154254913627 -0.334315955302526 -0.6454733430992547 -2.4214569443081633 -0.0006533653882042149 0.2 -0.061599999999999974 0.4 2.4186 -2.4185 2.4185 0.0 0.2 0.0 0.0 0.0 0.0 0.0 0.0 0.0 0.0 0.0 0.0 
0.8 0.542227907533636 -0.9594731436971782 -2.3554705211387383 0.1735887956657547 1.028730161020705 -0.00014055978905476443 2.4406824532411657 0.9767880413338315 -0.32649175329406666 -0.6499467733125497 -2.440682384241328 -0.0006774761453117761 0.2 -0.05999999999999997 0.4 2.4186 -2.4185 2.4185 0.0 0.2 0.0 0.0 0.0 0.0 0.0 0.0 0.0 0.0 0.0 0.0 
0.808 0.5618277645706153 -0.9516744141082238 -2.358050777377408 0.1683743483445137 1.0091303041796813 -0.0001422662969221556 2.4591492051128627 0.972943591200602 -0.3186082337154378 -0.6539611616685277 -2.4591491332168167 -0.0007025871573471238 0.2 -0.058399999999999966 0.4 2.4186 -2.4185 2.4185 0.0 0.2 0.0 0.0 0.0 0.0 0.0 0.0 0.0 0.0 0.0 0.0 
0.816 0.5815720684645167 -0.9439085550707675 -2.3605677578391004 0.16312954302062765 0.9893860004881297 -0.0001440844495138586 2.4767810885858794 0.9685455368662574 -0.3106659533197471 -0.6574793572007018 -2.4767810137142807 -0.0007287401742879864 0.2 -0.05679999999999996 0.4 2.4186 -2.4185 2.4185 0.0 0.2 0.0 0.0 0.0 0.0 0.0 0.0 0.0 0.0 0.0 0.0 
0.824 0.6014538201886336 -0.9361801464123847 -2.3630209950290824 0.15785849929104367 0.9695042489731492 -0.00014602109575389478 2.4934972976272336 0.9635547531825698 -0.302665532756051 -0.6604615440623289 -2.4934972196983125 -0.0007560014390449787 0.2 -0.05519999999999997 0.4 2.4186 -2.4185 2.4185 0.0 0.2 0.0 0.0 0.0 0.0 0.0 0.0 0.0 0.0 0.0 0.0 
0.832 0.6214653548684943 -0.9284940919629845 -2.365410026598027 0.15256566049627462 0.9494927145096317 -0.00014808359326278818 2.5092121381992816 0.9579293322831731 -0.2946076519222298 -0.6628650709966571 -2.509212057132453 -0.0007844232566844282 0.2 -0.05359999999999995 0.4 2.4186 -2.4185 2.4185 0.0 0.2 0.0 0.0 0.0 0.0 0.0 0.0 0.0 0.0 0.0 0.0 
0.84 0.6415983019594269 -0.9208556425063135 -2.367734395834239 0.1472558262140824 0.9293597676427029 -0.0001502798488638113 2.5238348397853234 0.95162441091786 -0.2864930539541879 -0.6646442601523805 -2.5238347554993488 -0.0008140706712425438 0.2 -0.05200000000000002 0.4 2.4186 -2.4185 2.4185 0.0 0.2 0.0 0.0 0.0 0.0 0.0 0.0 0.0 0.0 0.0 0.0 
0.848 0.6618435437187757 -0.9132704202074562 -2.3699936521592133 0.14193417060281055 0.9091145261155049 -0.00015261836187293408 2.5372693246057465 0.9445919777559247 -0.27832254298057546 -0.6657502283445353 -2.5372692370210848 -0.000845001219165811 0.2 -0.0504 0.4 2.4186 -2.4185 2.4185 0.0 0.2 0.0 0.0 0.0 0.0 0.0 0.0 0.0 0.0 0.0 0.0 
0.856 0.6821911720572809 -0.9057444445059644 -2.3721873516255845 0.13660629037733418 0.8887668980178218 -0.00015510827017362576 2.54941408792548 0.936780720552747 -0.2700969925282641 -0.6661306828588945 -2.5494139969522314 -0.0008773345482845368 0.2 -0.04880000000000001 0.4 2.4186 -2.4185 2.4185 0.0 0.2 0.0 0.0 0.0 0.0 0.0 0.0 0.0 0.0 0.0 0.0 
0.864 0.7026304439147177 -0.8982841594244775 -2.3743150574164495 0.13127818665995727 0.8683276264104399 -0.0001577593990099548 2.5601618652286255 0.9281357948752279 -0.26181732802970914 -0.6657297988117798 -2.5601617707851814 -0.0009111043042378092 0.2 -0.04719999999999999 0.4 2.4186 -2.4185 2.4185 0.0 0.2 0.0 0.0 0.0 0.0 0.0 0.0 0.0 0.0 0.0 0.0 
0.872 0.7231497353835141 -0.8908964621902227 -2.376376340345031 0.12595634151750135 0.8478083352015371 -0.0001605823123416362 2.5693996586859353 0.9185987307249515 -0.25348454481994204 -0.664488014039362 -2.569399560686031 -0.0009464106075734304 0.2 -0.0456 0.4 2.4186 -2.4185 2.4185 0.0 0.2 0.0 0.0 0.0 0.0 0.0 0.0 0.0 0.0 0.0 0.0 
0.88 0.7437364949049777 -0.8835887329987226 -2.378370779353568 0.12064772169268778 0.8272215759504551 -0.00016358836648784226 2.5770085529553866 0.9081072694200059 -0.24509969780635693 -0.6623419299683708 -2.5770084513130342 -0.0009833337230183837 0.2 -0.04400000000000001 0.4 2.4186 -2.4185 2.4185 0.0 0.2 0.0 0.0 0.0 0.0 0.0 0.0 0.0 0.0 0.0 0.0 
0.888 0.7643771959904248 -0.8763688656621218 -2.380297962010324 0.1153598310128019 0.8065808751465777 -0.0001667897656370568 2.5828637705233337 0.8965953021796692 -0.23666390891500377 -0.6592241941907027 -2.5828636651426446 -0.001022007066250336 0.2 -0.04239999999999999 0.4 2.4186 -2.4185 2.4185 0.0 0.2 0.0 0.0 0.0 0.0 0.0 0.0 0.0 0.0 0.0 0.0 
0.896 0.7850572900790669 -0.8692452987753292 -2.3821574850035203 0.11010069625501684 0.7859007813514427 -0.0001701996186117881 2.58683455607982 0.883992771393632 -0.2281783499038879 -0.6550635303624357 -2.586834446878361 -0.0010624545590203333 0.2 -0.0408 0.4 2.4186 -2.4185 2.4185 0.0 0.2 0.0 0.0 0.0 0.0 0.0 0.0 0.0 0.0 0.0 0.0 
0.904 0.8057611603413057 -0.862227046897726 -2.3839489546310237 0.10487896456615653 0.7651969113954561 -0.00017383199604294688 2.5887846110712935 0.8702257965010646 -0.2196442655418944 -0.6497846817795602 -2.5887844979554 -0.0011048230523325628 0.2 -0.039199999999999985 0.4 2.4186 -2.4185 2.4185 0.0 0.2 0.0 0.0 0.0 0.0 0.0 0.0 0.0 0.0 0.0 0.0 
0.912 0.8264720774753986 -0.8553237310829109 -2.385671987284555 0.09970388705312772 0.7444859945812233 -0.00017770198682251866 2.5885722348523093 0.855216740627855 -0.21106295550555318 -0.6433086116597305 -2.5885721177271286 -0.0011492137091264636 0.2 -0.037599999999999995 0.4 2.4186 -2.4185 2.4185 0.0 0.2 0.0 0.0 0.0 0.0 0.0 0.0 0.0 0.0 0.0 0.0 
0.92 0.8471721588321233 -0.8485456078903528 -2.3873262099272097 0.09458535768580578 0.723785913558893 -0.0001818257523588447 2.5860508715046215 0.8388844766443972 -0.20243577694769288 -0.6355527479217288 -2.5860507502777548 -0.001195712029052937 0.2 -0.036000000000000004 0.4 2.4186 -2.4185 2.4185 0.0 0.2 0.0 0.0 0.0 0.0 0.0 0.0 0.0 0.0 0.0 0.0 
0.928 0.8678423325393526 -0.8419035957785059 -2.388911260563062 0.08953395733522429 0.7031157402015814 -0.0001862205767519123 2.5810699282608485 0.8211448183853984 -0.19376414916625265 -0.6264313615218856 -2.5810698028325683 -0.001244453056884092 0.2 -0.034399999999999986 0.4 2.4186 -2.4185 2.4185 0.0 0.2 0.0 0.0 0.0 0.0 0.0 0.0 0.0 0.0 0.0 0.0 
0.936 0.8884623086873941 -0.8354092975080647 -2.3904267886976536 0.084560951299955 0.6824957644200383 -0.00019090491053504698 2.573475696271957 0.801911082267369 -0.18504954368105767 -0.6158562124832644 -2.5734755665454743 -0.0012955216935127628 0.2 -0.032799999999999996 0.4 2.4186 -2.4185 2.4185 0.0 0.2 0.0 0.0 0.0 0.0 0.0 0.0 0.0 0.0 0.0 0.0 
0.944 0.9090105600733023 -0.829075016878674 -2.3918724557881985 0.07967831886085541 0.661947513418335 -0.00019589840509750617 2.5631127719394806 0.781094931581365 -0.1762934871607785 -0.6037373604118195 -2.563112637821902 -0.0013489965597622388 0.2 -0.031199999999999978 0.4 2.4186 -2.4185 2.4185 0.0 0.2 0.0 0.0 0.0 0.0 0.0 0.0 0.0 0.0 0.0 0.0 
0.952 0.9294643154790364 -0.822913767788588 -2.3932479356823935 0.0748987829699197 0.6414937584157064 -0.00020122193432006133 2.5498259237578473 0.7586075045679679 -0.1674975660390072 -0.5899842219254949 -2.5498257851443267 -0.0014050332909310468 0.2 -0.029599999999999987 0.4 2.4186 -2.4185 2.4185 0.0 0.2 0.0 0.0 0.0 0.0 0.0 0.0 0.0 0.0 0.0 0.0 
0.96 0.9497995689566718 -0.8169392732564664 -2.3945529150447995 0.07023576312253921 0.6211585053613438 -0.00020689759934315927 2.5334621188991346 0.7343607666799071 -0.1586634101978134 -0.5745070948672263 -2.533461975695767 -0.0014636677582729849 0.2 -0.02799999999999997 0.4 2.4186 -2.4185 2.4185 0.0 0.2 0.0 0.0 0.0 0.0 0.0 0.0 0.0 0.0 0.0 0.0 
0.968 0.9699911090849601 -0.8111659516973613 -2.395787093769866 0.06570341618067577 0.6009669656778305 -0.00021294871177849893 2.51387353553741 0.7082693616717588 -0.1497927078486926 -0.5572188162852351 -2.513873387639101 -0.0015250411595770716 0.2 -0.02639999999999998 0.4 2.4186 -2.4185 2.4185 0.0 0.2 0.0 0.0 0.0 0.0 0.0 0.0 0.0 0.0 0.0 0.0 
0.976 0.9900125726024499 -0.8056088874303349 -2.3969501853807884 0.06131654985967394 0.5809455026280198 -0.0002193997501205667 2.4909206321495083 0.6802527041245675 -0.14088718659269941 -0.5380370785508137 -2.4909204794667072 -0.001589148069110741 0.2 -0.02479999999999999 0.4 2.4186 -2.4185 2.4185 0.0 0.2 0.0 0.0 0.0 0.0 0.0 0.0 0.0 0.0 0.0 0.0 
0.984 1.0098365271535161 -0.8002837821538575 -2.3980419174135656 0.05709062942454768 0.561121548569001 -0.00022627628368535028 2.4644763504803384 0.6502376434349251 -0.13194862747098335 -0.5168868876180055 -2.4644761929190704 -0.0016560724355252855 0.2 -0.02319999999999997 0.4 2.4186 -2.4185 2.4185 0.0 0.2 0.0 0.0 0.0 0.0 0.0 0.0 0.0 0.0 0.0 0.0 
0.992 1.0294345880278097 -0.7952068840102173 -2.3990620317857734 0.05304167633753876 0.541523488212644 -0.00023360485819105803 2.434430523051338 0.6181614332148916 -0.1229788539330998 -0.4937036570590399 -2.434430360519645 -0.0017258491088712477 0.2 -0.02159999999999998 0.4 2.4186 -2.4185 2.4185 0.0 0.2 0.0 0.0 0.0 0.0 0.0 0.0 0.0 0.0 0.0 0.0 
1.0 1.0487775736367417 -0.790394890936291 -2.400010285149798 0.04918616780588758 0.5221805031491041 -0.00024141283721237396 2.400694973300846 0.583975136376896 -0.11397972925028221 -0.46843664166635923 -2.400694805719354 -0.001798436493727771 0.2 -0.019999999999999962 0.4 2.4186 -2.4185 2.4185 0.0 0.2 0.0 0.0 0.0 0.0 0.0 0.0 0.0 0.0 0.0 0.0 
1.008 1.0678357039466297 -0.7858648253383036 -2.4008864492304403 0.045540934650685205 0.5031223734136653 -0.0002497281943124992 2.3632092253424157 0.5476473985602005 -0.10495316028032962 -0.4410526197801571 -2.363209052634664 -0.0018738197277752867 0.2 -0.018399999999999972 0.4 2.4186 -2.4185 2.4185 0.0 0.2 0.0 0.0 0.0 0.0 0.0 0.0 0.0 0.0 0.0 0.0 
1.016 1.0865788450689138 -0.7816338778073275 -2.401690311147025 0.0421229842028068 0.4843792328965096 -0.00025857925181616004 2.3219463108650706 0.5091683928626812 -0.09590109033452748 -0.4115399348913247 -2.3219461329666102 -0.0019519068288123974 0.2 -0.01679999999999998 0.4 2.4186 -2.4185 2.4185 0.0 0.2 0.0 0.0 0.0 0.0 0.0 0.0 0.0 0.0 0.0 0.0 
1.024 1.1049768015987338 -0.7777192186759745 -2.4024216737202844 0.03894931584372463 0.4659812770041229 -0.0002679943640461696 2.276918769536748 0.46855386056602405 -0.08682549862619028 -0.37991252859592306 -2.2769185864009973 -0.0020325405662994403 0.2 -0.015199999999999964 0.4 2.4186 -2.4185 2.4185 0.0 0.2 0.0 0.0 0.0 0.0 0.0 0.0 0.0 0.0 0.0 0.0 
1.032 1.122999656035992 -0.7741377777458278 -2.4030803557644207 0.03603671962600252 0.44795842323820545 -0.00027800154547799925 2.228184471995699 0.4258490090236266 -0.07772840200981185 -0.3462137549286457 -2.2281842835825447 -0.0021155905485699938 0.2 -0.013599999999999973 0.4 2.4186 -2.4185 2.4185 0.0 0.2 0.0 0.0 0.0 0.0 0.0 0.0 0.0 0.0 0.0 0.0 
1.04 1.140618151722787 -0.7709059944872863 -2.4036661923647458 0.0334014921189536 0.43033992825821976 -0.0002886280476679767 2.175851529148047 0.3811319267949107 -0.06861184672980436 -0.31051996075301536 -2.1758513354436544 -0.0022007774133465173 0.2 -0.011999999999999955 0.4 2.4186 -2.4185 2.4185 0.0 0.2 0.0 0.0 0.0 0.0 0.0 0.0 0.0 0.0 0.0 0.0 
1.048 1.1578041122846248 -0.7680395433634981 -2.4041790351412335 0.0310591970330667 0.4131539684401507 -0.0002998998928691861 2.1200824353947403 0.3345163286019011 -0.05947791313109755 -0.27294306501645804 -2.1200822363987935 -0.00228785251027569 0.2 -0.010399999999999965 0.4 2.4186 -2.4185 2.4185 0.0 0.2 0.0 0.0 0.0 0.0 0.0 0.0 0.0 0.0 0.0 0.0 
1.056 1.1745308867812267 -0.7655530415140372 -2.4046187524980986 0.02902434730637138 0.39642719472566473 -0.0003118413767169091 2.0610963233522672 0.2861531717068731 -0.0503287095563575 -0.2336322969777649 -2.061096119088175 -0.0023764688175536954 0.2 -0.008799999999999975 0.4 2.4186 -2.4185 2.4185 0.0 0.2 0.0 0.0 0.0 0.0 0.0 0.0 0.0 0.0 0.0 0.0 
1.064 1.1907738059892792 -0.763459748624379 -2.4049852298591476 0.02731010695768621 0.38018427633934393 -0.00032447455684851006 1.9991693108927433 0.23623092061431478 -0.04116637165216121 -0.19277445052105124 -1.9991691014153703 -0.0024661938887343415 0.2 -0.0071999999999999564 0.4 2.4186 -2.4185 2.4185 0.0 0.2 0.0 0.0 0.0 0.0 0.0 0.0 0.0 0.0 0.0 0.0 
1.072 1.206510631894068 -0.7617712711027629 -2.4052783698881828 0.02592802187246601 0.3644474512970043 -0.00033781874829973927 1.934632543514368 0.18497418601677984 -0.031993063144764945 -0.1505923811912111 -1.934632328892551 -0.00255666100110632 0.2 -0.005599999999999966 0.4 2.4186 -2.4185 2.4185 0.0 0.2 0.0 0.0 0.0 0.0 0.0 0.0 0.0 0.0 0.0 0.0 
1.08 1.2217219800598091 -0.7604972843437166 -2.40549809269313 0.02488769683701353 0.34923610403535393 -0.00035189004939611447 1.8678672673789487 0.13264053410835125 -0.022810969366595806 -0.10734203649040444 -1.8678670477185197 -0.002647336360030853 0.2 -0.003999999999999948 0.4 2.4186 -2.4185 2.4185 0.0 0.2 0.0 0.0 0.0 0.0 0.0 0.0 0.0 0.0 0.0 0.0 
1.088 1.2363916935646646 -0.7596452875444042 -2.4056443360119473 0.024196591760962782 0.33456639147694134 -0.00036670092305733995 1.799297647518178 0.07951554245897964 -0.013622298751105724 -0.0633072894721532 -1.7992974229461003 -0.0027377551536141727 0.2 -0.0023999999999999577 0.4 2.4186 -2.4185 2.4185 0.0 0.2 0.0 0.0 0.0 0.0 0.0 0.0 0.0 0.0 0.0 0.0 
1.096 1.2505071479996868 -0.7592204049989917 -2.4057170553777585 0.02385979789341297 0.32045093803120284 -0.0003822598575088441 1.729380852091946 0.025906171197929696 -0.004429278122676356 -0.018793426019436173 -1.7293806227623538 -0.0028274001837070534 0.2 -0.0007999999999999674 0.4 2.4186 -2.4185 2.4185 0.0 0.2 0.0 0.0 0.0 0.0 0.0 0.0 0.0 0.0 0.0 0.0 
1.104 1.2640594698084078 -0.7592252459118249 -2.4057162242601664 0.023879908214330392 0.3068986172548513 -0.00039857112714697585 1.6585953351399387 -0.027867181465947084 0.004765849706990684 0.025880867030981622 -1.658595101229636 -0.0029157745708349803 0.2 0.0008000000000000507 0.4 2.4186 -2.4185 2.4185 0.0 0.2 0.0 0.0 0.0 0.0 0.0 0.0 0.0 0.0 0.0 0.0 
1.112 1.277043654876734 -0.7596598316160597 -2.4056418341793946 0.024256935717075656 0.29391443326197625 -0.00041563466886065416 1.5874277561533312 -0.08147949542953127 0.013960829474022166 0.07039228371770699 -1.5874275178644182 -0.0030023677081767275 0.2 0.002400000000000041 0.4 2.4186 -2.4185 2.4185 0.0 0.2 0.0 0.0 0.0 0.0 0.0 0.0 0.0 0.0 0.0 0.0 
1.12 1.289458580368156 -0.7605215949359065 -2.405493894789858 0.024988324783099092 0.2814995088888309 -0.00043344608194942455 1.5163595286066407 -0.1346102486820272 0.023153397448046474 0.11442209233309052 -1.516359286157886 -0.003086735116019511 0.2 0.004000000000000059 0.4 2.4186 -2.4185 2.4185 0.0 0.2 0.0 0.0 0.0 0.0 0.0 0.0 0.0 0.0 0.0 0.0 
1.128 1.3013069096859584 -0.7618054517336343 -2.405272433929975 0.026069013498135618 0.269651180731642 -0.00045199675166841254 1.4458537087098267 -0.1869522417082849 0.032341285690698336 0.1576649195542757 -1.4458534623358186 -0.0031684593684601367 0.2 0.005600000000000049 0.4 2.4186 -2.4185 2.4185 0.0 0.2 0.0 0.0 0.0 0.0 0.0 0.0 0.0 0.0 0.0 0.0 
1.136 1.3125948973381836 -0.7635039399807075 -2.4049774976355347 0.027491576823361008 0.2583631942816431 -0.00047127408831635926 1.376343188865454 -0.23821956254052498 0.04152222672760969 0.19983674158283524 -1.3763429388120119 -0.0032471814285082046 0.2 0.00720000000000004 0.4 2.4186 -2.4185 2.4185 0.0 0.2 0.0 0.0 0.0 0.0 0.0 0.0 0.0 0.0 0.0 0.0 
1.144 1.3233321065874197 -0.7656074175305072 -2.4046091501146316 0.02924642143418721 0.24762598627531784 -0.0004912618666065747 1.3082208029810891 -0.28815422399540047 0.05069395808240204 0.24068150744164696 -1.3082205495032193 -0.003322590399993461 0.2 0.008800000000000058 0.4 2.4186 -2.4185 2.4185 0.0 0.2 0.0 0.0 0.0 0.0 0.0 0.0 0.0 0.0 0.0 0.0 
1.152 1.3335310574315606 -0.7681043065961597 -2.4041674736830223 0.03132203875424411 0.23742703671365567 -0.0005119406445974315 1.2418318774697101 -0.3365311604981531 0.0598542281000784 0.2799761767492262 -1.2418316208228564 -0.0033944716395274328 0.2 0.010400000000000048 0.4 2.4186 -2.4185 2.4185 0.0 0.2 0.0 0.0 0.0 0.0 0.0 0.0 0.0 0.0 0.0 0.0 
1.16 1.3432068252757492 -0.7709813710297961 -2.4036525686596617 0.03370527273790147 0.22775127019024718 -0.0005332882381898222 1.17746936439696 -0.3831614137039148 0.06900079989115308 0.3175338507104281 -1.1774691048366497 -0.003462654433737697 0.2 0.01200000000000001 0.4 2.4186 -2.4185 2.4185 0.0 0.2 0.0 0.0 0.0 0.0 0.0 0.0 0.0 0.0 0.0 0.0 
1.168 1.3523766115060738 -0.7742240119361439 -2.40306455322302 0.036381616332682665 0.21858148531760135 -0.0005552802262550414 1.115371636848426 -0.4278935320704326 0.078131455836905 0.35320516836053484 -1.1153713746295713 -0.0035270137897476916 0.2 0.013600000000000001 0.4 2.4186 -2.4185 2.4185 0.0 0.2 0.0 0.0 0.0 0.0 0.0 0.0 0.0 0.0 0.0 0.0 
1.176 1.3610593062251213 -0.7778165678210733 -2.4024035632295235 0.03933552137878804 0.2098987919916363 -0.0005778904626402993 1.0557227126690005 -0.4706133412514881 0.08724400370115687 0.38687811416498424 -1.0557224480382892 -0.0035875153751048733 0.2 0.015200000000000019 0.4 2.4186 -2.4185 2.4185 0.0 0.2 0.0 0.0 0.0 0.0 0.0 0.0 0.0 0.0 0.0 0.0 
1.184 1.3692750610293174 -0.7817426071193987 -2.4016697519960513 0.0425506843361374 0.20168303861435657 -0.000601091574166602 0.9986544752575425 -0.5112423150966993 0.09633628002655571 0.418476342630808 -0.9986542084520208 -0.0036441719310481187 0.2 0.01680000000000001 0.4 2.4186 -2.4185 2.4185 0.0 0.2 0.0 0.0 0.0 0.0 0.0 0.0 0.0 0.0 0.0 0.0 
1.192 1.377044886381829 -0.785985203233623 -2.4008632900488074 0.04601032194824706 0.19391321472098602 -0.0006248554277081603 0.944250504024155 -0.549734877677572 0.10540615416811726 0.44795647092317553 -0.9442502352699491 -0.003697038519444767 0.2 0.018400000000000027 0.4 2.4186 -2.4185 2.4185 0.0 0.2 0.0 0.0 0.0 0.0 0.0 0.0 0.0 0.0 0.0 0.0 
1.2 1.3843902843633589 -0.7905271848031723 -2.39998436484112 0.049697420767609746 0.18656781822918983 -0.0006491535539286996 0.8925510099178902 -0.5860749588204651 0.11445153174877075 0.47530461876558744 -0.892550739429995 -0.003746200835790449 0.2 0.020000000000000018 0.4 2.4186 -2.4185 2.4185 0.0 0.2 0.0 0.0 0.0 0.0 0.0 0.0 0.0 0.0 0.0 0.0 
1.208 1.3913329238075784 -0.795351356509717 -2.399033180442799 0.053594964115502464 0.17962518030366528 -0.0006739575197251206 0.8435584343755722 -0.6202721256988165 0.12347035948326224 0.5005325559388591 -0.8435581623538486 -0.003791796978201715 0.2 0.021600000000000008 0.4 2.4186 -2.4185 2.4185 0.0 0.2 0.0 0.0 0.0 0.0 0.0 0.0 0.0 0.0 0.0 0.0 
1.216 1.3978943613833708 -0.800440688079382 -2.398009957203618 0.05768611216342956 0.1730637442739245 -0.0006992392454970059 0.7972432710523456 -0.652357537239161 0.13246062621816554 0.5236736051940788 -0.7972429976842156 -0.003833966693470259 0.2 0.023200000000000026 0.4 2.4186 -2.4185 2.4185 0.0 0.2 0.0 0.0 0.0 0.0 0.0 0.0 0.0 0.0 0.0 0.0 
1.224 1.4040958092854812 -0.8057784711218274 -2.3969149313933826 0.06195436808049237 0.16686229794365073 -0.0007249712667719074 0.7535498488470447 -0.6823799813480056 0.1414203680382424 0.5447787111296669 -0.7535495743041118 -0.00387288931600006 0.2 0.024800000000000016 0.4 2.4186 -2.4185 2.4185 0.0 0.2 0.0 0.0 0.0 0.0 0.0 0.0 0.0 0.0 0.0 0.0 
1.232 1.409957947936977 -0.8113484449829222 -2.3957483548208502 0.06638369491192941 0.16100016088824606 -0.0007511269423577182 0.7124017703540255 -0.7104021140935552 0.1503476685530773 0.5639126318437598 -0.7124014947949325 -0.003908736246681893 0.2 0.026400000000000035 0.4 2.4186 -2.4185 2.4185 0.0 0.2 0.0 0.0 0.0 0.0 0.0 0.0 0.0 0.0 0.0 0.0 
1.24 1.4155007804973567 -0.8171348938786513 -2.3945104944335913 0.07095861905548517 0.15545732994674363 -0.0007776806130608059 0.6737068995981812 -0.7364970527308089 0.15924066291304623 0.5811505524782721 -0.6737066231673579 -0.003941696266321084 0.2 0.028000000000000025 0.4 2.4186 -2.4185 2.4185 0.0 0.2 0.0 0.0 0.0 0.0 0.0 0.0 0.0 0.0 0.0 0.0 
1.248 1.4207435249516351 -0.8231227182634759 -2.3932016319006713 0.07566429818023801 0.15021458713272445 -0.0008046077161736005 0.6373617644271881 -0.760745353419201 0.16809753903358166 0.5965750427066207 -0.6373614872558635 -0.003971956572940762 0.2 0.029600000000000015 0.4 2.4186 -2.4185 2.4185 0.0 0.2 0.0 0.0 0.0 0.0 0.0 0.0 0.0 0.0 0.0 0.0 
1.256 1.4257045390339678 -0.8292974837317582 -2.3918220631798572 0.08048656952979938 0.14525357471068742 -0.0008318848615119414 0.6032553553454181 -0.7832324147541175 0.17691653933636245 0.6102734540863536 -0.603255077552856 -0.003999698556430766 0.2 0.031200000000000033 0.4 2.4186 -2.4185 2.4185 0.0 0.2 0.0 0.0 0.0 0.0 0.0 0.0 0.0 0.0 0.0 0.0 
1.264 1.430401273106205 -0.8356454508309303 -2.3903720980709218 0.0854119812018066 0.14055684231751914 -0.0008594898749015497 0.5712723210263202 -0.8040463029458215 0.18569596298566063 0.6223357480620422 -0.5712720427200194 -0.00402510310850131 0.2 0.032800000000000024 0.4 2.4186 -2.4185 2.4185 0.0 0.2 0.0 0.0 0.0 0.0 0.0 0.0 0.0 0.0 0.0 0.0 
1.272 1.4348502462608241 -0.8421535890529039 -2.3888520597564513 0.09042780501547698 0.13610787085953976 -0.0008874018148012327 0.5412955872868938 -0.8232759689091301 0.1944341671961658 0.632852706476113 -0.5412953085632857 -0.004048345422469753 0.2 0.03440000000000004 0.4 2.4186 -2.4185 2.4185 0.0 0.2 0.0 0.0 0.0 0.0 0.0 0.0 0.0 0.0 0.0 0.0 
1.28 1.4390670412546966 -0.8488095780306679 -2.3872622843315 0.09552203729924535 0.13189107757874916 -0.0009156009673207703 0.5132084542289567 -0.8410098261724063 0.20312956859477943 0.6419145067346451 -0.5132081751741079 -0.004069593689548903 0.2 0.03600000000000003 0.4 2.4186 -2.4185 2.4185 0.0 0.2 0.0 0.0 0.0 0.0 0.0 0.0 0.0 0.0 0.0 0.0 
1.288 1.4430663143274376 -0.8556017986533648 -2.385603120323333 0.1006833888288563 0.1278918062344696 -0.0009440688243360685 0.4868962300766711 -0.857334645540417 0.21178064417127251 0.649609611829251 -0.4868959507673539 -0.004089005433249498 0.2 0.03760000000000002 0.4 2.4186 -2.4185 2.4185 0.0 0.2 0.0 0.0 0.0 0.0 0.0 0.0 0.0 0.0 0.0 0.0 
1.296 1.4468618164557525 -0.8625193164663436 -2.3838749282024465 0.1059012665885759 0.12409630584900429 -0.0009727880487937534 0.46224746562642577 -0.8723347228722563 0.22038593189815103 0.6560239329357258 -0.4622471861317071 -0.004106722948997147 0.2 0.03920000000000004 0.4 2.4186 -2.4185 2.4185 0.0 0.2 0.0 0.0 0.0 0.0 0.0 0.0 0.0 0.0 0.0 0.0 
1.304 1.4504664231000246 -0.8695518593723022 -2.3820780798860155 0.1111657562153785 0.12049170096104121 -0.0010017424306832487 0.43915485629136675 -0.8860912863644356 0.2289440334759419 0.6612402535015169 -0.43915457667144814 -0.004122893017079244 0.2 0.04080000000000003 0.4 2.4186 -2.4185 2.4185 0.0 0.2 0.0 0.0 0.0 0.0 0.0 0.0 0.0 0.0 0.0 0.0 
1.312 1.4538921699821734 -0.8766897913155014 -2.380212958234883 0.11646758696418935 0.11706595584779822 -0.0010309168365701153 0.41751585497881555 -0.8986820755286967 0.2374536122050322 0.6653377798512365 -0.4175155752880184 -0.004137636152450412 0.2 0.04240000000000005 0.4 2.4186 -2.4185 2.4185 0.0 0.2 0.0 0.0 0.0 0.0 0.0 0.0 0.0 0.0 0.0 0.0 
1.32 1.4571502928767994 -0.8839240833251267 -2.3782799565451787 0.12179810984103545 0.11380783473385832 -0.0010602971550508268 0.3972330701892963 -0.9101810963919166 0.2459133963128741 0.6683919216102476 -0.39723279047511867 -0.004151075355054296 0.2 0.04400000000000004 0.4 2.4186 -2.4185 2.4185 0.0 0.2 0.0 0.0 0.0 0.0 0.0 0.0 0.0 0.0 0.0 0.0 
1.328 1.4602512697915062 -0.8912462830224666 -2.376279478035637 0.12714926236770818 0.11070685961087538 -0.001089870240016658 0.3782144748938543 -0.9206584828753631 0.2543221779503276 0.6704741389919651 -0.3782141951980933 -0.0041633208689617245 0.2 0.04560000000000003 0.4 2.4186 -2.4185 2.4185 0.0 0.2 0.0 0.0 0.0 0.0 0.0 0.0 0.0 0.0 0.0 0.0 
1.336 1.4632048642538538 -0.898648483461645 -2.3742119353316733 0.13251353713277592 0.1077532669505754 -0.0011196238532061576 0.36037347767041694 -0.9301804599067753 0.26267881362262574 0.6716519072306589 -0.36037319803005824 -0.004174471916666512 0.2 0.04720000000000005 0.4 2.4186 -2.4185 2.4185 0.0 0.2 0.0 0.0 0.0 0.0 0.0 0.0 0.0 0.0 0.0 0.0 
1.344 1.466020168712485 -0.9061232919745157 -2.3720777499472394 0.13788395182572444 0.10493796430367733 -0.00114954660718013 0.34362888647360185 -0.9388093812297096 0.27098222506945796 0.6719887600202021 -0.3436286069208491 -0.004184623210186544 0.2 0.04880000000000004 0.4 2.4186 -2.4185 2.4185 0.0 0.2 0.0 0.0 0.0 0.0 0.0 0.0 0.0 0.0 0.0 0.0 
1.352 1.4687056473020113 -0.9136637995244827 -2.3698773517654885 0.1432540166251277 0.10225248753495456 -0.0011796279095660422 0.32790479008821927 -0.9466038169398088 0.27923139884083764 0.6715443731902823 -0.327904510651131 -0.004193860599176193 0.2 0.050400000000000056 0.4 2.4186 -2.4185 2.4185 0.0 0.2 0.0 0.0 0.0 0.0 0.0 0.0 0.0 0.0 0.0 0.0 
1.36 1.4712691774199762 -0.9212635509381597 -2.3676111785192324 0.14861770297383892 0.09968895924629483 -0.0012098579091840555 0.31313038190438003 -0.9536186805254268 0.28742538591560074 0.6703746900264327 -0.31313010260781393 -0.004202258920253073 0.2 0.052000000000000046 0.4 2.4186 -2.4185 2.4185 0.0 0.2 0.0 0.0 0.0 0.0 0.0 0.0 0.0 0.0 0.0 0.0 
1.368 1.4737180897249793 -0.9289165162741355 -2.3652796752721694 0.15396941846483614 0.0972400487785842 -0.0012402274444776608 0.2992397455562608 -0.959905388775697 0.29556330313357687 0.6685320932436608 -0.2992394664210463 -0.004209895524138408 0.2 0.053600000000000037 0.4 2.4186 -2.4185 2.4185 0.0 0.2 0.0 0.0 0.0 0.0 0.0 0.0 0.0 0.0 0.0 0.0 
1.376 1.476059206293295 -0.9366170635008553 -2.362883293901819 0.15930397255610806 0.09489893405505789 -0.0012707279945221878 0.28617161002789876 -0.9655120250645597 0.3036443304441201 0.6660655513938067 -0.28617133107266585 -0.004216830509773203 0.2 0.055200000000000055 0.4 2.4186 -2.4185 2.4185 0.0 0.2 0.0 0.0 0.0 0.0 0.0 0.0 0.0 0.0 0.0 0.0 
1.384 1.4782988767721081 -0.9443599325873109 -2.3604224925850854 0.16461655580651113 0.09265926542807201 -0.001301351632767137 0.27386909499027934 -0.9704835275033826 0.3116677127429563 0.6630208236275359 -0.27386881623085774 -0.004223125226151369 0.2 0.056800000000000045 0.4 2.4186 -2.4185 2.4185 0.0 0.2 0.0 0.0 0.0 0.0 0.0 0.0 0.0 0.0 0.0 0.0 
1.392 1.4804430124455235 -0.9521402110575004 -2.357897735287322 0.16990271201507667 0.09051513161310633 -0.0013320909835781575 0.26227944611099574 -0.974861869752428 0.31963275826878984 0.6594406336622058 -0.26227916756097547 -0.004228833748565914 0.2 0.05840000000000006 0.4 2.4186 -2.4185 2.4185 0.0 0.2 0.0 0.0 0.0 0.0 0.0 0.0 0.0 0.0 0.0 0.0 
1.4 1.4824971181889248 -0.9599533110196692 -2.355309491255751 0.17515831586016617 0.08846102773437607 -0.0013629391815770185 0.25135377198102765 -0.9786862462387248 0.3275388384664058 0.6553648590859807 -0.25135349365182674 -0.004234006813248092 0.2 0.06000000000000005 0.4 2.4186 -2.4185 2.4185 0.0 0.2 0.0 0.0 0.0 0.0 0.0 0.0 0.0 0.0 0.0 0.0 
1.408 1.4844663223315355 -0.9677949476517522 -2.3526582345180334 0.18037954971515058 0.08649182546230655 -0.0013938898337274306 0.24104678496265214 -0.9819932507464156 0.33538538684451097 0.6508307082451312 -0.24104650686399154 -0.004238688930066783 0.2 0.061600000000000016 0.4 2.4186 -2.4185 2.4185 0.0 0.2 0.0 0.0 0.0 0.0 0.0 0.0 0.0 0.0 0.0 0.0 
1.416 1.4863554044792857 -0.9756611191030498 -2.349944443386766 0.18556288395620557 0.08460274519060196 -0.0014249369840792223 0.2313165508260563 -0.9848170514558107 0.34317189856371794 0.6458728988360596 -0.2313162729660485 -0.004242921508434218 0.2 0.0632 0.4 2.4186 -2.4185 2.4185 0.0 0.2 0.0 0.0 0.0 0.0 0.0 0.0 0.0 0.0 0.0 0.0 
1.424 1.488168821372746 -0.9835480877572937 -2.3471685999706198 0.190705057230232 0.08278933017839535 -0.0014560750810585256 0.2221242483578274 -0.9871895567136625 0.35089792937434305 0.6405238237640171 -0.22212397074322157 -0.004246741853641714 0.2 0.06480000000000002 0.4 2.4186 -2.4185 2.4185 0.0 0.2 0.0 0.0 0.0 0.0 0.0 0.0 0.0 0.0 0.0 0.0 
1.432 1.4899107308700914 -0.9914523627924905 -2.3443311896928045 0.1958030593061051 0.08104742256720102 -0.001487298947176056 0.21343394126068727 -0.9891405737520249 0.35856309498689953 0.6348137129963127 -0.21343366389681068 -0.004250185656559622 0.2 0.06640000000000001 0.4 2.4186 -2.4185 2.4185 0.0 0.2 0.0 0.0 0.0 0.0 0.0 0.0 0.0 0.0 0.0 0.0 
1.44 1.4915850141544453 -0.9993706839670344 -2.3414327008174847 0.20085411241909945 0.07937314117363023 -0.001518603751016186 0.20521236217331423 -0.9906979552635111 0.366167069253724 0.6287707771073795 -0.2052120850646737 -0.004253282106805888 0.2 0.068 0.4 2.4186 -2.4185 2.4185 0.0 0.2 0.0 0.0 0.0 0.0 0.0 0.0 0.0 0.0 0.0 0.0 
1.448 1.4931952962699553 -1.007300006558669 -2.3384736239847403 0.20585565842205122 0.07776286095327548 -0.001549984981365816 0.1974287110475108 -0.9918877419183982 0.3737095841645899 0.6224213572638513 -0.19742843419743797 -0.004256061361334982 0.2 0.06960000000000002 0.4 2.4186 -2.4185 2.4185 0.0 0.2 0.0 0.0 0.0 0.0 0.0 0.0 0.0 0.0 0.0 0.0 
1.456 1.494744965092596 -1.0152374873822154 -2.335454451754611 0.2108053420966316 0.07621319402991082 -0.0015814384233414599 0.19005446556232886 -0.99273429013807 0.3811904277758261 0.6157900494585556 -0.19005418897338114 -0.004258548897178701 0.2 0.07120000000000004 0.4 2.4186 -2.4185 2.4185 0.0 0.2 0.0 0.0 0.0 0.0 0.0 0.0 0.0 0.0 0.0 0.0 
1.464 1.4962371888409176 -1.0231804718129016 -2.3323756781607075 0.21570099915611918 0.07472097218476506 -0.001612960136375711 0.18306320542962012 -0.9932603948924035 0.38860944357526583 0.6088998319221037 -0.18306292910348035 -0.0042607694864527125 0.2 0.07280000000000003 0.4 2.4186 -2.4185 2.4185 0.0 0.2 0.0 0.0 0.0 0.0 0.0 0.0 0.0 0.0 0.0 0.0 
1.472 1.497674932229398 -1.0311264817442511 -2.329237798273845 0.22054064231471582 0.07328323070315254 -0.00164454643392861 0.17643044869428065 -0.9934874006843926 0.39596652861909437 0.601772174610681 -0.1764301726321117 -0.004262743811307066 0.2 0.07440000000000002 0.4 2.4186 -2.4185 2.4185 0.0 0.2 0.0 0.0 0.0 0.0 0.0 0.0 0.0 0.0 0.0 0.0 
1.48 1.4990609713632699 -1.039073204412376 -2.326041307776091 0.22532245101786552 0.07189719347964796 -0.001676193864795288 0.17013350068652267 -0.9934353071625215 0.40326163275994675 0.5944271491595903 -0.17013322488887356 -0.004264492029719831 0.2 0.07600000000000001 0.4 2.4186 -2.4185 2.4185 0.0 0.2 0.0 0.0 0.0 0.0 0.0 0.0 0.0 0.0 0.0 0.0 
1.488 1.5003979074690874 -1.0470184820219397 -2.3227867025455815 0.23004476020272158 0.07056025928749984 -0.0017078991958877968 0.16415131407441189 -0.9931228649661364 0.41049475710461725 0.5868835253336268 -0.16415103854126095 -0.004266032822610644 0.2 0.0776 0.4 2.4186 -2.4185 2.4185 0.0 0.2 0.0 0.0 0.0 0.0 0.0 0.0 0.0 0.0 0.0 0.0 
1.496 1.5016881795501926 -1.0549603021127876 -2.3194744782524035 0.23470604989030575 0.06926998912319529 -0.0017396593963762024 0.15846435976778275 -0.9925676643051408 0.41766595246728255 0.5791588604893696 -0.15846408449868005 -0.004267382716554173 0.2 0.07920000000000005 0.4 2.4186 -2.4185 2.4185 0.0 0.2 0.0 0.0 0.0 0.0 0.0 0.0 0.0 0.0 0.0 0.0 
1.504 1.5029340760508678 -1.0628967886100873 -2.3161051299658193 0.23930493606420455 0.06802409454229172 -0.0017714716230813163 0.153054508059291 -0.9917862172368145 0.4247753180351883 0.5712695839170118 -0.15305423305341817 -0.004268556806064114 0.2 0.08080000000000004 0.4 2.4186 -2.4185 2.4185 0.0 0.2 0.0 0.0 0.0 0.0 0.0 0.0 0.0 0.0 0.0 0.0 
1.512 1.5041377456075113 -1.0708261935047356 -2.312679151773036 0.2438401620530133 0.06682042690824824 -0.001803333207018827 0.1479049191851611 -0.9907940333714237 0.43182299995283335 0.5632310743143966 -0.14790464444135693 -0.004269569097551046 0.2 0.08240000000000003 0.4 2.4186 -2.4185 2.4185 0.0 0.2 0.0 0.0 0.0 0.0 0.0 0.0 0.0 0.0 0.0 0.0 
1.52 1.5053012069597569 -1.078746889114596 -2.3091970364097065 0.2483105902716809 0.06565696748126304 -0.0018352416410016292 0.14299994263295943 -0.9896056894084286 0.4388091897901556 0.5550577306627723 -0.1429996681497806 -0.004270432307965846 0.2 0.08400000000000002 0.4 2.4186 -2.4185 2.4185 0.0 0.2 0.0 0.0 0.0 0.0 0.0 0.0 0.0 0.0 0.0 0.0 
1.528 1.5064263580891897 -1.08665736088086 -2.305659274902292 0.2527151949130291 0.06453181827963983 -0.0018671945682141875 0.1383250246412372 -0.9882348935597227 0.44573412316154565 0.5467630387194535 -0.13832475041693956 -0.0042711585469055865 0.2 0.08560000000000001 0.4 2.4186 -2.4185 2.4185 0.0 0.2 0.0 0.0 0.0 0.0 0.0 0.0 0.0 0.0 0.0 0.0 
1.536 1.5075149846482425 -1.0945562006573573 -2.302066356222383 0.2570530544134879 0.06344319365080256 -0.0018991897716793612 0.1338666231167483 -0.9866945442407533 0.45259807803431856 0.5383596304802583 -0.1338663491493955 -0.004271758387277236 0.2 0.08720000000000006 0.4 2.4186 -2.4185 2.4185 0.0 0.2 0.0 0.0 0.0 0.0 0.0 0.0 0.0 0.0 0.0 0.0 
1.544 1.50856876773703 -1.1024421004540028 -2.2984187669530463 0.2613233451949859 0.06238941249452986 -0.0019312251645443935 0.12961212959124072 -0.9849967848612204 0.4594013733647162 0.5298593411804104 -0.1296118558787113 -0.004272241706884515 0.2 0.08880000000000005 0.4 2.4186 -2.4185 2.4185 0.0 0.2 0.0 0.0 0.0 0.0 0.0 0.0 0.0 0.0 0.0 0.0 
1.552 1.5095892910813256 -1.1103138465987366 -2.2947169909672027 0.26552533542116663 0.0613688910849315 -0.0019632987811186654 0.12554979749756093 -0.9831530539576532 0.4661443675615618 0.5212732608792301 -0.12554952403757377 -0.004272617598085906 0.2 0.09040000000000004 0.4 2.4186 -2.4185 2.4185 0.0 0.2 0.0 0.0 0.0 0.0 0.0 0.0 0.0 0.0 0.0 0.0 
1.56 1.5105780476606094 -1.1181703142852264 -2.2909615091180524 0.2696583791888476 0.060380136442407514 -0.001995408768601275 0.12166867631362542 -0.9811741314504071 0.4728274569682547 0.5126117822322054 -0.12166840310377205 -0.0042728943594885355 0.2 0.09200000000000003 0.4 2.4186 -2.4185 2.4185 0.0 0.2 0.0 0.0 0.0 0.0 0.0 0.0 0.0 0.0 0.0 0.0 
1.568 1.511536445831135 -1.126010462476382 -2.2871527989414853 0.27372191134325075 0.05942174021062089 -0.002027553379441598 0.11795855111398551 -0.9790701815311798 0.47945107445642077 0.5038846452890904 -0.11795827815170364 -0.004273079996204304 0.2 0.09360000000000002 0.4 2.4186 -2.4185 2.4185 0.0 0.2 0.0 0.0 0.0 0.0 0.0 0.0 0.0 0.0 0.0 0.0 
1.576 1.5124658149852563 -1.1338333291362228 -2.283291334370414 0.2777154419308121 0.058492372997131774 -0.0020597309642809646 0.11440988698346855 -0.9768507916785953 0.4860156877420447 0.49510097727649294 -0.11440961426613883 -0.0042731812968552964 0.2 0.09520000000000006 0.4 2.4186 -2.4185 2.4185 0.0 0.2 0.0 0.0 0.0 0.0 0.0 0.0 0.0 0.0 0.0 0.0 
1.584 1.513367410784829 -1.1416380267649955 -2.2793775854609315 0.2816385517657398 0.057590779139968726 -0.002091939965427535 0.11101377804049753 -0.9745250093528791 0.4925217980429493 0.4862693313368596 -0.11101350556545497 -0.00427320453263379 0.2 0.09680000000000005 0.4 2.4186 -2.4185 2.4185 0.0 0.2 0.0 0.0 0.0 0.0 0.0 0.0 0.0 0.0 0.0 0.0 
1.592 1.5142424200033324 -1.149423738214571 -2.2754120181301665 0.28549088835750824 0.05671577186558329 -0.002124178910820888 0.10776190060191021 -0.972101375973394 0.49896993878042917 0.47739772257615987 -0.10776162836636197 -0.004273156226599545 0.2 0.09840000000000004 0.4 2.4186 -2.4185 2.4185 0.0 0.2 0.0 0.0 0.0 0.0 0.0 0.0 0.0 0.0 0.0 0.0 
1.6 1.5150919650084542 -1.1571897127631217 -2.2713950939056877 0.28927216108705034 0.05586622880620845 -0.0021564464084463564 0.10464647004832082 -0.9695879575648352 0.5053606738831914 0.4684936591952702 -0.10464619804942302 -0.0042730419373449525 0.2 0.10000000000000003 0.4 2.4186 -2.4185 2.4185 0.0 0.2 0.0 0.0 0.0 0.0 0.0 0.0 0.0 0.0 0.0 0.0 
1.608 1.515917107914189 -1.164935262429867 -2.2673272696862874 0.2929821371759984 0.05504108784776604 -0.0021887411411625523 0.1016602012220337 -0.9669923735718933 0.5116945963362705 0.4595641726458717 -0.10165992945698543 -0.004272866146009367 0.2 0.10160000000000002 0.4 2.4186 -2.4185 2.4185 0.0 0.2 0.0 0.0 0.0 0.0 0.0 0.0 0.0 0.0 0.0 0.0 
1.616 1.5167188544290562 -1.1726597585123288 -2.2632089975139498 0.29662063901967395 0.05423934328168055 -0.002221061861908696 0.09879627209343908 -0.9643218244272916 0.5179723272139704 0.4506158481240836 -0.09879600055933091 -0.00427263421501273 0.2 0.10320000000000007 0.4 2.4186 -2.4185 2.4185 0.0 0.2 0.0 0.0 0.0 0.0 0.0 0.0 0.0 0.0 0.0 0.0 
1.624 1.51749815742478 -1.1803626283300266 -2.2590407243568 0.30018753950362087 0.053460042236133695 -0.0022534073892610915 0.09604829015278354 -0.9615831154766697 0.5241945138309563 0.44165484812514966 -0.0960480188467315 -0.004272350162908818 0.2 0.10480000000000006 0.4 2.4186 -2.4185 2.4185 0.0 0.2 0.0 0.0 0.0 0.0 0.0 0.0 0.0 0.0 0.0 0.0 
1.632 1.5182559202477255 -1.1880433521599094 -2.254822891902798 0.30368275954667756 0.052702281364724386 -0.002285776603310892 0.0934102616334751 -0.9587826807016075 0.5303618287459174 0.43268693871220043 -0.09340999055256073 -0.004272018213778821 0.2 0.10640000000000005 0.4 2.4186 -2.4185 2.4185 0.0 0.2 0.0 0.0 0.0 0.0 0.0 0.0 0.0 0.0 0.0 0.0 
1.64 1.5189929997934906 -1.1957014603500675 -2.250555936363946 0.30710626443553224 0.05196520377178737 -0.002318168441837571 0.09087656306437657 -0.9559266037771139 0.5364749682288722 0.4237175110858827 -0.09087629220571927 -0.004271641773017122 0.2 0.10800000000000004 0.4 2.4186 -2.4185 2.4185 0.0 0.2 0.0 0.0 0.0 0.0 0.0 0.0 0.0 0.0 0.0 0.0 
1.648 1.5197102093633297 -1.2033365305993815 -2.246240288290744 0.3104580615315471 0.051247996156000335 -0.0023505818967545643 0.08844191514388501 -0.9530206385334665 0.5425346512453324 0.41475160418717316 -0.08844164450457402 -0.004271224552055044 0.2 0.10960000000000003 0.4 2.4186 -2.4185 2.4185 0.0 0.2 0.0 0.0 0.0 0.0 0.0 0.0 0.0 0.0 0.0 0.0 
1.656 1.5204083213195192 -1.2109481853918211 -2.241876372396633 0.31373819678977277 0.05054988615504529 -0.0023830160108057503 0.0861013585645828 -0.9500702270895962 0.5485416179281141 0.4057939230899734 -0.08610108814177259 -0.004270769295823567 0.2 0.11120000000000008 0.4 2.4186 -2.4185 2.4185 0.0 0.2 0.0 0.0 0.0 0.0 0.0 0.0 0.0 0.0 0.0 0.0 
1.664 1.521088069555333 -1.218536089575002 -2.237464607392146 0.31694675317652177 0.04987013987557216 -0.002415469874493271 0.08385023182859534 -0.94708051797863 0.5544966287874472 0.3968488596808284 -0.08384996161937928 -0.004270279547682078 0.2 0.11280000000000007 0.4 2.4186 -2.4185 2.4185 0.0 0.2 0.0 0.0 0.0 0.0 0.0 0.0 0.0 0.0 0.0 0.0 
1.672 1.5217501517939764 -1.2260999480734989 -2.2330054058284783 0.32008384714616334 0.04920805959435784 -0.002447942623218337 0.0816841506444537 -0.9440563816737101 0.5604004631181544 0.3879205079424781 -0.08168388064597257 -0.00426975781038756 0.2 0.1144 0.4 2.4186 -2.4185 2.4185 0.0 0.2 0.0 0.0 0.0 0.0 0.0 0.0 0.0 0.0 0.0 0.0 
1.68 1.522395231729648 -1.2336395037281478 -2.228499173950184 0.3231496268106664 0.048562981617130845 -0.0024804334346191516 0.07959898900052792 -0.9410024261591308 0.566253918071276 0.379012681311552 -0.07959871920997103 -0.004269206404011461 0.2 0.11599999999999999 0.4 2.4186 -2.4185 2.4185 0.0 0.2 0.0 0.0 0.0 0.0 0.0 0.0 0.0 0.0 0.0 0.0 
1.688 1.5230239410227826 -1.2411545352532896 -2.2239463115567006 0.32614426987480316 0.04793427428342227 -0.002512941526090265 0.07759086165598363 -0.9379230112710556 0.5720578076172339 0.370128928264895 -0.07759059207056546 -0.0042686276736404105 0.2 0.11760000000000004 0.4 2.4186 -2.4185 2.4185 0.0 0.2 0.0 0.0 0.0 0.0 0.0 0.0 0.0 0.0 0.0 0.0 
1.696 1.5236368811605485 -1.2486448553045468 -2.219347211872393 0.3290679815836648 0.04732133610603173 -0.0025454661524699704 0.07565610794941896 -0.9348222620736222 0.5778129615043549 0.36127254675924547 -0.07565583856635456 -0.004268024010264721 0.2 0.11920000000000003 0.4 2.4186 -2.4185 2.4185 0.0 0.2 0.0 0.0 0.0 0.0 0.0 0.0 0.0 0.0 0.0 0.0 
1.704 1.5242346251927523 -1.2561103086502918 -2.2147022614248026 0.33192099245486895 0.046723594035084026 -0.0025780066038828204 0.0737912768070502 -0.9317040812091634 0.5835202241265148 0.3524465972164941 -0.07379100762359483 -0.004267397351778953 0.2 0.12080000000000002 0.4 2.4186 -2.4185 2.4185 0.0 0.2 0.0 0.0 0.0 0.0 0.0 0.0 0.0 0.0 0.0 0.0 
1.712 1.5248177193524737 -1.2635507704404976 -2.210011839930803 0.3347035565835248 0.0461405018374895 -0.0026105622037256933 0.07199311289348191 -0.928572160797949 0.5891804536165244 0.3436539155983581 -0.07199284390693798 -0.004266749450608668 0.2 0.12240000000000001 0.4 2.4186 -2.4185 2.4185 0.0 0.2 0.0 0.0 0.0 0.0 0.0 0.0 0.0 0.0 0.0 0.0 
1.72 1.5253866845699955 -1.270966144567145 -2.2052763201903285 0.33741595008122705 0.04557153858291043 -0.002643132306786739 0.07025854378806806 -0.92542999364935 0.5947945209917654 0.3348971257746643 -0.07025827499575528 -0.004266082175840225 0.2 0.12400000000000005 0.4 2.4186 -2.4185 2.4185 0.0 0.2 0.0 0.0 0.0 0.0 0.0 0.0 0.0 0.0 0.0 0.0 
1.728 1.5259420178878975 -1.2783563621107898 -2.2004960679873813 0.3400584690492421 0.045016207228746455 -0.0026757162974872994 0.06858466807727658 -0.922280883479295 0.6003633091182189 0.32617865020480785 -0.06858439947657502 -0.004265396939771224 0.2 0.12560000000000004 0.4 2.4186 -2.4185 2.4185 0.0 0.2 0.0 0.0 0.0 0.0 0.0 0.0 0.0 0.0 0.0 0.0 
1.736 1.526484193784552 -1.2857213798682934 -2.195671441997978 0.34263142847891626 0.04447403329658961 -0.002708313588237939 0.06696874435414601 -0.919127955041931 0.6058877120452396 0.31750072146728453 -0.0669684759424483 -0.004264695430517144 0.2 0.12720000000000004 0.4 2.4186 -2.4185 2.4185 0.0 0.2 0.0 0.0 0.0 0.0 0.0 0.0 0.0 0.0 0.0 0.0 
1.744 1.5270136654126727 -1.2930611789570876 -2.1908027937047425 0.34513516032970104 0.04394456363366735 -0.0027409236179000373 0.0654081809734872 -0.9159741631522318 0.6113686340225378 0.30886539159764936 -0.06540791274823535 -0.004263978942910125 0.2 0.12880000000000003 0.4 2.4186 -2.4185 2.4185 0.0 0.2 0.0 0.0 0.0 0.0 0.0 0.0 0.0 0.0 0.0 0.0 
1.752 1.5275308657590494 -1.3003757634916666 -2.1858904673178152 0.3475700124068579 0.0434273652531841 -0.0027735458503455016 0.06390052657476006 -0.9128223016262317 0.6168069888402634 0.30027454212870597 -0.06390025853342808 -0.004263248818296082 0.2 0.13040000000000002 0.4 2.4186 -2.4185 2.4185 0.0 0.2 0.0 0.0 0.0 0.0 0.0 0.0 0.0 0.0 0.0 0.0 
1.76 1.5280362087311055 -1.3076651593283044 -2.1809347997017774 0.34993634687634945 0.042922024247689004 -0.0028061797731075504 0.062443461262122926 -0.9096750114778414 0.6222036990360807 0.2917298928537146 -0.062443193402228675 -0.004262506217143879 0.2 0.13200000000000006 0.4 2.4186 -2.4185 2.4185 0.0 0.2 0.0 0.0 0.0 0.0 0.0 0.0 0.0 0.0 0.0 0.0 
1.768 1.5285300901754786 -1.3149294128742768 -2.175936120308277 0.35223453895071577 0.04242814477049 -0.0028388248961159625 0.0610347884132333 -0.9065347887302949 0.6275596951807502 0.283233010285813 -0.061034520732359314 -0.004261752051956096 0.2 0.13360000000000005 0.4 2.4186 -2.4185 2.4185 0.0 0.2 0.0 0.0 0.0 0.0 0.0 0.0 0.0 0.0 0.0 0.0 
1.776 1.5290128888334162 -1.3221685899581168 -2.1708947511140453 0.3544649761200589 0.04194534808036698 -0.0028714807505109347 0.05967242708091991 -0.9034039920729916 0.6328759153873436 0.2747853164252226 -0.05967215957665722 -0.00426098760686687 0.2 0.13520000000000004 0.4 2.4186 -2.4185 2.4185 0.0 0.2 0.0 0.0 0.0 0.0 0.0 0.0 0.0 0.0 0.0 0.0 
1.784 1.5294849672374076 -1.3293827747576556 -2.1658110065640135 0.3566280565530633 0.04147327164473726 -0.0029041468875300722 0.05835440489094377 -0.9002848496250115 0.6381533045107206 0.26638809564421767 -0.0583541375609217 -0.004260213857431326 0.2 0.13680000000000003 0.4 2.4186 -2.4185 2.4185 0.0 0.2 0.0 0.0 0.0 0.0 0.0 0.0 0.0 0.0 0.0 0.0 
1.792 1.5299466725531272 -1.3365720687828304 -2.1606851935192197 0.35872418806761575 0.0410115682979668 -0.0029368228774631568 0.05707885145044608 -0.8971794656263976 0.6433928135833133 0.2580425020181669 -0.057078584292353046 -0.004259431545787252 0.2 0.13840000000000002 0.4 2.4186 -2.4185 2.4185 0.0 0.2 0.0 0.0 0.0 0.0 0.0 0.0 0.0 0.0 0.0 0.0 
1.8 1.5303983373704653 -1.3437365899104219 -2.1555176112092167 0.36075378733461183 0.040559905450086524 -0.002969508308670478 0.055843992214307026 -0.8940898268772669 0.6485953993550022 0.24974956653904323 -0.05584372522587257 -0.004258641494765548 0.2 0.14000000000000007 0.4 2.4186 -2.4185 2.4185 0.0 0.2 0.0 0.0 0.0 0.0 0.0 0.0 0.0 0.0 0.0 0.0 
1.808 1.5308402804471166 -1.3508764714680632 -2.150308551188693 0.362717278971445 0.04011796434341022 -0.0030022027866598707 0.0546481427630272 -0.8910178087612644 0.6537620238047733 0.24151020369787904 -0.05464787594199562 -0.004257844678183072 0.2 0.14160000000000006 0.4 2.4186 -2.4185 2.4185 0.0 0.2 0.0 0.0 0.0 0.0 0.0 0.0 0.0 0.0 0.0 0.0 
1.816 1.5312728074079542 -1.357991861365044 -2.1450582972980143 0.3646150942546833 0.03968543935302727 -0.0030349059332189367 0.05348970345373092 -0.8879651807458198 0.6588936535225766 0.2333252170868521 -0.053489436797900185 -0.004257041703728616 0.2 0.14320000000000005 0.4 2.4186 -2.4185 2.4185 0.0 0.2 0.0 0.0 0.0 0.0 0.0 0.0 0.0 0.0 0.0 0.0 
1.824 1.5316962114031567 -1.3650829212675606 -2.139767125627417 0.3664476704810862 0.03926203732877102 -0.0030676173855982754 0.05236715444922957 -0.8849336119174075 0.6639912593567007 0.22519530560459367 -0.05236688795645083 -0.004256233130303984 0.2 0.14480000000000004 0.4 2.4186 -2.4185 2.4185 0.0 0.2 0.0 0.0 0.0 0.0 0.0 0.0 0.0 0.0 0.0 0.0 
1.832 1.532110773727851 -1.3721498258162248 -2.134435304484572 0.3682154503466044 0.038847476975441705 -0.00310033679574279 0.05127905107615589 -0.8819246762272983 0.6690558160832012 0.21712106929368533 -0.05127878474430075 -0.004255419729065064 0.2 0.14640000000000003 0.4 2.4186 -2.4185 2.4185 0.0 0.2 0.0 0.0 0.0 0.0 0.0 0.0 0.0 0.0 0.0 0.0 
1.84 1.5325167644058144 -1.3791927618837647 -2.1290630943652458 0.36991888081823987 0.0384414882692866 -0.003133063829567333 0.050224019473415496 -0.8789398572098869 0.674088301898989 0.20910301409081955 -0.05022375330040321 -0.004254602007665435 0.2 0.14800000000000008 0.4 2.4186 -2.4185 2.4185 0.0 0.2 0.0 0.0 0.0 0.0 0.0 0.0 0.0 0.0 0.0 0.0 
1.848 1.532914442739607 -1.3862119278709661 -2.123650747926807 0.3715584126097604 0.038043811907701376 -0.0031657981662743593 0.04920075254227589 -0.8759805527509935 0.6790896981622311 0.2011415571371618 -0.04920048652606549 -0.004253780492653955 0.2 0.14960000000000007 0.4 2.4186 -2.4185 2.4185 0.0 0.2 0.0 0.0 0.0 0.0 0.0 0.0 0.0 0.0 0.0 0.0 
1.856 1.533304057829319 -1.3932075330390348 -2.1181985099643152 0.37313449947957467 0.03765419879060513 -0.0031985394977103246 0.04820800615331851 -0.8730480795220803 0.6840609890817069 0.19323703151058702 -0.04820774029190295 -0.004252955716571778 0.2 0.15120000000000006 0.4 2.4186 -2.4185 2.4185 0.0 0.2 0.0 0.0 0.0 0.0 0.0 0.0 0.0 0.0 0.0 0.0 
1.864 1.5336858490619694 -1.4001797968766307 -2.1127066173889264 0.37464759759853483 0.03727240953094565 -0.0032312875277587423 0.047244595598968576 -0.8701436772203822 0.6890031614498088 0.18538969076266665 -0.04724432989036537 -0.0042521282475768505 0.2 0.15280000000000005 0.4 2.4186 -2.4185 2.4185 0.0 0.2 0.0 0.0 0.0 0.0 0.0 0.0 0.0 0.0 0.0 0.0 
1.872 1.5340600465734406 -1.4071289484999607 -2.107175299208394 0.37609816461840917 0.036898213992808876 -0.00326404197176708 0.046309392264737216 -0.8672685124548928 0.693917204280714 0.17759971277411157 -0.046309126707028525 -0.004251298296569122 0.2 0.15440000000000004 0.4 2.4186 -2.4185 2.4185 0.0 0.2 0.0 0.0 0.0 0.0 0.0 0.0 0.0 0.0 0.0 0.0 
1.88 1.5344268716847014 -1.4140552260843706 -2.1016047765094 0.37748665967419104 0.036531390855225575 -0.003296802556005836 0.04540132053459361 -0.8644236828679642 0.698804108816516 0.16986720462143848 -0.04540105512587263 -0.0042504664686950164 0.2 0.15600000000000008 0.4 2.4186 -2.4185 2.4185 0.0 0.2 0.0 0.0 0.0 0.0 0.0 0.0 0.0 0.0 0.0 0.0 
1.888 1.534786537313944 -1.4209588763259862 -2.095995262441494 0.37881354232398934 0.03617172719999939 -0.003329569017157365 0.044519354864120675 -0.8616102205642803 0.7036648681515635 0.16219220574077337 -0.04451908960251852 -0.004249633121865839 0.2 0.15760000000000007 0.4 2.4186 -2.4185 2.4185 0.0 0.2 0.0 0.0 0.0 0.0 0.0 0.0 0.0 0.0 0.0 0.0 
1.896 1.5351392483661508 -1.4278401539320171 -2.0903469622024025 0.380079272041717 0.03581901812211887 -0.003362341101832802 0.04366251705007887 -0.8588290956229833 0.7085004770825453 0.15457469162392035 -0.04366225193378722 -0.004248798400629865 0.2 0.15920000000000006 0.4 2.4186 -2.4185 2.4185 0.0 0.2 0.0 0.0 0.0 0.0 0.0 0.0 0.0 0.0 0.0 0.0 
1.904 1.5354852021014949 -1.43469932113842 -2.084660073024486 0.38128430823819537 0.03547306636139319 -0.003395118566115255 0.04282987368052242 -0.8560812196696657 0.7133119321713768 0.14701457796392603 -0.04282960870773714 -0.004247962872868076 0.2 0.16080000000000005 0.4 2.4186 -2.4185 2.4185 0.0 0.2 0.0 0.0 0.0 0.0 0.0 0.0 0.0 0.0 0.0 0.0 
1.912 1.5358245884838837 -1.4415366472536761 -2.078934784162122 0.38242910914969563 0.03513368195390104 -0.0034279011751274955 0.042020533715810826 -0.8533674487764508 0.7181002314040779 0.13951172310792234 -0.042020268884774115 -0.004247126740749685 0.2 0.16240000000000004 0.4 2.4186 -2.4185 2.4185 0.0 0.2 0.0 0.0 0.0 0.0 0.0 0.0 0.0 0.0 0.0 0.0 
1.92 1.5361575905108689 -1.448352408227513 -2.0731712768798007 0.38351413174271043 0.03480068190209878 -0.0034606887026230495 0.04123364623983982 -0.8506885866655302 0.7228663742449166 0.13206593163752037 -0.041233381548828774 -0.00424629027186199 0.2 0.16400000000000003 0.4 2.4186 -2.4185 2.4185 0.0 0.2 0.0 0.0 0.0 0.0 0.0 0.0 0.0 0.0 0.0 0.0 
1.928 1.536484384526052 -1.4551468862434536 -2.0673697244407174 0.3845398312637147 0.034473889862367685 -0.003493480930598783 0.04046839833924483 -0.8480453876048005 0.7276113615752239 0.12467695728678614 -0.04046813378656509 -0.004245453760184994 0.2 0.16560000000000002 0.4 2.4186 -2.4185 2.4185 0.0 0.2 0.0 0.0 0.0 0.0 0.0 0.0 0.0 0.0 0.0 0.0 
1.936 1.5368051405150498 -1.4619203693341383 -2.0615302920956595 0.38550666075640216 0.03415313584907139 -0.0035262776489279933 0.03972401310935236 -0.8454385591526391 0.7323361956375597 0.11734450564131854 -0.03972374869334455 -0.00424461742436428 0.2 0.16720000000000002 0.4 2.4186 -2.4185 2.4185 0.0 0.2 0.0 0.0 0.0 0.0 0.0 0.0 0.0 0.0 0.0 0.0 
1.944 1.537120022386002 -1.4686731510184123 -2.055653137071987 0.3864150707973013 0.03383825595403886 -0.003559078655012688 0.03899974778334655 -0.8428687648644427 0.7370418800771379 0.11006823693415457 -0.03899948350237665 -0.004243781538449101 0.2 0.1688 0.4 2.4186 -2.4185 2.4185 0.0 0.2 0.0 0.0 0.0 0.0 0.0 0.0 0.0 0.0 0.0 0.0 
1.952 1.5374291882355449 -1.4754055299592324 -2.049738408562503 0.38726550898231027 0.033529092080660544 -0.003591883753453768 0.03829489196719994 -0.8403366267696306 0.741729419908843 0.10284776837084038 -0.038294627819672765 -0.004242946246748919 0.2 0.17040000000000005 0.4 2.4186 -2.4185 2.4185 0.0 0.2 0.0 0.0 0.0 0.0 0.0 0.0 0.0 0.0 0.0 0.0 
1.96 1.537732790601111 -1.482117809641477 -2.043786247714026 0.38805841982546063 0.033225491691455444 -0.0036246927557384455 0.03760876598607629 -0.8378427279016855 0.7463998216517902 0.09568267679495863 -0.0376085019704156 -0.004242111833919891 0.2 0.17200000000000004 0.4 2.4186 -2.4185 2.4185 0.0 0.2 0.0 0.0 0.0 0.0 0.0 0.0 0.0 0.0 0.0 0.0 
1.968 1.5380309767003524 -1.488810298068818 -2.037796787615469 0.38879424413878594 0.03292730756879722 -0.0036575054799432116 0.03694071931745748 -0.8353876145024265 0.7510540932914402 0.08857250058206595 -0.03694045543212942 -0.00424127837644206 0.2 0.17360000000000003 0.4 2.4186 -2.4185 2.4185 0.0 0.2 0.0 0.0 0.0 0.0 0.0 0.0 0.0 0.0 0.0 0.0 
1.976 1.538323888658448 -1.4954833074788185 -2.0317701532852444 0.389473419012174 0.03263439758746364 -0.0036903217504524344 0.036290129125866356 -0.8329717983651449 0.7556932444770451 0.08151674210413129 -0.03628986536936358 -0.004240446061445461 0.2 0.17520000000000002 0.4 2.4186 -2.4185 2.4185 0.0 0.2 0.0 0.0 0.0 0.0 0.0 0.0 0.0 0.0 0.0 0.0 
1.984 1.5386116637239826 -1.5021371540754969 -2.0257064616578004 0.3900963774522024 0.032346624498883626 -0.003723141397690463 0.035656398875524485 -0.830595758936145 0.7603182866114455 0.07451486964852778 -0.035656135246361735 -0.00423961509380906 0.2 0.1768 0.4 2.4186 -2.4185 2.4185 0.0 0.2 0.0 0.0 0.0 0.0 0.0 0.0 0.0 0.0 0.0 0.0 
1.992 1.5388944344740654 -1.5087721577786124 -2.019605821569124 0.39066354802301806 0.03206385572592045 -0.003755964257867569 0.0350389570223001 -0.8282599453236428 0.764930232958921 0.06756631921619914 -0.03503869351902282 -0.0042387855931347255 0.2 0.17840000000000006 0.4 2.4186 -2.4185 2.4185 0.0 0.2 0.0 0.0 0.0 0.0 0.0 0.0 0.0 0.0 0.0 0.0 
2.0 1.539172329009296 -1.5153886419889728 -2.0134683337410118 0.39117535466722897 0.03178596316798357 -0.003788790172738345 0.034437255782751926 -0.8259647782868468 0.7695300988349336 0.060670496402621565 -0.0344369924039348 -0.004237957675334303 0.2 0.18 0.4 2.4186 -2.4185 2.4185 0.0 0.20000000000000018 0.0 0.0 0.0 0.0 -0.0 -1.0 -0.0 0.0 0.0 0.0 
2.008 1.5394400540893234 -1.521855143703464 -2.007417935264329 0.39162361503018217 0.03151824002586868 -0.003820962385566273 0.03250785971426156 -0.7908051168168334 0.7430661384621498 0.05180462018174715 -0.0325076069863844 -0.004067662066451799 0.2 0.18156799999999995 0.4 2.4186 -2.4185 2.4185 0.0 0.19200000000000017 0.0 0.0 0.0 0.0 -0.0 -1.0 -0.0 0.0 0.0 0.0 
2.016 1.5396926675379716 -1.5280415769240467 -2.0015813978069867 0.39200435812501233 0.031265628436141675 -0.0038518239363406937 0.03065827130931406 -0.7559395477900558 0.7160651700435665 0.04376993612037688 -0.030658029217053955 -0.0038974631808578056 0.2 0.18307199999999987 0.4 2.4186 -2.4185 2.4185 0.0 0.18400000000000016 0.0 0.0 0.0 0.0 -0.0 -1.0 -0.0 0.0 0.0 0.0 
2.024 1.539930782662781 -1.5339502165657595 -1.995962917929989 0.3923240549429847 0.031027515091285894 -0.0038813744023578336 0.028882285964107808 -0.7213488955210572 0.6885520121296983 0.03652244607350354 -0.02888205449303937 -0.0037273567138376346 0.2 0.18451200000000015 0.4 2.4186 -2.4185 2.4185 0.0 0.17600000000000016 0.0 0.0 0.0 0.0 -0.0 -1.0 -0.0 0.0 0.0 0.0 
2.032 1.5401549650759694 -1.5395831873924004 -1.9905664957600027 0.39258882995155875 0.030803334379047708 -0.0039096134055818105 0.027174175827967603 -0.6870147856234881 0.660550964293524 0.030019472166220057 -0.02717395496452258 -0.0035573383849118517 0.2 0.18588799999999994 0.4 2.4186 -2.4185 2.4185 0.0 0.16800000000000015 0.0 0.0 0.0 0.0 -0.0 -1.0 -0.0 0.0 0.0 0.0 
2.04 1.5403657363092678 -1.5449424703799575 -1.985395938869214 0.3928044713750114 0.03059256476767949 -0.003936540608176488 0.02552864095208843 -0.6529196331088974 0.6320858742290216 0.024219577835734647 -0.025528430683514326 -0.003387403976425586 0.2 0.1872000000000001 0.4 2.4186 -2.4185 2.4185 0.0 0.16000000000000014 0.0 0.0 0.0 0.0 -0.0 -1.0 -0.0 0.0 0.0 0.0 
2.048 1.5405635770596244 -1.5500299089646747 -1.9804548656419687 0.392976440644736 0.030394725560195384 -0.0039621557084941195 0.02394076573496582 -0.6190466254953544 0.6031801989652926 0.01908248959448792 -0.023940566049304675 -0.0032175491992758624 0.2 0.18844800000000017 0.4 2.4186 -2.4185 2.4185 0.0 0.15200000000000014 0.0 0.0 0.0 0.0 -0.0 -1.0 -0.0 0.0 0.0 0.0 
2.056 1.5407489301053963 -1.554847215139573 -1.975746708173752 0.39310988162087535 0.030209373978233766 -0.003986458437471676 0.022405979995161824 -0.5853797018880444 0.5738570606221988 0.014569020556770158 -0.022405790881207338 -0.0030477698921296823 0.2 0.18963200000000022 0.4 2.4186 -2.4185 2.4185 0.0 0.14400000000000013 0.0 0.0 0.0 0.0 -0.0 -1.0 -0.0 0.0 0.0 0.0 
2.064 1.540922202927618 -1.5593959753689335 -1.9712747147460847 0.39320962872609444 0.030036102540781193 -0.004009448555392079 0.020920024077336858 -0.5519035284354615 0.544139296711473 0.010640995394027906 -0.020919845524619316 -0.0028780618192939308 0.2 0.1907520000000002 0.4 2.4186 -2.4185 2.4185 0.0 0.13600000000000012 0.0 0.0 0.0 0.0 -0.0 -1.0 -0.0 0.0 0.0 0.0 
2.072 1.5410837700665887 -1.563677656295119 -1.9670419519188824 0.3932802149803596 0.029874536707473295 -0.00403112584897302 0.019478917496563043 -0.5186034709851179 0.5140495055026644 0.007261177813031377 -0.01947874949531365 -0.002708420857171192 0.2 0.1918080000000001 0.4 2.4186 -2.4185 2.4185 0.0 0.1280000000000001 0.0 0.0 0.0 0.0 -0.0 -1.0 -0.0 0.0 0.0 0.0 
2.08 1.5412339752402389 -1.5676936102161303 -1.9630513062798114 0.3933258790523251 0.029724332760401158 -0.004051490128750025 0.01807893067222657 -0.4854655651553246 0.4836100864639222 0.004393200059458805 -0.018078773213359992 -0.0025388428649605194 0.2 0.19279999999999994 0.4 2.4186 -2.4185 2.4185 0.0 0.1200000000000001 0.0 0.0 0.0 0.0 -0.0 -1.0 -0.0 0.0 0.0 0.0 
2.088 1.541373133247467 -1.5714450803156605 -1.9593054858881878 0.39335057197713685 0.029585175900640907 -0.004070541226725737 0.016716559375447918 -0.45247648437502236 0.45284327619228737 0.0020014950691367582 -0.016716412450541875 -0.002369323724725478 0.2 0.19372800000000015 0.4 2.4186 -2.4185 2.4185 0.0 0.1120000000000001 0.0 0.0 0.0 0.0 -0.0 -1.0 -0.0 0.0 0.0 0.0 
2.096 1.541501531676767 -1.574933205630235 -1.9558070214489804 0.3933579633824722 0.029456778539731856 -0.00408827899425984 0.015388501553540188 -0.41962350615711236 0.4217711800280723 5.12311768708321e-05 -0.015388365154810874 -0.0021998593897990556 0.2 0.19459199999999985 0.4 2.4186 -2.4185 2.4185 0.0 0.10400000000000009 0.0 0.0 0.0 0.0 -0.0 -1.0 -0.0 0.0 0.0 0.0 
2.104 1.5416194324379662 -1.5781590257403897 -1.9525582672504442 0.39335144691285784 0.029338878767785997 -0.004104703300177719 0.014091636236316317 -0.3868944768157673 0.3904157995436699 -0.0014917507672052327 -0.014091510356609539 -0.002030445771223218 0.2 0.19539199999999995 0.4 2.4186 -2.4185 2.4185 0.0 0.09600000000000009 0.0 0.0 0.0 0.0 -0.0 -1.0 -0.0 0.0 0.0 0.0 
2.112 1.541727073132688 -1.5811234851747704 -1.9495614018969847 0.3933341456247006 0.029231238983187573 -0.004119814029078317 0.012823004271752236 -0.35427777499555785 0.3587990563022453 -0.0026609974855417596 -0.012822888904518666 -0.0018610788782220734 0.2 0.19612799999999997 0.4 2.4186 -2.4185 2.4185 0.0 0.08800000000000008 0.0 0.0 0.0 0.0 -0.0 -1.0 -0.0 0.0 0.0 0.0 
2.12 1.5418246682772245 -1.5838274375177515 -1.9468184288667387 0.3933089164441368 0.0291336446696879 -0.004133611079824415 0.011579790656915652 -0.32176227402862667 0.32694281196388164 -0.0034895011314557125 -0.011579685796201153 -0.0016917547077078988 0.2 0.19679999999999992 0.4 2.4186 -2.4185 2.4185 0.0 0.08000000000000007 0.0 0.0 0.0 0.0 -0.0 -1.0 -0.0 0.0 0.0 0.0 
2.128 1.5419124103897819 -1.5862716492125162 -1.9443311769214144 0.393278354532288 0.029045903309009993 -0.004146094364200835 0.01035930826774771 -0.28933730342722497 0.2948688851443269 -0.004009754585288605 -0.010359213908176365 -0.001522469313317835 0.2 0.19740799999999986 0.4 2.4186 -2.4185 2.4185 0.0 0.07200000000000006 0.0 0.0 0.0 0.0 -0.0 -1.0 -0.0 0.0 0.0 0.0 
2.136 1.541990470952533 -1.588456803052746 -1.9421013003938121 0.39324479685636593 0.028967843418956956 -0.004157263805726696 0.009158982803690551 -0.25699260953386527 0.2625990651689236 -0.0042538046404589904 -0.009158898940459192 -0.0013532187221382116 0.2 0.19795200000000013 0.4 2.4186 -2.4185 2.4185 0.0 0.06400000000000006 0.0 0.0 0.0 0.0 -0.0 -1.0 -0.0 0.0 0.0 0.0 
2.144 1.542059001257562 -1.5903835013570569 -1.9401302793764206 0.3932103258159536 0.028899313707559247 -0.004167119338611354 0.007976338790259902 -0.2247183155589776 0.23015512309997915 -0.004253302895121984 -0.007976265419121692 -0.001183999031902811 0.2 0.1984319999999999 0.4 2.4186 -2.4185 2.4185 0.0 0.05600000000000005 0.0 0.0 0.0 0.0 -0.0 -1.0 -0.0 0.0 0.0 0.0 
2.152 1.5421181331445568 -1.592052268821221 -1.9384194198323124 0.3931767718984107 0.028840182335007587 -0.004175660906844414 0.006808986489844494 -0.19250488097700996 0.19755882016948684 -0.004039554889905099 -0.006808923607106156 -0.0010148063089976073 0.2 0.19884800000000002 0.4 2.4186 -2.4185 2.4185 0.0 0.04800000000000004 0.0 0.0 0.0 0.0 -0.0 -1.0 -0.0 0.0 0.0 0.0 
2.16 1.542167979636994 -1.5934635550438982 -1.9369698536475095 0.39314571668532894 0.02879033627788922 -0.004182888463410377 0.005654609594404812 -0.1603430605112651 0.16483191403285993 -0.0036435672596881624 -0.005654557196910412 -0.0008456367048394688 0.2 0.19920000000000015 0.4 2.4186 -2.4185 2.4185 0.0 0.040000000000000036 0.0 0.0 0.0 0.0 -0.0 -1.0 -0.0 0.0 0.0 0.0 
2.168 1.5422086354825684 -1.594617736722346 -1.9357825386417387 0.3931184945797894 0.028749680788487476 -0.0041888019696218175 0.004510953574354484 -0.1282238626274705 0.13199616295278307 -0.003096093551911533 -0.004510911659486062 -0.0006764863270515066 0.2 0.19948800000000017 0.4 2.4186 -2.4185 2.4185 0.0 0.03200000000000003 0.0 0.0 0.0 0.0 -0.0 -1.0 -0.0 0.0 0.0 0.0 
2.176 1.5422401776026937 -1.5955151195151012 -1.9348582585523646 0.39309619488579406 0.028718138945390784 -0.0041934013945650475 0.0033758145785015483 -0.09613850775704218 0.099073328345236 -0.002427678479859685 -0.0033757831441720955 -0.0005073513082596157 0.2 0.1997120000000001 0.4 2.4186 -2.4185 2.4185 0.0 0.02400000000000002 0.0 0.0 0.0 0.0 -0.0 -1.0 -0.0 0.0 0.0 0.0 
2.184 1.542262665455043 -1.596155939569199 -1.9341976230040387 0.3930796634491103 0.028695651290896663 -0.004196686714652613 0.002247028779169394 -0.0640783862255114 0.0660851758751045 -0.0016687010829451424 -0.0022470078238158845 -0.0003382278123155371 0.2 0.199872 0.4 2.4186 -2.4185 2.4185 0.0 0.016000000000000014 0.0 0.0 0.0 0.0 -0.0 -1.0 -0.0 0.0 0.0 0.0 
2.192 1.542276141312311 -1.5965403647099823 -1.9338010674743702 0.3930695034930485 0.028682175552352293 -0.004198657913279399 0.00112246206622251 -0.032035015949252156 0.03305347538688413 -0.0008494170059650644 -0.0011224515888054235 -0.00016911198834070068 0.2 0.1999679999999998 0.4 2.4186 -2.4185 2.4185 0.0 0.008000000000000007 0.0 0.0 0.0 0.0 -0.0 -1.0 -0.0 0.0 0.0 0.0 
2.2 1.5422806304596244 -1.5966684952920038 -1.9336688532636463 0.3930660766922778 0.028677686444622857 -0.004199314980579216 0.0 0.0 0.0 0.0 0.0 0.0 0.2 0.20000000000000007 0.4 2.4186 -2.4185 2.4185 0.0 0.0 0.0 0.0 0.0 0.0 -0.0 -1.0 -0.0 0.0 0.0 0.0 
