Fleaurent/UniversalRobot/csv/robolib_movej_Dreieck.csv
timestamp target_q_0 target_q_1 target_q_2 target_q_3 target_q_4 target_q_5 target_qd_0 target_qd_1 target_qd_2 target_qd_3 target_qd_4 target_qd_5 target_qdd_0 target_qdd_1 target_qdd_2 target_qdd_3 target_qdd_4 target_qdd_5 target_TCP_pose_0 target_TCP_pose_1 target_TCP_pose_2 target_TCP_pose_3 target_TCP_pose_4 target_TCP_pose_5 target_TCP_speed_0 target_TCP_speed_1 target_TCP_speed_2 target_TCP_speed_3 target_TCP_speed_4 target_TCP_speed_5
0.0 0.0 -1.5707963267948966 -1.5707963267948966 0.0 1.5707963267948966 0.0 0.0 0.0 0.0 0.0 0.0 0.0 1.0 0.0 0.0 0.0 0.0 0.0 295.15 -112.34999999999998 480.9 -1.2091995761561454 1.2091995761561456 -1.2091995761561458 0.0 0.0 0.0 0.0 0.0 0.0 
0.008 3.2e-05 -1.5707963267948966 -1.5707963267948966 0.0 1.5707963267948966 0.0 0.008 0.0 0.0 0.0 0.0 0.0 1.0 0.0 0.0 0.0 0.0 0.0 295.1535950488826 -112.34055514247841 480.9 -1.2092147055764364 1.2091760113249628 -1.209176011324963 -2.631999998652416 -8.422399998548118e-05 2.3612 2.559999999563093e-07 -0.007999999995904 4.898587196589413e-19 
0.016 0.000128 -1.5707963267948966 -1.5707963267948966 0.0 1.5707963267948966 0.0 0.016 0.0 0.0 0.0 0.0 0.0 1.0 0.0 0.0 0.0 0.0 0.0 295.1643783820919 -112.31221987973194 480.9 -1.2092600917893326 1.209105316402997 -1.2091053164029972 -5.263999956877312 -0.0006737919981598094 4.7223999999999995 2.0479999944075947e-06 -0.015999999868928 9.797174393178825e-19 
0.024 0.000288 -1.5707963267948966 -1.5707963267948966 0.0 1.5707963267948966 0.0 0.024 0.0 0.0 0.0 0.0 0.0 1.0 0.0 0.0 0.0 0.0 0.0 295.182344559092 -112.2649921417959 480.9 -1.2093357286510245 1.2089874901051165 -1.2089874901051167 -7.895999672537091 -0.002274047968563127 7.0836 6.911999904448513e-06 -0.023999999004672007 1.4695761589768239e-18 
0.032 0.000512 -1.5707963267948966 -1.5707963267948966 0.0 1.5707963267948966 0.0 0.032 0.0 0.0 0.0 0.0 0.0 1.0 0.0 0.0 0.0 0.0 0.0 295.2074845115868 -112.19886848066349 480.9 -1.2094416059222521 1.2088225302898576 -1.2088225302898579 -10.527998620074014 -0.005390335764492052 9.444799999999999 1.6383999284172125e-05 -0.03199999580569609 1.959434878635765e-18 
0.04 0.0008 -1.5707963267948966 -1.5707963267948966 0.0 1.5707963267948966 0.0 0.04 0.0 0.0 0.0 0.0 0.0 1.0 0.0 0.0 0.0 0.0 0.0 295.23978554241785 -112.11384407318803 480.9 -1.209577709268942 1.2086104339600623 -1.2086104339600627 -13.159995788800225 -0.010527998877012645 11.806 3.199999658666678e-05 -0.03999998720000068 2.4492935982947064e-18 
0.048 0.001152 -1.5707963267948966 -1.5707963267948966 0.0 1.5707963267948966 0.0 0.048 0.0 0.0 0.0 0.0 0.0 1.0 0.0 0.0 0.0 0.0 0.0 295.2792313240216 -112.00991272514642 480.9 -1.2097440202630958 1.2083511972637653 -1.2083511972637655 -15.791989521187975 -0.018192379976135136 14.167200000000001 5.5295987769410345e-05 -0.04799996814950752 2.9391523179536477e-18 
0.056 0.0015680000000000002 -1.5707963267948966 -1.5707963267948966 0.0 1.5707963267948966 0.0 0.056 0.0 0.0 0.0 0.0 0.0 1.0 0.0 0.0 0.0 0.0 0.0 295.32580189645034 -111.88706687646494 480.9 -1.2099405163839287 1.208044815495334 -1.2080448154953343 -18.42397735116035 -0.028888820162204495 16.528399999999994 8.780796401886173e-05 -0.055999931158542106 3.429011037612589e-18 
0.064 0.002048 -1.5707963267948966 -1.5707963267948966 0.0 1.5707963267948966 0.0 0.064 0.0 0.0 0.0 0.0 0.0 1.0 0.0 0.0 0.0 0.0 0.0 295.379473664957 -111.74529760760825 480.9 -1.21016717101927 1.2076912830968698 -1.20769128309687 -21.05595584238292 -0.043122657855061364 18.889599999999994 0.00013107190837405023 -0.06399986578231892 3.91886975727153e-18 
0.072 0.0025920000000000006 -1.5707963267948966 -1.5707963267948966 0.0 1.5707963267948966 0.0 0.07200000000000001 0.0 0.0 0.0 0.0 0.0 1.0 0.0 0.0 0.0 0.0 0.0 295.4402193971484 -111.58459464713222 480.9 -1.2104239534672074 1.2072905936598501 -1.2072905936598504 -23.687920426556936 -0.061399227248528504 21.2508 0.00018662379102896598 -0.07199975813543141 4.408728476930472e-18 
0.08 0.0032 -1.5707963267948966 -1.5707963267948966 0.0 1.5707963267948966 0.0 0.08 0.0 0.0 0.0 0.0 0.0 1.0 0.0 0.0 0.0 0.0 0.0 295.50800821970904 -111.40494638040256 480.9 -1.2107108289379842 1.2068427399270305 -1.206842739927031 -26.319865241714993 -0.08422385625777883 23.612 0.00025599956309355705 -0.07999959040034953 4.898587196589413e-18 
0.088 0.0038719999999999996 -1.5707963267948966 -1.5707963267948966 0.0 1.5707963267948966 0.0 0.088 0.0 0.0 0.0 0.0 0.0 1.0 0.0 0.0 0.0 0.0 0.0 295.5828056147004 -111.20633985948024 480.9 -1.2110277585561553 1.206347713794597 -1.2063477137945973 -28.951782970520366 -0.11210186388714335 25.973200000000002 0.00034073514859314576 -0.08799934033592816 5.388445916248354e-18 
0.096 0.004608 -1.5707963267948966 -1.5707963267948966 0.0 1.5707963267948966 0.0 0.096 0.0 0.0 0.0 0.0 0.0 1.0 0.0 0.0 0.0 0.0 0.0 295.6645734154394 -110.98876081417534 480.9 -1.2113746993629853 1.2058055063145694 -1.2058055063145698 -31.583664678571456 -0.14553855694591944 28.3344 0.00044236643448608266 -0.09599898078593148 5.8783046359072955e-18 
0.104 0.005408000000000001 -1.5707963267948966 -1.5707963267948966 0.0 1.5707963267948966 0.0 0.10400000000000001 0.0 0.0 0.0 0.0 0.0 1.0 0.0 0.0 0.0 0.0 0.0 295.75326980196127 -110.75219366427145 480.9 -1.211751604319099 1.2052161076974512 -1.2052161076974515 -34.21549965271334 -0.18503922603974343 30.6956 0.0005624292584794691 -0.10399847918757854 6.368163355566237e-18 
0.112 0.006272000000000001 -1.5707963267948966 -1.5707963267948966 0.0 1.5707963267948966 0.0 0.112 0.0 0.0 0.0 0.0 0.0 1.0 0.0 0.0 0.0 0.0 0.0 295.8488492960722 -110.49662153292248 480.9 -1.212158422307384 1.204579507315135 -1.2045795073151353 -36.84727523935867 -0.23110914076509698 33.05679999999999 0.0007024593944227934 -0.11199779708011755 6.858022075225178e-18 
0.12 0.0072 -1.5707963267948966 -1.5707963267948966 0.0 1.5707963267948966 0.0 0.12 0.0 0.0 0.0 0.0 0.0 1.0 0.0 0.0 0.0 0.0 0.0 295.95126275599847 -110.22202626122389 480.9 -1.212595098136135 1.203895693704051 -1.2038956937040513 -39.478976682820736 -0.2842535440345237 35.418 0.0008639925350593491 -0.1199968896134369 7.347880794884118e-18 
0.128 0.008192 -1.5707963267948966 -1.5707963267948966 0.0 1.5707963267948966 0.0 0.128 0.0 0.0 0.0 0.0 0.0 1.0 0.0 0.0 0.0 0.0 0.0 296.06045737063687 -109.92838842396122 480.9 -1.2130615725424498 1.2031646545685644 -1.2031646545685646 -42.11058696366191 -0.3449776454601391 37.779199999999996 0.0010485642719153235 -0.12799570505672314 7.83773951454306e-18 
0.136 0.009248000000000001 -1.5707963267948966 -1.5707963267948966 0.0 1.5707963267948966 0.0 0.136 0.0 0.0 0.0 0.0 0.0 1.0 0.0 0.0 0.0 0.0 0.0 296.17637665341584 -109.61568734653784 480.9 -1.2135577821958687 1.202386376784623 -1.2023863767846232 -44.74208663706135 -0.4137866137230303 40.1404 0.0012577100721064827 -0.13599418430717736 8.327598234202002e-18 
0.144 0.010368000000000002 -1.5707963267948966 -1.5707963267948966 0.0 1.5707963267948966 0.0 0.14400000000000002 0.0 0.0 0.0 0.0 0.0 1.0 0.0 0.0 0.0 0.0 0.0 296.2989604357729 -109.28390112308516 480.9 -1.2140836597022584 1.201560846403644 -1.2015608464036442 -47.373453671206306 -0.491185567856154 42.5016 0.0014929652518424214 -0.14399226039880336 8.817456953860944e-18 
0.152 0.011552 -1.5707963267948966 -1.5707963267948966 0.0 1.5707963267948966 0.0 0.152 0.0 0.0 0.0 0.0 0.0 1.0 0.0 0.0 0.0 0.0 0.0 296.4281448602577 -108.93300663575795 480.9 -1.2146391336079376 1.2006880486566487 -1.200688048656649 -50.00466328571211 -0.5776795673683581 44.86280000000001 0.001755864946408392 -0.15198985801128304 9.307315673519884e-18 
0.16 0.0128 -1.5707963267948966 -1.5707963267948966 0.0 1.5707963267948966 0.0 0.16 0.0 0.0 0.0 0.0 0.0 1.0 0.0 0.0 0.0 0.0 0.0 296.5638623732683 -108.56297957521768 480.9 -1.2152241284040484 1.1997679679586404 -1.1997679679586406 -52.63568779007652 -0.6737736011371748 47.22399999999998 0.0020479440764047947 -0.159986892978956 9.797174393178826e-18 
0.168 0.014112000000000001 -1.5707963267948966 -1.5707963267948966 0.0 1.5707963267948966 0.0 0.168 0.0 0.0 0.0 0.0 0.0 1.0 0.0 0.0 0.0 0.0 0.0 296.70604171743196 -108.1737944623074 480.9 -1.2158385645311605 1.1988005879132215 -1.1988005879132217 -55.266496422174725 -0.7799725749980484 49.58520000000001 0.002370737310024472 -0.16798327179992317 1.0287033112837767e-17 
0.176 0.015487999999999998 -1.5707963267948966 -1.5707963267948966 0.0 1.5707963267948966 0.0 0.176 0.0 0.0 0.0 0.0 0.0 1.0 0.0 0.0 0.0 0.0 0.0 296.8546079236366 -107.7654246709212 480.9 -1.21648235838412 1.1977858913174522 -1.1977858913174524 -57.89705518680232 -0.896781297957708 51.946400000000004 0.002725779021148058 -0.1759788911452958 1.0776891832496707e-17 
0.184 0.016928 -1.5707963267948966 -1.5707963267948966 0.0 1.5707963267948966 0.0 0.184 0.0 0.0 0.0 0.0 0.0 1.0 0.0 0.0 0.0 0.0 0.0 297.0094823027274 -107.33784245207201 480.9 -1.2171554223171324 1.1967238601669474 -1.1967238601669477 -60.52732669427415 -1.024704466959407 54.307599999999994 0.003114603243037721 -0.18397363736861447 1.1266750552155649e-17 
0.192 0.018432 -1.5707963267948966 -1.5707963267948966 0.0 1.5707963267948966 0.0 0.192 0.0 0.0 0.0 0.0 0.0 1.0 0.0 0.0 0.0 0.0 0.0 297.1705824368763 -106.891018959161 480.9 -1.217857664649078 1.195614475661211 -1.1956144756612113 -63.157269999087724 -1.1642466501278055 56.668800000000005 0.0035387436174097535 -0.19196738601546423 1.1756609271814591e-17 
0.2 0.020000000000000004 -1.5707963267948966 -1.5707963267948966 0.0 1.5707963267948966 0.0 0.2 0.0 0.0 0.0 0.0 0.0 1.0 0.0 0.0 0.0 0.0 0.0 297.3378221706364 -106.42492427445274 480.9 -1.2185889896690676 1.194457718209207 -1.1944577182092075 -65.78684043866082 -1.3159122684213136 59.03 0.0039997333386666166 -0.19996000133331557 1.2246467991473533e-17 
0.208 0.021632000000000005 -1.5707963267948966 -1.5707963267948966 0.0 1.5707963267948966 0.0 0.20800000000000002 0.0 0.0 0.0 0.0 0.0 1.0 0.0 0.0 0.0 0.0 0.0 297.51111160169467 -105.93952743675972 480.9 -1.2193492976422196 1.1932535674351608 -1.193253567435161 -68.41598947215414 -1.4802055756197636 61.3912 0.004499105093069202 -0.2079513357816235 1.2736326711132474e-17 
0.216 0.023327999999999998 -1.5707963267948966 -1.5707963267948966 0.0 1.5707963267948966 0.0 0.216 0.0 0.0 0.0 0.0 0.0 1.0 0.0 0.0 0.0 0.0 0.0 297.69035707133327 -105.4347964703403 480.9 -1.2201384848156724 1.192002002184595 -1.1920020021845952 -71.0446645193901 -1.6576306365753446 63.752399999999994 0.005038390992630239 -0.21594122954221914 1.3226185430791415e-17 
0.224 0.025088000000000003 -1.5707963267948966 -1.5707963267948966 0.0 1.5707963267948966 0.0 0.224 0.0 0.0 0.0 0.0 0.0 1.0 0.0 0.0 0.0 0.0 0.0 297.8754611546139 -104.91069841501428 480.9 -1.2209564434248221 1.1907030005305959 -1.190703000530596 -73.67280879988078 -1.8486913036547907 66.11359999999999 0.005619122503510014 -0.22392951003003278 1.3716044150450356e-17 
0.232 0.026912000000000002 -1.5707963267948966 -1.5707963267948966 0.0 1.5707963267948966 0.0 0.232 0.0 0.0 0.0 0.0 0.0 1.0 0.0 0.0 0.0 0.0 0.0 298.0663226502984 -104.36719935750016 480.9 -1.2218030616997861 1.1893565397803083 -1.1893565397803085 -76.30036117197805 -2.053891191300898 68.4748 0.006242830368695751 -0.23191599140418862 1.4205902870109297e-17 
0.24 0.0288 -1.5707963267948966 -1.5707963267948966 0.0 1.5707963267948966 0.0 0.24 0.0 0.0 0.0 0.0 0.0 1.0 0.0 0.0 0.0 0.0 0.0 298.2628365705195 -103.80426446397853 480.9 -1.2226782238720857 1.187962596481655 -1.1879625964816551 -78.92725597216106 -2.2737336486415383 70.836 0.0069110445247463305 -0.23990047407951692 1.4695761589768237e-17 
0.248 0.030751999999999998 -1.5707963267948966 -1.5707963267948966 0.0 1.5707963267948966 0.0 0.248 0.0 0.0 0.0 0.0 0.0 1.0 0.0 0.0 0.0 0.0 0.0 298.46489413021624 -103.2218580138858 480.9 -1.2235818101815525 1.1865211464302812 -1.1865211464302814 -81.55342285447652 -2.50872173007442 73.1972 0.007625294012384268 -0.24788274423853046 1.518562030942718e-17 
0.256 0.032768 -1.5707963267948966 -1.5707963267948966 0.0 1.5707963267948966 0.0 0.256 0.0 0.0 0.0 0.0 0.0 1.0 0.0 0.0 0.0 0.0 0.0 298.6723827363506 -102.61994343494302 480.9 -1.2245136968834491 1.1850321646767241 -1.1850321646767243 -84.17878663014876 -2.7593581637559557 75.55839999999999 0.008387106880717204 -0.25586257334391727 1.567547902908612e-17 
0.264 0.034848000000000004 -1.5707963267948966 -1.5707963267948966 0.0 1.5707963267948966 0.0 0.264 0.0 0.0 0.0 0.0 0.0 1.0 0.0 0.0 0.0 0.0 0.0 298.8851859769186 -101.99848333942413 480.9 -1.2254737562558078 1.1834956255337983 -1.1834956255337985 -86.80326710737802 -3.0261453179227353 77.9196 0.00919801008487155 -0.2638397176516049 1.6165337748745064e-17 
0.272 0.036992000000000004 -1.5707963267948966 -1.5707963267948966 0.0 1.5707963267948966 0.0 0.272 0.0 0.0 0.0 0.0 0.0 1.0 0.0 0.0 0.0 0.0 0.0 299.10318360977504 -101.35743956166809 480.9 -1.2264618566069785 1.1819115025842022 -1.1819115025842024 -89.42677893134575 -3.3095851649742074 80.2808 0.010059529376821313 -0.2718139177244552 1.6655196468404004e-17 
0.28 0.039200000000000006 -1.5707963267948966 -1.5707963267948966 0.0 1.5707963267948966 0.0 0.28 0.0 0.0 0.0 0.0 0.0 1.0 0.0 0.0 0.0 0.0 0.0 299.32625155128665 -100.69677319684001 480.9 -1.227477862283392 1.180279768688341 -1.1802797686883413 -92.04923142444831 -3.61017924324534 82.64199999999998 0.010973189189195577 -0.2797848979466514 1.7145055188062947e-17 
0.288 0.04147200000000001 -1.5707963267948966 -1.5707963267948966 0.0 1.5707963267948966 0.0 0.28800000000000003 0.0 0.0 0.0 0.0 0.0 1.0 0.0 0.0 0.0 0.0 0.0 299.5542618648326 -100.01644464094551 480.9 -1.228521633677521 1.1786003959923594 -1.1786003959923597 -94.67052842678056 -3.9284286163981794 85.00320000000002 0.011940512511848583 -0.2877523660388467 1.7634913907721887e-17 
0.296 0.04380799999999999 -1.5707963267948966 -1.5707963267948966 0.0 1.5707963267948966 0.0 0.296 0.0 0.0 0.0 0.0 0.0 1.0 0.0 0.0 0.0 0.0 0.0 299.78708274916875 -99.3164136321033 480.9 -1.229593027236055 1.1768733559363898 -1.17687335593639 -97.29056813689292 -4.264833830361407 87.36439999999999 0.012963020760976936 -0.29571601257414265 1.8124772627380827e-17 
0.304 0.046208 -1.5707963267948966 -1.5707963267948966 0.0 1.5707963267948966 0.0 0.304 0.0 0.0 0.0 0.0 0.0 1.0 0.0 0.0 0.0 0.0 0.0 300.0245785266769 -98.59663929308057 480.9 -1.230691895468271 1.1750986192630084 -1.1750986192630086 -99.90924295284678 -4.6198948677472 89.72559999999999 0.014042233640569012 -0.303675510494975 1.8614631347039768e-17 
0.312 0.048672 -1.5707963267948966 -1.5707963267948966 0.0 1.5707963267948966 0.0 0.312 0.0 0.0 0.0 0.0 0.0 1.0 0.0 0.0 0.0 0.0 0.0 300.26660963151534 -97.85708017509612 480.9 -1.2318180869546018 1.1732761560258933 -1.1732761560258935 -102.52643931359417 -4.994111099674857 92.08680000000001 0.015179668995972229 -0.3116305146309853 1.910449006669871e-17 
0.32 0.0512 -1.5707963267948966 -1.5707963267948966 0.0 1.5707963267948966 0.0 0.32 0.0 0.0 0.0 0.0 0.0 1.0 0.0 0.0 0.0 0.0 0.0 300.51303259769185 -97.09769430289576 480.9 -1.2329714463554022 1.1714059355986934 -1.1714059355986937 -105.14203754070981 -5.3879812349309795 94.448 0.016376842659364697 -0.31958066121796297 1.959434878635765e-17 
0.328 0.053792000000000006 -1.5707963267948966 -1.5707963267948966 0.0 1.5707963267948966 0.0 0.328 0.0 0.0 0.0 0.0 0.0 1.0 0.0 0.0 0.0 0.0 0.0 300.76370004708065 -96.31843922110498 480.9 -1.2341518144199064 1.1694879266840952 -1.1694879266840954 -107.75591168050471 -5.802003266396133 96.80920000000002 0.017635268286918353 -0.3275255674179474 2.0084207506016594e-17 
0.336 0.056448000000000005 -1.5707963267948966 -1.5707963267948966 0.0 1.5707963267948966 0.0 0.336 0.0 0.0 0.0 0.0 0.0 1.0 0.0 0.0 0.0 0.0 0.0 301.0184606774018 -95.51927204186333 480.9 -1.2353590279953721 1.1675220973230866 -1.1675220973230869 -110.36792934655168 -6.2366744146682604 99.1704 0.01895645718744154 -0.3354648308405826 2.0574066225675535e-17 
0.344 0.05916800000000001 -1.5707963267948966 -1.5707963267948966 0.0 1.5707963267948966 0.0 0.34400000000000003 0.0 0.0 0.0 0.0 0.0 1.0 0.0 0.0 0.0 0.0 0.0 301.2771592501865 -94.7001494937454 480.9 -1.2365929200364143 1.1655084149044206 -1.1655084149044208 -112.97795156265605 -6.692491068813395 101.5316 0.020341918142289972 -0.34339802906582384 2.1063924945334478e-17 
0.352 0.06195199999999999 -1.5707963267948966 -1.5707963267948966 0.0 1.5707963267948966 0.0 0.352 0.0 0.0 0.0 0.0 0.0 1.0 0.0 0.0 0.0 0.0 0.0 301.5396365787498 -93.86102797197294 480.9 -1.2378533196145127 1.163446846174269 -1.1634468461742693 -115.58583260630478 -7.169948724174478 103.89279999999998 0.021793157216335818 -0.3513247191680996 2.1553783664993415e-17 
0.36 0.0648 -1.5707963267948966 -1.5707963267948966 0.0 1.5707963267948966 0.0 0.36 0.0 0.0 0.0 0.0 0.0 1.0 0.0 0.0 0.0 0.0 0.0 301.8057295161929 -93.00186358992268 480.9 -1.2391400519277098 1.1613373572460712 -1.1613373572460715 -118.19141985263049 -7.6695419171695445 106.25399999999999 0.02331167755978587 -0.359244437242038 2.2043642384652358e-17 
0.368 0.067712 -1.5707963267948966 -1.5707963267948966 0.0 1.5707963267948966 0.0 0.368 0.0 0.0 0.0 0.0 0.0 1.0 0.0 0.0 0.0 0.0 0.0 302.0752709434597 -92.12261223193445 480.9 -1.240452938310473 1.159179913610567 -1.1591799136105674 -120.79455361892735 -8.19176415701072 108.61519999999997 0.02489897920064051 -0.3671566979298704 2.2533501104311298e-17 
0.376 0.070688 -1.5707963267948966 -1.5707963267948966 0.0 1.5707963267948966 0.0 0.376 0.0 0.0 0.0 0.0 0.0 1.0 0.0 0.0 0.0 0.0 0.0 302.3480897574701 -91.22322960742385 480.9 -1.2417917962437328 1.1569744801460164 -1.156974480146017 -123.39506700975832 -8.737107854276083 110.9764 0.026556558827586896 -0.3750609939506332 2.3023359823970242e-17 
0.384 0.073728 -1.5707963267948966 -1.5707963267948966 0.0 1.5707963267948966 0.0 0.384 0.0 0.0 0.0 0.0 0.0 1.0 0.0 0.0 0.0 0.0 0.0 302.62401085935505 -90.30367130630366 480.9 -1.2431564393650893 1.1547210211286019 -1.154721021128602 -125.99278576269498 -9.306064246266645 113.3376 0.02828590956312052 -0.38295679563129176 2.3513218543629182e-17 
0.392 0.07683200000000001 -1.5707963267948966 -1.5707963267948966 0.0 1.5707963267948966 0.0 0.392 0.0 0.0 0.0 0.0 0.0 1.0 0.0 0.0 0.0 0.0 0.0 302.902855142819 -89.36389285571877 480.9 -1.244546677479181 1.1524195002430102 -1.1524195002430104 -128.5875280947325 -9.899123319081324 115.69879999999999 0.030088520726690972 -0.3908435504399164 2.4003077263288125e-17 
0.4 0.08000000000000002 -1.5707963267948966 -1.5707963267948966 0.0 1.5707963267948966 0.0 0.4 0.0 0.0 0.0 0.0 0.0 1.0 0.0 0.0 0.0 0.0 0.0 303.1844394826546 -88.40384977809795 480.9 -1.245962316568212 1.1500698805931906 -1.1500698805931908 -131.17910454942472 -10.516773726343123 118.05999999999997 0.031965877587669084 -0.39872068252104775 2.4492935982947065e-17 
0.408 0.08323200000000001 -1.5707963267948966 -1.5707963267948966 0.0 1.5707963267948966 0.0 0.40800000000000003 0.0 0.0 0.0 0.0 0.0 1.0 0.0 0.0 0.0 0.0 0.0 303.4685767234366 -87.42349765052661 480.9 -1.247403158802641 1.1476721247132875 -1.1476721247132877 -133.7673178447861 -11.159502704510334 120.4212 0.033919461107934167 -0.4065875922333924 2.498279470260601e-17 
0.416 0.08652800000000002 -1.5707963267948966 -1.5707963267948966 0.0 1.5707963267948966 0.0 0.41600000000000004 0.0 0.0 0.0 0.0 0.0 1.0 0.0 0.0 0.0 0.0 0.0 303.7550756684213 -86.42279216544465 480.9 -1.2488690025520166 1.145226194578745 -1.1452261945787452 -136.35196272200906 -11.827795984707086 122.7824 0.03595074767388174 -0.41444365568999714 2.547265342226495e-17 
0.424 0.089888 -1.5707963267948966 -1.5707963267948966 0.0 1.5707963267948966 0.0 0.424 0.0 0.0 0.0 0.0 0.0 1.0 0.0 0.0 0.0 0.0 0.0 304.04374106867937 -85.40168919267246 480.9 -1.2503596423959624 1.1427320516175752 -1.1427320516175754 -138.93282579504742 -12.522137701008075 125.14359999999996 0.03806120881765375 -0.42228822430105595 2.5962512141923886e-17 
0.432 0.09331199999999999 -1.5707963267948966 -1.5707963267948966 0.0 1.5707963267948966 0.0 0.432 0.0 0.0 0.0 0.0 0.0 1.0 0.0 0.0 0.0 0.0 0.0 304.3343736124907 -84.36014484276872 480.9 -1.2518748691353065 1.140189656721796 -1.1401896567217962 -141.5096854011185 -13.243010295113079 127.50480000000002 0.0402523109273954 -0.4301206243195091 2.645237086158283e-17 
0.44 0.0968 -1.5707963267948966 -1.5707963267948966 0.0 1.5707963267948966 0.0 0.44 0.0 0.0 0.0 0.0 0.0 1.0 0.0 0.0 0.0 0.0 0.0 304.6267699150285 -83.29811553172306 480.9 -1.2534144698033538 1.1375989702590303 -1.1375989702590306 -144.08231145217874 -13.990894417347281 129.86599999999999 0.042525514946344344 -0.4379401563896011 2.694222958124177e-17 
0.448 0.10035200000000001 -1.5707963267948966 -1.5707963267948966 0.0 1.5707963267948966 0.0 0.448 0.0 0.0 0.0 0.0 0.0 1.0 0.0 0.0 0.0 0.0 0.0 304.9207225083637 -82.21555804698657 480.9 -1.254978227677287 1.1349599520842613 -1.1349599520842617 -146.65046528742963 -14.766268823924332 132.22719999999995 0.044882276060560305 -0.44574609509857027 2.7432088300900713e-17 
0.456 0.103968 -1.5707963267948966 -1.5707963267948966 0.0 1.5707963267948966 0.0 0.456 0.0 0.0 0.0 0.0 0.0 1.0 0.0 0.0 0.0 0.0 0.0 305.21601983181864 -81.11242961484298 480.9 -1.256565922289704 1.132272561551745 -1.1322725615517453 -149.21389952691254 -15.569610270409669 134.5884 0.04732404337510541 -0.4535376885316491 2.792194702055965e-17 
0.464 0.10764800000000001 -1.5707963267948966 -1.5707963267948966 0.0 1.5707963267948966 0.0 0.464 0.0 0.0 0.0 0.0 0.0 1.0 0.0 0.0 0.0 0.0 0.0 305.5124462227003 -79.9886879691225 480.9 -1.2581773294402823 1.129536757527078 -1.1295367575270783 -151.77235792625433 -16.4013934013224 136.9496 0.049852259578487566 -0.46131415783056035 2.8411805740218593e-17 
0.472 0.11139200000000002 -1.5707963267948966 -1.5707963267948966 0.0 1.5707963267948966 0.0 0.47200000000000003 0.0 0.0 0.0 0.0 0.0 1.0 0.0 0.0 0.0 0.0 0.0 305.8097819074453 -78.84429142126089 480.9 -1.2598122212075618 1.1267524983994113 -1.1267524983994115 -154.32557523262602 -17.262090635814893 139.3108 0.05246836059518208 -0.4690746967557022 2.890166445987754e-17 
0.48 0.1152 -1.5707963267948966 -1.5707963267948966 0.0 1.5707963267948966 0.0 0.48 0.0 0.0 0.0 0.0 0.0 1.0 0.0 0.0 0.0 0.0 0.0 306.1078029932077 -77.67919893170574 480.9 -1.2614703659608488 1.1239197420938114 -1.1239197420938116 -156.8732770419808 -18.152172049370048 141.672 0.05517377522604881 -0.4768184712522213 2.9391523179536474e-17 
0.488 0.119072 -1.5707963267948966 -1.5707963267948966 0.0 1.5707963267948966 0.0 0.488 0.0 0.0 0.0 0.0 0.0 1.0 0.0 0.0 0.0 0.0 0.0 306.4062814599219 -76.49337018267077 480.9 -1.2631515283722325 1.1210384460837686 -1.1210384460837688 -159.41517965763907 -19.072105251457174 144.0332 0.0579699247764656 -0.48454461902017953 2.988138189919542e-17 
0.496 0.12300799999999999 -1.5707963267948966 -1.5707963267948966 0.0 1.5707963267948966 0.0 0.496 0.0 0.0 0.0 0.0 0.0 1.0 0.0 0.0 0.0 0.0 0.0 306.704985152874 -75.28676565224029 480.9 -1.26485546942871 1.1181085674038405 -1.1181085674038407 -161.95098995028977 -20.022355259088165 146.3944 0.060858222672000535 -0.4922522490890267 3.037124061885436e-17 
0.504 0.127008 -1.5707963267948966 -1.5707963267948966 0.0 1.5707963267948966 0.0 0.504 0.0 0.0 0.0 0.0 0.0 1.0 0.0 0.0 0.0 0.0 0.0 307.00367777581505 -74.05934668982387 480.9 -1.2665819464444141 1.1151300626624359 -1.1151300626624363 -164.48040521948184 -21.003384366217 148.7556 0.06384007406144988 -0.4999404413966013 3.08610993385133e-17 
0.512 0.131072 -1.5707963267948966 -1.5707963267948966 0.0 1.5707963267948966 0.0 0.512 0.0 0.0 0.0 0.0 0.0 1.0 0.0 0.0 0.0 0.0 0.0 307.3021188846506 -72.81107559296223 480.9 -1.268330713072941 1.1121028880547332 -1.1121028880547335 -167.00311305667884 -22.015652008926192 151.11679999999998 0.06691687540707052 -0.507608246372884 3.135095805817224e-17 
0.52 0.13520000000000001 -1.5707963267948966 -1.5707963267948966 0.0 1.5707963267948966 0.0 0.52 0.0 0.0 0.0 0.0 0.0 1.0 0.0 0.0 0.0 0.0 0.0 307.6000638817408 -71.54191568548418 480.9 -1.2701015193197747 1.1090269993757274 -1.1090269993757278 -169.51879120995537 -23.0596146263454 153.47799999999995 0.07009001406184015 -0.5152546845287397 3.1840816777831187e-17 
0.528 0.13939200000000002 -1.5707963267948966 -1.5707963267948966 0.0 1.5707963267948966 0.0 0.528 0.0 0.0 0.0 0.0 0.0 1.0 0.0 0.0 0.0 0.0 0.0 307.8972640108474 -70.25183139701446 480.9 -1.271894111554794 1.1059023520334073 -1.1059023520334075 -172.02710745041335 -24.13572551724804 155.83920000000003 0.07336086783358071 -0.5228787460498886 3.233067549749013e-17 
0.536 0.14364800000000003 -1.5707963267948966 -1.5707963267948966 0.0 1.5707963267948966 0.0 0.536 0.0 0.0 0.0 0.0 0.0 1.0 0.0 0.0 0.0 0.0 0.0 308.193466352762 -68.94078834383129 480.9 -1.2737082325248719 1.1027289010620551 -1.1027289010620553 -174.5277194404016 -25.24443469227352 158.2004 0.0767308045357858 -0.5304793903963575 3.282053421714907e-17 
0.544 0.14796800000000002 -1.5707963267948966 -1.5707963267948966 0.0 1.5707963267948966 0.0 0.544 0.0 0.0 0.0 0.0 0.0 1.0 0.0 0.0 0.0 0.0 0.0 308.48841382165506 -67.60875341107318 480.9 -1.2755436213665516 1.0995066011356742 -1.0995066011356744 -177.0202746036216 -26.38618872172335 160.5616 0.08020118152499502 -0.5380555459076645 3.331039293680801e-17 
0.552 0.15235200000000002 -1.5707963267948966 -1.5707963267948966 0.0 1.5707963267948966 0.0 0.552 0.0 0.0 0.0 0.0 0.0 1.0 0.0 0.0 0.0 0.0 0.0 308.7818451621793 -66.25569483629245 480.9 -1.2774000136187915 1.0962354065815236 -1.0962354065815239 -179.50440999720735 -27.56143057888137 162.9228 0.08377334522456348 -0.545606109414004 3.3800251656466954e-17 
0.56 0.15680000000000002 -1.5707963267948966 -1.5707963267948966 0.0 1.5707963267948966 0.0 0.56 0.0 0.0 0.0 0.0 0.0 1.0 0.0 0.0 0.0 0.0 0.0 309.07349494736843 -64.88158229435392 480.9 -1.2792771412357875 1.0929152713937798 -1.09291527139378 -181.97975218586808 -28.770599478809103 165.284 0.08744863063467816 -0.5531299458537023 3.4290110376125894e-17 
0.568 0.16131200000000004 -1.5707963267948966 -1.5707963267948966 0.0 1.5707963267948966 0.0 0.5680000000000001 0.0 0.0 0.0 0.0 0.0 1.0 0.0 0.0 0.0 0.0 0.0 309.36309357736735 -63.48638698367569 480.9 -1.2811747325998544 1.089546149247304 -1.0895461492473042 -184.44591711818623 -30.014130712569095 167.64520000000002 0.09122836082847753 -0.5606258878972226 3.4779969095784834e-17 
0.576 0.16588800000000004 -1.5707963267948966 -1.5707963267948966 0.0 1.5707963267948966 0.0 0.5760000000000001 0.0 0.0 0.0 0.0 0.0 1.0 0.0 0.0 0.0 0.0 0.0 309.65036727903464 -62.07008171380913 480.9 -1.283092512534367 1.086127993511522 -1.0861279935115224 -186.90251000516443 -31.29245547683052 170.00640000000004 0.09511384643413535 -0.5680927355780074 3.5269827815443774e-17 
0.584 0.17052799999999999 -1.5707963267948966 -1.5707963267948966 0.0 1.5707963267948966 0.0 0.584 0.0 0.0 0.0 0.0 0.0 1.0 0.0 0.0 0.0 0.0 0.0 309.9350381064552 -60.63264099435358 480.9 -1.2850302023167552 1.0826607572644071 -1.0826607572644074 -189.34912520111894 -32.60600069881276 172.36759999999998 0.09910638510277439 -0.5755292559304527 3.575968653510271e-17 
0.592 0.17523199999999997 -1.5707963267948966 -1.5707963267948966 0.0 1.5707963267948966 0.0 0.592 0.0 0.0 0.0 0.0 0.0 1.0 0.0 0.0 0.0 0.0 0.0 310.21682394240463 -59.17404112520218 480.9 -1.2869875196915488 1.0791443933065696 -1.0791443933065699 -191.78534608701924 -33.955188856524565 174.72879999999998 0.10320726096208077 -0.5829341826353168 3.6249545254761655e-17 
0.6 0.18 -1.5707963267948966 -1.5707963267948966 0.0 1.5707963267948966 0.0 0.6 0.0 0.0 0.0 0.0 0.0 1.0 0.0 0.0 0.0 0.0 0.0 310.49543850080534 -57.694260288113426 480.9 -1.2889641788834592 1.0755788541754445 -1.0755788541754447 -194.21074495637518 -35.34043779425768 177.08999999999997 0.10741774405549451 -0.5903062156728729 3.6739403974420595e-17 
0.608 0.184832 -1.5707963267948966 -1.5707963267948966 0.0 1.5707963267948966 0.0 0.608 0.0 0.0 0.0 0.0 0.0 1.0 0.0 0.0 0.0 0.0 0.0 310.7705913302158 -56.19327863960257 480.9 -1.290959890610505 1.0719640921595757 -1.0719640921595759 -196.62488290377735 -36.76216053329629 179.45119999999997 0.11173908976685805 -0.5976440209841256 3.7229262694079535e-17 
0.616 0.189728 -1.5707963267948966 -1.5707963267948966 0.0 1.5707963267948966 0.0 0.616 0.0 0.0 0.0 0.0 0.0 1.0 0.0 0.0 0.0 0.0 0.0 311.04198781839443 -54.67107840514705 480.9 -1.2929743620971663 1.0683000593129957 -1.0683000593129959 -199.02730971619764 -38.22076507780476 181.8124 0.11617253823040963 -0.6049462301404184 3.7719121413738475e-17 
0.624 0.194688 -1.5707963267948966 -1.5707963267948966 0.0 1.5707963267948966 0.0 0.624 0.0 0.0 0.0 0.0 0.0 1.0 0.0 0.0 0.0 0.0 0.0 311.30932919798215 -53.12764397469877 480.9 -1.2950072970875648 1.064586707469696 -1.0645867074696962 -201.4175637671599 -39.71665421585853 184.1736 0.12071931372601383 -0.6122114400217626 3.820898013339742e-17 
0.632 0.199712 -1.5707963267948966 -1.5707963267948966 0.0 1.5707963267948966 0.0 0.632 0.0 0.0 0.0 0.0 0.0 1.0 0.0 0.0 0.0 0.0 0.0 311.57231255334386 -51.5629619994952 480.9 -1.2970583958586641 1.0608239882581854 -1.0608239882581856 -203.79517191389365 -41.250225315584984 186.5348 0.12538062405952885 -0.619438212504236 3.869883885305636e-17 
0.64 0.2048 -1.5707963267948966 -1.5707963267948966 0.0 1.5707963267948966 0.0 0.64 0.0 0.0 0.0 0.0 0.0 1.0 0.0 0.0 0.0 0.0 0.0 311.83063082861486 -49.97702149016153 480.9 -1.299127355233488 1.0570118531161334 -1.0570118531161337 -206.15964939758615 -42.821870116382804 188.896 0.13015765992821524 -0.6266250741567968 3.91886975727153e-17 
0.648 0.209952 -1.5707963267948966 -1.5707963267948966 0.0 1.5707963267948966 0.0 0.648 0.0 0.0 0.0 0.0 0.0 1.0 0.0 0.0 0.0 0.0 0.0 312.08397283699526 -48.3698139160942 480.9 -1.3012138685943437 1.0531502533050965 -1.053150253305097 -208.51049974685063 -44.43197451519128 191.25719999999998 0.13505159427109814 -0.6337705159478743 3.967855629237424e-17 
0.656 0.21516800000000003 -1.5707963267948966 -1.5707963267948966 0.0 1.5707963267948966 0.0 0.656 0.0 0.0 0.0 0.0 0.0 1.0 0.0 0.0 0.0 0.0 0.0 312.3320232713363 -46.741333306116 480.9 -1.3033176258960528 1.0492391399253238 -1.049239139925324 -210.84721468453174 -46.08091834778234 193.61839999999998 0.14006358160420163 -0.6408729929621025 4.016841501203319e-17 
0.664 0.22044800000000003 -1.5707963267948966 -1.5707963267948966 0.0 1.5707963267948966 0.0 0.664 0.0 0.0 0.0 0.0 0.0 1.0 0.0 0.0 0.0 0.0 0.0 312.57446271606506 -45.09157635039213 480.9 -1.3054383136791738 1.0452784639306374 -1.0452784639306376 -213.16927403797132 -47.76907516505102 195.9796 0.14519475734058063 -0.6479309241275724 4.065827373169213e-17 
0.672 0.22579200000000002 -1.5707963267948966 -1.5707963267948966 0.0 1.5707963267948966 0.0 0.672 0.0 0.0 0.0 0.0 0.0 1.0 0.0 0.0 0.0 0.0 0.0 312.8109676604921 -43.42054250359524 480.9 -1.307575615083226 1.0412681761433915 -1.0412681761433917 -215.4761456528604 -49.49681200428255 198.3408 0.15044623709508378 -0.654942691953983 4.114813245135107e-17 
0.68 0.23120000000000004 -1.5707963267948966 -1.5707963267948966 0.0 1.5707963267948966 0.0 0.68 0.0 0.0 0.0 0.0 0.0 1.0 0.0 0.0 0.0 0.0 0.0 313.0412105135488 -41.72823408930752 480.9 -1.3097292098598872 1.0372082272694958 -1.0372082272694962 -217.7672853108068 -51.26448915537612 200.702 0.15581911597378761 -0.6619066422820875 4.163799117101001e-17 
0.688 0.23667200000000005 -1.5707963267948966 -1.5707963267948966 0.0 1.5707963267948966 0.0 0.6880000000000001 0.0 0.0 0.0 0.0 0.0 1.0 0.0 0.0 0.0 0.0 0.0 313.26485961999964 -40.01465640564612 480.9 -1.3118987743861812 1.0330985679135136 -1.0330985679135138 -220.0421366507488 -53.0724599220085 203.0632 0.16131446784805017 -0.6688210840448292 4.2127849890668956e-17 
0.696 0.24220800000000003 -1.5707963267948966 -1.5707963267948966 0.0 1.5707963267948966 0.0 0.6960000000000001 0.0 0.0 0.0 0.0 0.0 1.0 0.0 0.0 0.0 0.0 0.0 313.48157927817925 -38.27981783209776 480.9 -1.3140839816776364 1.0289391485938213 -1.0289391485938215 -222.30013109434987 -54.921070377723616 205.4244 0.16693334461314172 -0.6756842890405771 4.2617708610327896e-17 
0.704 0.24780799999999997 -1.5707963267948966 -1.5707963267948966 0.0 1.5707963267948966 0.0 0.704 0.0 0.0 0.0 0.0 0.0 1.0 0.0 0.0 0.0 0.0 0.0 313.6910297592985 -36.52372993754742 480.9 -1.3162845014014093 1.0247299197578326 -1.0247299197578328 -224.54068777551055 -56.81065911693586 207.78559999999996 0.17267677543141602 -0.682494491718877 4.310756732998683e-17 
0.712 0.253472 -1.5707963267948966 -1.5707963267948966 0.0 1.5707963267948966 0.0 0.712 0.0 0.0 0.0 0.0 0.0 1.0 0.0 0.0 0.0 0.0 0.0 313.8928673283695 -34.746407589484825 480.9 -1.3184999998893734 1.0204708317972837 -1.020470831797284 -226.7632134741373 -58.74155700083916 210.14679999999998 0.17854576595999747 -0.6892498889791407 4.359742604964577e-17 
0.72 0.2592 -1.5707963267948966 -1.5707963267948966 0.0 1.5707963267948966 0.0 0.72 0.0 0.0 0.0 0.0 0.0 1.0 0.0 0.0 0.0 0.0 0.0 314.08674426679806 -32.947869064371886 480.9 -1.3207301401511626 1.0161618350635744 -1.0161618350635746 -228.96710255431003 -60.71408689821554 212.508 0.1845412975629652 -0.6959486399827053 4.4087284769304716e-17 
0.728 0.26497265103853884 -1.5707963267948966 -1.5707963267948966 0.0 1.5707963267948966 0.0 0.7192025091165353 0.0 0.0 0.0 0.0 0.0 -1.0 0.0 0.0 0.0 0.0 0.0 314.27170654075525 -31.134216996118425 480.9 -1.3229671017855493 1.0118174445877266 -1.011817444587727 -228.3595907397459 -61.96610375133901 212.27262056574534 0.18834681991288457 -0.6941020995129055 4.40384525364155e-17 
0.736 0.27069427111147115 -1.5707963267948966 -1.5707963267948966 0.0 1.5707963267948966 0.0 0.7112025091165353 0.0 0.0 0.0 0.0 0.0 -1.0 0.0 0.0 0.0 0.0 0.0 314.4446995973484 -29.33557388450617 480.9 -1.3251738343391288 1.0075096821444578 -1.007509682144458 -225.46515130083228 -62.5678710618337 209.9114205657454 0.19017589988399305 -0.6853044112487303 4.354859381675656e-17 
0.744 0.2763518911844034 -1.5707963267948966 -1.5707963267948966 0.0 1.5707963267948966 0.0 0.7032025091165353 0.0 0.0 0.0 0.0 0.0 -1.0 0.0 0.0 0.0 0.0 0.0 314.60563577951496 -27.556105235812574 480.9 -1.327345659028822 1.003248375313765 -1.0032483753137653 -222.57542494294813 -63.12432370453543 207.5502205657454 0.19186724530253932 -0.6765210484588089 4.305873509709762e-17 
0.752 0.2819455112573357 -1.5707963267948966 -1.5707963267948966 0.0 1.5707963267948966 0.0 0.6952025091165352 0.0 0.0 0.0 0.0 0.0 -1.0 0.0 0.0 0.0 0.0 0.0 314.75485158926256 -25.795898918651446 480.9 -1.3294829300472628 0.999033592087036 -0.9990335920870365 -219.69077324937754 -63.6360441899947 205.18902056574535 0.19342262671730912 -0.6677531101804789 4.256887637743868e-17 
0.76 0.287475131330268 -1.5707963267948966 -1.5707963267948966 0.0 1.5707963267948966 0.0 0.6872025091165352 0.0 0.0 0.0 0.0 0.0 -1.0 0.0 0.0 0.0 0.0 0.0 314.892680313023 -24.055038667196417 480.9 -1.3315859970171628 0.9948653991102787 -0.9948653991102789 -216.8115430729745 -64.103615722887 202.8278205657454 0.1948438167868906 -0.6590016506777341 4.207901765777973e-17 
0.768 0.29294075140320025 -1.5707963267948966 -1.5707963267948966 0.0 1.5707963267948966 0.0 0.6792025091165352 0.0 0.0 0.0 0.0 0.0 -1.0 0.0 0.0 0.0 0.0 0.0 315.0194519773741 -22.333604184611215 480.9 -1.3336552050141421 0.9907438617065052 -0.9907438617065054 -213.938066719438 -64.52762200912589 200.46662056574536 0.19613258969339178 -0.6502676799982918 4.158915893812079e-17 
0.776 0.2983423714761325 -1.5707963267948966 -1.5707963267948966 0.0 1.5707963267948966 0.0 0.6712025091165352 0.0 0.0 0.0 0.0 0.0 -1.0 0.0 0.0 0.0 0.0 0.0 315.13549330662556 -20.631671245678447 480.9 -1.3356908945890877 0.9866690438976826 -0.9866690438976828 -211.07066213183418 -64.90864706958453 198.10542056574536 0.1972907205762448 -0.6415521645344505 4.109930021846185e-17 
0.784 0.30367999154906483 -1.5707963267948966 -1.5707963267948966 0.0 1.5707963267948966 0.0 0.6632025091165352 0.0 0.0 0.0 0.0 0.0 -1.0 0.0 0.0 0.0 0.0 0.0 315.24112768222267 -18.94931179859982 480.9 -1.3376934017900441 0.9826410084262595 -0.9826410084262599 -208.20963307624666 -65.2472750603503 195.7442205657453 0.1983199849858672 -0.6328560275873758 4.060944149880291e-17 
0.792 0.3089536116219971 -1.5707963267948966 -1.5707963267948966 0.0 1.5707963267948966 0.0 0.6552025091165352 0.0 0.0 0.0 0.0 0.0 -1.0 0.0 0.0 0.0 0.0 0.0 315.3366751039265 -17.286594065942342 480.9 -1.3396630581836453 0.9786598167762739 -0.9786598167762741 -205.3552693284371 -65.54409009943461 193.38302056574534 0.19922215835694415 -0.6241801499344592 4.0119582779143966e-17 
0.8 0.3141632316949294 -1.5707963267948966 -1.5707963267948966 0.0 1.5707963267948966 0.0 0.6472025091165352 0.0 0.0 0.0 0.0 0.0 -1.0 0.0 0.0 0.0 0.0 0.0 315.4224521527252 -15.643582644706392 480.9 -1.3416001908760937 0.9747255291940536 -0.9747255291940539 -202.50784686140616 -65.79967609985998 191.02182056574534 0.19999901550109417 -0.6155253703994108 3.9629724059485026e-17 
0.808 0.3193088517678617 -1.5707963267948966 -1.5707963267948966 0.0 1.5707963267948966 0.0 0.6392025091165352 0.0 0.0 0.0 0.0 0.0 -1.0 0.0 0.0 0.0 0.0 0.0 315.4987719554346 -14.020338605492192 480.9 -1.3435051225336962 0.9708382047085129 -0.9708382047085131 -199.66762803374408 -66.01461660904423 188.66062056574535 0.2006523301186755 -0.6068924864247541 3.9139865339826086e-17 
0.816 0.324390471840794 -1.5707963267948966 -1.5707963267948966 0.0 1.5707963267948966 0.0 0.6312025091165352 0.0 0.0 0.0 0.0 0.0 -1.0 0.0 0.0 0.0 0.0 0.0 315.5659441509445 -12.416919590742221 480.9 -1.3453781714029622 0.9669979011510534 -0.9669979011510537 -196.83486177866726 -66.18949465440205 186.29942056574535 0.20118387432948956 -0.598282254646405 3.8650006620167145e-17 
0.824 0.3294080919137263 -1.5707963267948966 -1.5707963267948966 0.0 1.5707963267948966 0.0 0.6232025091165352 0.0 0.0 0.0 0.0 0.0 -1.0 0.0 0.0 0.0 0.0 0.0 315.6242748580683 -10.833379912038072 480.9 -1.3472196513302759 0.9632046751750782 -0.9632046751750785 -194.0097837936388 -66.32489259508192 183.93822056574538 0.20159541822213353 -0.5896953914700268 3.81601479005082e-17 
0.832 0.33436171198665854 -1.5707963267948966 -1.5707963267948966 0.0 1.5707963267948966 0.0 0.6152025091165352 0.0 0.0 0.0 0.0 0.0 -1.0 0.0 0.0 0.0 0.0 0.0 315.6740666449535 -9.269770646431443 480.9 -1.3490298717811435 0.9594585822751246 -0.9594585822751248 -191.19261673047586 -66.42139197975659 181.57702056574536 0.20188872942175262 -0.5811325736488627 3.767028918084926e-17 
0.84 0.33925133205959074 -1.5707963267948966 -1.5707963267948966 0.0 1.5707963267948966 0.0 0.6072025091165353 0.0 0.0 0.0 0.0 0.0 -1.0 0.0 0.0 0.0 0.0 0.0 315.71561850001154 -7.726139731789861 480.9 -1.3508091378590252 0.9557596768056195 -0.9557596768056197 -188.38357038584854 -66.47957341038402 179.2158205657454 0.20206557267593933 -0.5725944388627615 3.7180430461190325e-17 
0.848 0.34407695213252304 -1.5707963267948966 -1.5707963267948966 0.0 1.5707963267948966 0.0 0.5992025091165353 0.0 0.0 0.0 0.0 0.0 -1.0 0.0 0.0 0.0 0.0 0.0 315.7492258043249 -6.202532061137678 480.9 -1.352557750323764 0.95210801199927 -0.9521080119992702 -185.58284189208078 -66.5000164118552 176.85462056574542 0.20212770945852648 -0.5640815862981179 3.6690571741531385e-17 
0.856 0.3488385722054553 -1.5707963267948966 -1.5707963267948966 0.0 1.5707963267948966 0.0 0.5912025091165353 0.0 0.0 0.0 0.0 0.0 -1.0 0.0 0.0 0.0 0.0 0.0 315.7751803054902 -4.698989575975585 480.9 -1.3542760056096073 0.9485036399850867 -0.9485036399850869 -182.79061590816488 -66.48329930744472 174.49342056574537 0.2020768975910174 -0.5555945772284647 3.620071302187244e-17 
0.864 0.3535361922783876 -1.5707963267948966 -1.5707963267948966 0.0 1.5707963267948966 0.0 0.5832025091165353 0.0 0.0 0.0 0.0 0.0 -1.0 0.0 0.0 0.0 0.0 0.0 315.79377009285736 -3.2155513585608624 480.9 -1.3559641958428414 0.9449466118060571 -0.9449466118060573 -180.00706481090614 -66.42999909997933 172.1322205657454 0.20191489088139616 -0.5471339355954594 3.57108543022135e-17 
0.872 0.3581698123513199 -1.5707963267948966 -1.5707963267948966 0.0 1.5707963267948966 0.0 0.5752025091165353 0.0 0.0 0.0 0.0 0.0 -1.0 0.0 0.0 0.0 0.0 0.0 315.8052795741226 -1.7522537231325686 480.9 -1.3576226088590306 0.9414369774364614 -0.9414369774364616 -177.2323488861169 -66.34069135863916 169.77102056574535 0.20164343878005828 -0.538700148590021 3.522099558255456e-17 
0.88 0.3627394324242522 -1.5707963267948966 -1.5707963267948966 0.0 1.5707963267948966 0.0 0.5672025091165352 0.0 0.0 0.0 0.0 0.0 -1.0 0.0 0.0 0.0 0.0 0.0 315.80998945323734 -0.30913030606629377 480.9 -1.3592515282198832 0.93797478579885 -0.9379747857988502 -174.4666165197828 -66.21595011130633 167.4098205657454 0.20126428605260288 -0.5302936672333824 3.473113686289562e-17 
0.888 0.3672450524971845 -1.5707963267948966 -1.5707963267948966 0.0 1.5707963267948966 0.0 0.5592025091165352 0.0 0.0 0.0 0.0 0.0 -1.0 0.0 0.0 0.0 0.0 0.0 315.80817670959095 1.113787845056276 480.9 -1.3608512332297378 0.9345600847806785 -0.9345600847806788 -171.7100043891267 -66.0563477423746 165.0486205657454 0.20077917246922372 -0.5219149069578319 3.424127814323667e-17 
0.896 0.3716866725701168 -1.5707963267948966 -1.5707963267948966 0.0 1.5707963267948966 0.0 0.5512025091165352 0.0 0.0 0.0 0.0 0.0 -1.0 0.0 0.0 0.0 0.0 0.0 315.8001145784304 2.516472183476459 480.9 -1.3624219989516835 0.931192921250608 -0.9311929212506083 -168.96263765350005 -65.86245489593412 162.68742056574536 0.20018983251043806 -0.5135642481869303 3.375141942357773e-17 
0.904 0.376064292643049 -1.5707963267948966 -1.5707963267948966 0.0 1.5707963267948966 0.0 0.5432025091165352 0.0 0.0 0.0 0.0 0.0 -1.0 0.0 0.0 0.0 0.0 0.0 315.7860725324765 3.898896576399679 480.9 -1.3639640962233182 0.9278733410744805 -0.9278733410744807 -166.22463014503325 -65.63484038424473 160.32622056574533 0.19949799508888977 -0.5052420369149947 3.326156070391879e-17 
0.912 0.38037791271598137 -1.5707963267948966 -1.5707963267948966 0.0 1.5707963267948966 0.0 0.5352025091165352 0.0 0.0 0.0 0.0 0.0 -1.0 0.0 0.0 0.0 0.0 0.0 315.7663162646984 5.261037219260945 480.9 -1.3654777916721486 0.9246013891309687 -0.9246013891309689 -163.49608455898107 -65.37407110141119 157.96502056574536 0.19870538328696413 -0.4969485852856567 3.277170198425985e-17 
0.92 0.38462753278891365 -1.5707963267948966 -1.5707963267948966 0.0 1.5707963267948966 0.0 0.5272025091165352 0.0 0.0 0.0 0.0 0.0 -1.0 0.0 0.0 0.0 0.0 0.0 315.7411076722092 6.602872551126193 480.9 -1.3669633477306455 0.9213771093269071 -0.9213771093269074 -160.77709264370085 -65.08071194217345 155.6038205657454 0.19781371410994975 -0.4886841721693035 3.2281843264600904e-17 
0.928 0.3888131528618459 -1.5707963267948966 -1.5707963267948966 0.0 1.5707963267948966 0.0 0.5192025091165352 0.0 0.0 0.0 0.0 0.0 -1.0 0.0 0.0 0.0 0.0 0.0 315.7107048412444 7.92438317124078 480.9 -1.3684210226509486 0.9182005446123107 -0.9182005446123109 -158.06773539020543 -64.75532572572541 153.24262056574537 0.19682469825448456 -0.48044904373922626 3.1791984544941964e-17 
0.936 0.39293477293477824 -1.5707963267948966 -1.5707963267948966 0.0 1.5707963267948966 0.0 0.5112025091165352 0.0 0.0 0.0 0.0 0.0 -1.0 0.0 0.0 0.0 0.0 0.0 315.6753620331872 9.225551756735118 480.9 -1.3698510705192375 0.9150717369950851 -0.9150717369950854 -155.36808322123485 -64.39847312447489 150.88142056574534 0.19574003989202096 -0.47224341404630654 3.1302125825283024e-17 
0.944 0.3969923930077105 -1.5707963267948966 -1.5707963267948966 0.0 1.5707963267948966 0.0 0.5032025091165352 0.0 0.0 0.0 0.0 0.0 -1.0 0.0 0.0 0.0 0.0 0.0 315.63532967160216 10.50636298149762 480.9 -1.3712537412697683 0.9119907275554306 -0.9119907275554309 -152.6781961797942 -64.01071259765835 148.52022056574535 0.19456143646704666 -0.4640674655920797 3.0812267105624084e-17 
0.952 0.4009860130806428 -1.5707963267948966 -1.5707963267948966 0.0 1.5707963267948966 0.0 0.4952025091165352 0.0 0.0 0.0 0.0 0.0 -1.0 0.0 0.0 0.0 0.0 0.0 315.5908543302439 11.766803436223721 480.9 -1.3726292806985836 0.9089575564599492 -0.9089575564599495 -149.9981241171078 -63.59260032972336 146.15902056574532 0.19329057850979747 -0.4559213499000238 3.032240838596514e-17 
0.96 0.404915633153575 -1.5707963267948966 -1.5707963267948966 0.0 1.5707963267948966 0.0 0.4872025091165353 0.0 0.0 0.0 0.0 0.0 -1.0 0.0 0.0 0.0 0.0 0.0 315.54217872200263 13.006861549649688 480.9 -1.3739779304769015 0.9059722629754541 -0.9059722629754544 -147.32790687994256 -63.14469017339202 143.7978205657454 0.1919291494631977 -0.4478051880849318 2.9832549666306203e-17 
0.968 0.40878125322650727 -1.5707963267948966 -1.5707963267948966 0.0 1.5707963267948966 0.0 0.4792025091165353 0.0 0.0 0.0 0.0 0.0 -1.0 0.0 0.0 0.0 0.0 0.0 315.48954168875287 14.22652751097937 480.9 -1.375299928164184 0.9030348854824882 -0.9030348854824884 -144.6675744972558 -62.667533597319085 141.4366205657454 0.1904788255237663 -0.4397190714202304 2.9342690946647263e-17 
0.976 0.41258287329943955 -1.5707963267948966 -1.5707963267948966 0.0 1.5707963267948966 0.0 0.4712025091165353 0.0 0.0 0.0 0.0 0.0 -1.0 0.0 0.0 0.0 0.0 0.0 315.43317819207135 15.425793193510852 480.9 -1.3765955072209022 0.9001454614885566 -0.9001454614885568 -142.017147366127 -62.161679638257986 139.0754205657454 0.18894127549622491 -0.43166306190312154 2.885283222698832e-17 
0.984 0.4163204933723718 -1.5707963267948966 -1.5707963267948966 0.0 1.5707963267948966 0.0 0.46320250911653527 0.0 0.0 0.0 0.0 0.0 -1.0 0.0 0.0 0.0 0.0 0.0 315.37331930478797 16.604652079470302 480.9 -1.377864897020988 0.8973040276410753 -0.8973040276410755 -139.37663643693313 -61.62767485764888 136.7142205657454 0.18731816066154677 -0.4236371928174259 2.836297350732938e-17 
0.992 0.4199941134453041 -1.5707963267948966 -1.5707963267948966 0.0 1.5707963267948966 0.0 0.45520250911653526 0.0 0.0 0.0 0.0 0.0 -1.0 0.0 0.0 0.0 0.0 0.0 315.3101922033384 17.763099186059495 480.9 -1.3791083228639878 0.8945106197400399 -0.8945106197400401 -136.74604339773214 -61.06606330254269 134.35302056574537 0.18561113465818452 -0.4156414692940187 2.7873114787670436e-17 
1.0 0.42360373351823644 -1.5707963267948966 -1.5707963267948966 0.0 1.5707963267948966 0.0 0.44720250911653525 0.0 0.0 0.0 0.0 0.0 -1.0 0.0 0.0 0.0 0.0 0.0 315.24402016088413 18.90113099272264 480.9 -1.380326005986922 0.8917652727504203 -0.8917652727504205 -134.12536085782037 -60.47738647077543 131.99182056574537 0.18382184337621715 -0.40767586886875495 2.7383256068011496e-17 
1.008 0.42714935359116873 -1.5707963267948966 -1.5707963267948966 0.0 1.5707963267948966 0.0 0.43920250911653524 0.0 0.0 0.0 0.0 0.0 -1.0 0.0 0.0 0.0 0.0 0.0 315.1750225411677 20.018745369637937 480.9 -1.3815181635758493 0.8890680208142817 -0.8890680208142819 -131.51457253043267 -59.86218328030729 129.63062056574537 0.18195192486415593 -0.3997403420377893 2.6893397348352556e-17 
1.016 0.43063097366410097 -1.5707963267948966 -1.5707963267948966 0.0 1.5707963267948966 0.0 0.43120250911653524 0.0 0.0 0.0 0.0 0.0 -1.0 0.0 0.0 0.0 0.0 0.0 315.10341479307135 21.11594150743934 480.9 -1.3826850087771478 0.8864188972626389 -0.8864188972626391 -128.91365341455622 -59.22099004264186 127.26942056574536 0.1800030092481516 -0.39183481281020127 2.6403538628693613e-17 
1.024 0.43404859373703325 -1.5707963267948966 -1.5707963267948966 0.0 1.5707963267948966 0.0 0.42320250911653523 0.0 0.0 0.0 0.0 0.0 -1.0 0.0 0.0 0.0 0.0 0.0 315.0294084458473 22.192719848172604 480.9 -1.3838267507085136 0.8838179346270443 -0.8838179346270444 -126.32256997583178 -58.554340440240324 124.90822056574534 0.1779767186633445 -0.3839591792578474 2.5913679909034673e-17 
1.032 0.4374022138099656 -1.5707963267948966 -1.5707963267948966 0.0 1.5707963267948966 0.0 0.4152025091165352 0.0 0.0 0.0 0.0 0.0 -1.0 0.0 0.0 0.0 0.0 0.0 314.9532111049894 23.249082017489837 480.9 -1.3849435944696797 0.881265164650915 -0.8812651646509152 -123.74128032651808 -57.86276550784649 122.54702056574538 0.17587466719710182 -0.376113314062365 2.542382118937573e-17 
1.04 0.4406918338828979 -1.5707963267948966 -1.5707963267948966 0.0 1.5707963267948966 0.0 0.4072025091165352 0.0 0.0 0.0 0.0 0.0 -1.0 0.0 0.0 0.0 0.0 0.0 314.8750264487146 24.28503075808674 480.9 -1.386035741152866 0.878760618300602 -0.8787606183006021 -121.16973440449732 -57.14679361763885 120.18582056574533 0.17369846084388713 -0.3682970650592624 2.493396246971679e-17 
1.048 0.44391745395583015 -1.5707963267948966 -1.5707963267948966 0.0 1.5707963267948966 0.0 0.3992025091165352 0.0 0.0 0.0 0.0 0.0 -1.0 0.0 0.0 0.0 0.0 0.0 314.79505422502643 25.300569864385217 480.9 -1.3871033878529575 0.8763043257762024 -0.8763043257762025 -118.60787415130281 -56.406950468125984 117.82462056574536 0.1714496974715076 -0.36051025577903595 2.4444103750057846e-17 
1.056 0.44707907402876246 -1.5707963267948966 -1.5707963267948966 0.0 1.5707963267948966 0.0 0.3912025091165352 0.0 0.0 0.0 0.0 0.0 -1.0 0.0 0.0 0.0 0.0 0.0 314.7134902493284 26.295704118465302 480.9 -1.3881467276774195 0.8738963165221216 -0.8738963165221217 -116.05563368915048 -55.64375907670237 115.46342056574535 0.16912996679848746 -0.35275268598525983 2.3954245030398906e-17 
1.064 0.4501766941016947 -1.5707963267948966 -1.5707963267948966 0.0 1.5707963267948966 0.0 0.3832025091165352 0.0 0.0 0.0 0.0 0.0 -1.0 0.0 0.0 0.0 0.0 0.0 314.6305264025615 27.270439227248026 480.9 -1.3891659497559543 0.8715366192373859 -0.871536619237386 -113.51293949695979 -54.85773977578184 113.10222056574533 0.16674085038231568 -0.3450241322096042 2.3464386310739962e-17 
1.072 0.453210314174627 -1.5707963267948966 -1.5707963267948966 0.0 1.5707963267948966 0.0 0.3752025091165352 0.0 0.0 0.0 0.0 0.0 -1.0 0.0 0.0 0.0 0.0 0.0 314.54635062983596 28.224781760932633 480.9 -1.3901612392498972 0.8692252618857055 -0.8692252618857056 -110.9797105853504 -54.0494102124268 110.74102056574536 0.16428392161831853 -0.33732434828373986 2.2974527591081022e-17 
1.08 0.4561799342475593 -1.5707963267948966 -1.5707963267948966 0.0 1.5707963267948966 0.0 0.3672025091165352 0.0 0.0 0.0 0.0 0.0 -1.0 0.0 0.0 0.0 0.0 0.0 314.4611469395296 29.158739092689256 480.9 -1.391132777361367 0.8669622717052999 -0.8669622717053 -108.45585867060387 -53.21928535139116 108.37982056574533 0.1617607457489093 -0.3296530658680969 2.248466887142208e-17 
1.088 0.4590855543204916 -1.5707963267948966 -1.5707963267948966 0.0 1.5707963267948966 0.0 0.3592025091165352 0.0 0.0 0.0 0.0 0.0 -1.0 0.0 0.0 0.0 0.0 0.0 314.3750954028269 30.072319339609482 480.9 -1.3920807413421616 0.8647476752184767 -0.8647476752184768 -105.94128834758082 -52.3678774814963 106.01862056574535 0.15917287988296752 -0.3220099949774493 2.199481015176314e-17 
1.096 0.46192717439342385 -1.5707963267948966 -1.5707963267948966 0.0 1.5707963267948966 0.0 0.35120250911653517 0.0 0.0 0.0 0.0 0.0 -1.0 0.0 0.0 0.0 0.0 0.0 314.28837215367076 30.965531304916116 480.9 -1.3930053045024147 0.862581498240975 -0.8625814982409751 -103.43589726158699 -51.49569622525911 103.65742056574534 0.1565218730251037 -0.3143948245033039 2.1504951432104195e-17 
1.104 0.46470479446635615 -1.5707963267948966 -1.5707963267948966 0.0 1.5707963267948966 0.0 0.34320250911653516 0.0 0.0 0.0 0.0 0.0 -1.0 0.0 0.0 0.0 0.0 0.0 314.2011493891024 31.838384421433023 480.9 -1.3939066362190091 0.860463765891074 -0.8604637658910741 -100.93957627918255 -50.60324855169191 101.29622056574536 0.1538092661145651 -0.30680722273307764 2.1015092712445255e-17 
1.112 0.4674184145392884 -1.5707963267948966 -1.5707963267948966 0.0 1.5707963267948966 0.0 0.33520250911653515 0.0 0.0 0.0 0.0 0.0 -1.0 0.0 0.0 0.0 0.0 0.0 314.1135953699633 32.69088869631638 480.9 -1.394784901943752 0.8583945025984648 -0.8583945025984648 -98.45220965793132 -49.691038792195 98.93502056574535 0.15103659207354103 -0.2992468378660526 2.0525233992786312e-17 
1.12 0.4700680346122207 -1.5707963267948966 -1.5707963267948966 0.0 1.5707963267948966 0.0 0.32720250911653515 0.0 0.0 0.0 0.0 0.0 -1.0 0.0 0.0 0.0 0.0 0.0 314.0258744219345 33.52305465704808 480.9 -1.3956402632113205 0.8563737321128951 -0.8563737321128952 -95.9736752150887 -48.75956865946247 96.57382056574536 0.1482053758646276 -0.2917132985261055 2.0035375273127372e-17 
1.128 0.47265365468515297 -1.5707963267948966 -1.5707963267948966 0.0 1.5707963267948966 0.0 0.31920250911653514 0.0 0.0 0.0 0.0 0.0 -1.0 0.0 0.0 0.0 0.0 0.0 313.9381469368886 34.334893298691426 480.9 -1.3964728776469733 0.8544014775125831 -0.8544014775125832 -93.50384449522798 -47.809337269322846 94.21262056574533 0.14531713455721232 -0.2842062142712097 1.9545516553468428e-17 
1.136 0.47517527475808524 -1.5707963267948966 -1.5707963267948966 0.0 1.5707963267948966 0.0 0.31120250911653513 0.0 0.0 0.0 0.0 0.0 -1.0 0.0 0.0 0.0 0.0 0.0 313.8505693745322 35.126416032409665 480.9 -1.397282898974037 0.8524777612124049 -0.852477761212405 -91.04258293680738 -46.840841165436615 91.85142056574534 0.14237337740254294 -0.2767251760997185 1.9055657833809488e-17 
1.144 0.4776328948310176 -1.5707963267948966 -1.5707963267948966 0.0 1.5707963267948966 0.0 0.3032025091165351 0.0 0.0 0.0 0.0 0.0 -1.0 0.0 0.0 0.0 0.0 0.0 313.7632942643136 35.89763463524782 480.9 -1.3980704770211705 0.85060260497186 -0.8506026049718601 -88.58975003768117 -45.854574346773255 89.49022056574533 0.13937560591724396 -0.2692697569534382 1.8565799114150545e-17 
1.152 0.48002651490394976 -1.5707963267948966 -1.5707963267948966 0.0 1.5707963267948966 0.0 0.2952025091165351 0.0 0.0 0.0 0.0 0.0 -1.0 0.0 0.0 0.0 0.0 0.0 313.6764702075749 36.648561201176676 480.9 -1.3988357577294053 0.8487760299028109 -0.8487760299028109 -86.14519951956022 -44.85102829779067 87.12902056574534 0.13632531397504766 -0.2618395122175083 1.8075940394491605e-17 
1.16 0.48235613497688207 -1.5707963267948966 -1.5707963267948966 0.0 1.5707963267948966 0.0 0.28720250911653533 0.0 0.0 0.0 0.0 0.0 -1.0 0.0 0.0 0.0 0.0 0.0 313.59024187992566 37.379208093400315 480.9 -1.3995788831589726 0.8469980564770058 -0.8469980564770059 -83.70877949142883 -43.83069202124115 84.76782056574541 0.13322398790650808 -0.2544339802171089 1.7586081674832677e-17 
1.168 0.4846217550498143 -1.5707963267948966 -1.5707963267948966 0.0 1.5707963267948966 0.0 0.2792025091165353 0.0 0.0 0.0 0.0 0.0 -1.0 0.0 0.0 0.0 0.0 0.0 313.50475003381723 38.089587897924844 480.9 -1.4002999914959156 0.8452687045333831 -0.8452687045333832 -81.28033261192553 -42.794052073527396 82.40662056574538 0.13007310660646626 -0.24705268271101985 1.7096222955173734e-17 
1.176 0.4868233751227466 -1.5707963267948966 -1.5707963267948966 0.0 1.5707963267948966 0.0 0.2712025091165353 0.0 0.0 0.0 0.0 0.0 -1.0 0.0 0.0 0.0 0.0 0.0 313.42013150129634 38.7797133783898 480.9 -1.400999217058486 0.8435879932851557 -0.8435879932851558 -78.85969625069922 -41.74159260253435 80.04542056574537 0.1268741416490406 -0.23969512538206447 1.6606364235514793e-17 
1.184 0.48896099519567887 -1.5707963267948966 -1.5707963267948966 0.0 1.5707963267948966 0.0 0.2632025091165353 0.0 0.0 0.0 0.0 0.0 -1.0 0.0 0.0 0.0 0.0 0.0 313.33651919691795 39.44959743215972 480.9 -1.4016766903033393 0.841955941326687 -0.841955941326687 -76.44670264874982 -40.67379538786113 77.68422056574539 0.12362855740991224 -0.23236079832446754 1.611650551585585e-17 
1.192 0.49103461526861114 -1.5707963267948966 -1.5707963267948966 0.0 1.5707963267948966 0.0 0.2552025091165353 0.0 0.0 0.0 0.0 0.0 -1.0 0.0 0.0 0.0 0.0 0.0 313.25404212079746 40.099253047676775 480.9 -1.4023325378315192 0.8403725666401476 -0.8403725666401477 -74.04117907776791 -39.59113988337975 75.32302056574538 0.12033781119568315 -0.22504917652816994 1.562664679619691e-17 
1.2 0.49304423534154346 -1.5707963267948966 -1.5707963267948966 0.0 1.5707963267948966 0.0 0.2472025091165353 0.0 0.0 0.0 0.0 0.0 -1.0 0.0 0.0 0.0 0.0 0.0 313.1728253617842 40.72869326307202 480.9 -1.4029668823942407 0.8388378866019663 -0.8388378866019665 -71.64294799848622 -38.49410326204665 72.96182056574538 0.11700335338008104 -0.21775972036014052 1.5136788076537967e-17 
1.208 0.4949898554144757 -1.5707963267948966 -1.5707963267948966 0.0 1.5707963267948966 0.0 0.2392025091165353 0.0 0.0 0.0 0.0 0.0 -1.0 0.0 0.0 0.0 0.0 0.0 313.0929901007353 41.3379311260356 480.9 -1.4035798428984716 0.8373519179890686 -0.8373519179890687 -69.25182721805899 -37.3831604628941 70.60062056574539 0.11362662754679058 -0.21049187604273253 1.4646929356879026e-17 
1.216 0.496871475487408 -1.5707963267948966 -1.5707963267948966 0.0 1.5707963267948966 0.0 0.23120250911653528 0.0 0.0 0.0 0.0 0.0 -1.0 0.0 0.0 0.0 0.0 0.0 313.0146536138746 41.926979654944056 480.9 -1.4041715344123211 0.8359146769849088 -0.835914676984909 -66.8676300464854 -36.258784240128946 68.23942056574538 0.11020907063868983 -0.20324507612913492 1.4157070637220083e-17 
1.224 0.49868909556034025 -1.5707963267948966 -1.5707963267948966 0.0 1.5707963267948966 0.0 0.22320250911653527 0.0 0.0 0.0 0.0 0.0 -1.0 0.0 0.0 0.0 0.0 0.0 312.93792927621723 42.49585180124373 480.9 -1.404742068170223 0.8345261791852936 -0.8345261791852937 -64.49016545209498 -35.12144521426685 65.8782205657454 0.10675211311327311 -0.1960187399759726 1.3667211917561143e-17 
1.232 0.5004427156332727 -1.5707963267948966 -1.5707963267948966 0.0 1.5707963267948966 0.0 0.21520250911653527 0.0 0.0 0.0 0.0 0.0 -1.0 0.0 0.0 0.0 0.0 0.0 312.8629265650436 43.044560413089485 480.9 -1.4052915515779372 0.8331864396040038 -0.833186439604004 -62.11923821611431 -33.971611925230306 63.517020565745376 0.10325717910404349 -0.18881227421311342 1.3177353197902201e-17 
1.24 0.5021323357062049 -1.5707963267948966 -1.5707963267948966 0.0 1.5707963267948966 0.0 0.20720250911653526 0.0 0.0 0.0 0.0 0.0 -1.0 0.0 0.0 0.0 0.0 0.0 312.78975106340715 43.57311820023647 480.9 -1.405820088217354 0.8318954726782117 -0.8318954726782118 -59.75464908633466 -32.80975088733965 61.15582056574538 0.09972568658765853 -0.18162507321074364 1.268749447824326e-17 
1.248 0.5037579557791372 -1.5707963267948966 -1.5707963267948966 0.0 1.5707963267948966 0.0 0.19920250911653525 0.0 0.0 0.0 0.0 0.0 -1.0 0.0 0.0 0.0 0.0 0.0 312.7185044636584 44.08153770018549 480.9 -1.4063277778511079 0.8306532922736931 -0.8306532922736932 -57.39619492990216 -31.63632664612673 58.79462056574539 0.09615904755661622 -0.17445651954377553 1.2197635758584318e-17 
1.256 0.5053195758520694 -1.5707963267948966 -1.5707963267948966 0.0 1.5707963267948966 0.0 0.19120250911653525 0.0 0.0 0.0 0.0 0.0 -1.0 0.0 0.0 0.0 0.0 0.0 312.6492845709721 44.56983124557807 480.9 -1.4068147164270117 0.8294599116898427 -0.8294599116898428 -55.043668885252835 -30.451801836900817 56.43342056574537 0.09255866819726694 -0.16730598445365602 1.1707777038925376e-17 
1.264 0.5068171959250019 -1.5707963267948966 -1.5707963267948966 0.0 1.5707963267948966 0.0 0.18320250911653524 0.0 0.0 0.0 0.0 0.0 -1.0 0.0 0.0 0.0 0.0 0.0 312.58218530686156 45.038010932842475 480.9 -1.407280996082299 0.828315343664487 -0.8283153436644871 -52.69686051321564 -29.256637244997826 54.07222056574537 0.08892594907294174 -0.16017282830764631 1.1217918319266434e-17 
1.272 0.508250815997934 -1.5707963267948966 -1.5707963267948966 0.0 1.5707963267948966 0.0 0.17520250911653523 0.0 0.0 0.0 0.0 0.0 -1.0 0.0 0.0 0.0 0.0 0.0 312.51729671266645 45.48608859208707 480.9 -1.4077267051476898 0.8272196003785012 -0.8272196003785012 -50.35555594730794 -28.051291867643346 51.71102056574537 0.08526228531198587 -0.15305640105564722 1.0728059599607492e-17 
1.28 0.5096204360708664 -1.5707963267948966 -1.5707963267948966 0.0 1.5707963267948966 0.0 0.16720250911653523 0.0 0.0 0.0 0.0 0.0 -1.0 0.0 0.0 0.0 0.0 0.0 312.4547049530002 45.91407575824172 480.9 -1.408151928151272 0.8261726934602246 -0.8261726934602247 -48.01953804324854 -26.83622297736127 49.34982056574537 0.0815690668004902 -0.14595604268464601 1.023820087994855e-17 
1.288 0.5109260561437985 -1.5707963267948966 -1.5707963267948966 0.0 1.5707963267948966 0.0 0.15920250911653522 0.0 0.0 0.0 0.0 0.0 -1.0 0.0 0.0 0.0 0.0 0.0 312.3944923191453 46.32198364344355 480.9 -1.4085567458222035 0.8251746339896846 -0.8251746339896847 -45.68858652771472 -25.61188618685953 46.988620565745364 0.07784767837951226 -0.1388710836708654 9.748342160289609e-18 
1.296 0.5121676762167309 -1.5707963267948966 -1.5707963267948966 0.0 1.5707963267948966 0.0 0.1512025091165352 0.0 0.0 0.0 0.0 0.0 -1.0 0.0 0.0 0.0 0.0 0.0 312.33673723238206 46.709823110668104 480.9 -1.4089412350942403 0.8242254325026204 -0.8242254325026205 -43.36247814636976 -24.378735515325623 44.62742056574535 0.07409950004658246 -0.13180084542969533 9.258483440630667e-18 
1.304 0.5133452962896631 -1.5707963267948966 -1.5707963267948966 0.0 1.5707963267948966 0.0 0.1432025091165352 0.0 0.0 0.0 0.0 0.0 -1.0 0.0 0.0 0.0 0.0 0.0 312.28151424724115 47.077604648602154 480.9 -1.409305469109088 0.8233250989943178 -0.8233250989943179 -41.040986811189356 -23.13722345606423 42.26622056574536 0.07032590716128947 -0.12474464076349351 8.768624720971726e-18 
1.312 0.5144589163625954 -1.5707963267948966 -1.5707963267948966 0.0 1.5707963267948966 0.0 0.1352025091165352 0.0 0.0 0.0 0.0 0.0 -1.0 0.0 0.0 0.0 0.0 0.0 312.22889405466714 47.425338347759094 480.9 -1.4096495172195764 0.8224736429232443 -0.8224736429232444 -38.72388374711495 -21.887801045410384 39.90502056574536 0.06652827065474283 -0.11770177430734027 8.278766001312784e-18 
1.32 0.5155085364355277 -1.5707963267948966 -1.5707963267948966 0.0 1.5707963267948966 0.0 0.1272025091165352 0.0 0.0 0.0 0.0 0.0 -1.0 0.0 0.0 0.0 0.0 0.0 312.17894348508275 47.7530338778333 480.9 -1.4099734449926644 0.8216710732144978 -0.821671073214498 -36.410937638063736 -20.630917932851375 37.54382056574536 0.06270795724270936 -0.11067154297283811 7.788907281653842e-18 
1.328 0.51649415650846 -1.5707963267948966 -1.5707963267948966 0.0 1.5707963267948966 0.0 0.11920250911653518 0.0 0.0 0.0 0.0 0.0 -1.0 0.0 0.0 0.0 0.0 0.0 312.1317255113442 48.060700466294435 480.9 -1.410277314212273 0.8209173982630579 -0.820917398263058 -34.10191477232514 -19.367022452291454 35.18262056574536 0.058866329642223277 -0.10365323639004602 7.2990485619949e-18 
1.336 0.5174157765813923 -1.5707963267948966 -1.5707963267948966 0.0 1.5707963267948966 0.0 0.11120250911653518 0.0 0.0 0.0 0.0 0.0 -1.0 0.0 0.0 0.0 0.0 0.0 312.08729925157706 48.34834687821848 480.9 -1.4105611828819506 0.8202126259368508 -0.8202126259368508 -31.796579187374483 -18.096561694393397 32.821420565745356 0.05500474679146931 -0.0966461373476428 6.8091898423359586e-18 
1.344 0.5182733966543246 -1.5707963267948966 -1.5707963267948966 0.0 1.5707963267948966 0.0 0.10320250911653517 0.0 0.0 0.0 0.0 0.0 -1.0 0.0 0.0 0.0 0.0 0.0 312.04571997188486 48.61598139735546 480.9 -1.4108251052273648 0.819556763579621 -0.8195567635796212 -29.49469281413524 -16.819981579931508 30.460220565745352 0.05112456407274015 -0.0896495222314141 6.319331122677017e-18 
1.352 0.5190670167272569 -1.5707963267948966 -1.5707963267948966 0.0 1.5707963267948966 0.0 0.09520250911653516 0.0 0.0 0.0 0.0 0.0 -1.0 0.0 0.0 0.0 0.0 0.0 312.00703908891995 48.863611808432324 480.9 -1.411069131698631 0.8189498180136147 -0.8189498180136148 -27.196015620721656 -15.537726934090891 28.099020565745352 0.04722713353827019 -0.08266266146116005 5.829472403018075e-18 
1.36 0.5197966368001892 -1.5707963267948966 -1.5707963267948966 0.0 1.5707963267948966 0.0 0.08720250911653515 0.0 0.0 0.0 0.0 0.0 -1.0 0.0 0.0 0.0 0.0 0.0 311.9713041723114 49.09124538068987 480.9 -1.4112933089724733 0.8183917955420729 -0.818391795542073 -24.90030575569424 -14.250241561648137 25.737820565745345 0.04331380413874814 -0.0756848199261223 5.339613683359133e-18 
1.368 0.5204622568731214 -1.5707963267948966 -1.5707963267948966 0.0 1.5707963267948966 0.0 0.07920250911653515 0.0 0.0 0.0 0.0 0.0 -1.0 0.0 0.0 0.0 0.0 0.0 311.93855894694036 49.29888885265251 480.9 -1.4114976799542214 0.817882701951539 -0.8178827019515391 -22.60731969086105 -12.957968322968826 23.37662056574535 0.03938592195431254 -0.06871525741903056 4.849754963700192e-18 
1.376 0.5210638769460536 -1.5707963267948966 -1.5707963267948966 0.0 1.5707963267948966 0.0 0.07120250911653514 0.0 0.0 0.0 0.0 0.0 -1.0 0.0 0.0 0.0 0.0 0.0 311.90884329505633 49.48654841813046 480.9 -1.4116822837796394 0.8174225425139735 -0.8174225425139736 -20.31681236365823 -11.66134921075753 21.015420565745345 0.035444830427834445 -0.06175322906887 4.35989624404125e-18 
1.384 0.521601497018986 -1.5707963267948966 -1.5707963267948966 0.0 1.5707963267948966 0.0 0.06320250911653513 0.0 0.0 0.0 0.0 0.0 -1.0 0.0 0.0 0.0 0.0 0.0 311.8821932582296 49.654229713452416 480.9 -1.4118471558165953 0.8170113219886872 -0.8170113219886873 -18.028537319143574 -10.360825427496232 18.654220565745344 0.03149187060029251 -0.05479798577247287 3.870037524382308e-18 
1.392 0.5220751170919182 -1.5707963267948966 -1.5707963267948966 0.0 1.5707963267948966 0.0 0.055202509116535126 0.0 0.0 0.0 0.0 0.0 -1.0 0.0 0.0 0.0 0.0 0.0 311.8586410391323 49.801937805928915 480.9 -1.411992327666567 0.8166490446240832 -0.8166490446240833 -15.74224685163747 -9.056837463507286 16.293020565745337 0.027528381348046464 -0.0478487746250379 3.3801788047233664e-18 
1.4 0.5224847371648507 -1.5707963267948966 -1.5707963267948966 0.0 1.5707963267948966 0.0 0.04720250911653512 0.0 0.0 0.0 0.0 0.0 -1.0 0.0 0.0 0.0 0.0 0.0 311.8382150031439 49.9296771835449 480.9 -1.4121178271659836 0.8163357141592138 -0.8163357141592139 -13.457692146045744 -7.749825175577283 13.931820565745339 0.023555699621815456 -0.040904839349683114 2.8903200850644247e-18 
1.408 0.5228303572377828 -1.5707963267948966 -1.5707963267948966 0.0 1.5707963267948966 0.0 0.03920250911653533 0.0 0.0 0.0 0.0 0.0 -1.0 0.0 0.0 0.0 0.0 0.0 311.8209396797762 50.037451745880894 480.9 -1.4122236783874071 0.8160713338251517 -0.8160713338251518 -11.174623418899463 -6.440227866078362 11.570620565745402 0.01957516068716828 -0.03396542072613819 2.4004613654054964e-18 
1.416 0.5231119773107151 -1.5707963267948966 -1.5707963267948966 0.0 1.5707963267948966 0.0 0.031202509116535326 0.0 0.0 0.0 0.0 0.0 -1.0 0.0 0.0 0.0 0.0 0.0 311.80683576391414 50.12526479626279 480.9 -1.4123099016405565 0.8158559063461742 -0.8158559063461743 -8.892790059146483 -5.128484362523457 9.2094205657454 0.015588098366332697 -0.027029757018682318 1.9106026457465547e-18 
1.424 0.5233295973836473 -1.5707963267948966 -1.5707963267948966 0.0 1.5707963267948966 0.0 0.02320250911653532 0.0 0.0 0.0 0.0 0.0 -1.0 0.0 0.0 0.0 0.0 0.0 311.79592011686816 50.19311903513831 480.9 -1.4123765134731647 0.8156894339407633 -0.8156894339407634 -6.611940768731235 -3.8150330974927993 6.8482205657453985 0.011595845281133131 -0.020097084403438402 1.4207439260876131e-18 
1.432 0.5234832174565797 -1.5707963267948966 -1.5707963267948966 0.0 1.5707963267948966 0.0 0.015202509116535312 0.0 0.0 0.0 0.0 0.0 -1.0 0.0 0.0 0.0 0.0 0.0 311.78820576723587 50.241016554681416 480.9 -1.4124235266716807 0.8155719183224184 -0.8155719183224185 -4.331823702997093 -2.500312188867989 4.487020565745397 0.0075997330968631885 -0.013166637395127943 9.308852064286714e-19 
1.44 0.5235728375295121 -1.5707963267948966 -1.5707963267948966 0.0 1.5707963267948966 0.0 0.007202509116535305 0.0 0.0 0.0 0.0 0.0 -1.0 0.0 0.0 0.0 0.0 0.0 311.78370191157046 50.2689588346225 480.9 -1.4124509502618114 0.8155033607002864 -0.8155033607002865 -2.052186610948194 -1.1847595203111285 2.125820565745395 0.003601092766903127 -0.006237649273398767 4.410264867697296e-19 
1.448 0.5235984576024442 -1.5707963267948966 -1.5707963267948966 0.0 1.5707963267948966 0.0 -0.0007974908834647021 0.0 0.0 0.0 0.0 0.0 -1.0 0.0 0.0 0.0 0.0 0.0 311.78241391485346 50.27694673930567 480.9 -1.4124587895089027 0.8154837617796055 -0.8154837617796056 0.22722302459370938 0.13118717807397018 -0.23537943425460686 -0.00039874522210933195 0.00069064749116629 -4.8832232889212115e-20 
