Fleaurent/UniversalRobot/csv/robot_movej_Dreieck.csv
timestamp target_q_0 target_q_1 target_q_2 target_q_3 target_q_4 target_q_5 target_qd_0 target_qd_1 target_qd_2 target_qd_3 target_qd_4 target_qd_5 target_qdd_0 target_qdd_1 target_qdd_2 target_qdd_3 target_qdd_4 target_qdd_5 target_current_0 target_current_1 target_current_2 target_current_3 target_current_4 target_current_5 target_moment_0 target_moment_1 target_moment_2 target_moment_3 target_moment_4 target_moment_5 actual_q_0 actual_q_1 actual_q_2 actual_q_3 actual_q_4 actual_q_5 actual_qd_0 actual_qd_1 actual_qd_2 actual_qd_3 actual_qd_4 actual_qd_5 actual_current_0 actual_current_1 actual_current_2 actual_current_3 actual_current_4 actual_current_5 joint_control_output_0 joint_control_output_1 joint_control_output_2 joint_control_output_3 joint_control_output_4 joint_control_output_5 actual_TCP_pose_0 actual_TCP_pose_1 actual_TCP_pose_2 actual_TCP_pose_3 actual_TCP_pose_4 actual_TCP_pose_5 actual_TCP_speed_0 actual_TCP_speed_1 actual_TCP_speed_2 actual_TCP_speed_3 actual_TCP_speed_4 actual_TCP_speed_5 actual_TCP_force_0 actual_TCP_force_1 actual_TCP_force_2 actual_TCP_force_3 actual_TCP_force_4 actual_TCP_force_5 target_TCP_pose_0 target_TCP_pose_1 target_TCP_pose_2 target_TCP_pose_3 target_TCP_pose_4 target_TCP_pose_5 target_TCP_speed_0 target_TCP_speed_1 target_TCP_speed_2 target_TCP_speed_3 target_TCP_speed_4 target_TCP_speed_5
2296.792 0.0 -1.5707963267948966 -1.5707963267948966 -8.881784197001252e-16 1.5707963267948966 0.0 -0.0 -0.0 -0.0 0.0 0.0 -0.0 0.0 0.0 0.0 0.0 0.0 0.0 -1.4033970988372897e-26 0.5551729734477961 0.7573864583558307 0.07057808899065884 -9.380119611155278e-28 0.0 -1.6105384240992177e-25 6.394759450000004 6.394759450000002 0.2913103000000015 -3.894046141930891e-27 0.0 0.0 -1.5707600752459925 -1.5707595984088343 -1.6514454976856996e-05 1.570719599723816 -4.7985707418263246e-05 1.917476038215682e-05 1.917476038215682e-05 2.3968450477696024e-05 -2.3968450477696024e-05 -2.3968450477696024e-05 -4.793690095539205e-05 0.0336456336081028 0.5809479355812073 0.6862685084342957 0.001118993852287531 -0.025736859068274498 -0.2025378942489624 0.0358886756002903 0.5719757676124573 0.6847434639930725 -0.0033569815568625927 -0.025736859068274498 -0.19918090105056763 0.2957957999197067 -0.11304106178835863 0.4815727951892541 -1.2100971035309807 1.2098294609115778 -1.2090940846335136 -4.16377457903277e-06 3.664975869542625e-06 1.0782197212453066e-05 -4.7915518749212346e-05 -1.917521515570736e-05 -4.840692294788156e-06 4.111238966733251 -4.7659801364113825 1.6346903120653649 0.9400300559958306 -0.5379825144114907 0.5120987248446014 0.295809494550608 -0.11303468883756389 0.48155257636461907 -1.2101397425155394 1.2098370768821627 -1.2089754610298096 0.0 0.0 0.0 0.0 0.0 0.0
2296.7999999999997 0.0 -1.5707963267948966 -1.5707963267948966 -8.881784197001252e-16 1.5707963267948966 0.0 -0.0 -0.0 -0.0 0.0 0.0 -0.0 0.0 0.0 0.0 0.0 0.0 0.0 -1.4033970988372897e-26 0.5551729734477961 0.7573864583558307 0.07057808899065884 -9.380119611155278e-28 0.0 -1.6105384240992177e-25 6.394759450000004 6.394759450000002 0.2913103000000015 -3.894046141930891e-27 0.0 -1.1746083394825746e-05 -1.5707362333880823 -1.5707834402667444 -2.8912221090138246e-05 1.570719599723816 2.3968450477696024e-05 1.917476038215682e-05 1.917476038215682e-05 2.3968450477696024e-05 -2.3968450477696024e-05 -2.3968450477696024e-05 -4.793690095539205e-05 0.0314025916159153 0.6056213974952698 0.681693434715271 -0.0033569815568625927 -0.03021283447742462 -0.2036568820476532 0.0314025916159153 0.5719757676124573 0.6847434639930725 -0.0033569815568625927 -0.02685585245490074 -0.19918090105056763 0.2957897139309587 -0.11304451680173143 0.48157177673047724 -1.2100477063785666 1.2098812329211506 -1.209043867852343 -4.16371223529437e-06 3.664933703116687e-06 1.078210604314426e-05 -4.791604056110247e-05 -1.9174655953604642e-05 -4.840097991704169e-06 5.593257083191277 -5.512951296052415 1.740247767003199 0.9452819159480818 -0.6765388762922644 0.5943291662498524 0.295809494550608 -0.11303468883756389 0.48155257636461907 -1.2101397425155394 1.2098370768821627 -1.2089754610298096 0.0 0.0 0.0 0.0 0.0 0.0
2296.808 0.0 -1.5707963267948966 -1.5707963267948966 -8.881784197001252e-16 1.5707963267948966 0.0 -0.0 -0.0 -0.0 0.0 0.0 -0.0 0.0 0.0 0.0 0.0 0.0 0.0 -1.4033970988372897e-26 0.5551729734477961 0.7573864583558307 0.07057808899065884 -9.380119611155278e-28 0.0 -1.6105384240992177e-25 6.394759450000004 6.394759450000002 0.2913103000000015 -3.894046141930891e-27 0.0 0.0 -1.5707839171039026 -1.5707715193377894 -1.6514454976856996e-05 1.5707435607910156 0.0 1.917476038215682e-05 1.917476038215682e-05 2.3968450477696024e-05 -2.3968450477696024e-05 -2.3968450477696024e-05 -4.793690095539205e-05 0.0314025916159153 0.5517883896827698 0.6832184791564941 -0.0033569815568625927 -0.024617865681648254 -0.18910996615886688 0.02467346377670765 0.5719757676124573 0.6847434639930725 -0.0033569815568625927 -0.02685585245490074 -0.19918090105056763 0.29580468307696584 -0.11303906635797463 0.48156222067760057 -1.210099466413605 1.2098607862545854 -1.2090241563792143 -4.16337962253116e-06 3.665145978349021e-06 1.0782367970142462e-05 -4.791637686329838e-05 -1.9176367460848758e-05 -4.838978393723029e-06 2.688366671144559 -3.852989930870478 1.6744580583264983 0.8776978017809096 -0.433938955958918 0.4317839306582164 0.295809494550608 -0.11303468883756389 0.48155257636461907 -1.2101397425155394 1.2098370768821627 -1.2089754610298096 0.0 0.0 0.0 0.0 0.0 0.0
2296.816 0.0 -1.5707963267948966 -1.5707963267948966 -8.881784197001252e-16 1.5707963267948966 0.0 -0.0 -0.0 -0.0 0.0 0.0 -0.0 0.0 0.0 0.0 0.0 0.0 0.0 -1.4033970988372897e-26 0.5551729734477961 0.7573864583558307 0.07057808899065884 -9.380119611155278e-28 0.0 -1.6105384240992177e-25 6.394759450000004 6.394759450000002 0.2913103000000015 -3.894046141930891e-27 0.0 -3.5587941304981996e-05 -1.5707243124591272 -1.570723835621969 7.152557373046875e-06 1.570791482925415 -5.990663637334137e-05 1.917476038215682e-05 1.917476038215682e-05 2.3968450477696024e-05 -2.3968450477696024e-05 -2.3968450477696024e-05 -4.793690095539205e-05 0.0358886756002903 0.5809479355812073 0.6801683902740479 0.001118993852287531 -0.02014188840985298 -0.19918090105056763 0.0314025916159153 0.5719757676124573 0.6847434639930725 -0.0033569815568625927 -0.02685585245490074 -0.19918090105056763 0.29577490901802767 -0.11304572233469588 0.4815958881043351 -1.2100528520123797 1.2097271572555086 -1.209121301504801 -4.164423031587825e-06 3.6648008301848187e-06 1.0781873050842418e-05 -4.79139191222842e-05 -1.9176946106946263e-05 -4.845252899008609e-06 4.3472797084522385 -4.905164616253505 1.9053047877785318 0.9244147247256429 -0.535928635873821 0.4976025915825861 0.295809494550608 -0.11303468883756389 0.48155257636461907 -1.2101397425155394 1.2098370768821627 -1.2089754610298096 0.0 0.0 0.0 0.0 0.0 0.0
2296.824 0.0 -1.5707963267948966 -1.5707963267948966 -8.881784197001252e-16 1.5707963267948966 0.0 -0.0 -0.0 -0.0 0.0 0.0 -0.0 0.0 0.0 0.0 0.0 0.0 0.0 -1.4033970988372897e-26 0.5551729734477961 0.7573864583558307 0.07057808899065884 -9.380119611155278e-28 0.0 -1.6105384240992177e-25 6.394759450000004 6.394759450000002 0.2913103000000015 -3.894046141930891e-27 0.0 -1.1746083394825746e-05 -1.5707600752459925 -1.5707595984088343 -2.8912221090138246e-05 1.570719599723816 -4.7985707418263246e-05 1.917476038215682e-05 1.917476038215682e-05 2.3968450477696024e-05 -2.3968450477696024e-05 -2.3968450477696024e-05 -4.793690095539205e-05 0.0336456336081028 0.5719757676124573 0.6740682125091553 -0.0055949692614376545 -0.034688808023929596 -0.1879909634590149 0.0291595496237278 0.5719757676124573 0.6847434639930725 -0.0033569815568625927 -0.02685585245490074 -0.19918090105056763 0.29579553036366363 -0.11304453557845677 0.48157177444267457 -1.210100682079395 1.209847237998959 -1.2090968564531528 -4.163711945002937e-06 3.6650449924098147e-06 1.0782217531369887e-05 -4.791604056459242e-05 -1.917465273970233e-05 -4.8400979847217686e-06 4.109968084627545 -4.960571105600342 2.030626619845391 0.8726002673405006 -0.5363814527723125 0.5697859637772397 0.295809494550608 -0.11303468883756389 0.48155257636461907 -1.2101397425155394 1.2098370768821627 -1.2089754610298096 0.0 0.0 0.0 0.0 0.0 0.0
2296.832 0.0 -1.5707963267948966 -1.5707963267948966 -8.881784197001252e-16 1.5707963267948966 0.0 -0.0 -0.0 -0.0 0.0 0.0 -0.0 0.0 0.0 0.0 0.0 0.0 0.0 -1.4033970988372897e-26 0.5551729734477961 0.7573864583558307 0.07057808899065884 -9.380119611155278e-28 0.0 -1.6105384240992177e-25 6.394759450000004 6.394759450000002 0.2913103000000015 -3.894046141930891e-27 0.0 0.0 -1.5707839171039026 -1.5707715193377894 4.303455352783203e-05 1.57077956199646 -1.1746083394825746e-05 1.917476038215682e-05 1.917476038215682e-05 2.3968450477696024e-05 -2.3968450477696024e-05 -2.3968450477696024e-05 -4.793690095539205e-05 0.02467346377670765 0.5585175156593323 0.6893185973167419 0.0 -0.02349887043237686 -0.19358593225479126 0.0291595496237278 0.5719757676124573 0.6847434639930725 -0.0033569815568625927 -0.02909383922815323 -0.19918090105056763 0.29579960349271855 -0.11303610449940098 0.4815671227187869 -1.2100812835860857 1.2097848941489926 -1.2090345119977455 -4.163459186580629e-06 3.6650488633585117e-06 1.0782270507788035e-05 -4.791495244529905e-05 -1.917809128415666e-05 -4.841832513276081e-06 2.8085588611964907 -3.486862652149984 1.4780105375910486 0.8984189140543108 -0.4448539659273749 0.3964698479733403 0.295809494550608 -0.11303468883756389 0.48155257636461907 -1.2101397425155394 1.2098370768821627 -1.2089754610298096 0.0 0.0 0.0 0.0 0.0 0.0
2296.8399999999997 0.0 -1.5707963267948966 -1.5707963267948966 -8.881784197001252e-16 1.5707963267948966 0.0 -0.0 -0.0 -0.0 0.0 0.0 -0.0 0.0 0.0 0.0 0.0 0.0 0.0 -1.4033970988372897e-26 0.5551729734477961 0.7573864583558307 0.07057808899065884 -9.380119611155278e-28 0.0 -1.6105384240992177e-25 6.394759450000004 6.394759450000002 0.2913103000000015 -3.894046141930891e-27 0.0 -1.1746083394825746e-05 -1.5707839171039026 -1.5707476774798792 7.152557373046875e-06 1.5707556009292603 0.0 1.917476038215682e-05 0.0 2.3968450477696024e-05 -2.3968450477696024e-05 -2.3968450477696024e-05 -4.793690095539205e-05 0.0269165076315403 0.5787048935890198 0.6923686861991882 0.0 -0.034688808023929596 -0.19806191325187683 0.0291595496237278 0.5719757676124573 0.6847434639930725 -0.0033569815568625927 -0.02909383922815323 -0.19918090105056763 0.2957992933880517 -0.11304157764961938 0.48157121668054353 -1.2100645563568388 1.2098256792960689 -1.2090464818086282 2.157314271592259e-06 3.671838058821286e-06 5.11223729351309e-06 -4.7914768161490175e-05 -1.630466192733452e-09 -4.817750657154811e-06 3.7570864897388874 -4.368124549748851 1.3412699301299102 0.9192807153648745 -0.5371350193703235 0.5210456703407205 0.295809494550608 -0.11303468883756389 0.48155257636461907 -1.2101397425155394 1.2098370768821627 -1.2089754610298096 0.0 0.0 0.0 0.0 0.0 0.0
2296.848 0.0 -1.5707963267948966 -1.5707963267948966 -8.881784197001252e-16 1.5707963267948966 0.0 -0.0 -0.0 -0.0 0.0 0.0 -0.0 0.0 0.0 0.0 0.0 0.0 0.0 -1.4033970988372897e-26 0.5551729734477961 0.7573864583558307 0.07057808899065884 -9.380119611155278e-28 0.0 -1.6105384240992177e-25 6.394759450000004 6.394759450000002 0.2913103000000015 -3.894046141930891e-27 0.0 3.5952674807049334e-05 -1.5707243124591272 -1.5707476774798792 7.152557373046875e-06 1.5707435607910156 -1.1746083394825746e-05 0.0 0.0 2.3968450477696024e-05 -2.3968450477696024e-05 -2.3968450477696024e-05 -4.793690095539205e-05 0.0269165076315403 0.5742188096046448 0.681693434715271 0.001118993852287531 -0.021260883659124374 -0.204775869846344 0.02467346377670765 0.5719757676124573 0.6847434639930725 -0.0033569815568625927 -0.025736859068274498 -0.19918090105056763 0.29578503473756695 -0.11302848170100623 0.4815888416958523 -1.2100461423232458 1.2097500137902293 -1.209057139201468 -1.0464188445435541e-08 -2.000042974575122e-06 5.112236655591419e-06 -4.791333784695053e-05 -3.3352574157244465e-09 -2.3995367095467458e-05 3.9339091683337832 -4.169236596625687 1.8397282604959346 0.9503484253688427 -0.5059335036595026 0.44221851037579285 0.295809494550608 -0.11303468883756389 0.48155257636461907 -1.2101397425155394 1.2098370768821627 -1.2089754610298096 0.0 0.0 0.0 0.0 0.0 0.0
2296.8559999999998 0.0 -1.5707963267948966 -1.5707963267948966 -8.881784197001252e-16 1.5707963267948966 0.0 -0.0 -0.0 -0.0 0.0 0.0 -0.0 0.0 0.0 0.0 0.0 0.0 0.0 -1.4033970988372897e-26 0.5551729734477961 0.7573864583558307 0.07057808899065884 -9.380119611155278e-28 0.0 -1.6105384240992177e-25 6.394759450000004 6.394759450000002 0.2913103000000015 -3.894046141930891e-27 0.0 -1.1746083394825746e-05 -1.5707724730121058 -1.5707953611956995 1.9073486328125e-05 1.570719599723816 0.0 0.0 0.0 2.3968450477696024e-05 -2.3968450477696024e-05 -2.3968450477696024e-05 -4.793690095539205e-05 0.0291595496237278 0.5787048935890198 0.6954187750816345 -0.0033569815568625927 -0.024617865681648254 -0.19918090105056763 0.0291595496237278 0.5719757676124573 0.6847434639930725 -0.0033569815568625927 -0.025736859068274498 -0.19918090105056763 0.2957985856100101 -0.11304449302662152 0.4815614877121683 -1.2100655299306835 1.2098699758051081 -1.2090613978734917 -1.0116607820343792e-08 -2.000042180819128e-06 5.112237649971892e-06 -4.791535222840609e-05 8.718384687495316e-11 -2.3991346554172554e-05 3.6385080468898265 -4.2208910580831045 1.1326520173158696 0.9244052741019843 -0.5596797777746908 0.4620235189872991 0.295809494550608 -0.11303468883756389 0.48155257636461907 -1.2101397425155394 1.2098370768821627 -1.2089754610298096 0.0 0.0 0.0 0.0 0.0 0.0
2296.864 0.0 -1.5707963267948966 -1.5707963267948966 -8.881784197001252e-16 1.5707963267948966 0.0 -0.0 -0.0 -0.0 0.0 0.0 -0.0 0.0 0.0 0.0 0.0 0.0 0.0 -1.4033970988372897e-26 0.5551729734477961 0.7573864583558307 0.07057808899065884 -9.380119611155278e-28 0.0 -1.6105384240992177e-25 6.394759450000004 6.394759450000002 0.2913103000000015 -3.894046141930891e-27 0.0 -1.1746083394825746e-05 -1.5707123915301722 -1.5707595984088343 -1.6514454976856996e-05 1.5707675218582153 -8.422533144170075e-05 0.0 0.0 2.3968450477696024e-05 -2.3968450477696024e-05 -2.3968450477696024e-05 -4.793690095539205e-05 0.0269165076315403 0.5809479355812073 0.6832184791564941 0.0033569815568625927 -0.038045790046453476 -0.19582392275333405 0.0269165076315403 0.5719757676124573 0.6847434639930725 -0.0033569815568625927 -0.03021283447742462 -0.19918090105056763 0.2957787574905245 -0.11304060613063714 0.48158689376637476 -1.2101057797707637 1.2097506004818612 -1.2091167337070126 -1.0512048876594728e-08 -2.000042575064011e-06 5.112236771892373e-06 -4.791390431170767e-05 -2.2008494485469114e-09 -2.3994232298899755e-05 4.230371458373081 -4.692412332396457 1.8202265627811807 0.9089255270079113 -0.5225970322237511 0.5633766347573764 0.295809494550608 -0.11303468883756389 0.48155257636461907 -1.2101397425155394 1.2098370768821627 -1.2089754610298096 0.0 0.0 0.0 0.0 0.0 0.0
2296.872 0.0 -1.5707963267948966 -1.5707963267948966 -8.881784197001252e-16 1.5707963267948966 0.0 -0.0 -0.0 -0.0 0.0 0.0 -0.0 0.0 0.0 0.0 0.0 0.0 0.0 -1.4033970988372897e-26 0.5551729734477961 0.7573864583558307 0.07057808899065884 -9.380119611155278e-28 0.0 -1.6105384240992177e-25 6.394759450000004 6.394759450000002 0.2913103000000015 -3.894046141930891e-27 0.0 -1.1746083394825746e-05 -1.5707600752459925 -1.5707715193377894 3.1113624572753906e-05 1.5707435607910156 -5.990663637334137e-05 0.0 0.0 2.3968450477696024e-05 -2.3968450477696024e-05 -2.3968450477696024e-05 -4.793690095539205e-05 0.0403747595846653 0.5876770615577698 0.6862685084342957 -0.002237987704575062 -0.017903901636600494 -0.19246694445610046 0.0314025916159153 0.5719757676124573 0.6847434639930725 -0.004475975409150124 -0.027974845841526985 -0.19918090105056763 0.29579143044680456 -0.11304255172848908 0.4815731921066574 -1.2100853849441326 1.2097885226087801 -1.2091107655523523 -1.0254663033658408e-08 -2.0000422835105598e-06 5.112237260616888e-06 -4.7914194855133875e-05 -1.055730726001731e-09 -2.3993659805805646e-05 4.466161467905312 -5.189001894091686 1.5603705642323598 0.8932901458399504 -0.5899388271103216 0.5104927769380523 0.295809494550608 -0.11303468883756389 0.48155257636461907 -1.2101397425155394 1.2098370768821627 -1.2089754610298096 0.0 0.0 0.0 0.0 0.0 0.0
2296.88 0.0 -1.5707963267948966 -1.5707963267948966 -8.881784197001252e-16 1.5707963267948966 0.0 -0.0 -0.0 -0.0 0.0 0.0 -0.0 0.0 0.0 0.0 0.0 0.0 0.0 -1.4033970988372897e-26 0.5551729734477961 0.7573864583558307 0.07057808899065884 -9.380119611155278e-28 0.0 -1.6105384240992177e-25 6.394759450000004 6.394759450000002 0.2913103000000015 -3.894046141930891e-27 0.0 1.1984225238848012e-05 -1.5707243124591272 -1.5707953611956995 -2.8912221090138246e-05 1.5707556009292603 1.1984225238848012e-05 0.0 0.0 2.3968450477696024e-05 -2.3968450477696024e-05 -2.3968450477696024e-05 -4.793690095539205e-05 0.02467346377670765 0.5630035996437073 0.6862685084342957 0.0 -0.019022895023226738 -0.19246694445610046 0.0291595496237278 0.5719757676124573 0.6847434639930725 -0.001118993852287531 -0.025736859068274498 -0.19918090105056763 0.2957894916753478 -0.11303452325649076 0.48157177700956266 -1.2100848201088985 1.2098315280746528 -1.2090087050919816 -1.0244105868026638e-08 -2.0000426976762416e-06 5.112237329323565e-06 -4.791534486423823e-05 -2.774428245568722e-09 -2.3991353417335142e-05 3.1639984788722013 -3.57735290830159 1.613433182922215 0.8932223787923308 -0.4640013715131027 0.3830281496069993 0.295809494550608 -0.11303468883756389 0.48155257636461907 -1.2101397425155394 1.2098370768821627 -1.2089754610298096 0.0 0.0 0.0 0.0 0.0 0.0
2296.888 0.0 -1.5707963267948966 -1.5707963267948966 -8.881784197001252e-16 1.5707963267948966 0.0 -0.0 -0.0 -0.0 0.0 0.0 -0.0 0.0 0.0 0.0 0.0 0.0 0.0 -1.4033970988372897e-26 0.5551729734477961 0.7573864583558307 0.07057808899065884 -9.380119611155278e-28 0.0 -1.6105384240992177e-25 6.394759450000004 6.394759450000002 0.2913103000000015 -3.894046141930891e-27 0.0 -1.1746083394825746e-05 -1.5707724730121058 -1.5707476774798792 7.152557373046875e-06 1.57077956199646 -3.5587941304981996e-05 0.0 0.0 2.3968450477696024e-05 -2.3968450477696024e-05 -2.3968450477696024e-05 -4.793690095539205e-05 0.0269165076315403 0.5674896836280823 0.681693434715271 -0.0033569815568625927 -0.022379877045750618 -0.19582392275333405 0.0269165076315403 0.5719757676124573 0.6847434639930725 -0.004475975409150124 -0.027974845841526985 -0.19918090105056763 0.2957955231283885 -0.11303960825832647 0.48157460018133846 -1.210093681517536 1.2097827721966472 -1.2090604629503188 -1.0241990044293972e-08 -2.0000425659402443e-06 5.112237221117677e-06 -4.7914493686603685e-05 -2.7784227296798922e-09 -2.399305906351055e-05 3.5781259792422264 -4.0051186497062465 1.742758441912519 0.9088266164603139 -0.5042986751646635 0.433890706448807 0.295809494550608 -0.11303468883756389 0.48155257636461907 -1.2101397425155394 1.2098370768821627 -1.2089754610298096 0.0 0.0 0.0 0.0 0.0 0.0
2296.8959999999997 0.0 -1.5707963267948966 -1.5707963267948966 -8.881784197001252e-16 1.5707963267948966 0.0 -0.0 -0.0 -0.0 0.0 0.0 -0.0 0.0 0.0 0.0 0.0 0.0 0.0 -1.4033970988372897e-26 0.5551729734477961 0.7573864583558307 0.07057808899065884 -9.380119611155278e-28 0.0 -1.6105384240992177e-25 6.394759450000004 6.394759450000002 0.2913103000000015 -3.894046141930891e-27 0.0 -2.366701234990387e-05 -1.570796314870016 -1.570735279713766 1.9073486328125e-05 1.57077956199646 0.0 0.0 0.0 2.3968450477696024e-05 -2.3968450477696024e-05 -2.3968450477696024e-05 -4.793690095539205e-05 0.02467346377670765 0.5562744736671448 0.6893185973167419 -0.0055949692614376545 -0.02909383922815323 -0.19358593225479126 0.0269165076315403 0.5719757676124573 0.6847434639930725 -0.004475975409150124 -0.027974845841526985 -0.19918090105056763 0.2957999550922616 -0.11304314084844738 0.4815721962860091 -1.210061452287096 1.2098080677528593 -1.2090432787987806 -1.0207381807220308e-08 -2.0000424509236386e-06 5.1122372914446845e-06 -4.79144831020713e-05 -2.2058391470277883e-09 -2.3993082166057946e-05 2.6898108535896474 -3.5461163229717507 1.3566035523494788 0.8984348787038378 -0.4706532863677267 0.42740219286974857 0.295809494550608 -0.11303468883756389 0.48155257636461907 -1.2101397425155394 1.2098370768821627 -1.2089754610298096 0.0 0.0 0.0 0.0 0.0 0.0
2296.904 0.0 -1.5707963267948966 -1.5707963267948966 -8.881784197001252e-16 1.5707963267948966 0.0 -0.0 -0.0 -0.0 0.0 0.0 -0.0 0.0 0.0 0.0 0.0 0.0 0.0 -1.4033970988372897e-26 0.5551729734477961 0.7573864583558307 0.07057808899065884 -9.380119611155278e-28 0.0 -1.6105384240992177e-25 6.394759450000004 6.394759450000002 0.2913103000000015 -3.894046141930891e-27 0.0 -1.1746083394825746e-05 -1.5707362333880823 -1.570723835621969 4.303455352783203e-05 1.5707435607910156 2.3968450477696024e-05 0.0 0.0 2.3968450477696024e-05 -2.3968450477696024e-05 -2.3968450477696024e-05 -4.793690095539205e-05 0.02243042178452015 0.5697327256202698 0.6923686861991882 0.002237987704575062 -0.025736859068274498 -0.19470493495464325 0.0269165076315403 0.5719757676124573 0.6847434639930725 -0.0033569815568625927 -0.02685585245490074 -0.19918090105056763 0.29577846641381395 -0.11304261497025704 0.4815953183021652 -1.2099620023308884 1.2097669453100488 -1.2090886373671423 -1.0620743607908322e-08 -2.0000424255626924e-06 5.112236412875149e-06 -4.7912193334679515e-05 -1.044775031890333e-09 -2.3997658236142778e-05 3.283452140480099 -3.6525822940215753 1.3916828394832763 0.9035668533703496 -0.4822025884534118 0.4205722719809961 0.295809494550608 -0.11303468883756389 0.48155257636461907 -1.2101397425155394 1.2098370768821627 -1.2089754610298096 0.0 0.0 0.0 0.0 0.0 0.0
2296.912 0.0 -1.5707963267948966 -1.5707963267948966 -8.881784197001252e-16 1.5707963267948966 0.0 -0.0 -0.0 -0.0 0.0 0.0 -0.0 0.0 0.0 0.0 0.0 0.0 0.0 -1.4033970988372897e-26 0.5551729734477961 0.7573864583558307 0.07057808899065884 -9.380119611155278e-28 0.0 -1.6105384240992177e-25 6.394759450000004 6.394759450000002 0.2913103000000015 -3.894046141930891e-27 0.0 0.0 -1.5707600752459925 -1.570723835621969 -4.0356312887013246e-05 1.5707435607910156 -2.366701234990387e-05 0.0 0.0 2.3968450477696024e-05 -2.3968450477696024e-05 -2.3968450477696024e-05 -4.793690095539205e-05 0.0381317175924778 0.5674896836280823 0.681693434715271 0.004475975409150124 -0.02909383922815323 -0.19806191325187683 0.0336456336081028 0.5719757676124573 0.6847434639930725 -0.001118993852287531 -0.02909383922815323 -0.19918090105056763 0.29579477266143495 -0.11303912785920078 0.4815814031699828 -1.2100816687250147 1.2098146367705938 -1.2090642451808562 -1.0475143170541879e-08 -2.0000428972550166e-06 5.1122368416853175e-06 -4.7914760607042047e-05 -1.611689243510298e-09 -2.3992518536927982e-05 3.5765070812155493 -4.826668434433242 1.9099641895992892 0.919299769321155 -0.454154651892865 0.5327761116232733 0.295809494550608 -0.11303468883756389 0.48155257636461907 -1.2101397425155394 1.2098370768821627 -1.2089754610298096 0.0 0.0 0.0 0.0 0.0 0.0
2296.92 0.0 -1.5707963267948966 -1.5707963267948966 -8.881784197001252e-16 1.5707963267948966 0.0 -0.0 -0.0 -0.0 0.0 0.0 -0.0 0.0 0.0 0.0 0.0 0.0 0.0 -1.4033970988372897e-26 0.5551729734477961 0.7573864583558307 0.07057808899065884 -9.380119611155278e-28 0.0 -1.6105384240992177e-25 6.394759450000004 6.394759450000002 0.2913103000000015 -3.894046141930891e-27 0.0 0.0 -1.5707600752459925 -1.570735279713766 7.152557373046875e-06 1.5707075595855713 -2.366701234990387e-05 0.0 0.0 2.3968450477696024e-05 -2.3968450477696024e-05 -2.3968450477696024e-05 -4.793690095539205e-05 0.0269165076315403 0.5787048935890198 0.6847434639930725 -0.002237987704575062 -0.02685585245490074 -0.19806191325187683 0.0291595496237278 0.5719757676124573 0.6847434639930725 -0.0033569815568625927 -0.027974845841526985 -0.19918090105056763 0.2957916944665685 -0.1130420823524071 0.48158193254146825 -1.210038082102855 1.2098145962064872 -1.2091078174981906 -1.0487921379186704e-08 -2.0000425687471247e-06 5.112236810046911e-06 -4.791389837307344e-05 1.1345327468917632e-10 -2.3994248062998387e-05 4.052790377551746 -4.354093263184194 1.6313453408674403 0.919206628029967 -0.5488262612858679 0.48343325982664903 0.295809494550608 -0.11303468883756389 0.48155257636461907 -1.2101397425155394 1.2098370768821627 -1.2089754610298096 0.0 0.0 0.0 0.0 0.0 0.0
2296.928 0.0 -1.5707963267948966 -1.5707963267948966 -8.881784197001252e-16 1.5707963267948966 0.0 -0.0 -0.0 -0.0 0.0 0.0 -0.0 0.0 0.0 0.0 0.0 0.0 0.0 -1.4033970988372897e-26 0.5551729734477961 0.7573864583558307 0.07057808899065884 -9.380119611155278e-28 0.0 -1.6105384240992177e-25 6.394759450000004 6.394759450000002 0.2913103000000015 -3.894046141930891e-27 0.0 2.3968450477696024e-05 -1.5707600752459925 -1.5707595984088343 -1.6514454976856996e-05 1.5707435607910156 0.0 0.0 0.0 2.3968450477696024e-05 -2.3968450477696024e-05 -2.3968450477696024e-05 -4.793690095539205e-05 0.02467346377670765 0.5742188096046448 0.6908436417579651 -0.0055949692614376545 -0.02685585245490074 -0.19470493495464325 0.02243042178452015 0.5719757676124573 0.6847434639930725 -0.0033569815568625927 -0.02909383922815323 -0.19918090105056763 0.2957985115470966 -0.11303199858634508 0.4815727946483626 -1.2100844241994322 1.2098168521861368 -1.2090234829790028 -1.0244167045679351e-08 -2.0000428959884923e-06 5.112237220774481e-06 -4.791504820787279e-05 -2.766253458615615e-09 -2.3991947875180694e-05 3.5795347931969066 -3.9679844477131416 1.2884884948380144 0.9036586803184842 -0.5521367871151475 0.4516477327519223 0.295809494550608 -0.11303468883756389 0.48155257636461907 -1.2101397425155394 1.2098370768821627 -1.2089754610298096 0.0 0.0 0.0 0.0 0.0 0.0
2296.9359999999997 0.0 -1.5707963267948966 -1.5707963267948966 -8.881784197001252e-16 1.5707963267948966 0.0 -0.0 -0.0 -0.0 0.0 0.0 -0.0 0.0 0.0 0.0 0.0 0.0 0.0 -1.4033970988372897e-26 0.5551729734477961 0.7573864583558307 0.07057808899065884 -9.380119611155278e-28 0.0 -1.6105384240992177e-25 6.394759450000004 6.394759450000002 0.2913103000000015 -3.894046141930891e-27 0.0 0.0 -1.570796314870016 -1.5707715193377894 -4.593526021778871e-06 1.5707556009292603 -3.5587941304981996e-05 0.0 0.0 2.3968450477696024e-05 -2.3968450477696024e-05 -2.3968450477696024e-05 -4.793690095539205e-05 0.0269165076315403 0.5831909775733948 0.6755932569503784 -0.002237987704575062 -0.02909383922815323 -0.19134794175624847 0.0269165076315403 0.5719757676124573 0.6847434639930725 -0.0033569815568625927 -0.02909383922815323 -0.19918090105056763 0.2958077534950429 -0.11303807098553979 0.4815595357853473 -1.2101317404374725 1.2098354220864276 -1.2090412567756936 -1.0021909815665909e-08 -2.0000425838619347e-06 5.112237723588363e-06 -4.7915918564297363e-05 -2.1989851423312315e-09 -2.399021154139957e-05 4.6449168871763575 -4.715586586886124 2.0369442674551483 0.8881647570061024 -0.5659399973495904 0.5235191291237027 0.295809494550608 -0.11303468883756389 0.48155257636461907 -1.2101397425155394 1.2098370768821627 -1.2089754610298096 0.0 0.0 0.0 0.0 0.0 0.0
2296.944 0.0 -1.5707963267948966 -1.5707963267948966 -8.881784197001252e-16 1.5707963267948966 0.0 -0.0 -0.0 -0.0 0.0 0.0 -0.0 0.0 0.0 0.0 0.0 0.0 0.0 -1.4033970988372897e-26 0.5551729734477961 0.7573864583558307 0.07057808899065884 -9.380119611155278e-28 0.0 -1.6105384240992177e-25 6.394759450000004 6.394759450000002 0.2913103000000015 -3.894046141930891e-27 0.0 -3.5587941304981996e-05 -1.5707839171039026 -1.5707715193377894 1.9073486328125e-05 1.5707675218582153 -4.7985707418263246e-05 0.0 0.0 2.3968450477696024e-05 -2.3968450477696024e-05 -2.3968450477696024e-05 -4.793690095539205e-05 0.0291595496237278 0.5562744736671448 0.6893185973167419 0.0 -0.02685585245490074 -0.19918090105056763 0.0269165076315403 0.5719757676124573 0.6847434639930725 -0.0033569815568625927 -0.02685585245490074 -0.19918090105056763 0.2957976247284046 -0.1130476217405945 0.48156515023822455 -1.2101031073013626 1.2098204699226298 -1.2090848921448378 -1.0132944510410043e-08 -2.0000421525179386e-06 5.112237570815994e-06 -4.791505508431001e-05 -1.0637383987661687e-09 -2.3991939958535087e-05 2.6890689725059356 -3.7672970822245677 1.4768141507310644 0.924401306737938 -0.4348041661539045 0.4351678880563253 0.295809494550608 -0.11303468883756389 0.48155257636461907 -1.2101397425155394 1.2098370768821627 -1.2089754610298096 0.0 0.0 0.0 0.0 0.0 0.0
2296.9519999999998 0.0 -1.5707963267948966 -1.5707963267948966 -8.881784197001252e-16 1.5707963267948966 0.0 -0.0 -0.0 -0.0 0.0 0.0 -0.0 0.0 0.0 0.0 0.0 0.0 0.0 -1.4033970988372897e-26 0.5551729734477961 0.7573864583558307 0.07057808899065884 -9.380119611155278e-28 0.0 -1.6105384240992177e-25 6.394759450000004 6.394759450000002 0.2913103000000015 -3.894046141930891e-27 0.0 -4.7985707418263246e-05 -1.5707600752459925 -1.5707715193377894 7.152557373046875e-06 1.5707435607910156 1.1984225238848012e-05 0.0 0.0 2.3968450477696024e-05 -2.3968450477696024e-05 -2.3968450477696024e-05 -4.793690095539205e-05 0.0269165076315403 0.5607605576515198 0.6877935528755188 -0.002237987704575062 -0.02909383922815323 -0.19470493495464325 0.0291595496237278 0.5719757676124573 0.6847434639930725 -0.0033569815568625927 -0.027974845841526985 -0.19806191325187683 0.2957893789715925 -0.11305326985351141 0.48157121937874986 -1.2100329272615415 1.209866872584487 -1.2090731718242993 -1.0327096631933888e-08 -2.000042009357031e-06 5.11223731198405e-06 -4.7914768103869126e-05 6.798997292925317e-10 -2.3992511204465213e-05 2.9856576273674102 -3.838114825728118 1.4964168855466897 0.9036257418750514 -0.46888925685892147 0.45139974254700116 0.295809494550608 -0.11303468883756389 0.48155257636461907 -1.2101397425155394 1.2098370768821627 -1.2089754610298096 0.0 0.0 0.0 0.0 0.0 0.0
2296.96 0.0 -1.5707963267948966 -1.5707963267948966 -8.881784197001252e-16 1.5707963267948966 0.0 -0.0 -0.0 -0.0 0.0 0.0 -0.0 0.0 0.0 0.0 0.0 0.0 0.0 -1.4033970988372897e-26 0.5551729734477961 0.7573864583558307 0.07057808899065884 -9.380119611155278e-28 0.0 -1.6105384240992177e-25 6.394759450000004 6.394759450000002 0.2913103000000015 -3.894046141930891e-27 0.0 1.1984225238848012e-05 -1.5707481543170374 -1.5707715193377894 -4.0356312887013246e-05 1.57077956199646 1.1984225238848012e-05 0.0 0.0 2.3968450477696024e-05 -2.3968450477696024e-05 -2.3968450477696024e-05 -4.793690095539205e-05 0.02243042178452015 0.5899201035499573 0.6771183013916016 -0.001118993852287531 -0.03245082125067711 -0.19134794175624847 0.02243042178452015 0.5719757676124573 0.6847434639930725 -0.0033569815568625927 -0.02685585245490074 -0.19918090105056763 0.2957962871931168 -0.11303256787476823 0.4815708320109012 -1.2101045489349622 1.209822347467415 -1.208985670175961 -1.0196760561986695e-08 -2.000042901528946e-06 5.112237355143433e-06 -4.791561870525629e-05 -3.9202134147505575e-09 -2.399080449837115e-05 4.942154152857372 -4.675909765208542 1.9945877693093963 0.8881894263897863 -0.5896228105413746 0.5358794717629142 0.295809494550608 -0.11303468883756389 0.48155257636461907 -1.2101397425155394 1.2098370768821627 -1.2089754610298096 0.0 0.0 0.0 0.0 0.0 0.0
2296.968 0.0 -1.5707963267948966 -1.5707963267948966 -8.881784197001252e-16 1.5707963267948966 0.0 -0.0 -0.0 -0.0 0.0 0.0 -0.0 0.0 0.0 0.0 0.0 0.0 0.0 -1.4033970988372897e-26 0.5551729734477961 0.7573864583558307 0.07057808899065884 -9.380119611155278e-28 0.0 -1.6105384240992177e-25 6.394759450000004 6.394759450000002 0.2913103000000015 -3.894046141930891e-27 0.0 -1.1746083394825746e-05 -1.5707243124591272 -1.5707476774798792 -4.0356312887013246e-05 1.5707316398620605 -2.366701234990387e-05 0.0 0.0 2.3968450477696024e-05 -2.3968450477696024e-05 -2.3968450477696024e-05 -4.793690095539205e-05 0.0336456336081028 0.5921631455421448 0.6923686861991882 -0.002237987704575062 -0.0335698164999485 -0.19806191325187683 0.0269165076315403 0.5719757676124573 0.6847434639930725 -0.0033569815568625927 -0.02909383922815323 -0.19918090105056763 0.29578369740657146 -0.11304356947516336 0.48158493063016605 -1.2100617263520517 1.2098232572329026 -1.2090872915204076 -1.0583094426838138e-08 -2.0000426408992614e-06 5.112236735437126e-06 -4.791447453567229e-05 -4.799504765557974e-10 -2.3993089886835594e-05 4.46755435628128 -5.125851727363991 1.290989188908254 0.9193053212224315 -0.6122852384900276 0.5781957210777211 0.295809494550608 -0.11303468883756389 0.48155257636461907 -1.2101397425155394 1.2098370768821627 -1.2089754610298096 0.0 0.0 0.0 0.0 0.0 0.0
2296.976 0.0 -1.5707963267948966 -1.5707963267948966 -8.881784197001252e-16 1.5707963267948966 0.0 -0.0 -0.0 -0.0 0.0 0.0 -0.0 0.0 0.0 0.0 0.0 0.0 0.0 -1.4033970988372897e-26 0.5551729734477961 0.7573864583558307 0.07057808899065884 -9.380119611155278e-28 0.0 -1.6105384240992177e-25 6.394759450000004 6.394759450000002 0.2913103000000015 -3.894046141930891e-27 0.0 -2.366701234990387e-05 -1.5707600752459925 -1.570735279713766 7.152557373046875e-06 1.5707675218582153 -2.366701234990387e-05 0.0 0.0 2.3968450477696024e-05 -2.3968450477696024e-05 -2.3968450477696024e-05 -4.793690095539205e-05 0.0269165076315403 0.5630035996437073 0.6771183013916016 -0.0033569815568625927 -0.03692679852247238 -0.2014188915491104 0.0269165076315403 0.5719757676124573 0.6847434639930725 -0.0033569815568625927 -0.02909383922815323 -0.19918090105056763 0.29578902496062653 -0.11304414441129598 0.481581931188263 -1.2100552646681175 1.2097878613131445 -1.2090810963558305 -1.0416548564561253e-08 -2.0000424628480638e-06 5.11223692358141e-06 -4.791389872932771e-05 -1.6269719706014923e-09 -2.399424727519823e-05 3.5180656930157865 -4.290850649233561 1.9455039240583132 0.9348445376934599 -0.48256064046693153 0.525154302798951 0.295809494550608 -0.11303468883756389 0.48155257636461907 -1.2101397425155394 1.2098370768821627 -1.2089754610298096 0.0 0.0 0.0 0.0 0.0 0.0
2296.984 0.0 -1.5707963267948966 -1.5707963267948966 -8.881784197001252e-16 1.5707963267948966 0.0 -0.0 -0.0 -0.0 0.0 0.0 -0.0 0.0 0.0 0.0 0.0 0.0 0.0 -1.4033970988372897e-26 0.5551729734477961 0.7573864583558307 0.07057808899065884 -9.380119611155278e-28 0.0 -1.6105384240992177e-25 6.394759450000004 6.394759450000002 0.2913103000000015 -3.894046141930891e-27 0.0 -3.5587941304981996e-05 -1.5707481543170374 -1.5707834402667444 7.152557373046875e-06 1.5707556009292603 -7.230440248662262e-05 0.0 0.0 2.3968450477696024e-05 -2.3968450477696024e-05 -2.3968450477696024e-05 -4.793690095539205e-05 0.0314025916159153 0.5517883896827698 0.6877935528755188 0.0 -0.03021283447742462 -0.19582392275333405 0.0291595496237278 0.5719757676124573 0.6847434639930725 -0.0033569815568625927 -0.02909383922815323 -0.19918090105056763 0.295787873534174 -0.11304860164946301 0.481571220268166 -1.2101066152876834 1.2098089580828653 -1.2091172102795789 -1.027840801997265e-08 -2.0000421145699215e-06 5.112237354120514e-06 -4.7914768181477713e-05 -4.929099267848196e-10 -2.399251104973288e-05 2.510663407561099 -3.881522470395662 1.5441188431628297 0.9088434698205047 -0.41404901467604693 0.4602222139486083 0.295809494550608 -0.11303468883756389 0.48155257636461907 -1.2101397425155394 1.2098370768821627 -1.2089754610298096 0.0 0.0 0.0 0.0 0.0 0.0
2296.9919999999997 0.0 -1.5707963267948966 -1.5707963267948966 -8.881784197001252e-16 1.5707963267948966 0.0 -0.0 -0.0 -0.0 0.0 0.0 -0.0 0.0 0.0 0.0 0.0 0.0 0.0 -1.4033970988372897e-26 0.5551729734477961 0.7573864583558307 0.07057808899065884 -9.380119611155278e-28 0.0 -1.6105384240992177e-25 6.394759450000004 6.394759450000002 0.2913103000000015 -3.894046141930891e-27 0.0 -2.366701234990387e-05 -1.5707362333880823 -1.5707476774798792 -1.6514454976856996e-05 1.57077956199646 0.0 0.0 0.0 2.3968450477696024e-05 -2.3968450477696024e-05 -2.3968450477696024e-05 -4.793690095539205e-05 0.0269165076315403 0.5383301377296448 0.6923686861991882 -0.0055949692614376545 -0.027974845841526985 -0.19918090105056763 0.02467346377670765 0.5719757676124573 0.6847434639930725 -0.0033569815568625927 -0.02909383922815323 -0.19918090105056763 0.29578424918277973 -0.11304314576170141 0.4815833675583195 -1.21005254910901 1.2097991603159208 -1.2090490110096914 -1.0451140067125914e-08 -2.000042531878206e-06 5.112236898279758e-06 -4.791419042019385e-05 -2.2059172433837844e-09 -2.3993660957714892e-05 1.622346915697755 -3.092226003648868 1.2212628963974945 0.924353760423331 -0.39067402967659265 0.3849010471856251 0.295809494550608 -0.11303468883756389 0.48155257636461907 -1.2101397425155394 1.2098370768821627 -1.2089754610298096 0.0 0.0 0.0 0.0 0.0 0.0
2297.0 0.0 -1.5707963267948966 -1.5707963267948966 -8.881784197001252e-16 1.5707963267948966 0.0 -0.0 -0.0 -0.0 0.0 0.0 -0.0 0.0 0.0 0.0 0.0 0.0 0.0 -1.4033970988372897e-26 0.5551729734477961 0.7573864583558307 0.07057808899065884 -9.380119611155278e-28 0.0 -1.6105384240992177e-25 6.394759450000004 6.394759450000002 0.2913103000000015 -3.894046141930891e-27 0.0 1.1984225238848012e-05 -1.570808235798971 -1.5707476774798792 7.152557373046875e-06 1.5707316398620605 -5.990663637334137e-05 0.0 0.0 2.3968450477696024e-05 -2.3968450477696024e-05 -2.3968450477696024e-05 -4.793690095539205e-05 0.0291595496237278 0.5876770615577698 0.6862685084342957 -0.0033569815568625927 -0.024617865681648254 -0.19806191325187683 0.0291595496237278 0.5764618515968323 0.6847434639930725 -0.0033569815568625927 -0.02909383922815323 -0.19918090105056763 0.29580999006833325 -0.11303652289747072 0.48156402598966 -1.210126506068286 1.2098153797093136 -1.2090792194233289 -1.0106484903185994e-08 -2.000042702077896e-06 5.112237496541448e-06 -4.791535146045421e-05 -1.6203007169776719e-09 -2.3991346123283126e-05 4.46783572419489 -4.659478737385397 1.5384013492923798 0.9192651465517659 -0.5970345421390507 0.49809495541578136 0.295809494550608 -0.11303468883756389 0.48155257636461907 -1.2101397425155394 1.2098370768821627 -1.2089754610298096 0.0 0.0 0.0 0.0 0.0 0.0
2297.008 0.0 -1.5707963267948966 -1.5707963267948966 -8.881784197001252e-16 1.5707963267948966 0.0 -0.0 -0.0 -0.0 0.0 0.0 -0.0 0.0 0.0 0.0 0.0 0.0 0.0 -1.4033970988372897e-26 0.5551729734477961 0.7573864583558307 0.07057808899065884 -9.380119611155278e-28 0.0 -1.6105384240992177e-25 6.394759450000004 6.394759450000002 0.2913103000000015 -3.894046141930891e-27 0.0 1.1984225238848012e-05 -1.5707839171039026 -1.5707715193377894 7.152557373046875e-06 1.5707556009292603 1.1984225238848012e-05 0.0 0.0 2.3968450477696024e-05 -2.3968450477696024e-05 -2.3968450477696024e-05 -4.793690095539205e-05 0.02243042178452015 0.5607605576515198 0.6938937306404114 0.002237987704575062 -0.02349887043237686 -0.20813286304473877 0.02243042178452015 0.5742188096046448 0.6847434639930725 -0.002237987704575062 -0.02909383922815323 -0.19918090105056763 0.2958040187427999 -0.11303453102752073 0.4815641690202673 -1.2100845658122408 1.2098313434228818 -1.2090088635528573 -1.0061374658494158e-08 -2.000042654451978e-06 5.112237574653838e-06 -4.791534011755331e-05 -2.7721054660126157e-09 -2.3991368663206402e-05 2.749906926528044 -3.3203335325458845 1.3237768822817855 0.9659005369253676 -0.4421657608291696 0.38272066137874744 0.295809494550608 -0.11303468883756389 0.48155257636461907 -1.2101397425155394 1.2098370768821627 -1.2089754610298096 0.0 0.0 0.0 0.0 0.0 0.0
2297.016 0.0 -1.5707963267948966 -1.5707963267948966 -8.881784197001252e-16 1.5707963267948966 0.0 -0.0 -0.0 -0.0 0.0 0.0 -0.0 0.0 0.0 0.0 0.0 0.0 0.0 -1.4033970988372897e-26 0.5551729734477961 0.7573864583558307 0.07057808899065884 -9.380119611155278e-28 0.0 -1.6105384240992177e-25 6.394759450000004 6.394759450000002 0.2913103000000015 -3.894046141930891e-27 0.0 -2.366701234990387e-05 -1.5707724730121058 -1.5707953611956995 7.152557373046875e-06 1.5707435607910156 -5.990663637334137e-05 0.0 0.0 2.3968450477696024e-05 -2.3968450477696024e-05 -2.3968450477696024e-05 -4.793690095539205e-05 0.0291595496237278 0.5540314316749573 0.7015189528465271 0.0 -0.02685585245490074 -0.2036568820476532 0.02467346377670765 0.5719757676124573 0.6847434639930725 -0.002237987704575062 -0.02909383922815323 -0.19918090105056763 0.29579825792054787 -0.11304604520264519 0.48156050567151215 -1.2101241536000884 1.2098415320944274 -1.2090909783833652 -1.0092990767307098e-08 -2.0000421665901268e-06 5.112237718021191e-06 -4.791563755016378e-05 -4.906254024225864e-10 -2.399077478379612e-05 2.0973950192745567 -3.453981119115976 0.9354905551595649 0.9451470945883848 -0.428846375715666 0.40938259729458126 0.295809494550608 -0.11303468883756389 0.48155257636461907 -1.2101397425155394 1.2098370768821627 -1.2089754610298096 0.0 0.0 0.0 0.0 0.0 0.0
2297.024 0.0 -1.5707963267948966 -1.5707963267948966 -8.881784197001252e-16 1.5707963267948966 0.0 -0.0 -0.0 -0.0 0.0 0.0 -0.0 0.0 0.0 0.0 0.0 0.0 0.0 -1.4033970988372897e-26 0.5551729734477961 0.7573864583558307 0.07057808899065884 -9.380119611155278e-28 0.0 -1.6105384240992177e-25 6.394759450000004 6.394759450000002 0.2913103000000015 -3.894046141930891e-27 0.0 2.3968450477696024e-05 -1.5707123915301722 -1.5707715193377894 -2.8912221090138246e-05 1.57077956199646 -4.7985707418263246e-05 0.0 0.0 2.3968450477696024e-05 -2.3968450477696024e-05 -2.3968450477696024e-05 -4.793690095539205e-05 0.0269165076315403 0.5831909775733948 0.6938937306404114 0.0 -0.022379877045750618 -0.19694292545318604 0.02467346377670765 0.5719757676124573 0.6847434639930725 -0.0033569815568625927 -0.02909383922815323 -0.19918090105056763 0.29578487556657307 -0.11302903656270327 0.4815823489985486 -1.2101196114128927 1.2097504213014034 -1.2090433679676866 -1.035572952092906e-08 -2.0000429758564736e-06 5.112236964386544e-06 -4.791448686319635e-05 -4.491961347960447e-09 -2.3993066665179377e-05 3.935299523681137 -4.19421446495968 1.2739769829324727 0.9140481391262617 -0.5578035577113766 0.4494465891303793 0.295809494550608 -0.11303468883756389 0.48155257636461907 -1.2101397425155394 1.2098370768821627 -1.2089754610298096 0.0 0.0 0.0 0.0 0.0 0.0
2297.0319999999997 0.0 -1.5707963267948966 -1.5707963267948966 -8.881784197001252e-16 1.5707963267948966 0.0 -0.0 -0.0 -0.0 0.0 0.0 -0.0 0.0 0.0 0.0 0.0 0.0 0.0 -1.4033970988372897e-26 0.5551729734477961 0.7573864583558307 0.07057808899065884 -9.380119611155278e-28 0.0 -1.6105384240992177e-25 6.394759450000004 6.394759450000002 0.2913103000000015 -3.894046141930891e-27 0.0 -2.366701234990387e-05 -1.5707123915301722 -1.5707114378558558 -4.0356312887013246e-05 1.5707435607910156 0.0 0.0 0.0 2.3968450477696024e-05 -2.3968450477696024e-05 -2.3968450477696024e-05 -4.793690095539205e-05 0.0291595496237278 0.5764618515968323 0.6923686861991882 0.0 -0.02685585245490074 -0.2014188915491104 0.0269165076315403 0.5719757676124573 0.6847434639930725 -0.0033569815568625927 -0.02909383922815323 -0.19470493495464325 0.2957753148803455 -0.11304615902821816 0.4815991674926911 -1.2100087309599268 1.2097991215234298 -1.209092743239711 -1.0829834872758946e-08 -2.0000426865800032e-06 5.112236185027431e-06 -4.791331904216626e-05 -4.725595143882853e-10 -2.3995397277661377e-05 3.6380227720461717 -4.27029935178915 1.3413067650284975 0.9347719915798912 -0.5269835227905975 0.4765878460980478 0.295809494550608 -0.11303468883756389 0.48155257636461907 -1.2101397425155394 1.2098370768821627 -1.2089754610298096 0.0 0.0 0.0 0.0 0.0 0.0
2297.04 0.0 -1.5707963267948966 -1.5707963267948966 -8.881784197001252e-16 1.5707963267948966 0.0 -0.0 -0.0 -0.0 0.0 0.0 -0.0 0.0 0.0 0.0 0.0 0.0 0.0 -1.4033970988372897e-26 0.5551729734477961 0.7573864583558307 0.07057808899065884 -9.380119611155278e-28 0.0 -1.6105384240992177e-25 6.394759450000004 6.394759450000002 0.2913103000000015 -3.894046141930891e-27 0.0 -3.5587941304981996e-05 -1.5707362333880823 -1.5707476774798792 7.152557373046875e-06 1.5707556009292603 -5.990663637334137e-05 0.0 0.0 2.3968450477696024e-05 -2.3968450477696024e-05 -2.3968450477696024e-05 -4.793690095539205e-05 0.02467346377670765 0.5585175156593323 0.6938937306404114 -0.002237987704575062 -0.03021283447742462 -0.19582392275333405 0.02467346377670765 0.5719757676124573 0.6847434639930725 -0.0033569815568625927 -0.02909383922815323 -0.19918090105056763 0.2957808789582694 -0.11304864636069649 0.481585316569124 -1.2100622720286895 1.209779838562892 -1.2091307331890269 -1.052246496592694e-08 -2.000042253347766e-06 5.112236803312663e-06 -4.7913624081084886e-05 -4.853572688294328e-10 -2.3994795764502237e-05 2.6308750842661843 -3.5398064143330292 1.226451025488346 0.9087905223213909 -0.46083337867752056 0.43211599651390253 0.295809494550608 -0.11303468883756389 0.48155257636461907 -1.2101397425155394 1.2098370768821627 -1.2089754610298096 0.0 0.0 0.0 0.0 0.0 0.0
2297.048 0.0 -1.5707963267948966 -1.5707963267948966 -8.881784197001252e-16 1.5707963267948966 0.0 -0.0 -0.0 -0.0 0.0 0.0 -0.0 0.0 0.0 0.0 0.0 0.0 0.0 -1.4033970988372897e-26 0.5551729734477961 0.7573864583558307 0.07057808899065884 -9.380119611155278e-28 0.0 -1.6105384240992177e-25 6.394759450000004 6.394759450000002 0.2913103000000015 -3.894046141930891e-27 0.0 -2.366701234990387e-05 -1.5707243124591272 -1.5707715193377894 -1.6514454976856996e-05 1.5707675218582153 -4.7985707418263246e-05 0.0 0.0 2.3968450477696024e-05 -2.3968450477696024e-05 -2.3968450477696024e-05 -4.793690095539205e-05 0.0314025916159153 0.5495453476905823 0.6755932569503784 -0.001118993852287531 -0.027974845841526985 -0.19470493495464325 0.0314025916159153 0.5719757676124573 0.6847434639930725 -0.0033569815568625927 -0.025736859068274498 -0.20029990375041962 0.2957823614378603 -0.1130441143944076 0.4815798451224756 -1.2100910345131266 1.2097940389989519 -1.209087516205805 -1.0413891067664851e-08 -2.000042404441439e-06 5.112237039539321e-06 -4.7914476385729105e-05 -1.6326508805382098e-09 -2.3993089939910637e-05 2.865120743768378 -4.020465610506748 2.0613672351415167 0.9036582214397467 -0.40688142700312574 0.46123969903550943 0.295809494550608 -0.11303468883756389 0.48155257636461907 -1.2101397425155394 1.2098370768821627 -1.2089754610298096 0.0 0.0 0.0 0.0 0.0 0.0
2297.056 0.0 -1.5707963267948966 -1.5707963267948966 -8.881784197001252e-16 1.5707963267948966 0.0 -0.0 -0.0 -0.0 0.0 0.0 -0.0 0.0 0.0 0.0 0.0 0.0 0.0 -1.4033970988372897e-26 0.5551729734477961 0.7573864583558307 0.07057808899065884 -9.380119611155278e-28 0.0 -1.6105384240992177e-25 6.394759450000004 6.394759450000002 0.2913103000000015 -3.894046141930891e-27 0.0 -2.366701234990387e-05 -1.5707243124591272 -1.5707595984088343 3.1113624572753906e-05 1.5707075595855713 -2.366701234990387e-05 0.0 0.0 2.3968450477696024e-05 -2.3968450477696024e-05 -2.3968450477696024e-05 -4.793690095539205e-05 0.0269165076315403 0.5652466416358948 0.681693434715271 -0.004475975409150124 -0.03245082125067711 -0.19358593225479126 0.0314025916159153 0.5719757676124573 0.6847434639930725 -0.0033569815568625927 -0.02909383922815323 -0.19918090105056763 0.29577726814637106 -0.11304906879016716 0.4815872913754957 -1.210000840016335 1.209805939149692 -1.2091419874184586 -1.0593721064359667e-08 -2.00004211347502e-06 5.112236678393295e-06 -4.791305046142555e-05 1.2455887002889344e-09 -2.3995944973203572e-05 3.4593552901607056 -4.162536052230395 1.7184701832985425 0.8984282213278914 -0.5014138524866217 0.4937711471826654 0.295809494550608 -0.11303468883756389 0.48155257636461907 -1.2101397425155394 1.2098370768821627 -1.2089754610298096 0.0 0.0 0.0 0.0 0.0 0.0
2297.064 0.0 -1.5707963267948966 -1.5707963267948966 -8.881784197001252e-16 1.5707963267948966 0.0 -0.0 -0.0 -0.0 0.0 0.0 -0.0 0.0 0.0 0.0 0.0 0.0 0.0 -1.4033970988372897e-26 0.5551729734477961 0.7573864583558307 0.07057808899065884 -9.380119611155278e-28 0.0 -1.6105384240992177e-25 6.394759450000004 6.394759450000002 0.2913103000000015 -3.894046141930891e-27 0.0 -1.1746083394825746e-05 -1.5707481543170374 -1.5707953611956995 -2.8912221090138246e-05 1.570719599723816 -5.990663637334137e-05 0.0 0.0 2.3968450477696024e-05 -2.3968450477696024e-05 -2.3968450477696024e-05 -4.793690095539205e-05 0.02243042178452015 0.5921631455421448 0.6801683902740479 -0.0033569815568625927 -0.025736859068274498 -0.2014188915491104 0.02243042178452015 0.5719757676124573 0.6847434639930725 -0.0033569815568625927 -0.02685585245490074 -0.19918090105056763 0.29579466508796637 -0.1130444990566892 0.48156472789473437 -1.2101271016370356 1.2098590510724136 -1.20909428645955 -1.0240895806752552e-08 -2.0000423738255494e-06 5.1122375093389525e-06 -4.7915916698475454e-05 8.702342793421377e-11 -2.399021149362117e-05 4.942243849761976 -4.529647500195456 1.8104811519587742 0.9348213327309554 -0.6151496973195569 0.49253918376913025 0.295809494550608 -0.11303468883756389 0.48155257636461907 -1.2101397425155394 1.2098370768821627 -1.2089754610298096 0.0 0.0 0.0 0.0 0.0 0.0
2297.072 0.0 -1.5707963267948966 -1.5707963267948966 -8.881784197001252e-16 1.5707963267948966 0.0 -0.0 -0.0 -0.0 0.0 0.0 -0.0 0.0 0.0 0.0 0.0 0.0 0.0 -1.4033970988372897e-26 0.5551729734477961 0.7573864583558307 0.07057808899065884 -9.380119611155278e-28 0.0 -1.6105384240992177e-25 6.394759450000004 6.394759450000002 0.2913103000000015 -3.894046141930891e-27 0.0 -2.366701234990387e-05 -1.5707600752459925 -1.570735279713766 1.9073486328125e-05 1.5707556009292603 1.1984225238848012e-05 0.0 0.0 2.3968450477696024e-05 -2.3968450477696024e-05 -2.3968450477696024e-05 -4.793690095539205e-05 0.02243042178452015 0.6056213974952698 0.6801683902740479 0.002237987704575062 -0.03021283447742462 -0.19918090105056763 0.0269165076315403 0.5719757676124573 0.6847434639930725 -0.0033569815568625927 -0.02909383922815323 -0.19918090105056763 0.2957880061912282 -0.11304512681082111 0.48158291288322336 -1.210014572770382 1.2098047414421917 -1.2090692779664598 -1.0440172004962021e-08 -2.0000423858641945e-06 5.112236875736909e-06 -4.791361345677996e-05 -1.0551338706316708e-09 -2.3994818866653658e-05 5.653798510684362 -5.0044828200781835 1.9316923034553168 0.9244569208211182 -0.6401077936629987 0.5525187244606783 0.295809494550608 -0.11303468883756389 0.48155257636461907 -1.2101397425155394 1.2098370768821627 -1.2089754610298096 0.0 0.0 0.0 0.0 0.0 0.0
2297.08 0.0 -1.5707963267948966 -1.5707963267948966 -8.881784197001252e-16 1.5707963267948966 0.0 -0.0 -0.0 -0.0 0.0 0.0 -0.0 0.0 0.0 0.0 0.0 0.0 0.0 -1.4033970988372897e-26 0.5551729734477961 0.7573864583558307 0.07057808899065884 -9.380119611155278e-28 0.0 -1.6105384240992177e-25 6.394759450000004 6.394759450000002 0.2913103000000015 -3.894046141930891e-27 0.0 2.3968450477696024e-05 -1.5707123915301722 -1.5707953611956995 -2.8912221090138246e-05 1.5707675218582153 -1.1746083394825746e-05 0.0 0.0 2.3968450477696024e-05 -2.3968450477696024e-05 -2.3968450477696024e-05 -4.793690095539205e-05 0.0336456336081028 0.5495453476905823 0.6862685084342957 -0.0033569815568625927 -0.03245082125067711 -0.20029990375041962 0.0314025916159153 0.5697327256202698 0.6847434639930725 -0.0033569815568625927 -0.02909383922815323 -0.19918090105056763 0.2957869176471909 -0.11303000096669623 0.48157530163402534 -1.210104828093464 1.2097939199140535 -1.20901422655585 -1.0257508731422057e-08 -2.000042846825336e-06 5.1122372285704884e-06 -4.791505885815376e-05 -3.919408629130069e-09 -2.3991924453972274e-05 2.4509389871763383 -4.033783318024772 1.538380535341798 0.9296649043658843 -0.4248903786306494 0.48319133406388176 0.295809494550608 -0.11303468883756389 0.48155257636461907 -1.2101397425155394 1.2098370768821627 -1.2089754610298096 0.0 0.0 0.0 0.0 0.0 0.0
2297.0879999999997 0.0 -1.5707963267948966 -1.5707963267948966 -8.881784197001252e-16 1.5707963267948966 0.0 -0.0 -0.0 -0.0 0.0 0.0 -0.0 0.0 0.0 0.0 0.0 0.0 0.0 -1.4033970988372897e-26 0.5551729734477961 0.7573864583558307 0.07057808899065884 -9.380119611155278e-28 0.0 -1.6105384240992177e-25 6.394759450000004 6.394759450000002 0.2913103000000015 -3.894046141930891e-27 0.0 1.1984225238848012e-05 -1.5707600752459925 -1.570735279713766 -4.593526021778871e-06 1.5707556009292603 -4.7985707418263246e-05 0.0 0.0 2.3968450477696024e-05 -2.3968450477696024e-05 -2.3968450477696024e-05 -4.793690095539205e-05 0.02467346377670765 0.5854340195655823 0.6908436417579651 -0.007832957431674004 -0.022379877045750618 -0.21037083864212036 0.02467346377670765 0.5719757676124573 0.6847434639930725 -0.006713963113725185 -0.02685585245490074 -0.19918090105056763 0.2957940564870714 -0.11303458025291574 0.48158096441417453 -1.2100930580914622 1.20976750720732 -1.2090759655155008 -1.036882141100336e-08 -2.0000428543655177e-06 5.112236925912315e-06 -4.7914179623277985e-05 -2.764100009205169e-09 -2.3993684374956203e-05 4.172203936319357 -4.184357243156769 1.2395023199560526 0.9763114088804944 -0.6171389949907559 0.44863049303374913 0.295809494550608 -0.11303468883756389 0.48155257636461907 -1.2101397425155394 1.2098370768821627 -1.2089754610298096 0.0 0.0 0.0 0.0 0.0 0.0
2297.096 0.0 -1.5707963267948966 -1.5707963267948966 -8.881784197001252e-16 1.5707963267948966 0.0 -0.0 -0.0 -0.0 0.0 0.0 -0.0 0.0 0.0 0.0 0.0 0.0 0.0 -1.4033970988372897e-26 0.5551729734477961 0.7573864583558307 0.07057808899065884 -9.380119611155278e-28 0.0 -1.6105384240992177e-25 6.394759450000004 6.394759450000002 0.2913103000000015 -3.894046141930891e-27 0.0 -1.1746083394825746e-05 -1.5707009474383753 -1.570735279713766 -1.6514454976856996e-05 1.5707435607910156 0.0 0.0 0.0 2.3968450477696024e-05 -2.3968450477696024e-05 -2.3968450477696024e-05 -4.793690095539205e-05 0.0336456336081028 0.5854340195655823 0.6877935528755188 0.0 -0.022379877045750618 -0.19134794175624847 0.0269165076315403 0.5742188096046448 0.6847434639930725 -0.004475975409150124 -0.02685585245490074 -0.19806191325187683 0.29577289801978623 -0.11304261121997604 0.48159746657804076 -1.2100059830983767 1.20978186100683 -1.209089359177822 -1.0742515616962976e-08 -2.0000426170350983e-06 5.112236307001671e-06 -4.791304607038542e-05 -1.046883258544602e-09 -2.399594612474116e-05 4.289335322450971 -4.787950075649694 1.543272701796936 0.8880665144538046 -0.5659301743481484 0.4983488402595634 0.295809494550608 -0.11303468883756389 0.48155257636461907 -1.2101397425155394 1.2098370768821627 -1.2089754610298096 0.0 0.0 0.0 0.0 0.0 0.0
2297.104 0.0 -1.5707963267948966 -1.5707963267948966 -8.881784197001252e-16 1.5707963267948966 0.0 -0.0 -0.0 -0.0 0.0 0.0 -0.0 0.0 0.0 0.0 0.0 0.0 0.0 -1.4033970988372897e-26 0.5551729734477961 0.7573864583558307 0.07057808899065884 -9.380119611155278e-28 0.0 -1.6105384240992177e-25 6.394759450000004 6.394759450000002 0.2913103000000015 -3.894046141930891e-27 0.0 2.3968450477696024e-05 -1.5707724730121058 -1.570735279713766 7.152557373046875e-06 1.570791482925415 -2.366701234990387e-05 0.0 0.0 2.3968450477696024e-05 -2.3968450477696024e-05 -2.3968450477696024e-05 -4.793690095539205e-05 0.0314025916159153 0.5876770615577698 0.6893185973167419 -0.001118993852287531 -0.03245082125067711 -0.19918090105056763 0.0269165076315403 0.5742188096046448 0.6847434639930725 -0.0033569815568625927 -0.027974845841526985 -0.19918090105056763 0.2957984987548579 -0.11302807634184267 0.48157826466427944 -1.2100982729923249 1.2097442231739852 -1.2090225162617478 -1.0210428995323421e-08 -2.000043009812699e-06 5.1122370959147705e-06 -4.791419611442608e-05 -5.058719431703374e-09 -2.3993652933682177e-05 4.349200884548451 -4.903122240040846 1.4511059110697948 0.9245274397821552 -0.5837741291331742 0.5546963120033084 0.295809494550608 -0.11303468883756389 0.48155257636461907 -1.2101397425155394 1.2098370768821627 -1.2089754610298096 0.0 0.0 0.0 0.0 0.0 0.0
2297.112 0.0 -1.5707963267948966 -1.5707963267948966 -8.881784197001252e-16 1.5707963267948966 0.0 -0.0 -0.0 -0.0 0.0 0.0 -0.0 0.0 0.0 0.0 0.0 0.0 0.0 -1.4033970988372897e-26 0.5551729734477961 0.7573864583558307 0.07057808899065884 -9.380119611155278e-28 0.0 -1.6105384240992177e-25 6.394759450000004 6.394759450000002 0.2913103000000015 -3.894046141930891e-27 0.0 3.5952674807049334e-05 -1.5707724730121058 -1.5707595984088343 -1.6514454976856996e-05 1.5707556009292603 -4.7985707418263246e-05 0.0 0.0 2.3968450477696024e-05 -2.3968450477696024e-05 -2.3968450477696024e-05 -4.793690095539205e-05 0.0269165076315403 0.5764618515968323 0.6923686861991882 -0.001118993852287531 -0.02909383922815323 -0.19470493495464325 0.0269165076315403 0.5742188096046448 0.6847434639930725 -0.002237987704575062 -0.027974845841526985 -0.19918090105056763 0.2958039541567662 -0.1130274575117446 0.48156912834249455 -1.2101402838464606 1.209785560173058 -1.209035240473861 -1.0132951441094885e-08 -2.000043045023428e-06 5.112237368731276e-06 -4.791534564721139e-05 -3.918376342713761e-09 -2.39913536760218e-05 3.63876491557164 -4.183126701263645 1.3172517546563685 0.9037056543592846 -0.5340989798597504 0.4797695713426967 0.295809494550608 -0.11303468883756389 0.48155257636461907 -1.2101397425155394 1.2098370768821627 -1.2089754610298096 0.0 0.0 0.0 0.0 0.0 0.0
2297.12 0.0 -1.5707963267948966 -1.5707963267948966 -8.881784197001252e-16 1.5707963267948966 0.0 -0.0 -0.0 -0.0 0.0 0.0 -0.0 0.0 0.0 0.0 0.0 0.0 0.0 -1.4033970988372897e-26 0.5551729734477961 0.7573864583558307 0.07057808899065884 -9.380119611155278e-28 0.0 -1.6105384240992177e-25 6.394759450000004 6.394759450000002 0.2913103000000015 -3.894046141930891e-27 0.0 0.0 -1.5707839171039026 -1.5707476774798792 5.507469177246094e-05 1.5707435607910156 -1.1746083394825746e-05 0.0 0.0 2.3968450477696024e-05 -2.3968450477696024e-05 -2.3968450477696024e-05 -4.793690095539205e-05 0.0269165076315403 0.5495453476905823 0.6862685084342957 -0.0033569815568625927 -0.025736859068274498 -0.19806191325187683 0.0269165076315403 0.5719757676124573 0.6847434639930725 -0.0033569815568625927 -0.02685585245490074 -0.19918090105056763 0.29579652928081857 -0.1130390973069567 0.4815751623591194 -1.210037760876952 1.209785078062973 -1.2090780492510402 -1.0231330722724379e-08 -2.0000424077346606e-06 5.112237168844338e-06 -4.791362157359785e-05 -1.6145315429481245e-09 -2.3994808386451218e-05 2.4520142662099365 -3.4824092656599355 1.5401400843016286 0.9191644856247866 -0.42486059638954715 0.4065755943415748 0.295809494550608 -0.11303468883756389 0.48155257636461907 -1.2101397425155394 1.2098370768821627 -1.2089754610298096 0.0 0.0 0.0 0.0 0.0 0.0
2297.1279999999997 0.0 -1.5707963267948966 -1.5707963267948966 -8.881784197001252e-16 1.5707963267948966 0.0 -0.0 -0.0 -0.0 0.0 0.0 -0.0 0.0 0.0 0.0 0.0 0.0 0.0 -1.4033970988372897e-26 0.5551729734477961 0.7573864583558307 0.07057808899065884 -9.380119611155278e-28 0.0 -1.6105384240992177e-25 6.394759450000004 6.394759450000002 0.2913103000000015 -3.894046141930891e-27 0.0 2.3968450477696024e-05 -1.5707243124591272 -1.5707834402667444 1.9073486328125e-05 1.570719599723816 0.0 0.0 0.0 2.3968450477696024e-05 -2.3968450477696024e-05 -2.3968450477696024e-05 -4.793690095539205e-05 0.0314025916159153 0.5966492295265198 0.6786433458328247 0.0033569815568625927 -0.02685585245490074 -0.19806191325187683 0.0291595496237278 0.5719757676124573 0.6847434639930725 -0.0033569815568625927 -0.02685585245490074 -0.19918090105056763 0.295785725222061 -0.11303395969631433 0.48157925234927207 -1.2100381190507334 1.2097995041403629 -1.2090636067115543 -1.0352531688800735e-08 -2.0000425912785565e-06 5.1122370170757e-06 -4.791391068183053e-05 -1.6189556859591365e-09 -2.3994225330582715e-05 5.237484236308265 -5.251561774423195 2.021769003487784 0.9192892443558494 -0.5918928444056574 0.5572653497117271 0.295809494550608 -0.11303468883756389 0.48155257636461907 -1.2101397425155394 1.2098370768821627 -1.2089754610298096 0.0 0.0 0.0 0.0 0.0 0.0
2297.136 0.0 -1.5707963267948966 -1.5707963267948966 -8.881784197001252e-16 1.5707963267948966 0.0 -0.0 -0.0 -0.0 0.0 0.0 -0.0 0.0 0.0 0.0 0.0 0.0 0.0 -1.4033970988372897e-26 0.5551729734477961 0.7573864583558307 0.07057808899065884 -9.380119611155278e-28 0.0 -1.6105384240992177e-25 6.394759450000004 6.394759450000002 0.2913103000000015 -3.894046141930891e-27 0.0 2.3968450477696024e-05 -1.5707600752459925 -1.5707476774798792 -4.593526021778871e-06 1.5707075595855713 2.3968450477696024e-05 0.0 0.0 2.3968450477696024e-05 -2.3968450477696024e-05 -2.3968450477696024e-05 -4.793690095539205e-05 0.0291595496237278 0.5585175156593323 0.681693434715271 0.0 -0.03580780327320099 -0.19694292545318604 0.0269165076315403 0.5719757676124573 0.6847434639930725 -0.002237987704575062 -0.02685585245490074 -0.19918090105056763 0.2957964689629377 -0.11303497785804191 0.4815773007473072 -1.2100321363522748 1.2098372047426122 -1.2090436563981497 -1.0376490811689442e-08 -2.0000428147707737e-06 5.11223698609836e-06 -4.7914476846699465e-05 -1.0377615624479625e-09 -2.399309097958586e-05 3.1034791811118922 -4.181805544274733 1.8150199282190875 0.9140778463704733 -0.442299994760809 0.5109648248925336 0.295809494550608 -0.11303468883756389 0.48155257636461907 -1.2101397425155394 1.2098370768821627 -1.2089754610298096 0.0 0.0 0.0 0.0 0.0 0.0
2297.144 0.0 -1.5707963267948966 -1.5707963267948966 -8.881784197001252e-16 1.5707963267948966 0.0 -0.0 -0.0 -0.0 0.0 0.0 -0.0 0.0 0.0 0.0 0.0 0.0 0.0 -1.4033970988372897e-26 0.5551729734477961 0.7573864583558307 0.07057808899065884 -9.380119611155278e-28 0.0 -1.6105384240992177e-25 6.394759450000004 6.394759450000002 0.2913103000000015 -3.894046141930891e-27 0.0 -3.5587941304981996e-05 -1.5707243124591272 -1.5707715193377894 -2.8912221090138246e-05 1.57077956199646 -3.5587941304981996e-05 0.0 0.0 2.3968450477696024e-05 -2.3968450477696024e-05 -2.3968450477696024e-05 -4.793690095539205e-05 0.02467346377670765 0.5674896836280823 0.6771183013916016 -0.002237987704575062 -0.03245082125067711 -0.18910996615886688 0.0269165076315403 0.5719757676124573 0.6847434639930725 -0.0033569815568625927 -0.02685585245490074 -0.19918090105056763 0.2957820732741694 -0.11304664815767457 0.4815788241292856 -1.2100910932947724 1.2098089412930102 -1.2090724275526479 -1.041387305100251e-08 -2.0000423593767394e-06 5.112237087459236e-06 -4.791477306174513e-05 -1.6390303542680009e-09 -2.399249547870993e-05 3.7556936586688505 -4.183798951476444 1.9705462323195944 0.8777313511671945 -0.495580036266089 0.4954499593711809 0.295809494550608 -0.11303468883756389 0.48155257636461907 -1.2101397425155394 1.2098370768821627 -1.2089754610298096 0.0 0.0 0.0 0.0 0.0 0.0
2297.152 0.0 -1.5707963267948966 -1.5707963267948966 -8.881784197001252e-16 1.5707963267948966 0.0 -0.0 -0.0 -0.0 0.0 0.0 -0.0 0.0 0.0 0.0 0.0 0.0 0.0 -1.4033970988372897e-26 0.5551729734477961 0.7573864583558307 0.07057808899065884 -9.380119611155278e-28 0.0 -1.6105384240992177e-25 6.394759450000004 6.394759450000002 0.2913103000000015 -3.894046141930891e-27 0.0 -2.366701234990387e-05 -1.5707839171039026 -1.5707715193377894 -2.8912221090138246e-05 1.5707556009292603 -5.990663637334137e-05 0.0 0.0 2.3968450477696024e-05 -2.3968450477696024e-05 -2.3968450477696024e-05 -4.793690095539205e-05 0.0381317175924778 0.5450592637062073 0.6862685084342957 -0.004475975409150124 -0.024617865681648254 -0.19918090105056763 0.0291595496237278 0.5719757676124573 0.6847434639930725 -0.0033569815568625927 -0.02685585245490074 -0.19806191325187683 0.29580306709635046 -0.11304507489750726 0.48156119962129346 -1.2101472434868312 1.2098501306337806 -1.2090709317748853 -1.0132607634620167e-08 -2.000042443155189e-06 5.11223765110766e-06 -4.791620290257453e-05 -1.0650321688090803e-09 -2.3989639810068563e-05 2.2130888405146156 -4.007127120837882 1.5132547063141029 0.924434149772166 -0.4118534043256607 0.4444997594488057 0.295809494550608 -0.11303468883756389 0.48155257636461907 -1.2101397425155394 1.2098370768821627 -1.2089754610298096 0.0 0.0 0.0 0.0 0.0 0.0
2297.16 0.0 -1.5707963267948966 -1.5707963267948966 -8.881784197001252e-16 1.5707963267948966 0.0 -0.0 -0.0 -0.0 0.0 0.0 -0.0 0.0 0.0 0.0 0.0 0.0 0.0 -1.4033970988372897e-26 0.5551729734477961 0.7573864583558307 0.07057808899065884 -9.380119611155278e-28 0.0 -1.6105384240992177e-25 6.394759450000004 6.394759450000002 0.2913103000000015 -3.894046141930891e-27 0.0 2.3968450477696024e-05 -1.5707724730121058 -1.5707715193377894 3.1113624572753906e-05 1.5707556009292603 -4.7985707418263246e-05 0.0 0.0 2.3968450477696024e-05 -2.3968450477696024e-05 -2.3968450477696024e-05 -4.793690095539205e-05 0.0336456336081028 0.5764618515968323 0.6755932569503784 -0.006713963113725185 -0.031331829726696014 -0.19918090105056763 0.0314025916159153 0.5719757676124573 0.6847434639930725 -0.0033569815568625927 -0.03021283447742462 -0.19694292545318604 0.29579955556715193 -0.1130309915016332 0.4815695258385561 -1.210108330409703 1.2097680912034166 -1.2090609615692622 -1.0095985807727699e-08 -2.0000426759301394e-06 5.112237408666082e-06 -4.7914492290952404e-05 -3.3448584798852405e-09 -2.399306561722115e-05 4.2880555562445375 -4.98153401010497 1.938310153999505 0.924515770324103 -0.564325777381936 0.5559330111538281 0.295809494550608 -0.11303468883756389 0.48155257636461907 -1.2101397425155394 1.2098370768821627 -1.2089754610298096 0.0 0.0 0.0 0.0 0.0 0.0
2297.168 0.0 -1.5707963267948966 -1.5707963267948966 -8.881784197001252e-16 1.5707963267948966 0.0 -0.0 -0.0 -0.0 0.0 0.0 -0.0 0.0 0.0 0.0 0.0 0.0 0.0 -1.4033970988372897e-26 0.5551729734477961 0.7573864583558307 0.07057808899065884 -9.380119611155278e-28 0.0 -1.6105384240992177e-25 6.394759450000004 6.394759450000002 0.2913103000000015 -3.894046141930891e-27 0.0 3.5952674807049334e-05 -1.5707600752459925 -1.570735279713766 7.152557373046875e-06 1.5707435607910156 -5.990663637334137e-05 0.0 0.0 2.3968450477696024e-05 -2.3968450477696024e-05 -2.3968450477696024e-05 -4.793690095539205e-05 0.01794433780014515 0.5809479355812073 0.6877935528755188 -0.002237987704575062 -0.031331829726696014 -0.19694292545318604 0.02467346377670765 0.5719757676124573 0.6847434639930725 -0.0033569815568625927 -0.02909383922815323 -0.19806191325187683 0.2957957618688922 -0.1130284827639064 0.481581931729009 -1.2100988255368563 1.2097444324925815 -1.2090815261660275 -1.0344742582084944e-08 -2.000043026912113e-06 5.112236878212981e-06 -4.791389848753386e-05 -3.3349648868280025e-09 -2.3994247590006173e-05 4.0545515080424686 -3.911520116674568 1.498023611608698 0.9140401117701528 -0.5599195424291095 0.46784094189741215 0.295809494550608 -0.11303468883756389 0.48155257636461907 -1.2101397425155394 1.2098370768821627 -1.2089754610298096 0.0 0.0 0.0 0.0 0.0 0.0
2297.176 0.0 -1.5707963267948966 -1.5707963267948966 -8.881784197001252e-16 1.5707963267948966 0.0 -0.0 -0.0 -0.0 0.0 0.0 -0.0 0.0 0.0 0.0 0.0 0.0 0.0 -1.4033970988372897e-26 0.5551729734477961 0.7573864583558307 0.07057808899065884 -9.380119611155278e-28 0.0 -1.6105384240992177e-25 6.394759450000004 6.394759450000002 0.2913103000000015 -3.894046141930891e-27 0.0 -2.366701234990387e-05 -1.570796314870016 -1.5707595984088343 -4.0356312887013246e-05 1.5707316398620605 -4.7985707418263246e-05 0.0 0.0 2.3968450477696024e-05 -2.3968450477696024e-05 -2.3968450477696024e-05 -4.793690095539205e-05 0.0291595496237278 0.5338440537452698 0.6923686861991882 -0.001118993852287531 -0.025736859068274498 -0.18910996615886688 0.0269165076315403 0.5719757676124573 0.6847434639930725 -0.0033569815568625927 -0.02909383922815323 -0.19806191325187683 0.29580710693787554 -0.11304705697453347 0.48156011561591355 -1.2101358838275618 1.2098822201666863 -1.209074162642362 -1.0177638757303684e-08 -2.0000424850043925e-06 5.112237619702608e-06 -4.7916487946241605e-05 8.47954540708305e-11 -2.3989068666128038e-05 1.3851352210551895 -3.0523283877202743 1.318124951525457 0.8776439109351782 -0.34170195704686274 0.37111818107013916 0.295809494550608 -0.11303468883756389 0.48155257636461907 -1.2101397425155394 1.2098370768821627 -1.2089754610298096 0.0 0.0 0.0 0.0 0.0 0.0
2297.1839999999997 0.0 -1.5707963267948966 -1.5707963267948966 -8.881784197001252e-16 1.5707963267948966 0.0 -0.0 -0.0 -0.0 0.0 0.0 -0.0 0.0 0.0 0.0 0.0 0.0 0.0 -1.4033970988372897e-26 0.5551729734477961 0.7573864583558307 0.07057808899065884 -9.380119611155278e-28 0.0 -1.6105384240992177e-25 6.394759450000004 6.394759450000002 0.2913103000000015 -3.894046141930891e-27 0.0 0.0 -1.5707243124591272 -1.5707476774798792 1.9073486328125e-05 1.5707556009292603 -3.5587941304981996e-05 0.0 0.0 2.3968450477696024e-05 -2.3968450477696024e-05 -2.3968450477696024e-05 -4.793690095539205e-05 0.0381317175924778 0.5719757676124573 0.681693434715271 -0.001118993852287531 -0.02685585245490074 -0.19134794175624847 0.0314025916159153 0.5719757676124573 0.6847434639930725 -0.0033569815568625927 -0.02685585245490074 -0.19806191325187683 0.29577995439459526 -0.11303812491218879 0.4815898228263059 -1.2100436176204712 1.209747584671425 -1.2090979369929276 -1.0512282835537326e-08 -2.0000425757603246e-06 5.112236653671728e-06 -4.791305276446837e-05 -2.189418643118606e-09 -2.3995938365445656e-05 3.813699248230037 -4.904069866592365 1.7886664828591654 0.8881114686640019 -0.5103040422978043 0.528790210080484 0.295809494550608 -0.11303468883756389 0.48155257636461907 -1.2101397425155394 1.2098370768821627 -1.2089754610298096 0.0 0.0 0.0 0.0 0.0 0.0
2297.192 0.0 -1.5707963267948966 -1.5707963267948966 -8.881784197001252e-16 1.5707963267948966 0.0 -0.0 -0.0 -0.0 0.0 0.0 -0.0 0.0 0.0 0.0 0.0 0.0 0.0 -1.4033970988372897e-26 0.5551729734477961 0.7573864583558307 0.07057808899065884 -9.380119611155278e-28 0.0 -1.6105384240992177e-25 6.394759450000004 6.394759450000002 0.2913103000000015 -3.894046141930891e-27 0.0 1.1984225238848012e-05 -1.5707600752459925 -1.570723835621969 -4.593526021778871e-06 1.5707316398620605 -3.5587941304981996e-05 0.0 0.0 2.3968450477696024e-05 -2.3968450477696024e-05 -2.3968450477696024e-05 -4.793690095539205e-05 0.02243042178452015 0.5652466416358948 0.6923686861991882 0.0 -0.027974845841526985 -0.19246694445610046 0.0291595496237278 0.5719757676124573 0.6847434639930725 -0.0033569815568625927 -0.03021283447742462 -0.19806191325187683 0.2957930734176845 -0.1130365667027069 0.4815843477904643 -1.2100641292886638 1.2097826358769657 -1.2090899176290404 -1.0474844594282775e-08 -2.000042847659766e-06 5.112236742452344e-06 -4.791390493531794e-05 -1.6132699203047726e-09 -2.399423301870309e-05 3.046391097144099 -3.575300491100586 1.3431544124662533 0.8932244876028662 -0.47626826903546515 0.42458262889415804 0.295809494550608 -0.11303468883756389 0.48155257636461907 -1.2101397425155394 1.2098370768821627 -1.2089754610298096 0.0 0.0 0.0 0.0 0.0 0.0
2297.2 0.0 -1.5707963267948966 -1.5707963267948966 -8.881784197001252e-16 1.5707963267948966 0.0 -0.0 -0.0 -0.0 0.0 0.0 -0.0 0.0 0.0 0.0 0.0 0.0 0.0 -1.4033970988372897e-26 0.5551729734477961 0.7573864583558307 0.07057808899065884 -9.380119611155278e-28 0.0 -1.6105384240992177e-25 6.394759450000004 6.394759450000002 0.2913103000000015 -3.894046141930891e-27 0.0 2.3968450477696024e-05 -1.5707481543170374 -1.5707953611956995 1.9073486328125e-05 1.5707435607910156 -1.1746083394825746e-05 0.0 0.0 2.3968450477696024e-05 -2.3968450477696024e-05 -2.3968450477696024e-05 -4.793690095539205e-05 0.02467346377670765 0.5876770615577698 0.6938937306404114 -0.001118993852287531 -0.02685585245490074 -0.19918090105056763 0.02467346377670765 0.5719757676124573 0.6847434639930725 -0.0033569815568625927 -0.02685585245490074 -0.20029990375041962 0.2957946085623735 -0.1130319640535288 0.4815686781908655 -1.2100844934078792 1.2098025654614248 -1.2090376454710792 -1.0122123770899547e-08 -2.0000425955893396e-06 5.112237447850105e-06 -4.791476884973074e-05 -2.7712813425150966e-09 -2.3992511470172683e-05 4.17277910018128 -4.282055240634763 1.249715656415141 0.9244400019541809 -0.5852617957503709 0.47747724745176867 0.295809494550608 -0.11303468883756389 0.48155257636461907 -1.2101397425155394 1.2098370768821627 -1.2089754610298096 0.0 0.0 0.0 0.0 0.0 0.0
2297.208 0.0 -1.5707963267948966 -1.5707963267948966 -8.881784197001252e-16 1.5707963267948966 0.0 -0.0 -0.0 -0.0 0.0 0.0 -0.0 0.0 0.0 0.0 0.0 0.0 0.0 -1.4033970988372897e-26 0.5551729734477961 0.7573864583558307 0.07057808899065884 -9.380119611155278e-28 0.0 -1.6105384240992177e-25 6.394759450000004 6.394759450000002 0.2913103000000015 -3.894046141930891e-27 0.0 0.0 -1.5707481543170374 -1.5707476774798792 -4.593526021778871e-06 1.5707075595855713 -3.5587941304981996e-05 0.0 0.0 2.3968450477696024e-05 -2.3968450477696024e-05 -2.3968450477696024e-05 -4.793690095539205e-05 0.0269165076315403 0.5495453476905823 0.6862685084342957 -0.002237987704575062 -0.02349887043237686 -0.20813286304473877 0.0269165076315403 0.5719757676124573 0.6847434639930725 -0.0033569815568625927 -0.02685585245490074 -0.19918090105056763 0.29578982978917806 -0.11304207183303647 0.4815808257079271 -1.2100558931849736 1.2098179213383997 -1.2091107872273106 -1.0485400529287302e-08 -2.000042563839343e-06 5.112236862051335e-06 -4.791419083468574e-05 1.1136734169869184e-10 -2.399366216252631e-05 2.451821276195166 -3.433509207082636 1.5643633363935077 0.965867524429398 -0.4176592968086385 0.39210264637728925 0.295809494550608 -0.11303468883756389 0.48155257636461907 -1.2101397425155394 1.2098370768821627 -1.2089754610298096 0.0 0.0 0.0 0.0 0.0 0.0
2297.216 0.0 -1.5707963267948966 -1.5707963267948966 -8.881784197001252e-16 1.5707963267948966 0.0 -0.0 -0.0 -0.0 0.0 0.0 -0.0 0.0 0.0 0.0 0.0 0.0 0.0 -1.4033970988372897e-26 0.5551729734477961 0.7573864583558307 0.07057808899065884 -9.380119611155278e-28 0.0 -1.6105384240992177e-25 6.394759450000004 6.394759450000002 0.2913103000000015 -3.894046141930891e-27 0.0 0.0 -1.5707362333880823 -1.5707715193377894 -1.6514454976856996e-05 1.5707675218582153 0.0 0.0 0.0 2.3968450477696024e-05 -2.3968450477696024e-05 -2.3968450477696024e-05 -4.793690095539205e-05 0.0291595496237278 0.5652466416358948 0.6984688639640808 -0.001118993852287531 -0.03021283447742462 -0.18910996615886688 0.0269165076315403 0.5719757676124573 0.6847434639930725 -0.0033569815568625927 -0.027974845841526985 -0.19918090105056763 0.2957889665752374 -0.11303710985355465 0.4815763202189945 -1.210075660241917 1.2098080706777206 -1.2090291236892317 -1.0305584240935269e-08 -2.0000426519937773e-06 5.112237162169608e-06 -4.791476234993068e-05 -2.7673365271695374e-09 -2.3992518753567663e-05 2.8088545565694956 -3.904020927314381 1.0465496253393185 0.8777121192493066 -0.4856003011800344 0.4620647260311064 0.295809494550608 -0.11303468883756389 0.48155257636461907 -1.2101397425155394 1.2098370768821627 -1.2089754610298096 0.0 0.0 0.0 0.0 0.0 0.0
2297.2239999999997 0.0 -1.5707963267948966 -1.5707963267948966 -8.881784197001252e-16 1.5707963267948966 0.0 -0.0 -0.0 -0.0 0.0 0.0 -0.0 0.0 0.0 0.0 0.0 0.0 0.0 -1.4033970988372897e-26 0.5551729734477961 0.7573864583558307 0.07057808899065884 -9.380119611155278e-28 0.0 -1.6105384240992177e-25 6.394759450000004 6.394759450000002 0.2913103000000015 -3.894046141930891e-27 0.0 2.3968450477696024e-05 -1.5707600752459925 -1.5707953611956995 -4.593526021778871e-06 1.57077956199646 -2.366701234990387e-05 0.0 0.0 2.3968450477696024e-05 -2.3968450477696024e-05 -2.3968450477696024e-05 -4.793690095539205e-05 0.02467346377670765 0.5674896836280823 0.6862685084342957 0.0 -0.0335698164999485 -0.19582392275333405 0.0269165076315403 0.5719757676124573 0.6847434639930725 -0.0033569815568625927 -0.027974845841526985 -0.19918090105056763 0.29580056175735464 -0.1130289934198124 0.4815632038023214 -1.2101365368277244 1.2097965799684025 -1.209003051720624 -9.989833449039411e-09 -2.0000427739999562e-06 5.1122376819216554e-06 -4.791562112497764e-05 -4.498560076413228e-09 -2.399080528153709e-05 3.401136445387005 -4.019810074497861 1.612771872666858 0.9089179977916438 -0.4843306357587259 0.4871608602495525 0.295809494550608 -0.11303468883756389 0.48155257636461907 -1.2101397425155394 1.2098370768821627 -1.2089754610298096 0.0 0.0 0.0 0.0 0.0 0.0
2297.232 0.0 -1.5707963267948966 -1.5707963267948966 -8.881784197001252e-16 1.5707963267948966 0.0 -0.0 -0.0 -0.0 0.0 0.0 -0.0 0.0 0.0 0.0 0.0 0.0 0.0 -1.4033970988372897e-26 0.5551729734477961 0.7573864583558307 0.07057808899065884 -9.380119611155278e-28 0.0 -1.6105384240992177e-25 6.394759450000004 6.394759450000002 0.2913103000000015 -3.894046141930891e-27 0.0 -3.5587941304981996e-05 -1.5707839171039026 -1.5706995169269007 7.152557373046875e-06 1.57077956199646 -3.5587941304981996e-05 0.0 0.0 2.3968450477696024e-05 -2.3968450477696024e-05 -2.3968450477696024e-05 -4.793690095539205e-05 0.0358886756002903 0.5630035996437073 0.6908436417579651 -0.002237987704575062 -0.025736859068274498 -0.18015800416469574 0.0269165076315403 0.5719757676124573 0.6847434639930725 -0.0033569815568625927 -0.02685585245490074 -0.19918090105056763 0.2957924732962554 -0.11304671133040302 0.48158545226506294 -1.2100552582497053 1.2097734464206729 -1.2090954745133733 -1.0477696518152436e-08 -2.0000425168562173e-06 5.112236762666321e-06 -4.7913612774672726e-05 -1.6274566616837928e-09 -2.399481828267153e-05 2.9850072273184076 -4.305546795456175 1.359386314235808 0.8361601563355914 -0.4801035195886448 0.4743224334996141 0.295809494550608 -0.11303468883756389 0.48155257636461907 -1.2101397425155394 1.2098370768821627 -1.2089754610298096 0.0 0.0 0.0 0.0 0.0 0.0
2297.24 0.0 -1.5707963267948966 -1.5707963267948966 -8.881784197001252e-16 1.5707963267948966 0.0 -0.0 -0.0 -0.0 0.0 0.0 -0.0 0.0 0.0 0.0 0.0 0.0 0.0 -1.4033970988372897e-26 0.5551729734477961 0.7573864583558307 0.07057808899065884 -9.380119611155278e-28 0.0 -1.6105384240992177e-25 6.394759450000004 6.394759450000002 0.2913103000000015 -3.894046141930891e-27 0.0 -1.1746083394825746e-05 -1.5707724730121058 -1.5707834402667444 -1.6514454976856996e-05 1.57077956199646 1.1984225238848012e-05 0.0 0.0 2.3968450477696024e-05 -2.3968450477696024e-05 -2.3968450477696024e-05 -4.793690095539205e-05 0.0291595496237278 0.5607605576515198 0.6862685084342957 0.0 -0.02909383922815323 -0.19022895395755768 0.0314025916159153 0.5719757676124573 0.6847434639930725 -0.0033569815568625927 -0.025736859068274498 -0.19582392275333405 0.29580060772071287 -0.11303956632848584 0.4815620800920676 -1.2101024887281608 1.209848915845173 -1.2089972376182416 -1.0058858280155155e-08 -2.0000425165332877e-06 5.112237691188939e-06 -4.791591786069978e-05 -2.7860860772879603e-09 -2.3990210971286487e-05 3.0447106848483143 -4.004064616384434 1.6121177969537126 0.8829311104874017 -0.4539832707103942 0.4650351829948403 0.295809494550608 -0.11303468883756389 0.48155257636461907 -1.2101397425155394 1.2098370768821627 -1.2089754610298096 0.0 0.0 0.0 0.0 0.0 0.0
2297.248 0.0 -1.5707963267948966 -1.5707963267948966 -8.881784197001252e-16 1.5707963267948966 0.0 -0.0 -0.0 -0.0 0.0 0.0 -0.0 0.0 0.0 0.0 0.0 0.0 0.0 -1.4033970988372897e-26 0.5551729734477961 0.7573864583558307 0.07057808899065884 -9.380119611155278e-28 0.0 -1.6105384240992177e-25 6.394759450000004 6.394759450000002 0.2913103000000015 -3.894046141930891e-27 0.0 0.0 -1.5707839171039026 -1.5707595984088343 -1.6514454976856996e-05 1.5707316398620605 -1.1746083394825746e-05 0.0 0.0 2.3968450477696024e-05 -2.3968450477696024e-05 -2.3968450477696024e-05 -2.3968450477696024e-05 0.0336456336081028 0.5831909775733948 0.6877935528755188 -0.001118993852287531 -0.022379877045750618 -0.19358593225479126 0.0291595496237278 0.5719757676124573 0.6847434639930725 -0.0033569815568625927 -0.02685585245490074 -0.19918090105056763 0.2958036604992217 -0.11304006172898765 0.48156574480701286 -1.210093672589908 1.209855270286755 -1.2090472433511033 -1.0193761345709154e-08 -2.0000426253254723e-06 5.112237442655211e-06 -2.3947181309718063e-05 -3.72957564958471e-09 -2.401422234403714e-05 4.170885178918101 -4.724078541134119 1.518558655295269 0.8984976139894357 -0.5629658264396638 0.49300324292240894 0.295809494550608 -0.11303468883756389 0.48155257636461907 -1.2101397425155394 1.2098370768821627 -1.2089754610298096 0.0 0.0 0.0 0.0 0.0 0.0
2297.256 0.0 -1.5707963267948966 -1.5707963267948966 -8.881784197001252e-16 1.5707963267948966 0.0 -0.0 -0.0 -0.0 0.0 0.0 -0.0 0.0 0.0 0.0 0.0 0.0 0.0 -1.4033970988372897e-26 0.5551729734477961 0.7573864583558307 0.07057808899065884 -9.380119611155278e-28 0.0 -1.6105384240992177e-25 6.394759450000004 6.394759450000002 0.2913103000000015 -3.894046141930891e-27 0.0 1.1984225238848012e-05 -1.5707243124591272 -1.5707715193377894 1.9073486328125e-05 1.5707435607910156 -2.366701234990387e-05 0.0 0.0 2.3968450477696024e-05 -2.3968450477696024e-05 -2.3968450477696024e-05 -2.3968450477696024e-05 0.0336456336081028 0.5742188096046448 0.6938937306404114 -0.002237987704575062 -0.02685585245490074 -0.1879909634590149 0.0291595496237278 0.5719757676124573 0.6847434639930725 -0.0033569815568625927 -0.027974845841526985 -0.19582392275333405 0.29578335127126976 -0.11303554463919105 0.48158277558380785 -1.210052419952789 1.2097707444387185 -1.2090778743190056 -1.0390093088969885e-08 -2.00004257318339e-06 5.1122369190190995e-06 -2.394518396479949e-05 -4.3012678125440584e-09 -2.401621707631104e-05 3.460022409711649 -4.446192506646635 1.224070736876712 0.8725149157029326 -0.5317423503967934 0.49108483852612045 0.295809494550608 -0.11303468883756389 0.48155257636461907 -1.2101397425155394 1.2098370768821627 -1.2089754610298096 0.0 0.0 0.0 0.0 0.0 0.0
2297.2639999999997 0.0 -1.5707963267948966 -1.5707963267948966 -8.881784197001252e-16 1.5707963267948966 0.0 -0.0 -0.0 -0.0 0.0 0.0 -0.0 0.0 0.0 0.0 0.0 0.0 0.0 -1.4033970988372897e-26 0.5551729734477961 0.7573864583558307 0.07057808899065884 -9.380119611155278e-28 0.0 -1.6105384240992177e-25 6.394759450000004 6.394759450000002 0.2913103000000015 -3.894046141930891e-27 0.0 -3.5587941304981996e-05 -1.5707243124591272 -1.570723835621969 7.152557373046875e-06 1.5707675218582153 0.0 0.0 0.0 2.3968450477696024e-05 -2.3968450477696024e-05 -2.3968450477696024e-05 -2.3968450477696024e-05 0.02018737979233265 0.5719757676124573 0.6877935528755188 -0.0033569815568625927 -0.02349887043237686 -0.19918090105056763 0.02467346377670765 0.5719757676124573 0.6847434639930725 -0.0033569815568625927 -0.031331829726696014 -0.19806191325187683 0.29577490670137746 -0.11304769573723619 0.48159588864496083 -1.2099973751170319 1.2097731548704334 -1.2090948438644462 -1.0681893542313604e-08 -2.000042372697882e-06 5.112236411304926e-06 -2.394432449461776e-05 -3.731598454106808e-09 -2.4017072983917965e-05 3.579547963267538 -3.6253586986377866 1.473760470067019 0.9243259430687076 -0.526628909636862 0.4078788682487965 0.295809494550608 -0.11303468883756389 0.48155257636461907 -1.2101397425155394 1.2098370768821627 -1.2089754610298096 0.0 0.0 0.0 0.0 0.0 0.0
2297.272 0.0 -1.5707963267948966 -1.5707963267948966 -8.881784197001252e-16 1.5707963267948966 0.0 -0.0 -0.0 -0.0 0.0 0.0 -0.0 0.0 0.0 0.0 0.0 0.0 0.0 -1.4033970988372897e-26 0.5551729734477961 0.7573864583558307 0.07057808899065884 -9.380119611155278e-28 0.0 -1.6105384240992177e-25 6.394759450000004 6.394759450000002 0.2913103000000015 -3.894046141930891e-27 0.0 2.3968450477696024e-05 -1.5707839171039026 -1.5707595984088343 -4.0356312887013246e-05 1.5707316398620605 -2.366701234990387e-05 0.0 0.0 2.3968450477696024e-05 -2.3968450477696024e-05 -2.3968450477696024e-05 -2.3968450477696024e-05 0.0336456336081028 0.5674896836280823 0.6740682125091553 -0.001118993852287531 -0.019022895023226738 -0.1857529729604721 0.0314025916159153 0.5719757676124573 0.6847434639930725 -0.0033569815568625927 -0.02909383922815323 -0.19694292545318604 0.29580840485531285 -0.1130329704294669 0.48156378177263054 -1.210131360524244 1.209849507397235 -1.2090270800501448 -1.0145776469377099e-08 -2.0000429673615836e-06 5.112237494325074e-06 -2.3947752100476444e-05 -4.303935568160997e-09 -2.401365087516084e-05 3.8731879170474177 -4.493030780151131 2.128205905773786 0.8621564017366997 -0.4873024265582495 0.45835896880542065 0.295809494550608 -0.11303468883756389 0.48155257636461907 -1.2101397425155394 1.2098370768821627 -1.2089754610298096 0.0 0.0 0.0 0.0 0.0 0.0
2297.2799999999997 0.0 -1.5707963267948966 -1.5707963267948966 -8.881784197001252e-16 1.5707963267948966 0.0 -0.0 -0.0 -0.0 0.0 0.0 -0.0 0.0 0.0 0.0 0.0 0.0 0.0 -1.4033970988372897e-26 0.5551729734477961 0.7573864583558307 0.07057808899065884 -9.380119611155278e-28 0.0 -1.6105384240992177e-25 6.394759450000004 6.394759450000002 0.2913103000000015 -3.894046141930891e-27 0.0 -1.1746083394825746e-05 -1.5707243124591272 -1.5708192030536097 7.152557373046875e-06 1.5707556009292603 -4.7985707418263246e-05 0.0 0.0 2.3968450477696024e-05 -2.3968450477696024e-05 -2.3968450477696024e-05 -2.3968450477696024e-05 0.02243042178452015 0.5966492295265198 0.6893185973167419 -0.001118993852287531 -0.027974845841526985 -0.19806191325187683 0.02243042178452015 0.5719757676124573 0.6847434639930725 -0.0033569815568625927 -0.02685585245490074 -0.19806191325187683 0.2957857737904817 -0.11304151714159 0.4815676986625208 -1.2101088237197004 1.20981158427007 -1.2090760691550413 -1.016958173635164e-08 -2.0000422073547173e-06 5.112237535463002e-06 -2.3946614692652682e-05 -4.026862263070883e-09 -2.4014789459654463e-05 4.8246749454348565 -4.5165580078679834 1.4529607753732765 0.919260145890106 -0.6242190105813641 0.501932128374357 0.295809494550608 -0.11303468883756389 0.48155257636461907 -1.2101397425155394 1.2098370768821627 -1.2089754610298096 0.0 0.0 0.0 0.0 0.0 0.0
2297.288 0.0 -1.5707963267948966 -1.5707963267948966 -8.881784197001252e-16 1.5707963267948966 0.0 -0.0 -0.0 -0.0 0.0 0.0 -0.0 0.0 0.0 0.0 0.0 0.0 0.0 -1.4033970988372897e-26 0.5551729734477961 0.7573864583558307 0.07057808899065884 -9.380119611155278e-28 0.0 -1.6105384240992177e-25 6.394759450000004 6.394759450000002 0.2913103000000015 -3.894046141930891e-27 0.0 -2.366701234990387e-05 -1.5707600752459925 -1.570735279713766 7.152557373046875e-06 1.5707556009292603 -3.5587941304981996e-05 0.0 0.0 2.3968450477696024e-05 -2.3968450477696024e-05 -2.3968450477696024e-05 -2.3968450477696024e-05 0.0336456336081028 0.5697327256202698 0.6938937306404114 -0.0033569815568625927 -0.03021283447742462 -0.19582392275333405 0.0269165076315403 0.5719757676124573 0.6847434639930725 -0.0055949692614376545 -0.031331829726696014 -0.19694292545318604 0.29578902380225014 -0.11304512620359775 0.4815819314572911 -1.2100584062838016 1.2097910030141816 -1.2090986466515 -1.0440148534197953e-08 -2.0000424350096157e-06 5.1122369010100906e-06 -2.394545815977972e-05 -3.733529504213471e-09 -2.4015942701141598e-05 3.222568829918087 -4.393690909309014 1.1996809787338512 0.9088581045782607 -0.5187140976204413 0.5023904809340447 0.295809494550608 -0.11303468883756389 0.48155257636461907 -1.2101397425155394 1.2098370768821627 -1.2089754610298096 0.0 0.0 0.0 0.0 0.0 0.0
2297.296 0.0 -1.5707963267948966 -1.5707963267948966 -8.881784197001252e-16 1.5707963267948966 0.0 -0.0 -0.0 -0.0 0.0 0.0 -0.0 0.0 0.0 0.0 0.0 0.0 0.0 -1.4033970988372897e-26 0.5551729734477961 0.7573864583558307 0.07057808899065884 -9.380119611155278e-28 0.0 -1.6105384240992177e-25 6.394759450000004 6.394759450000002 0.2913103000000015 -3.894046141930891e-27 0.0 -1.1746083394825746e-05 -1.5707243124591272 -1.5707953611956995 -4.593526021778871e-06 1.570719599723816 -7.230440248662262e-05 0.0 0.0 2.3968450477696024e-05 -2.3968450477696024e-05 -2.3968450477696024e-05 -2.3968450477696024e-05 0.0314025916159153 0.5787048935890198 0.6908436417579651 -0.002237987704575062 -0.03021283447742462 -0.19022895395755768 0.0269165076315403 0.5719757676124573 0.6847434639930725 -0.0033569815568625927 -0.02909383922815323 -0.19806191325187683 0.2957847298965302 -0.11304450867708425 0.48157378004367757 -1.2101007448027628 1.20981776182572 -1.2091262375923773 -1.036288728895529e-08 -2.0000422688494452e-06 5.112237212170981e-06 -2.394632330360825e-05 -3.1616200523419006e-09 -2.40150790888399e-05 3.815618574563128 -4.572255874418619 1.3595978699714886 0.8829172048504951 -0.550962287688257 0.5170106655644243 0.295809494550608 -0.11303468883756389 0.48155257636461907 -1.2101397425155394 1.2098370768821627 -1.2089754610298096 0.0 0.0 0.0 0.0 0.0 0.0
2297.304 0.0 -1.5707963267948966 -1.5707963267948966 -8.881784197001252e-16 1.5707963267948966 0.0 -0.0 -0.0 -0.0 0.0 0.0 -0.0 0.0 0.0 0.0 0.0 0.0 0.0 -1.4033970988372897e-26 0.5551729734477961 0.7573864583558307 0.07057808899065884 -9.380119611155278e-28 0.0 -1.6105384240992177e-25 6.394759450000004 6.394759450000002 0.2913103000000015 -3.894046141930891e-27 0.0 2.3968450477696024e-05 -1.5707600752459925 -1.5707715193377894 -1.6514454976856996e-05 1.570791482925415 -1.1746083394825746e-05 0.0 0.0 2.3968450477696024e-05 -2.3968450477696024e-05 -2.3968450477696024e-05 -2.3968450477696024e-05 0.02467346377670765 0.5652466416358948 0.6862685084342957 -0.004475975409150124 -0.02909383922815323 -0.1879909634590149 0.0269165076315403 0.5719757676124573 0.6847434639930725 -0.004475975409150124 -0.02685585245490074 -0.19806191325187683 0.2957995374945071 -0.1130280381778863 0.48156926973055464 -1.2101245633337994 1.2097847294944575 -1.2089911839781515 -1.008826677508627e-08 -2.000042951633835e-06 5.112237447779311e-06 -2.3946895021097923e-05 -5.73847206888051e-09 -2.4014507423305902e-05 3.2826604800942314 -3.859596926203719 1.516053483090879 0.8725461178022438 -0.5028818442353099 0.4531601225778709 0.295809494550608 -0.11303468883756389 0.48155257636461907 -1.2101397425155394 1.2098370768821627 -1.2089754610298096 0.0 0.0 0.0 0.0 0.0 0.0
2297.312 0.0 -1.5707963267948966 -1.5707963267948966 -8.881784197001252e-16 1.5707963267948966 0.0 -0.0 -0.0 -0.0 0.0 0.0 -0.0 0.0 0.0 0.0 0.0 0.0 0.0 -1.4033970988372897e-26 0.5551729734477961 0.7573864583558307 0.07057808899065884 -9.380119611155278e-28 0.0 -1.6105384240992177e-25 6.394759450000004 6.394759450000002 0.2913103000000015 -3.894046141930891e-27 0.0 -3.5587941304981996e-05 -1.5707724730121058 -1.5707834402667444 -1.6514454976856996e-05 1.5707075595855713 -7.230440248662262e-05 0.0 0.0 2.3968450477696024e-05 -2.3968450477696024e-05 -2.3968450477696024e-05 -2.3968450477696024e-05 0.0314025916159153 0.5540314316749573 0.671018123626709 -0.001118993852287531 -0.025736859068274498 -0.19134794175624847 0.0269165076315403 0.5719757676124573 0.6847434639930725 0.0 -0.02685585245490074 -0.19806191325187683 0.29579790539069556 -0.11305254875770389 0.4815620817178002 -1.2101192437511465 1.2098796455909844 -1.2091298332972988 -1.024908682623567e-08 -2.0000421037630546e-06 5.112237566853515e-06 -2.394747905236363e-05 -2.3023733281596447e-09 -2.40139256124956e-05 3.2798113521815884 -4.19064521683627 2.2641583277827344 0.8880833566437255 -0.4255630890984163 0.46473496835948097 0.295809494550608 -0.11303468883756389 0.48155257636461907 -1.2101397425155394 1.2098370768821627 -1.2089754610298096 0.0 0.0 0.0 0.0 0.0 0.0
2297.3199999999997 0.0 -1.5707963267948966 -1.5707963267948966 -8.881784197001252e-16 1.5707963267948966 0.0 -0.0 -0.0 -0.0 0.0 0.0 -0.0 0.0 0.0 0.0 0.0 0.0 0.0 -1.4033970988372897e-26 0.5551729734477961 0.7573864583558307 0.07057808899065884 -9.380119611155278e-28 0.0 -1.6105384240992177e-25 6.394759450000004 6.394759450000002 0.2913103000000015 -3.894046141930891e-27 0.0 -2.366701234990387e-05 -1.5707243124591272 -1.5707834402667444 -1.6514454976856996e-05 1.5707435607910156 -2.366701234990387e-05 0.0 0.0 2.3968450477696024e-05 -2.3968450477696024e-05 -2.3968450477696024e-05 -2.3968450477696024e-05 0.02243042178452015 0.5899201035499573 0.6847434639930725 0.002237987704575062 -0.03021283447742462 -0.19246694445610046 0.02467346377670765 0.5719757676124573 0.6847434639930725 -0.002237987704575062 -0.02909383922815323 -0.19806191325187683 0.2957833806854442 -0.1130460742424595 0.48157632185175775 -1.2100705846089388 1.209831938542958 -1.2090815902794971 -1.0400298623862167e-08 -2.0000422999462965e-06 5.1122371387132015e-06 -2.3946322594513698e-05 -3.4493842399713305e-09 -2.401507867107109e-05 4.64633281501859 -4.4711041679990515 1.729210594285909 0.893295903257453 -0.570742691348476 0.508615720540459 0.295809494550608 -0.11303468883756389 0.48155257636461907 -1.2101397425155394 1.2098370768821627 -1.2089754610298096 0.0 0.0 0.0 0.0 0.0 0.0
2297.328 0.0 -1.5707963267948966 -1.5707963267948966 -8.881784197001252e-16 1.5707963267948966 0.0 -0.0 -0.0 -0.0 0.0 0.0 -0.0 0.0 0.0 0.0 0.0 0.0 0.0 -1.4033970988372897e-26 0.5551729734477961 0.7573864583558307 0.07057808899065884 -9.380119611155278e-28 0.0 -1.6105384240992177e-25 6.394759450000004 6.394759450000002 0.2913103000000015 -3.894046141930891e-27 0.0 3.5952674807049334e-05 -1.570796314870016 -1.5707834402667444 3.1113624572753906e-05 1.5707075595855713 -2.366701234990387e-05 0.0 0.0 2.3968450477696024e-05 -2.3968450477696024e-05 -2.3968450477696024e-05 -2.3968450477696024e-05 0.02467346377670765 0.5405731797218323 0.6923686861991882 -0.001118993852287531 -0.022379877045750618 -0.19470493495464325 0.02467346377670765 0.5719757676124573 0.6847434639930725 -0.0033569815568625927 -0.027974845841526985 -0.19806191325187683 0.29580978628348 -0.11303138084131575 0.48155895295112583 -1.2100997282013777 1.2098324310286694 -1.2090526391923084 -9.984152745205069e-09 -2.0000426344259333e-06 5.1122377014064846e-06 -2.394691091431184e-05 -4.015518127647128e-09 -2.4014496258483973e-05 1.7416691563370068 -2.8974510416183956 1.3189224699576476 0.9035639666904499 -0.3720013795561207 0.34275691463922725 0.295809494550608 -0.11303468883756389 0.48155257636461907 -1.2101397425155394 1.2098370768821627 -1.2089754610298096 0.0 0.0 0.0 0.0 0.0 0.0
2297.336 0.0 -1.5707963267948966 -1.5707963267948966 -8.881784197001252e-16 1.5707963267948966 0.0 -0.0 -0.0 -0.0 0.0 0.0 -0.0 0.0 0.0 0.0 0.0 0.0 0.0 -1.4033970988372897e-26 0.5551729734477961 0.7573864583558307 0.07057808899065884 -9.380119611155278e-28 0.0 -1.6105384240992177e-25 6.394759450000004 6.394759450000002 0.2913103000000015 -3.894046141930891e-27 0.0 1.1984225238848012e-05 -1.5707362333880823 -1.5707595984088343 -2.8912221090138246e-05 1.5707435607910156 -2.366701234990387e-05 0.0 0.0 2.3968450477696024e-05 -2.3968450477696024e-05 -2.3968450477696024e-05 -2.3968450477696024e-05 0.0269165076315403 0.5697327256202698 0.6893185973167419 -0.002237987704575062 -0.02014188840985298 -0.19358593225479126 0.0269165076315403 0.5719757676124573 0.6847434639930725 -0.0033569815568625927 -0.02685585245490074 -0.19806191325187683 0.295790355637873 -0.11303555136800883 0.48157882385007983 -1.2100877546494004 1.2098060742482002 -1.2090551538806178 -1.0390055188158574e-08 -2.0000428223510173e-06 5.112237001686323e-06 -2.394633305372972e-05 -4.301100428252326e-09 -2.401506698018394e-05 3.401167653394701 -3.8626074749517385 1.4288474907962794 0.8984217645910887 -0.5098157852133023 0.411733676969122 0.295809494550608 -0.11303468883756389 0.48155257636461907 -1.2101397425155394 1.2098370768821627 -1.2089754610298096 0.0 0.0 0.0 0.0 0.0 0.0
2297.344 0.0 -1.5707963267948966 -1.5707963267948966 -8.881784197001252e-16 1.5707963267948966 0.0 -0.0 -0.0 -0.0 0.0 0.0 -0.0 0.0 0.0 0.0 0.0 0.0 0.0 -1.4033970988372897e-26 0.5551729734477961 0.7573864583558307 0.07057808899065884 -9.380119611155278e-28 0.0 -1.6105384240992177e-25 6.394759450000004 6.394759450000002 0.2913103000000015 -3.894046141930891e-27 0.0 0.0 -1.5707839171039026 -1.5707476774798792 -4.0356312887013246e-05 1.570791482925415 -1.1746083394825746e-05 0.0 0.0 2.3968450477696024e-05 -2.3968450477696024e-05 -2.3968450477696024e-05 -2.3968450477696024e-05 0.0314025916159153 0.5831909775733948 0.6923686861991882 -0.0033569815568625927 -0.03580780327320099 -0.19918090105056763 0.0291595496237278 0.5719757676124573 0.6847434639930725 -0.0033569815568625927 -0.027974845841526985 -0.19918090105056763 0.29580467980506314 -0.11303514544737786 0.4815673042939482 -1.210130750056084 1.2098199848238815 -1.2089975566578068 -1.0136270929238217e-08 -2.000042910242594e-06 5.11223745622899e-06 -2.3947466049376306e-05 -5.163022345663696e-09 -2.4013935957845023e-05 3.9936116249575444 -4.787798827868674 1.2671702563193563 0.9245594090544936 -0.5789321133133888 0.560776752153741 0.295809494550608 -0.11303468883756389 0.48155257636461907 -1.2101397425155394 1.2098370768821627 -1.2089754610298096 0.0 0.0 0.0 0.0 0.0 0.0
2297.352 0.0 -1.5707963267948966 -1.5707963267948966 -8.881784197001252e-16 1.5707963267948966 0.0 -0.0 -0.0 -0.0 0.0 0.0 -0.0 0.0 0.0 0.0 0.0 0.0 0.0 -1.4033970988372897e-26 0.5551729734477961 0.7573864583558307 0.07057808899065884 -9.380119611155278e-28 0.0 -1.6105384240992177e-25 6.394759450000004 6.394759450000002 0.2913103000000015 -3.894046141930891e-27 0.0 2.3968450477696024e-05 -1.5707724730121058 -1.5707953611956995 3.1113624572753906e-05 1.5707435607910156 -3.5587941304981996e-05 0.0 0.0 2.3968450477696024e-05 -2.3968450477696024e-05 -2.3968450477696024e-05 -2.3968450477696024e-05 0.0314025916159153 0.5809479355812073 0.6908436417579651 0.0033569815568625927 -0.021260883659124374 -0.19134794175624847 0.0291595496237278 0.5719757676124573 0.6847434639930725 -0.0033569815568625927 -0.02685585245490074 -0.19918090105056763 0.2958015973186148 -0.11303195590578956 0.4815624784735404 -1.2101111133719076 1.2098003075824573 -1.2090493693243778 -9.997765005953721e-09 -2.0000425463236914e-06 5.112237666655735e-06 -2.3946624763133352e-05 -4.5920004521986295e-09 -2.4014781491157588e-05 3.9345307704092343 -4.439389055085639 1.4809429730965036 0.8880995078549351 -0.5251479014387633 0.46439258885463736 0.295809494550608 -0.11303468883756389 0.48155257636461907 -1.2101397425155394 1.2098370768821627 -1.2089754610298096 0.0 0.0 0.0 0.0 0.0 0.0
2297.3599999999997 0.0 -1.5707963267948966 -1.5707963267948966 -8.881784197001252e-16 1.5707963267948966 0.0 -0.0 -0.0 -0.0 0.0 0.0 -0.0 0.0 0.0 0.0 0.0 0.0 0.0 -1.4033970988372897e-26 0.5551729734477961 0.7573864583558307 0.07057808899065884 -9.380119611155278e-28 0.0 -1.6105384240992177e-25 6.394759450000004 6.394759450000002 0.2913103000000015 -3.894046141930891e-27 0.0 1.1984225238848012e-05 -1.5707600752459925 -1.5707476774798792 -4.0356312887013246e-05 1.5707316398620605 0.0 0.0 0.0 2.3968450477696024e-05 -2.3968450477696024e-05 -2.3968450477696024e-05 -2.3968450477696024e-05 0.0291595496237278 0.5473023056983948 0.6755932569503784 -0.0055949692614376545 -0.03245082125067711 -0.19246694445610046 0.0291595496237278 0.5719757676124573 0.6847434639930725 -0.0033569815568625927 -0.02909383922815323 -0.19694292545318604 0.2957981693491611 -0.11303653759028172 0.48157435577959107 -1.2100818729672236 1.2098432664828582 -1.2090354496025044 -1.035271741445582e-08 -2.0000428942302725e-06 5.112237108051321e-06 -2.39468933426346e-05 -4.014976713577961e-09 -2.401450729580544e-05 2.747038554292402 -3.919835853863886 1.964747255211832 0.8933024467050711 -0.4254258396512522 0.47376775444422814 0.295809494550608 -0.11303468883756389 0.48155257636461907 -1.2101397425155394 1.2098370768821627 -1.2089754610298096 0.0 0.0 0.0 0.0 0.0 0.0
2297.368 0.0 -1.5707963267948966 -1.5707963267948966 -8.881784197001252e-16 1.5707963267948966 0.0 -0.0 -0.0 -0.0 0.0 0.0 -0.0 0.0 0.0 0.0 0.0 0.0 0.0 -1.4033970988372897e-26 0.5551729734477961 0.7573864583558307 0.07057808899065884 -9.380119611155278e-28 0.0 -1.6105384240992177e-25 6.394759450000004 6.394759450000002 0.2913103000000015 -3.894046141930891e-27 0.0 3.5952674807049334e-05 -1.5707481543170374 -1.5707715193377894 -2.8912221090138246e-05 1.57077956199646 -5.990663637334137e-05 0.0 0.0 2.3968450477696024e-05 -2.3968450477696024e-05 -2.3968450477696024e-05 -2.3968450477696024e-05 0.02243042178452015 0.5764618515968323 0.6893185973167419 0.0 -0.034688808023929596 -0.19582392275333405 0.0269165076315403 0.5719757676124573 0.6847434639930725 -0.0033569815568625927 -0.03021283447742462 -0.19806191325187683 0.2957980194849325 -0.11302547870520495 0.48157177425021924 -1.2101604225243021 1.2097622453231902 -1.2090263656353468 -1.0148845168138686e-08 -2.000043098181254e-06 5.112237331424096e-06 -2.3946905537768313e-05 -5.739580544332223e-09 -2.401449581389979e-05 3.757590985569173 -4.097694365254241 1.4778219291662775 0.9089282257484159 -0.52586175397843 0.49877345646905014 0.295809494550608 -0.11303468883756389 0.48155257636461907 -1.2101397425155394 1.2098370768821627 -1.2089754610298096 0.0 0.0 0.0 0.0 0.0 0.0
