Fleaurent/UniversalRobot/csv/robot_movej_Dreieck.csv
timestamp target_q_0 target_q_1 target_q_2 target_q_3 target_q_4 target_q_5 target_qd_0 target_qd_1 target_qd_2 target_qd_3 target_qd_4 target_qd_5 target_qdd_0 target_qdd_1 target_qdd_2 target_qdd_3 target_qdd_4 target_qdd_5 target_current_0 target_current_1 target_current_2 target_current_3 target_current_4 target_current_5 target_moment_0 target_moment_1 target_moment_2 target_moment_3 target_moment_4 target_moment_5 actual_q_0 actual_q_1 actual_q_2 actual_q_3 actual_q_4 actual_q_5 actual_qd_0 actual_qd_1 actual_qd_2 actual_qd_3 actual_qd_4 actual_qd_5 actual_current_0 actual_current_1 actual_current_2 actual_current_3 actual_current_4 actual_current_5 joint_control_output_0 joint_control_output_1 joint_control_output_2 joint_control_output_3 joint_control_output_4 joint_control_output_5 actual_TCP_pose_0 actual_TCP_pose_1 actual_TCP_pose_2 actual_TCP_pose_3 actual_TCP_pose_4 actual_TCP_pose_5 actual_TCP_speed_0 actual_TCP_speed_1 actual_TCP_speed_2 actual_TCP_speed_3 actual_TCP_speed_4 actual_TCP_speed_5 actual_TCP_force_0 actual_TCP_force_1 actual_TCP_force_2 actual_TCP_force_3 actual_TCP_force_4 actual_TCP_force_5 target_TCP_pose_0 target_TCP_pose_1 target_TCP_pose_2 target_TCP_pose_3 target_TCP_pose_4 target_TCP_pose_5 target_TCP_speed_0 target_TCP_speed_1 target_TCP_speed_2 target_TCP_speed_3 target_TCP_speed_4 target_TCP_speed_5
2297.256 0.0 -1.5707963267948966 -1.5707963267948966 -8.881784197001252e-16 1.5707963267948966 0.0 -0.0 -0.0 -0.0 0.0 0.0 -0.0 0.0 0.0 0.0 0.0 0.0 0.0 -1.4033970988372897e-26 0.5551729734477961 0.7573864583558307 0.07057808899065884 -9.380119611155278e-28 0.0 -1.6105384240992177e-25 6.394759450000004 6.394759450000002 0.2913103000000015 -3.894046141930891e-27 0.0 1.1984225238848012e-05 -1.5707243124591272 -1.5707715193377894 1.9073486328125e-05 1.5707435607910156 -2.366701234990387e-05 0.0 0.0 2.3968450477696024e-05 -2.3968450477696024e-05 -2.3968450477696024e-05 -2.3968450477696024e-05 0.0336456336081028 0.5742188096046448 0.6938937306404114 -0.002237987704575062 -0.02685585245490074 -0.1879909634590149 0.0291595496237278 0.5719757676124573 0.6847434639930725 -0.0033569815568625927 -0.027974845841526985 -0.19582392275333405 0.29578335127126976 -0.11303554463919105 0.48158277558380785 -1.210052419952789 1.2097707444387185 -1.2090778743190056 -1.0390093088969885e-08 -2.00004257318339e-06 5.1122369190190995e-06 -2.394518396479949e-05 -4.3012678125440584e-09 -2.401621707631104e-05 3.460022409711649 -4.446192506646635 1.224070736876712 0.8725149157029326 -0.5317423503967934 0.49108483852612045 0.295809494550608 -0.11303468883756389 0.48155257636461907 -1.2101397425155394 1.2098370768821627 -1.2089754610298096 0.0 0.0 0.0 0.0 0.0 0.0
2297.2639999999997 0.0 -1.5707963267948966 -1.5707963267948966 -8.881784197001252e-16 1.5707963267948966 0.0 -0.0 -0.0 -0.0 0.0 0.0 -0.0 0.0 0.0 0.0 0.0 0.0 0.0 -1.4033970988372897e-26 0.5551729734477961 0.7573864583558307 0.07057808899065884 -9.380119611155278e-28 0.0 -1.6105384240992177e-25 6.394759450000004 6.394759450000002 0.2913103000000015 -3.894046141930891e-27 0.0 -3.5587941304981996e-05 -1.5707243124591272 -1.570723835621969 7.152557373046875e-06 1.5707675218582153 0.0 0.0 0.0 2.3968450477696024e-05 -2.3968450477696024e-05 -2.3968450477696024e-05 -2.3968450477696024e-05 0.02018737979233265 0.5719757676124573 0.6877935528755188 -0.0033569815568625927 -0.02349887043237686 -0.19918090105056763 0.02467346377670765 0.5719757676124573 0.6847434639930725 -0.0033569815568625927 -0.031331829726696014 -0.19806191325187683 0.29577490670137746 -0.11304769573723619 0.48159588864496083 -1.2099973751170319 1.2097731548704334 -1.2090948438644462 -1.0681893542313604e-08 -2.000042372697882e-06 5.112236411304926e-06 -2.394432449461776e-05 -3.731598454106808e-09 -2.4017072983917965e-05 3.579547963267538 -3.6253586986377866 1.473760470067019 0.9243259430687076 -0.526628909636862 0.4078788682487965 0.295809494550608 -0.11303468883756389 0.48155257636461907 -1.2101397425155394 1.2098370768821627 -1.2089754610298096 0.0 0.0 0.0 0.0 0.0 0.0
2297.272 0.0 -1.5707963267948966 -1.5707963267948966 -8.881784197001252e-16 1.5707963267948966 0.0 -0.0 -0.0 -0.0 0.0 0.0 -0.0 0.0 0.0 0.0 0.0 0.0 0.0 -1.4033970988372897e-26 0.5551729734477961 0.7573864583558307 0.07057808899065884 -9.380119611155278e-28 0.0 -1.6105384240992177e-25 6.394759450000004 6.394759450000002 0.2913103000000015 -3.894046141930891e-27 0.0 2.3968450477696024e-05 -1.5707839171039026 -1.5707595984088343 -4.0356312887013246e-05 1.5707316398620605 -2.366701234990387e-05 0.0 0.0 2.3968450477696024e-05 -2.3968450477696024e-05 -2.3968450477696024e-05 -2.3968450477696024e-05 0.0336456336081028 0.5674896836280823 0.6740682125091553 -0.001118993852287531 -0.019022895023226738 -0.1857529729604721 0.0314025916159153 0.5719757676124573 0.6847434639930725 -0.0033569815568625927 -0.02909383922815323 -0.19694292545318604 0.29580840485531285 -0.1130329704294669 0.48156378177263054 -1.210131360524244 1.209849507397235 -1.2090270800501448 -1.0145776469377099e-08 -2.0000429673615836e-06 5.112237494325074e-06 -2.3947752100476444e-05 -4.303935568160997e-09 -2.401365087516084e-05 3.8731879170474177 -4.493030780151131 2.128205905773786 0.8621564017366997 -0.4873024265582495 0.45835896880542065 0.295809494550608 -0.11303468883756389 0.48155257636461907 -1.2101397425155394 1.2098370768821627 -1.2089754610298096 0.0 0.0 0.0 0.0 0.0 0.0
2297.2799999999997 0.0 -1.5707963267948966 -1.5707963267948966 -8.881784197001252e-16 1.5707963267948966 0.0 -0.0 -0.0 -0.0 0.0 0.0 -0.0 0.0 0.0 0.0 0.0 0.0 0.0 -1.4033970988372897e-26 0.5551729734477961 0.7573864583558307 0.07057808899065884 -9.380119611155278e-28 0.0 -1.6105384240992177e-25 6.394759450000004 6.394759450000002 0.2913103000000015 -3.894046141930891e-27 0.0 -1.1746083394825746e-05 -1.5707243124591272 -1.5708192030536097 7.152557373046875e-06 1.5707556009292603 -4.7985707418263246e-05 0.0 0.0 2.3968450477696024e-05 -2.3968450477696024e-05 -2.3968450477696024e-05 -2.3968450477696024e-05 0.02243042178452015 0.5966492295265198 0.6893185973167419 -0.001118993852287531 -0.027974845841526985 -0.19806191325187683 0.02243042178452015 0.5719757676124573 0.6847434639930725 -0.0033569815568625927 -0.02685585245490074 -0.19806191325187683 0.2957857737904817 -0.11304151714159 0.4815676986625208 -1.2101088237197004 1.20981158427007 -1.2090760691550413 -1.016958173635164e-08 -2.0000422073547173e-06 5.112237535463002e-06 -2.3946614692652682e-05 -4.026862263070883e-09 -2.4014789459654463e-05 4.8246749454348565 -4.5165580078679834 1.4529607753732765 0.919260145890106 -0.6242190105813641 0.501932128374357 0.295809494550608 -0.11303468883756389 0.48155257636461907 -1.2101397425155394 1.2098370768821627 -1.2089754610298096 0.0 0.0 0.0 0.0 0.0 0.0
2297.288 0.0 -1.5707963267948966 -1.5707963267948966 -8.881784197001252e-16 1.5707963267948966 0.0 -0.0 -0.0 -0.0 0.0 0.0 -0.0 0.0 0.0 0.0 0.0 0.0 0.0 -1.4033970988372897e-26 0.5551729734477961 0.7573864583558307 0.07057808899065884 -9.380119611155278e-28 0.0 -1.6105384240992177e-25 6.394759450000004 6.394759450000002 0.2913103000000015 -3.894046141930891e-27 0.0 -2.366701234990387e-05 -1.5707600752459925 -1.570735279713766 7.152557373046875e-06 1.5707556009292603 -3.5587941304981996e-05 0.0 0.0 2.3968450477696024e-05 -2.3968450477696024e-05 -2.3968450477696024e-05 -2.3968450477696024e-05 0.0336456336081028 0.5697327256202698 0.6938937306404114 -0.0033569815568625927 -0.03021283447742462 -0.19582392275333405 0.0269165076315403 0.5719757676124573 0.6847434639930725 -0.0055949692614376545 -0.031331829726696014 -0.19694292545318604 0.29578902380225014 -0.11304512620359775 0.4815819314572911 -1.2100584062838016 1.2097910030141816 -1.2090986466515 -1.0440148534197953e-08 -2.0000424350096157e-06 5.1122369010100906e-06 -2.394545815977972e-05 -3.733529504213471e-09 -2.4015942701141598e-05 3.222568829918087 -4.393690909309014 1.1996809787338512 0.9088581045782607 -0.5187140976204413 0.5023904809340447 0.295809494550608 -0.11303468883756389 0.48155257636461907 -1.2101397425155394 1.2098370768821627 -1.2089754610298096 0.0 0.0 0.0 0.0 0.0 0.0
2297.296 0.0 -1.5707963267948966 -1.5707963267948966 -8.881784197001252e-16 1.5707963267948966 0.0 -0.0 -0.0 -0.0 0.0 0.0 -0.0 0.0 0.0 0.0 0.0 0.0 0.0 -1.4033970988372897e-26 0.5551729734477961 0.7573864583558307 0.07057808899065884 -9.380119611155278e-28 0.0 -1.6105384240992177e-25 6.394759450000004 6.394759450000002 0.2913103000000015 -3.894046141930891e-27 0.0 -1.1746083394825746e-05 -1.5707243124591272 -1.5707953611956995 -4.593526021778871e-06 1.570719599723816 -7.230440248662262e-05 0.0 0.0 2.3968450477696024e-05 -2.3968450477696024e-05 -2.3968450477696024e-05 -2.3968450477696024e-05 0.0314025916159153 0.5787048935890198 0.6908436417579651 -0.002237987704575062 -0.03021283447742462 -0.19022895395755768 0.0269165076315403 0.5719757676124573 0.6847434639930725 -0.0033569815568625927 -0.02909383922815323 -0.19806191325187683 0.2957847298965302 -0.11304450867708425 0.48157378004367757 -1.2101007448027628 1.20981776182572 -1.2091262375923773 -1.036288728895529e-08 -2.0000422688494452e-06 5.112237212170981e-06 -2.394632330360825e-05 -3.1616200523419006e-09 -2.40150790888399e-05 3.815618574563128 -4.572255874418619 1.3595978699714886 0.8829172048504951 -0.550962287688257 0.5170106655644243 0.295809494550608 -0.11303468883756389 0.48155257636461907 -1.2101397425155394 1.2098370768821627 -1.2089754610298096 0.0 0.0 0.0 0.0 0.0 0.0
2297.304 0.0 -1.5707963267948966 -1.5707963267948966 -8.881784197001252e-16 1.5707963267948966 0.0 -0.0 -0.0 -0.0 0.0 0.0 -0.0 0.0 0.0 0.0 0.0 0.0 0.0 -1.4033970988372897e-26 0.5551729734477961 0.7573864583558307 0.07057808899065884 -9.380119611155278e-28 0.0 -1.6105384240992177e-25 6.394759450000004 6.394759450000002 0.2913103000000015 -3.894046141930891e-27 0.0 2.3968450477696024e-05 -1.5707600752459925 -1.5707715193377894 -1.6514454976856996e-05 1.570791482925415 -1.1746083394825746e-05 0.0 0.0 2.3968450477696024e-05 -2.3968450477696024e-05 -2.3968450477696024e-05 -2.3968450477696024e-05 0.02467346377670765 0.5652466416358948 0.6862685084342957 -0.004475975409150124 -0.02909383922815323 -0.1879909634590149 0.0269165076315403 0.5719757676124573 0.6847434639930725 -0.004475975409150124 -0.02685585245490074 -0.19806191325187683 0.2957995374945071 -0.1130280381778863 0.48156926973055464 -1.2101245633337994 1.2097847294944575 -1.2089911839781515 -1.008826677508627e-08 -2.000042951633835e-06 5.112237447779311e-06 -2.3946895021097923e-05 -5.73847206888051e-09 -2.4014507423305902e-05 3.2826604800942314 -3.859596926203719 1.516053483090879 0.8725461178022438 -0.5028818442353099 0.4531601225778709 0.295809494550608 -0.11303468883756389 0.48155257636461907 -1.2101397425155394 1.2098370768821627 -1.2089754610298096 0.0 0.0 0.0 0.0 0.0 0.0
2297.312 0.0 -1.5707963267948966 -1.5707963267948966 -8.881784197001252e-16 1.5707963267948966 0.0 -0.0 -0.0 -0.0 0.0 0.0 -0.0 0.0 0.0 0.0 0.0 0.0 0.0 -1.4033970988372897e-26 0.5551729734477961 0.7573864583558307 0.07057808899065884 -9.380119611155278e-28 0.0 -1.6105384240992177e-25 6.394759450000004 6.394759450000002 0.2913103000000015 -3.894046141930891e-27 0.0 -3.5587941304981996e-05 -1.5707724730121058 -1.5707834402667444 -1.6514454976856996e-05 1.5707075595855713 -7.230440248662262e-05 0.0 0.0 2.3968450477696024e-05 -2.3968450477696024e-05 -2.3968450477696024e-05 -2.3968450477696024e-05 0.0314025916159153 0.5540314316749573 0.671018123626709 -0.001118993852287531 -0.025736859068274498 -0.19134794175624847 0.0269165076315403 0.5719757676124573 0.6847434639930725 0.0 -0.02685585245490074 -0.19806191325187683 0.29579790539069556 -0.11305254875770389 0.4815620817178002 -1.2101192437511465 1.2098796455909844 -1.2091298332972988 -1.024908682623567e-08 -2.0000421037630546e-06 5.112237566853515e-06 -2.394747905236363e-05 -2.3023733281596447e-09 -2.40139256124956e-05 3.2798113521815884 -4.19064521683627 2.2641583277827344 0.8880833566437255 -0.4255630890984163 0.46473496835948097 0.295809494550608 -0.11303468883756389 0.48155257636461907 -1.2101397425155394 1.2098370768821627 -1.2089754610298096 0.0 0.0 0.0 0.0 0.0 0.0
2297.3199999999997 0.0 -1.5707963267948966 -1.5707963267948966 -8.881784197001252e-16 1.5707963267948966 0.0 -0.0 -0.0 -0.0 0.0 0.0 -0.0 0.0 0.0 0.0 0.0 0.0 0.0 -1.4033970988372897e-26 0.5551729734477961 0.7573864583558307 0.07057808899065884 -9.380119611155278e-28 0.0 -1.6105384240992177e-25 6.394759450000004 6.394759450000002 0.2913103000000015 -3.894046141930891e-27 0.0 -2.366701234990387e-05 -1.5707243124591272 -1.5707834402667444 -1.6514454976856996e-05 1.5707435607910156 -2.366701234990387e-05 0.0 0.0 2.3968450477696024e-05 -2.3968450477696024e-05 -2.3968450477696024e-05 -2.3968450477696024e-05 0.02243042178452015 0.5899201035499573 0.6847434639930725 0.002237987704575062 -0.03021283447742462 -0.19246694445610046 0.02467346377670765 0.5719757676124573 0.6847434639930725 -0.002237987704575062 -0.02909383922815323 -0.19806191325187683 0.2957833806854442 -0.1130460742424595 0.48157632185175775 -1.2100705846089388 1.209831938542958 -1.2090815902794971 -1.0400298623862167e-08 -2.0000422999462965e-06 5.1122371387132015e-06 -2.3946322594513698e-05 -3.4493842399713305e-09 -2.401507867107109e-05 4.64633281501859 -4.4711041679990515 1.729210594285909 0.893295903257453 -0.570742691348476 0.508615720540459 0.295809494550608 -0.11303468883756389 0.48155257636461907 -1.2101397425155394 1.2098370768821627 -1.2089754610298096 0.0 0.0 0.0 0.0 0.0 0.0
2297.328 0.0 -1.5707963267948966 -1.5707963267948966 -8.881784197001252e-16 1.5707963267948966 0.0 -0.0 -0.0 -0.0 0.0 0.0 -0.0 0.0 0.0 0.0 0.0 0.0 0.0 -1.4033970988372897e-26 0.5551729734477961 0.7573864583558307 0.07057808899065884 -9.380119611155278e-28 0.0 -1.6105384240992177e-25 6.394759450000004 6.394759450000002 0.2913103000000015 -3.894046141930891e-27 0.0 3.5952674807049334e-05 -1.570796314870016 -1.5707834402667444 3.1113624572753906e-05 1.5707075595855713 -2.366701234990387e-05 0.0 0.0 2.3968450477696024e-05 -2.3968450477696024e-05 -2.3968450477696024e-05 -2.3968450477696024e-05 0.02467346377670765 0.5405731797218323 0.6923686861991882 -0.001118993852287531 -0.022379877045750618 -0.19470493495464325 0.02467346377670765 0.5719757676124573 0.6847434639930725 -0.0033569815568625927 -0.027974845841526985 -0.19806191325187683 0.29580978628348 -0.11303138084131575 0.48155895295112583 -1.2100997282013777 1.2098324310286694 -1.2090526391923084 -9.984152745205069e-09 -2.0000426344259333e-06 5.1122377014064846e-06 -2.394691091431184e-05 -4.015518127647128e-09 -2.4014496258483973e-05 1.7416691563370068 -2.8974510416183956 1.3189224699576476 0.9035639666904499 -0.3720013795561207 0.34275691463922725 0.295809494550608 -0.11303468883756389 0.48155257636461907 -1.2101397425155394 1.2098370768821627 -1.2089754610298096 0.0 0.0 0.0 0.0 0.0 0.0
2297.336 0.0 -1.5707963267948966 -1.5707963267948966 -8.881784197001252e-16 1.5707963267948966 0.0 -0.0 -0.0 -0.0 0.0 0.0 -0.0 0.0 0.0 0.0 0.0 0.0 0.0 -1.4033970988372897e-26 0.5551729734477961 0.7573864583558307 0.07057808899065884 -9.380119611155278e-28 0.0 -1.6105384240992177e-25 6.394759450000004 6.394759450000002 0.2913103000000015 -3.894046141930891e-27 0.0 1.1984225238848012e-05 -1.5707362333880823 -1.5707595984088343 -2.8912221090138246e-05 1.5707435607910156 -2.366701234990387e-05 0.0 0.0 2.3968450477696024e-05 -2.3968450477696024e-05 -2.3968450477696024e-05 -2.3968450477696024e-05 0.0269165076315403 0.5697327256202698 0.6893185973167419 -0.002237987704575062 -0.02014188840985298 -0.19358593225479126 0.0269165076315403 0.5719757676124573 0.6847434639930725 -0.0033569815568625927 -0.02685585245490074 -0.19806191325187683 0.295790355637873 -0.11303555136800883 0.48157882385007983 -1.2100877546494004 1.2098060742482002 -1.2090551538806178 -1.0390055188158574e-08 -2.0000428223510173e-06 5.112237001686323e-06 -2.394633305372972e-05 -4.301100428252326e-09 -2.401506698018394e-05 3.401167653394701 -3.8626074749517385 1.4288474907962794 0.8984217645910887 -0.5098157852133023 0.411733676969122 0.295809494550608 -0.11303468883756389 0.48155257636461907 -1.2101397425155394 1.2098370768821627 -1.2089754610298096 0.0 0.0 0.0 0.0 0.0 0.0
2297.344 0.0 -1.5707963267948966 -1.5707963267948966 -8.881784197001252e-16 1.5707963267948966 0.0 -0.0 -0.0 -0.0 0.0 0.0 -0.0 0.0 0.0 0.0 0.0 0.0 0.0 -1.4033970988372897e-26 0.5551729734477961 0.7573864583558307 0.07057808899065884 -9.380119611155278e-28 0.0 -1.6105384240992177e-25 6.394759450000004 6.394759450000002 0.2913103000000015 -3.894046141930891e-27 0.0 0.0 -1.5707839171039026 -1.5707476774798792 -4.0356312887013246e-05 1.570791482925415 -1.1746083394825746e-05 0.0 0.0 2.3968450477696024e-05 -2.3968450477696024e-05 -2.3968450477696024e-05 -2.3968450477696024e-05 0.0314025916159153 0.5831909775733948 0.6923686861991882 -0.0033569815568625927 -0.03580780327320099 -0.19918090105056763 0.0291595496237278 0.5719757676124573 0.6847434639930725 -0.0033569815568625927 -0.027974845841526985 -0.19918090105056763 0.29580467980506314 -0.11303514544737786 0.4815673042939482 -1.210130750056084 1.2098199848238815 -1.2089975566578068 -1.0136270929238217e-08 -2.000042910242594e-06 5.11223745622899e-06 -2.3947466049376306e-05 -5.163022345663696e-09 -2.4013935957845023e-05 3.9936116249575444 -4.787798827868674 1.2671702563193563 0.9245594090544936 -0.5789321133133888 0.560776752153741 0.295809494550608 -0.11303468883756389 0.48155257636461907 -1.2101397425155394 1.2098370768821627 -1.2089754610298096 0.0 0.0 0.0 0.0 0.0 0.0
2297.352 0.0 -1.5707963267948966 -1.5707963267948966 -8.881784197001252e-16 1.5707963267948966 0.0 -0.0 -0.0 -0.0 0.0 0.0 -0.0 0.0 0.0 0.0 0.0 0.0 0.0 -1.4033970988372897e-26 0.5551729734477961 0.7573864583558307 0.07057808899065884 -9.380119611155278e-28 0.0 -1.6105384240992177e-25 6.394759450000004 6.394759450000002 0.2913103000000015 -3.894046141930891e-27 0.0 2.3968450477696024e-05 -1.5707724730121058 -1.5707953611956995 3.1113624572753906e-05 1.5707435607910156 -3.5587941304981996e-05 0.0 0.0 2.3968450477696024e-05 -2.3968450477696024e-05 -2.3968450477696024e-05 -2.3968450477696024e-05 0.0314025916159153 0.5809479355812073 0.6908436417579651 0.0033569815568625927 -0.021260883659124374 -0.19134794175624847 0.0291595496237278 0.5719757676124573 0.6847434639930725 -0.0033569815568625927 -0.02685585245490074 -0.19918090105056763 0.2958015973186148 -0.11303195590578956 0.4815624784735404 -1.2101111133719076 1.2098003075824573 -1.2090493693243778 -9.997765005953721e-09 -2.0000425463236914e-06 5.112237666655735e-06 -2.3946624763133352e-05 -4.5920004521986295e-09 -2.4014781491157588e-05 3.9345307704092343 -4.439389055085639 1.4809429730965036 0.8880995078549351 -0.5251479014387633 0.46439258885463736 0.295809494550608 -0.11303468883756389 0.48155257636461907 -1.2101397425155394 1.2098370768821627 -1.2089754610298096 0.0 0.0 0.0 0.0 0.0 0.0
2297.3599999999997 0.0 -1.5707963267948966 -1.5707963267948966 -8.881784197001252e-16 1.5707963267948966 0.0 -0.0 -0.0 -0.0 0.0 0.0 -0.0 0.0 0.0 0.0 0.0 0.0 0.0 -1.4033970988372897e-26 0.5551729734477961 0.7573864583558307 0.07057808899065884 -9.380119611155278e-28 0.0 -1.6105384240992177e-25 6.394759450000004 6.394759450000002 0.2913103000000015 -3.894046141930891e-27 0.0 1.1984225238848012e-05 -1.5707600752459925 -1.5707476774798792 -4.0356312887013246e-05 1.5707316398620605 0.0 0.0 0.0 2.3968450477696024e-05 -2.3968450477696024e-05 -2.3968450477696024e-05 -2.3968450477696024e-05 0.0291595496237278 0.5473023056983948 0.6755932569503784 -0.0055949692614376545 -0.03245082125067711 -0.19246694445610046 0.0291595496237278 0.5719757676124573 0.6847434639930725 -0.0033569815568625927 -0.02909383922815323 -0.19694292545318604 0.2957981693491611 -0.11303653759028172 0.48157435577959107 -1.2100818729672236 1.2098432664828582 -1.2090354496025044 -1.035271741445582e-08 -2.0000428942302725e-06 5.112237108051321e-06 -2.39468933426346e-05 -4.014976713577961e-09 -2.401450729580544e-05 2.747038554292402 -3.919835853863886 1.964747255211832 0.8933024467050711 -0.4254258396512522 0.47376775444422814 0.295809494550608 -0.11303468883756389 0.48155257636461907 -1.2101397425155394 1.2098370768821627 -1.2089754610298096 0.0 0.0 0.0 0.0 0.0 0.0
2297.368 0.0 -1.5707963267948966 -1.5707963267948966 -8.881784197001252e-16 1.5707963267948966 0.0 -0.0 -0.0 -0.0 0.0 0.0 -0.0 0.0 0.0 0.0 0.0 0.0 0.0 -1.4033970988372897e-26 0.5551729734477961 0.7573864583558307 0.07057808899065884 -9.380119611155278e-28 0.0 -1.6105384240992177e-25 6.394759450000004 6.394759450000002 0.2913103000000015 -3.894046141930891e-27 0.0 3.5952674807049334e-05 -1.5707481543170374 -1.5707715193377894 -2.8912221090138246e-05 1.57077956199646 -5.990663637334137e-05 0.0 0.0 2.3968450477696024e-05 -2.3968450477696024e-05 -2.3968450477696024e-05 -2.3968450477696024e-05 0.02243042178452015 0.5764618515968323 0.6893185973167419 0.0 -0.034688808023929596 -0.19582392275333405 0.0269165076315403 0.5719757676124573 0.6847434639930725 -0.0033569815568625927 -0.03021283447742462 -0.19806191325187683 0.2957980194849325 -0.11302547870520495 0.48157177425021924 -1.2101604225243021 1.2097622453231902 -1.2090263656353468 -1.0148845168138686e-08 -2.000043098181254e-06 5.112237331424096e-06 -2.3946905537768313e-05 -5.739580544332223e-09 -2.401449581389979e-05 3.757590985569173 -4.097694365254241 1.4778219291662775 0.9089282257484159 -0.52586175397843 0.49877345646905014 0.295809494550608 -0.11303468883756389 0.48155257636461907 -1.2101397425155394 1.2098370768821627 -1.2089754610298096 0.0 0.0 0.0 0.0 0.0 0.0
2297.3759999999997 0.0 -1.5707963267948966 -1.5707963267948966 -8.881784197001252e-16 1.5707963267948966 0.0 -0.0 -0.0 -0.0 0.0 0.0 -0.0 0.0 0.0 0.0 0.0 0.0 0.0 -1.4033970988372897e-26 0.5551729734477961 0.7573864583558307 0.07057808899065884 -9.380119611155278e-28 0.0 -1.6105384240992177e-25 6.394759450000004 6.394759450000002 0.2913103000000015 -3.894046141930891e-27 0.0 3.5952674807049334e-05 -1.570796314870016 -1.5707476774798792 7.152557373046875e-06 1.5707316398620605 -4.7985707418263246e-05 0.0 0.0 2.3968450477696024e-05 -2.3968450477696024e-05 -2.3968450477696024e-05 -2.3968450477696024e-05 0.0291595496237278 0.5473023056983948 0.6893185973167419 -0.002237987704575062 -0.027974845841526985 -0.20029990375041962 0.0269165076315403 0.5719757676124573 0.6847434639930725 -0.0033569815568625927 -0.02909383922815323 -0.2014188915491104 0.2958087696364666 -0.11302943712414387 0.48156755112761335 -1.2101202732291896 1.2097945922967572 -1.209058454830751 -1.0119518777196547e-08 -2.000042944288041e-06 5.112237375998872e-06 -2.39466258993057e-05 -4.58924337672228e-09 -2.4014778188214305e-05 2.2149384989463643 -3.540410183988826 1.428503176040899 0.9295974133069751 -0.40858135795385186 0.4217343402599271 0.295809494550608 -0.11303468883756389 0.48155257636461907 -1.2101397425155394 1.2098370768821627 -1.2089754610298096 0.0 0.0 0.0 0.0 0.0 0.0
2297.384 0.0 -1.5707963267948966 -1.5707963267948966 -8.881784197001252e-16 1.5707963267948966 0.0 -0.0 -0.0 -0.0 0.0 0.0 -0.0 0.0 0.0 0.0 0.0 0.0 0.0 -1.4033970988372897e-26 0.5551729734477961 0.7573864583558307 0.07057808899065884 -9.380119611155278e-28 0.0 -1.6105384240992177e-25 6.394759450000004 6.394759450000002 0.2913103000000015 -3.894046141930891e-27 0.0 0.0 -1.5707481543170374 -1.570735279713766 3.1113624572753906e-05 1.5707435607910156 -3.5587941304981996e-05 0.0 0.0 2.3968450477696024e-05 -2.3968450477696024e-05 -2.3968450477696024e-05 -2.3968450477696024e-05 0.0358886756002903 0.5697327256202698 0.6725431680679321 0.0 -0.02909383922815323 -0.18910996615886688 0.0269165076315403 0.5719757676124573 0.6847434639930725 -0.0033569815568625927 -0.025736859068274498 -0.19918090105056763 0.29578572269720904 -0.11303912283300778 0.4815874292944526 -1.210037461888382 1.2097560386737396 -1.209107092966178 -1.0477668441684405e-08 -2.0000425532672313e-06 5.112236702889262e-06 -2.3944597940567936e-05 -4.010949597905125e-09 -2.4016802494871338e-05 4.050281984692247 -4.942730653780142 2.219478126078108 0.8777364870925728 -0.48986221423944004 0.5423681840747131 0.295809494550608 -0.11303468883756389 0.48155257636461907 -1.2101397425155394 1.2098370768821627 -1.2089754610298096 0.0 0.0 0.0 0.0 0.0 0.0
2297.392 0.0 -1.5707963267948966 -1.5707963267948966 -8.881784197001252e-16 1.5707963267948966 0.0 -0.0 -0.0 -0.0 0.0 0.0 -0.0 0.0 0.0 0.0 0.0 0.0 0.0 -1.4033970988372897e-26 0.5551729734477961 0.7573864583558307 0.07057808899065884 -9.380119611155278e-28 0.0 -1.6105384240992177e-25 6.394759450000004 6.394759450000002 0.2913103000000015 -3.894046141930891e-27 0.0 2.3968450477696024e-05 -1.5707243124591272 -1.5707953611956995 7.152557373046875e-06 1.5707675218582153 -4.7985707418263246e-05 0.0 0.0 2.3968450477696024e-05 -2.3968450477696024e-05 -2.3968450477696024e-05 -2.3968450477696024e-05 0.0269165076315403 0.5899201035499573 0.6832184791564941 -0.004475975409150124 -0.03021283447742462 -0.19358593225479126 0.0269165076315403 0.5719757676124573 0.6847434639930725 -0.0033569815568625927 -0.02909383922815323 -0.19918090105056763 0.2957877689281673 -0.11302999863226983 0.4815747460293383 -1.2101137430221498 1.2097590036421624 -1.2090523360879197 -1.019660795130955e-08 -2.0000426983391283e-06 5.112237274864608e-06 -2.394604199041396e-05 -5.165281818462711e-09 -2.4015360302448443e-05 4.704956037501269 -4.772361234748002 1.6500290512353817 0.8985428632595069 -0.6132839640853638 0.5334694069218969 0.295809494550608 -0.11303468883756389 0.48155257636461907 -1.2101397425155394 1.2098370768821627 -1.2089754610298096 0.0 0.0 0.0 0.0 0.0 0.0
2297.4 0.0 -1.5707963267948966 -1.5707963267948966 -8.881784197001252e-16 1.5707963267948966 0.0 -0.0 -0.0 -0.0 0.0 0.0 -0.0 0.0 0.0 0.0 0.0 0.0 0.0 -1.4033970988372897e-26 0.5551729734477961 0.7573864583558307 0.07057808899065884 -9.380119611155278e-28 0.0 -1.6105384240992177e-25 6.394759450000004 6.394759450000002 0.2913103000000015 -3.894046141930891e-27 0.0 3.5952674807049334e-05 -1.5707839171039026 -1.5707834402667444 -4.593526021778871e-06 1.5707435607910156 0.0 0.0 0.0 2.3968450477696024e-05 -2.3968450477696024e-05 -2.3968450477696024e-05 -2.3968450477696024e-05 0.02243042178452015 0.5697327256202698 0.6862685084342957 -0.001118993852287531 -0.03245082125067711 -0.1879909634590149 0.0269165076315403 0.5719757676124573 0.6847434639930725 -0.0033569815568625927 -0.02685585245490074 -0.19582392275333405 0.2958087508022149 -0.11302841836797699 0.48155967832840835 -1.2101164975134149 1.209834261766569 -1.2089976762944945 -9.976221187230147e-09 -2.0000428645757117e-06 5.112237718231805e-06 -2.3947468270761552e-05 -4.878627500673732e-09 -2.401393705358421e-05 3.520260623799559 -3.9230021175940837 1.58909894138172 0.872559544252856 -0.5016004007399983 0.47395596394345335 0.295809494550608 -0.11303468883756389 0.48155257636461907 -1.2101397425155394 1.2098370768821627 -1.2089754610298096 0.0 0.0 0.0 0.0 0.0 0.0
2297.408 0.0 -1.5707963267948966 -1.5707963267948966 -8.881784197001252e-16 1.5707963267948966 0.0 -0.0 -0.0 -0.0 0.0 0.0 -0.0 0.0 0.0 0.0 0.0 0.0 0.0 -1.4033970988372897e-26 0.5551729734477961 0.7573864583558307 0.07057808899065884 -9.380119611155278e-28 0.0 -1.6105384240992177e-25 6.394759450000004 6.394759450000002 0.2913103000000015 -3.894046141930891e-27 0.0 1.1984225238848012e-05 -1.5707600752459925 -1.5707476774798792 -4.0356312887013246e-05 1.5707435607910156 1.1984225238848012e-05 0.0 0.0 2.3968450477696024e-05 -2.3968450477696024e-05 -2.3968450477696024e-05 -2.3968450477696024e-05 0.0269165076315403 0.5674896836280823 0.6893185973167419 -0.004475975409150124 -0.027974845841526985 -0.20029990375041962 0.0269165076315403 0.5719757676124573 0.6847434639930725 -0.0033569815568625927 -0.027974845841526985 -0.20029990375041962 0.2957981704959661 -0.1130355557979664 0.4815743555104885 -1.210078684290355 1.209840155096587 -1.2090178525888484 -1.032911744419548e-08 -2.00004292179096e-06 5.112237129212226e-06 -2.3946893369417452e-05 -4.30070276542416e-09 -2.4014507217491672e-05 3.2824305521264696 -3.9703555852623866 1.3799897891234834 0.9296220524006277 -0.5140801934876487 0.4570570557713986 0.295809494550608 -0.11303468883756389 0.48155257636461907 -1.2101397425155394 1.2098370768821627 -1.2089754610298096 0.0 0.0 0.0 0.0 0.0 0.0
2297.4159999999997 0.0 -1.5707963267948966 -1.5707963267948966 -8.881784197001252e-16 1.5707963267948966 0.0 -0.0 -0.0 -0.0 0.0 0.0 -0.0 0.0 0.0 0.0 0.0 0.0 0.0 -1.4033970988372897e-26 0.5551729734477961 0.7573864583558307 0.07057808899065884 -9.380119611155278e-28 0.0 -1.6105384240992177e-25 6.394759450000004 6.394759450000002 0.2913103000000015 -3.894046141930891e-27 0.0 2.3968450477696024e-05 -1.5707481543170374 -1.5707476774798792 -4.593526021778871e-06 1.5707675218582153 -2.366701234990387e-05 0.0 0.0 2.3968450477696024e-05 -2.3968450477696024e-05 -2.3968450477696024e-05 -2.3968450477696024e-05 0.02018737979233265 0.5585175156593323 0.6862685084342957 -0.004475975409150124 -0.021260883659124374 -0.19022895395755768 0.0269165076315403 0.5719757676124573 0.6847434639930725 -0.0033569815568625927 -0.02685585245490074 -0.19918090105056763 0.29579254485732054 -0.11303004376127042 0.4815808243546034 -1.210086823643407 1.2097617248460288 -1.209040228295676 -1.0318754754479653e-08 -2.000042951803184e-06 5.112236974138904e-06 -2.3945750699665203e-05 -5.161072766392346e-09 -2.4015649684751062e-05 2.9275245265168204 -3.230694614236207 1.5175726376054084 0.8828154708091948 -0.4724318262846881 0.3649655426858512 0.295809494550608 -0.11303468883756389 0.48155257636461907 -1.2101397425155394 1.2098370768821627 -1.2089754610298096 0.0 0.0 0.0 0.0 0.0 0.0
2297.424 0.0 -1.5707963267948966 -1.5707963267948966 -8.881784197001252e-16 1.5707963267948966 0.0 -0.0 -0.0 -0.0 0.0 0.0 -0.0 0.0 0.0 0.0 0.0 0.0 0.0 -1.4033970988372897e-26 0.5551729734477961 0.7573864583558307 0.07057808899065884 -9.380119611155278e-28 0.0 -1.6105384240992177e-25 6.394759450000004 6.394759450000002 0.2913103000000015 -3.894046141930891e-27 0.0 1.1984225238848012e-05 -1.5707481543170374 -1.5707834402667444 4.303455352783203e-05 1.5707435607910156 -3.5587941304981996e-05 0.0 0.0 2.3968450477696024e-05 -2.3968450477696024e-05 -2.3968450477696024e-05 -2.3968450477696024e-05 0.02243042178452015 0.5674896836280823 0.6755932569503784 -0.004475975409150124 -0.02014188840985298 -0.19470493495464325 0.0269165076315403 0.5719757676124573 0.6847434639930725 -0.0033569815568625927 -0.02685585245490074 -0.19582392275333405 0.29579018708257615 -0.11303552379910099 0.48157417470628644 -1.2100699292363628 1.209773746606908 -1.2090810327123778 -1.0207168296723232e-08 -2.0000424257950344e-06 5.112237255263819e-06 -2.394546905115422e-05 -4.3028532050096615e-09 -2.4015935002042766e-05 3.8153680584489886 -3.811551375728315 1.9902316399875708 0.9035943501907671 -0.5093266621815795 0.4075344662229792 0.295809494550608 -0.11303468883756389 0.48155257636461907 -1.2101397425155394 1.2098370768821627 -1.2089754610298096 0.0 0.0 0.0 0.0 0.0 0.0
2297.432 0.0 -1.5707963267948966 -1.5707963267948966 -8.881784197001252e-16 1.5707963267948966 0.0 -0.0 -0.0 -0.0 0.0 0.0 -0.0 0.0 0.0 0.0 0.0 0.0 0.0 -1.4033970988372897e-26 0.5551729734477961 0.7573864583558307 0.07057808899065884 -9.380119611155278e-28 0.0 -1.6105384240992177e-25 6.394759450000004 6.394759450000002 0.2913103000000015 -3.894046141930891e-27 0.0 1.1984225238848012e-05 -1.5707600752459925 -1.5707953611956995 -1.6514454976856996e-05 1.5708035230636597 -2.366701234990387e-05 0.0 0.0 2.3968450477696024e-05 -2.3968450477696024e-05 -2.3968450477696024e-05 -2.3968450477696024e-05 0.0358886756002903 0.5540314316749573 0.6862685084342957 0.0 -0.024617865681648254 -0.19470493495464325 0.0269165076315403 0.5719757676124573 0.6847434639930725 -0.0033569815568625927 -0.031331829726696014 -0.19806191325187683 0.2958002268982868 -0.11303056430586682 0.48156222175011476 -1.2101509894057831 1.2097965294720454 -1.208988584494355 -9.966342991609052e-09 -2.0000427561087777e-06 5.112237748027563e-06 -2.3947467637124038e-05 -5.7426122375322956e-09 -2.4013936402722285e-05 2.687996239335751 -4.123255979959877 1.610730332136943 0.9037073989401622 -0.4236078692577357 0.4540536709723683 0.295809494550608 -0.11303468883756389 0.48155257636461907 -1.2101397425155394 1.2098370768821627 -1.2089754610298096 0.0 0.0 0.0 0.0 0.0 0.0
2297.44 0.0 -1.5707963267948966 -1.5707963267948966 -8.881784197001252e-16 1.5707963267948966 0.0 -0.0 -0.0 -0.0 0.0 0.0 -0.0 0.0 0.0 0.0 0.0 0.0 0.0 -1.4033970988372897e-26 0.5551729734477961 0.7573864583558307 0.07057808899065884 -9.380119611155278e-28 0.0 -1.6105384240992177e-25 6.394759450000004 6.394759450000002 0.2913103000000015 -3.894046141930891e-27 0.0 1.1984225238848012e-05 -1.5707600752459925 -1.5707953611956995 -4.593526021778871e-06 1.57077956199646 0.0 0.0 0.0 2.3968450477696024e-05 -2.3968450477696024e-05 -2.3968450477696024e-05 -2.3968450477696024e-05 0.0314025916159153 0.5787048935890198 0.6801683902740479 -0.001118993852287531 -0.03245082125067711 -0.20029990375041962 0.0269165076315403 0.5719757676124573 0.6847434639930725 -0.0033569815568625927 -0.027974845841526985 -0.19806191325187683 0.29579920717119734 -0.11303253835223577 0.4815632038023214 -1.2101134304663446 1.2098166107902535 -1.2089944526131227 -1.001380241141275e-08 -2.0000426541359186e-06 5.112237681921656e-06 -2.39471821691565e-05 -5.168114731014846e-09 -2.4014222292893942e-05 4.229518969416712 -4.839557877267938 1.8571088843914172 0.9297349696597259 -0.5401174841076803 0.5494060418252933 0.295809494550608 -0.11303468883756389 0.48155257636461907 -1.2101397425155394 1.2098370768821627 -1.2089754610298096 0.0 0.0 0.0 0.0 0.0 0.0
2297.448 0.0 -1.5707963267948966 -1.5707963267948966 -8.881784197001252e-16 1.5707963267948966 0.0 -0.0 -0.0 -0.0 0.0 0.0 -0.0 0.0 0.0 0.0 0.0 0.0 0.0 -1.4033970988372897e-26 0.5551729734477961 0.7573864583558307 0.07057808899065884 -9.380119611155278e-28 0.0 -1.6105384240992177e-25 6.394759450000004 6.394759450000002 0.2913103000000015 -3.894046141930891e-27 0.0 -2.366701234990387e-05 -1.5707600752459925 -1.5707715193377894 -1.6514454976856996e-05 1.570719599723816 1.1984225238848012e-05 0.0 0.0 2.3968450477696024e-05 -2.3968450477696024e-05 -2.3968450477696024e-05 -2.3968450477696024e-05 0.0314025916159153 0.5383301377296448 0.6771183013916016 -0.002237987704575062 -0.022379877045750618 -0.19806191325187683 0.0269165076315403 0.5719757676124573 0.6847434639930725 -0.0033569815568625927 -0.025736859068274498 -0.20029990375041962 0.29579414599631815 -0.11304804880504445 0.4815692713533699 -1.2100505285318834 1.2098840172137169 -1.2090616987408798 -1.0325847556033033e-08 -2.000042300103943e-06 5.112237320189467e-06 -2.394689507538783e-05 -2.8748225460442012e-09 -2.4014507895574916e-05 2.213097651855246 -3.5529695094607288 1.9697201207801334 0.9191729341457032 -0.36391386853257923 0.3967031342370655 0.295809494550608 -0.11303468883756389 0.48155257636461907 -1.2101397425155394 1.2098370768821627 -1.2089754610298096 0.0 0.0 0.0 0.0 0.0 0.0
2297.4559999999997 0.0 -1.5707963267948966 -1.5707963267948966 -8.881784197001252e-16 1.5707963267948966 0.0 -0.0 -0.0 -0.0 0.0 0.0 -0.0 0.0 0.0 0.0 0.0 0.0 0.0 -1.4033970988372897e-26 0.5551729734477961 0.7573864583558307 0.07057808899065884 -9.380119611155278e-28 0.0 -1.6105384240992177e-25 6.394759450000004 6.394759450000002 0.2913103000000015 -3.894046141930891e-27 0.0 1.1984225238848012e-05 -1.5707123915301722 -1.570735279713766 3.1113624572753906e-05 1.5707556009292603 -1.1746083394825746e-05 0.0 0.0 2.3968450477696024e-05 -2.3968450477696024e-05 -2.3968450477696024e-05 -2.3968450477696024e-05 0.0269165076315403 0.5562744736671448 0.6923686861991882 -0.001118993852287531 -0.021260883659124374 -0.19358593225479126 0.0269165076315403 0.5719757676124573 0.6847434639930725 -0.0033569815568625927 -0.02685585245490074 -0.19918090105056763 0.2957752885742851 -0.11303459926605253 0.4815980034767008 -1.2100049030625515 1.209723321109507 -1.2090888127238648 -1.06127788773687e-08 -2.0000427034862947e-06 5.11223635116686e-06 -2.3943738992161702e-05 -4.585451484802388e-09 -2.401765872532589e-05 2.571329749243325 -3.448493906090644 1.318267636675619 0.8983643293705466 -0.4429432581884707 0.38299455169417007 0.295809494550608 -0.11303468883756389 0.48155257636461907 -1.2101397425155394 1.2098370768821627 -1.2089754610298096 0.0 0.0 0.0 0.0 0.0 0.0
2297.464 0.0 -1.5707963267948966 -1.5707963267948966 -8.881784197001252e-16 1.5707963267948966 0.0 -0.0 -0.0 -0.0 0.0 0.0 -0.0 0.0 0.0 0.0 0.0 0.0 0.0 -1.4033970988372897e-26 0.5551729734477961 0.7573864583558307 0.07057808899065884 -9.380119611155278e-28 0.0 -1.6105384240992177e-25 6.394759450000004 6.394759450000002 0.2913103000000015 -3.894046141930891e-27 0.0 -1.1746083394825746e-05 -1.570796314870016 -1.5707476774798792 -4.593526021778871e-06 1.5707435607910156 0.0 0.0 0.0 2.3968450477696024e-05 -2.3968450477696024e-05 -2.3968450477696024e-05 -2.3968450477696024e-05 0.0358886756002903 0.5764618515968323 0.6923686861991882 -0.002237987704575062 -0.022379877045750618 -0.19806191325187683 0.0314025916159153 0.5719757676124573 0.6847434639930725 -0.0033569815568625927 -0.027974845841526985 -0.19918090105056763 0.29580438173340223 -0.11304256430389006 0.48156658376665085 -1.2100766504181235 1.2098523078086711 -1.2090439026478421 -1.019129523146482e-08 -2.000042535868308e-06 5.112237422602777e-06 -2.3946907389645268e-05 -3.732923783507077e-09 -2.401449657458334e-05 3.6372723648302294 -4.5769619442036245 1.2908702823223992 0.919247663566917 -0.5413641564850717 0.4809381512550899 0.295809494550608 -0.11303468883756389 0.48155257636461907 -1.2101397425155394 1.2098370768821627 -1.2089754610298096 0.0 0.0 0.0 0.0 0.0 0.0
2297.4719999999998 0.0 -1.5707963267948966 -1.5707963267948966 -8.881784197001252e-16 1.5707963267948966 0.0 -0.0 -0.0 -0.0 0.0 0.0 -0.0 0.0 0.0 0.0 0.0 0.0 0.0 -1.4033970988372897e-26 0.5551729734477961 0.7573864583558307 0.07057808899065884 -9.380119611155278e-28 0.0 -1.6105384240992177e-25 6.394759450000004 6.394759450000002 0.2913103000000015 -3.894046141930891e-27 0.0 1.1984225238848012e-05 -1.5707600752459925 -1.5707114378558558 3.1113624572753906e-05 1.5707075595855713 1.1984225238848012e-05 0.0 0.0 2.3968450477696024e-05 -2.3968450477696024e-05 -2.3968450477696024e-05 -2.3968450477696024e-05 0.0291595496237278 0.5876770615577698 0.699993908405304 -0.002237987704575062 -0.024617865681648254 -0.2014188915491104 0.0291595496237278 0.5719757676124573 0.6847434639930725 -0.0033569815568625927 -0.02685585245490074 -0.19918090105056763 0.295788960359685 -0.11303856598492115 0.4815909526837388 -1.2099822138977434 1.2097875246139354 -1.2090954347432035 -1.0586056349187606e-08 -2.0000426963550226e-06 5.112236466232487e-06 -2.3944311499058826e-05 -3.4328190110269895e-09 -2.401708816786304e-05 3.9355427785699186 -4.3786767344133 0.9540075737774542 0.9347507770593946 -0.5945795708088762 0.4750993384876807 0.295809494550608 -0.11303468883756389 0.48155257636461907 -1.2101397425155394 1.2098370768821627 -1.2089754610298096 0.0 0.0 0.0 0.0 0.0 0.0
2297.48 0.0 -1.5707963267948966 -1.5707963267948966 -8.881784197001252e-16 1.5707963267948966 0.0 -0.0 -0.0 -0.0 0.0 0.0 -0.0 0.0 0.0 0.0 0.0 0.0 0.0 -1.4033970988372897e-26 0.5551729734477961 0.7573864583558307 0.07057808899065884 -9.380119611155278e-28 0.0 -1.6105384240992177e-25 6.394759450000004 6.394759450000002 0.2913103000000015 -3.894046141930891e-27 0.0 2.3968450477696024e-05 -1.5707362333880823 -1.5707595984088343 -2.8912221090138246e-05 1.570719599723816 0.0 0.0 0.0 2.3968450477696024e-05 -2.3968450477696024e-05 -2.3968450477696024e-05 -2.3968450477696024e-05 0.02243042178452015 0.5809479355812073 0.6877935528755188 -0.002237987704575062 -0.027974845841526985 -0.2025378942489624 0.02243042178452015 0.5719757676124573 0.6847434639930725 -0.0033569815568625927 -0.02685585245490074 -0.19806191325187683 0.29579170796682946 -0.11303397994421935 0.4815788243909436 -1.2100646464592313 1.209826094043547 -1.2090465520368119 -1.0413522163779427e-08 -2.000042891610351e-06 5.1122369580460426e-06 -2.3946332950055995e-05 -4.0137693123883355e-09 -2.4015067137599645e-05 4.053755109431792 -4.108305487602713 1.4969157996266167 0.9399936996471591 -0.5599318515735199 0.4683777219838288 0.295809494550608 -0.11303468883756389 0.48155257636461907 -1.2101397425155394 1.2098370768821627 -1.2089754610298096 0.0 0.0 0.0 0.0 0.0 0.0
2297.488 0.0 -1.5707963267948966 -1.5707963267948966 -8.881784197001252e-16 1.5707963267948966 0.0 -0.0 -0.0 -0.0 0.0 0.0 -0.0 0.0 0.0 0.0 0.0 0.0 0.0 -1.4033970988372897e-26 0.5551729734477961 0.7573864583558307 0.07057808899065884 -9.380119611155278e-28 0.0 -1.6105384240992177e-25 6.394759450000004 6.394759450000002 0.2913103000000015 -3.894046141930891e-27 0.0 3.5952674807049334e-05 -1.5707243124591272 -1.5707595984088343 -4.593526021778871e-06 1.5707435607910156 -5.990663637334137e-05 0.0 0.0 2.3968450477696024e-05 -2.3968450477696024e-05 -2.3968450477696024e-05 -2.3968450477696024e-05 0.0314025916159153 0.5764618515968323 0.6694930791854858 -0.001118993852287531 -0.02909383922815323 -0.19694292545318604 0.0269165076315403 0.5719757676124573 0.6847434639930725 -0.0033569815568625927 -0.02685585245490074 -0.19918090105056763 0.2957870591167886 -0.11302846742759047 0.48158435090108853 -1.2100990874190969 1.2097446065166648 -1.2090813592894163 -1.0403136940551728e-08 -2.0000429711050186e-06 5.112236825628927e-06 -2.3945464314128353e-05 -4.874306034750924e-09 -2.4015935297539185e-05 4.524949669718879 -4.923187332127191 2.3312634892853357 0.9141084170397893 -0.5262923818546792 0.5407088998880545 0.295809494550608 -0.11303468883756389 0.48155257636461907 -1.2101397425155394 1.2098370768821627 -1.2089754610298096 0.0 0.0 0.0 0.0 0.0 0.0
2297.496 0.0 -1.5707963267948966 -1.5707963267948966 -8.881784197001252e-16 1.5707963267948966 0.0 -0.0 -0.0 -0.0 0.0 0.0 -0.0 0.0 0.0 0.0 0.0 0.0 0.0 -1.4033970988372897e-26 0.5551729734477961 0.7573864583558307 0.07057808899065884 -9.380119611155278e-28 0.0 -1.6105384240992177e-25 6.394759450000004 6.394759450000002 0.2913103000000015 -3.894046141930891e-27 0.0 1.1984225238848012e-05 -1.5707362333880823 -1.5707953611956995 7.152557373046875e-06 1.570719599723816 -3.5587941304981996e-05 0.0 0.0 2.3968450477696024e-05 -2.3968450477696024e-05 -2.3968450477696024e-05 -2.3968450477696024e-05 0.0314025916159153 0.5697327256202698 0.6847434639930725 -0.006713963113725185 -0.021260883659124374 -0.2014188915491104 0.0291595496237278 0.5719757676124573 0.6847434639930725 -0.0033569815568625927 -0.02685585245490074 -0.19918090105056763 0.2957903394866624 -0.11303748594505184 0.48157122220743914 -1.2100850488263848 1.209817772131802 -1.2090816588758888 -1.025447699755864e-08 -2.0000424666931804e-06 5.112237308741339e-06 -2.3946328233308887e-05 -3.73003465162194e-09 -2.4015075156760043e-05 3.577735734862031 -4.250944010673603 1.5333287502771005 0.9347798975752654 -0.5370080435874814 0.44891184300377723 0.295809494550608 -0.11303468883756389 0.48155257636461907 -1.2101397425155394 1.2098370768821627 -1.2089754610298096 0.0 0.0 0.0 0.0 0.0 0.0
2297.504 8e-08 -1.5707963267948966 -1.5707963267948966 -8.881784197001252e-16 1.5707963267948966 0.0 4e-05 0.0 0.0 6.785183320455504e-20 0.0 0.0 0.005 0.0 0.0 8.48147915056938e-18 0.0 0.0 0.0013104233753729344 0.5551219325860388 0.7573793957277108 0.07056364167807735 9.330778854813008e-06 0.0 0.004097498353716706 6.394171535874732 6.394699818873233 0.2912506688733658 3.873562908258042e-05 0.0 -4.7985707418263246e-05 -1.5707839171039026 -1.570723835621969 -1.6514454976856996e-05 1.5707675218582153 -1.1746083394825746e-05 0.0 0.0 2.3968450477696024e-05 -2.3968450477696024e-05 -2.3968450477696024e-05 -2.3968450477696024e-05 0.0291595496237278 0.5719757676124573 0.6954187750816345 -0.002237987704575062 -0.015665914863348007 -0.19694292545318604 0.02467346377670765 0.5719757676124573 0.6847434639930725 -0.0033569815568625927 -0.02685585245490074 -0.19918090105056763 0.2957951749334469 -0.11305134134105661 0.4815763155048739 -1.2100615328923028 1.2098379763859117 -1.2090731436858395 -1.0401784048212656e-08 -2.0000423605518613e-06 5.112237081358374e-06 -2.3946322758445446e-05 -3.436727440113214e-09 -2.4015078505139123e-05 3.2853414755656165 -3.7602338659529004 1.1579093357476182 0.9139478070745153 -0.5222284625173154 0.38251124149526256 0.29580950359338215 -0.11303466517281063 0.48155257636461907 -1.2101397803581082 1.2098370179282985 -1.2089754021466748 4.521386606912339e-06 1.1832380143735286e-05 5.586743693677525e-21 -5.538802121442401e-24 -6.785181499223971e-20 4e-05
2297.5119999999997 7.200000000000001e-07 -1.5707963267948966 -1.5707963267948966 -8.881784197001252e-16 1.5707963267948966 0.0 0.00018000000000000004 0.0 0.0 3.053332494204977e-19 0.0 0.0 0.017500000000000005 0.0 0.0 2.968517702699283e-17 0.0 0.0 0.0055401354124279 0.554994330859369 0.7573617392373017 0.07052752356004675 3.2657747507745016e-05 0.0 0.014341244238008475 6.392701755488286 6.394550741730842 0.29110159173130373 0.00013557479110975324 0.0 -2.366701234990387e-05 -1.5707839171039026 -1.5707834402667444 -4.593526021778871e-06 1.5707675218582153 -4.7985707418263246e-05 0.0 0.0 2.3968450477696024e-05 -2.3968450477696024e-05 -2.3968450477696024e-05 -2.3968450477696024e-05 0.0381317175924778 0.5854340195655823 0.6862685084342957 -0.002237987704575062 -0.034688808023929596 -0.2025378942489624 0.0358886756002903 0.5719757676124573 0.6847434639930725 -0.0033569815568625927 -0.03021283447742462 -0.19918090105056763 0.29580201389730193 -0.11304408078976017 0.4815596777873951 -1.2101349906308745 1.2098378375600678 -1.2090592384014662 -1.0048027157542224e-08 -2.0000423224727417e-06 5.112237759629168e-06 -2.3947468582987925e-05 -4.025196289506551e-09 -2.401393689615415e-05 4.356887930718654 -5.028203797412476 1.5615456345583205 0.9401199702539891 -0.5803213927984164 0.5754755653241936 0.2958095759355073 -0.11303447585470981 0.48155257636461907 -1.2101400830985833 1.2098365462973701 -1.2089749310815812 2.034620565384853e-05 5.324572366839132e-05 2.5140346621548863e-20 -2.4729196319308045e-23 -3.053331674809679e-19 0.00018000000000000004
2297.52 2.8800000000000004e-06 -1.5707963267948966 -1.5707963267948966 -8.881784197001252e-16 1.5707963267948966 0.0 0.00048000000000000007 0.0 0.0 8.142219984546604e-19 0.0 0.0 0.037500000000000006 0.0 0.0 6.361109362927034e-17 0.0 0.0 0.014120701598450212 0.5547901704702419 0.7573334892959774 0.07046973547807427 6.998101674962172e-05 0.0 0.030731237652875297 6.390350134209646 6.394312222046139 0.2908630720471273 0.0002905179460165782 0.0 -2.366701234990387e-05 -1.5707600752459925 -1.5707476774798792 -4.593526021778871e-06 1.5707556009292603 -5.990663637334137e-05 0.0 0.0 2.3968450477696024e-05 -2.3968450477696024e-05 -2.3968450477696024e-05 -2.3968450477696024e-05 0.0291595496237278 0.5652466416358948 0.6862685084342957 -0.002237987704575062 -0.02349887043237686 -0.19694292545318604 0.0269165076315403 0.5719757676124573 0.6847434639930725 -0.0033569815568625927 -0.02909383922815323 -0.19918090105056763 0.295791088940496 -0.11304511150864732 0.4815772996629802 -1.2100941380517987 1.2097972275333237 -1.209105089590307 -1.0376655889649183e-08 -2.0000424332479604e-06 5.112237074768494e-06 -2.3946037175091995e-05 -3.735015904596358e-09 -2.401536430598002e-05 3.301992026554989 -3.168951893446684 1.5669493083917203 0.9139422866448074 -0.48953442370068817 0.37056837165227385 0.2958098200892851 -0.11303383690575189 0.48155257636461907 -1.2101411048466788 1.2098349545427753 -1.2089733412366799 5.425624171476101e-05 0.00014198871364285684 6.704092432413028e-20 -6.418580447331207e-23 -8.142217800897884e-19 0.00048000000000000007
2297.528 8e-06 -1.5707963267948966 -1.5707963267948966 -8.881784197001252e-16 1.5707963267948966 0.0 0.001 0.0 0.0 1.6962958301138758e-18 0.0 0.0 0.06499999999999999 0.0 0.0 1.1025922895740192e-16 0.0 0.0 0.028486643124234462 0.5545094578728097 0.7572946471092432 0.07039027989814207 0.00012130091124573224 0.0 0.05326747859831717 6.387116746380956 6.393984269997437 0.29053511999915127 0.0005035664416127517 0.0 2.3968450477696024e-05 -1.5707724730121058 -1.570735279713766 4.303455352783203e-05 1.570719599723816 -2.366701234990387e-05 0.0 0.0 2.3968450477696024e-05 -2.3968450477696024e-05 -2.3968450477696024e-05 -2.3968450477696024e-05 0.0605621412396431 0.6011353135108948 0.6969438195228577 -0.004475975409150124 -0.02685585245490074 -0.1857529729604721 0.0493469275534153 0.5719757676124573 0.6847434639930725 -0.0033569815568625927 -0.02909383922815323 -0.19918090105056763 0.29579542900837064 -0.11303399852337459 0.4815812203798179 -1.21003781754044 1.2097707815438976 -1.209092433137266 -1.0352807474666118e-08 -2.0000426999417472e-06 5.112236882951516e-06 -2.3944896364274275e-05 -4.01107709466659e-09 -2.4016506049766393e-05 4.796745500026891 -5.061403309954358 1.0397864048854464 0.8621513479331622 -0.6705034217862592 0.5422282556227961 0.2958103988186528 -0.113032322357993 0.48155257636461907 -1.210143526761873 1.2098311814935465 -1.2089695727141305 0.00011303232235799641 0.0002958103988186528 1.3966859234193807e-19 -1.2503539366339427e-22 -1.696295375849474e-18 0.001
2297.536 1.8e-05 -1.5707963267948966 -1.5707963267948966 -8.881784197001252e-16 1.5707963267948966 0.0 0.0018 0.0 0.0 3.0533324942049766e-18 0.0 0.0 0.09999999999999999 0.0 0.0 1.696295830113876e-16 0.0 0.0 0.05007796654024108 0.5541522074117605 0.7572452153563981 0.07028916230102351 0.00018661815258154142 0.0 0.0819499670743341 6.383001757231496 6.393566908206571 0.29011775820920843 0.0007747232734753151 0.0 1.1984225238848012e-05 -1.5707600752459925 -1.5707834402667444 7.152557373046875e-06 1.570719599723816 -5.990663637334137e-05 0.0 0.0 2.3968450477696024e-05 -2.3968450477696024e-05 -2.3968450477696024e-05 -2.3968450477696024e-05 0.0650482252240181 0.5719757676124573 0.6832184791564941 0.0 -0.038045790046453476 -0.19246694445610046 0.0672912672162056 0.5719757676124573 0.6847434639930725 -0.0033569815568625927 -0.02909383922815323 -0.19918090105056763 0.2957971774042071 -0.11303749099276286 0.4815676960956579 -1.2101117328230522 1.2098150563077903 -1.2090939205147178 -1.0193561785016966e-08 -2.000042518960135e-06 5.112237410118123e-06 -2.3946614515203854e-05 -3.72945640518473e-09 -2.4014789691078727e-05 3.806449523956081 -3.751254018964876 1.75024988598586 0.8932950815888152 -0.5063097805967659 0.486716084977764 0.29581152912708586 -0.11302936424836185 0.48155257636461907 -1.2101482570397673 1.2098238122514957 -1.208962212313248 0.00020345285564705133 0.0005324607524287543 2.514034662154884e-19 -1.945303918180747e-22 -3.053331678627024e-18 0.0018
2297.544 3.5279999999999994e-05 -1.5707963267948966 -1.5707963267948966 -8.881784197001252e-16 1.5707963267948966 0.0 0.0029399999999999995 0.0 0.0 4.9871097405347936e-18 0.0 0.0 0.14249999999999993 0.0 0.0 2.417221557912271e-16 0.0 0.0 0.08034349225153921 0.5537184461102654 0.7571851990848253 0.07016639301164679 0.0002659341001123103 0.0 0.11677870308092607 6.3780054780276405 6.39306017928957 0.2896110292933284 0.0011039940848074788 0.0 -2.366701234990387e-05 -1.570796314870016 -1.5707476774798792 7.152557373046875e-06 1.570719599723816 -3.5587941304981996e-05 0.0 0.0 2.3968450477696024e-05 -2.3968450477696024e-05 -2.3968450477696024e-05 -2.3968450477696024e-05 0.1188812404870987 0.5562744736671448 0.6832184791564941 0.0 -0.022379877045750618 -0.19694292545318604 0.1188812404870987 0.5719757676124573 0.6847434639930725 -0.0033569815568625927 -0.025736859068274498 -0.19694292545318604 0.29580202912556397 -0.11304806455974237 0.4815675513993966 -1.210077239599059 1.20985326340802 -1.2091020762038827 -1.026259666316963e-08 -2.000042308439505e-06 5.112237354360927e-06 -2.3946626089561266e-05 -2.872969714082636e-09 -2.401477826731171e-05 2.9934503711752645 -4.401823239387031 1.7453408547993976 0.9140343086780314 -0.43674749416860603 0.46779812752877536 0.2958134822303355 -0.1130242526082545 0.48155257636461907 -1.2101564308813442 1.209811078184781 -1.2089494935240668 0.0003322913026682846 0.0008696916377571864 4.1062566148529807e-19 -2.3155573996213783e-22 -4.9871084131699915e-18 0.0029399999999999995
2297.5519999999997 6.272e-05 -1.5707963267948966 -1.5707963267948966 -8.881784197001252e-16 1.5707963267948966 0.0 0.00448 0.0 0.0 7.599405318910162e-18 0.0 0.0 0.1925 0.0 0.0 3.265369472969211e-16 0.0 0.0 0.12074498185153593 0.553208219607032 0.7571146068189154 0.07002198946750574 0.0003592510496166274 0.0 0.1577536866180932 6.372128434458806 6.392464155219502 0.2890150052245786 0.0014913884062635685 0.0 3.5952674807049334e-05 -1.5707123915301722 -1.5707715193377894 1.9073486328125e-05 1.5707556009292603 -1.1746083394825746e-05 0.008571118116378784 0.0 2.3968450477696024e-05 -2.3968450477696024e-05 -2.3968450477696024e-05 -2.3968450477696024e-05 0.1929016262292862 0.5831909775733948 0.6847434639930725 -0.002237987704575062 -0.02909383922815323 -0.20701386034488678 0.1906585842370987 0.5697327256202698 0.6847434639930725 -0.0033569815568625927 -0.02685585245490074 -0.20029990375041962 0.29578213171513096 -0.11302746789368971 0.4815863001324783 -1.2100518853015814 1.2097410873677885 -1.209048244989753 0.0009687613984209544 0.0025331835447955278 5.11223681844888e-06 -2.3944897574481564e-05 -5.163426890208905e-09 0.00854710161393466 4.376765939662318 -7.309839383225775 1.6201374049269068 0.9609950776563869 -0.5748184741515275 0.7389834236495975 0.2958165835044598 -0.11301613544376032 0.48155257636461907 -1.2101694104343628 1.2097908569156512 -1.2089292965150757 0.0005063122867880799 0.0013252582940999796 6.257152936918825e-19 -1.4431921529104832e-22 -7.599403303080155e-18 0.00448
2297.56 0.00010368 -1.5707963267948966 -1.5707963267948966 -8.881784197001252e-16 1.5707963267948966 0.0 0.006479999999999999 0.0 0.0 1.0991996979137914e-17 0.0 0.0 0.2499999999999999 0.0 0.0 4.240739575284689e-16 0.0 0.0 0.17276206429449154 0.5526215992424655 0.757033451883618 0.06985597892611803 0.00046657258975384586 0.0 0.2048749176858352 6.365371448259391 6.391778948501475 0.288329798508069 0.0019369211357400803 0.0 0.00010823253251146525 -1.5707243124591272 -1.5707715193377894 -4.593526021778871e-06 1.5707435607910156 -1.1746083394825746e-05 0.008858739398419857 0.0 2.3968450477696024e-05 -2.3968450477696024e-05 -2.3968450477696024e-05 -2.3968450477696024e-05 0.0650482252240181 0.5630035996437073 0.6847434639930725 -0.001118993852287531 -0.02349887043237686 -0.19470493495464325 0.0628051832318306 0.5697327256202698 0.6847434639930725 -0.0033569815568625927 -0.027974845841526985 -0.20029990375041962 0.29579624966516377 -0.11300707399664374 0.48158082711382166 -1.2101065994293227 1.2097228728701217 -1.2089870417809996 0.0010010900211686261 0.002618381847152111 5.112236969756988e-06 -2.394575018754196e-05 -6.606379211838997e-09 0.008834723748574283 3.3629862035102236 4.190713128809472 1.688406731665072 0.9030596874476182 -0.47658928154298696 -0.2336813007595041 0.2958212123972173 -0.11300401870168741 0.48155257636461907 -1.210188784693448 1.209760672299539 -1.2088991481123088 0.0007322660411869424 0.0019169214563339678 9.050524783757585e-19 2.414846404822922e-22 -1.0991994062713338e-17 0.006479999999999999
2297.5679999999998 0.00016199999999999998 -1.5707963267948966 -1.5707963267948966 -8.881784197001252e-16 1.5707963267948966 0.0 0.008999999999999998 0.0 0.0 1.5266662471024877e-17 0.0 0.0 0.31499999999999984 0.0 0.0 5.343331864858704e-16 0.0 0.0 0.23789796090682144 0.5519586902939368 0.7569417539426234 0.06966840161153058 0.0005879040163254342 0.0 0.25814239628415236 6.357735732066712 6.39100472515981 0.2875555751681186 0.0024406142581328704 0.0 0.00018013788212556392 -1.5707009474383753 -1.5707953611956995 7.152557373046875e-06 1.5707675218582153 -2.366701234990387e-05 0.010967962443828583 0.0 2.3968450477696024e-05 -2.3968450477696024e-05 -2.3968450477696024e-05 -2.3968450477696024e-05 0.2579498589038849 0.5809479355812073 0.6969438195228577 0.0033569815568625927 -0.02685585245490074 -0.2036568820476532 0.2489776909351349 0.5697327256202698 0.6847434639930725 -0.0033569815568625927 -0.027974845841526985 -0.19918090105056763 0.2957977147352632 -0.11298381391349657 0.4815816547048036 -1.2101524666187002 1.2096382497698734 -1.2089305604610063 0.0012391922239969062 0.0032422981819020384 5.112237035251593e-06 -2.3945479766501394e-05 -8.904148371543595e-09 0.010943946524033342 3.8526186420889257 -3.846288383497275 1.2128210481136261 0.9452582923016197 -0.5358638391884186 0.4444314010138353 0.2958278022885074 -0.11298676621641274 0.48155257636461907 -1.2102163693427324 1.209717694392148 -1.2088562217664138 0.0010168808959477558 0.002662450220596566 1.2570173310774429e-18 1.225746852007873e-21 -1.526665837491228e-17 0.008999999999999998
2297.576 0.00024199999999999997 -1.5707963267948966 -1.5707963267948966 -8.881784197001252e-16 1.5707963267948966 0.0 0.012099999999999998 0.0 0.0 2.0525179544377893e-17 0.0 0.0 0.3875 0.0 0.0 6.573146341691271e-16 0.0 0.0 0.26802993478576975 0.5512196413601589 0.7568395407511758 0.06945931429987215 0.0007232528043402321 0.0 0.31755612241304476 6.349222997514922 6.3901417195373655 0.28669256954758565 0.0030024988050604473 0.0 0.0002879959065467119 -1.5707481543170374 -1.5707953611956995 -4.593526021778871e-06 1.57077956199646 -3.5587941304981996e-05 0.015915051102638245 0.0 2.3968450477696024e-05 -2.3968450477696024e-05 -2.3968450477696024e-05 -2.3968450477696024e-05 0.1076660305261612 0.5428162217140198 0.699993908405304 0.0 -0.0335698164999485 -0.20029990375041962 0.1031799390912056 0.5697327256202698 0.6847434639930725 -0.0033569815568625927 -0.02685585245490074 -0.19918090105056763 0.29582646455839046 -0.1129508953674793 0.4815667288117321 -1.2102614070605435 1.2095876035353643 -1.208823137676188 0.0017976097491235487 0.00470609325560179 5.1122375624839426e-06 -2.394689355737671e-05 -1.1777391112723428e-08 0.015891036594874616 1.7766721865202713 7.97830441530143 1.0487571095444594 0.9288328413864005 -0.38681341417328496 -0.4974631978274583 0.29583684028314605 -0.11296309963071055 0.48155257636461907 -1.2102542065222295 1.2096587394005884 -1.2087973375037724 0.0013668535055316618 0.0035796257674260675 1.68998996733745e-18 3.2899624614428992e-21 -2.052517383986563e-17 0.012099999999999998
2297.584 0.00034847999999999997 -1.5707963267948966 -1.5707963267948966 -8.881784197001252e-16 1.5707963267948966 0.0 0.01584 0.0 0.0 2.686932594900379e-17 0.0 0.0 0.46750000000000025 0.0 0.0 7.93018300578237e-16 0.0 0.0 0.2753639673080757 0.5504046548946679 0.7567268501235138 0.06922879434395336 0.0008726291378836163 0.0 0.3831160960725122 6.3398355765649175 6.389190250907029 0.28574110091936056 0.003622617054553383 0.0 0.000335932825691998 -1.5707362333880823 -1.570735279713766 -1.6514454976856996e-05 1.57077956199646 -8.422533144170075e-05 0.021993450820446014 0.0 2.3968450477696024e-05 -2.3968450477696024e-05 -2.3968450477696024e-05 -2.3968450477696024e-05 0.2063598781824112 0.5652466416358948 0.6832184791564941 -0.001118993852287531 -0.0335698164999485 -0.20029990375041962 0.2153320610523224 0.5674896836280823 0.6847434639930725 -0.0033569815568625927 -0.027974845841526985 -0.19918090105056763 0.2958238178205258 -0.11293678896568311 0.48158703229684596 -1.2102755058985495 1.209485218762578 -1.2088522049707044 0.0024838599185419905 0.006504186542518515 5.112236748498735e-06 -2.3945449283491438e-05 -1.2918300200438536e-08 0.021969434874229036 3.640223029890832 1.4825049845110376 1.7463987642262344 0.9293946257742797 -0.49242940793027695 0.03820227354071993 0.2958488669168744 -0.1129315982836304 0.48155257636461907 -1.2103045644964308 1.2095802696140747 -1.2087189618571637 0.001788836516812638 0.00468624605196329 2.2123505026962986e-18 7.167904951589815e-21 -2.686931787036216e-17 0.01584
2297.592 0.00048671999999999995 -1.5707963267948966 -1.5707963267948966 -8.881784197001252e-16 1.5707963267948966 0.0 0.02028 0.0 0.0 3.44008794347094e-17 0.0 0.0 0.5549999999999999 0.0 0.0 9.414441857132009e-16 0.0 0.0 0.2835378335009092 0.5495139988884148 0.756603732114945 0.06897694413691374 0.0010360464977905758 0.0 0.45482231726255434 6.32957655607025 6.38815074189538 0.2847015919100208 0.0043010249707098516 0.0 0.0005759918130934238 -1.5707839171039026 -1.5707476774798792 -1.6514454976856996e-05 1.5707435607910156 -3.5587941304981996e-05 0.01854199357330799 0.0 2.3968450477696024e-05 -2.3968450477696024e-05 -2.3968450477696024e-05 -2.3968450477696024e-05 0.2243042290210724 0.5674896836280823 0.6877935528755188 -0.002237987704575062 -0.022379877045750618 -0.19582392275333405 0.2243042290210724 0.5674896836280823 0.6847434639930725 -0.004475975409150124 -0.025736859068274498 -0.19806191325187683 0.29586770071660956 -0.11286869487446312 0.48156926838599395 -1.21038047409753 1.2094019973014174 -1.2086377122223646 0.0020928015358099516 0.005483976956972608 5.11223732231545e-06 -2.3946888784069485e-05 -1.780724830738858e-08 0.018517979065573252 3.622382475840134 1.144327723585917 1.5168363951576962 0.9087201312678544 -0.5135590685799998 0.014737348024744993 0.29586447575409147 -0.11289069905732038 0.48155257636461907 -1.210369937200933 1.209478393309141 -1.208617207770947 0.002289423376882402 0.006000131568292975 2.8324790526945045e-18 1.393266647083211e-20 -3.440086749425364e-17 0.02028
2297.6 0.00066248 -1.5707963267948966 -1.5707963267948966 -8.881784197001252e-16 1.5707963267948966 0.0 0.025480000000000003 0.0 0.0 4.322161775130156e-17 0.0 0.0 0.6500000000000004 0.0 0.0 1.1025922895740203e-15 0.0 0.0 0.2925779938994764 0.5485480197014604 0.7564702514185456 0.06870389601491635 0.0012135223071227013 0.0 0.5326747859831721 6.318449925579004 6.387023738718501 0.28357458873565 0.005037794883317297 0.0 0.0007201770204119384 -1.5707724730121058 -1.5707595984088343 -1.6514454976856996e-05 1.5707675218582153 -1.1746083394825746e-05 0.022837139666080475 0.0 2.3968450477696024e-05 -2.3968450477696024e-05 -2.3968450477696024e-05 -2.3968450477696024e-05 0.1345825344324112 0.5383301377296448 0.6832184791564941 -0.0055949692614376545 -0.02685585245490074 -0.19022895395755768 0.1345825344324112 0.5652466416358948 0.6847434639930725 -0.004475975409150124 -0.02685585245490074 -0.19582392275333405 0.29588122147460066 -0.11282405301005079 0.48156912807338037 -1.2104427911914963 1.2092896982952595 -1.2084961481075607 0.0025765699154127806 0.006755080729865603 5.112237389879161e-06 -2.39468970528426e-05 -2.183529101597048e-08 0.02281312516992021 2.313464789782268 7.68633663754503 1.6714801833576207 0.8822804999200956 -0.40364384668244935 -0.5023248915767957 0.29588431285339545 -0.11283869617365057 0.48155257636461907 -1.210453043640242 1.209348864623786 -1.2084878344751493 0.0028751299785043094 0.007539132291504517 3.558755732872583e-18 2.510177364280173e-20 -4.3221599004894454e-17 0.025480000000000003
2297.6079999999997 0.0008820000000000001 -1.5707963267948966 -1.5707963267948966 -8.881784197001252e-16 1.5707963267948966 0.0 0.03150000000000001 0.0 0.0 5.34333186485871e-17 0.0 0.0 0.7525000000000005 0.0 0.0 1.2764626121606925e-15 0.0 0.0 0.30251103944093505 0.5475071560437818 0.7563264899764952 0.06840981759888935 0.0014050786344490692 0.0 0.6166735022343647 6.306460738371698 6.385809933229963 0.2823607832498188 0.005833018407440166 0.0 0.0008999404381029308 -1.5707481543170374 -1.5707715193377894 -4.593526021778871e-06 1.57077956199646 1.1984225238848012e-05 0.03087136335670948 0.0 2.3968450477696024e-05 -2.3968450477696024e-05 -2.3968450477696024e-05 -2.3968450477696024e-05 0.2422485649585724 0.5585175156593323 0.681693434715271 -0.002237987704575062 -0.03245082125067711 -0.19470493495464325 0.2467346489429474 0.5652466416358948 0.6847434639930725 -0.004475975409150124 -0.02909383922815323 -0.19918090105056763 0.2958934858845195 -0.11276987383863893 0.48157377647165195 -1.2104980861211763 1.2091416816474014 -1.2083489951264188 0.0034813513300861326 0.009132635266604426 5.1122372810196545e-06 -2.3946309316077865e-05 -2.6428508340368957e-08 0.03084734827801801 3.4796418743030055 1.0550793673434804 1.7877511466962084 0.9037352328805967 -0.47622605050507627 0.07080915658480838 0.2959090760745915 -0.112773740931008 0.48155257636461907 -1.2105568271072118 1.2091870833944096 -1.2083262473223384 0.003552372839326655 0.009321135896349636 4.3995606587710516e-18 4.2762088650830125e-20 -5.3433287373399337e-17 0.03150000000000001
2297.616 0.001152 -1.5707963267948966 -1.5707963267948966 -8.881784197001252e-16 1.5707963267948966 0.0 0.03840000000000001 0.0 0.0 6.513775987637284e-17 0.0 0.0 0.8625000000000004 0.0 0.0 1.463055153473218e-15 0.0 0.0 0.31336371282846404 0.5463919541051819 0.7561725498060381 0.06809491757531518 0.0016107429549310525 0.0 0.7068184660161321 6.293615285735142 6.384510186780966 0.2810610368037292 0.0066868096029738325 0.0 0.0011759521439671516 -1.5707481543170374 -1.5707715193377894 1.9073486328125e-05 1.5707556009292603 -3.5587941304981996e-05 0.033306557685136795 0.0 2.3968450477696024e-05 -2.3968450477696024e-05 -2.3968450477696024e-05 -2.3968450477696024e-05 0.2041168361902237 0.6168366074562073 0.6877935528755188 -0.0055949692614376545 -0.02909383922815323 -0.20029990375041962 0.2018737941980362 0.5652466416358948 0.6832184791564941 -0.004475975409150124 -0.02909383922815323 -0.19918090105056763 0.2959225802346632 -0.11269017651148185 0.4815757255307171 -1.210634801082654 1.208915991587962 -1.208209678554521 0.0037533139482060283 0.009854162435748567 5.112237187186252e-06 -2.39457350079085e-05 -3.246262678709952e-08 0.033282542039043655 6.384465646905084 2.5426134837261856 1.4542651689366213 0.9299989624665065 -0.7656064694162439 -0.0662005066297857 0.29593951419838715 -0.11269384137083419 0.48155257636461907 -1.2106844541919286 1.2089880949488774 -1.208127497580602 0.0043274435086396905 0.01136407734521807 5.363273945930422e-18 6.971620511412652e-20 -6.513770530132385e-17 0.03840000000000001
2297.624 0.0014796800000000001 -1.5707963267948966 -1.5707963267948966 -8.881784197001252e-16 1.5707963267948966 0.0 0.04624000000000002 0.0 0.0 7.843671918446565e-17 0.0 0.0 0.9800000000000009 0.0 0.0 1.6623699135116004e-15 0.0 0.0 0.32516293151792003 0.5452030838343095 0.7560085560400756 0.06775945191606651 0.0018305489692110309 0.0 0.803109677328475 6.279921284472308 6.383125555892653 0.27967640591852116 0.007599308374164595 0.0 0.0014879164518788457 -1.5707600752459925 -1.5707595984088343 1.9073486328125e-05 1.57077956199646 -1.1746083394825746e-05 0.04212694987654686 0.0 2.3968450477696024e-05 -2.3968450477696024e-05 -2.3968450477696024e-05 -2.3968450477696024e-05 0.2063598781824112 0.5854340195655823 0.6740682125091553 -0.002237987704575062 -0.03580780327320099 -0.19582392275333405 0.2108459621667862 0.5630035996437073 0.6832184791564941 -0.0055949692614376545 -0.02909383922815323 -0.19694292545318604 0.29596062870773693 -0.11259588536956247 0.4815757238286948 -1.2107759764727544 1.2086797436087688 -1.2079448437324034 0.00474331397427252 0.012465918515422681 5.112237211761663e-06 -2.394572290773925e-05 -4.0506223975184434e-08 0.04210293423061284 5.312051171914259 3.534296713341749 2.1391501535083557 0.9092113803704662 -0.600538360873635 -0.11548537691650568 0.29597642582753514 -0.11259686186235379 0.48155257636461907 -1.2108393135452102 1.2087465898485352 -1.207886282175451 0.005206478892515449 0.013685949930265232 6.458275709891221e-18 1.0965204796601258e-19 -7.843662174726242e-17 0.04624000000000002
2297.632 0.0018727200000000002 -1.5707963267948966 -1.5707963267948966 -8.881784197001252e-16 1.5707963267948966 0.0 0.05508000000000002 0.0 0.0 9.343197432267232e-17 0.0 0.0 1.105 0.0 0.0 1.8744068922758335e-15 0.0 0.0 0.3379358123270817 0.5439413563667839 0.7558346601823891 0.06740373053729004 0.0020645374801050043 0.0 0.905547136171392 6.265388077648178 6.38165731974057 0.2782081697697427 0.008570684109095774 0.0 0.001824223785661161 -1.5707600752459925 -1.5707715193377894 1.9073486328125e-05 1.570719599723816 -3.5587941304981996e-05 0.04803277552127838 0.0 2.3968450477696024e-05 -2.3968450477696024e-05 -2.3968450477696024e-05 -2.3968450477696024e-05 0.2601929008960724 0.5338440537452698 0.6862685084342957 0.0 -0.03245082125067711 -0.20029990375041962 0.2489776909351349 0.5630035996437073 0.6832184791564941 -0.0055949692614376545 -0.02909383922815323 -0.19806191325187683 0.29599950354412724 -0.11250126824963048 0.4815722013824073 -1.2109328883392987 1.2084734980744587 -1.2077533039074722 0.00540374153365108 0.01421567765032513 5.112237242214852e-06 -2.3945996700280366e-05 -4.7123933556041595e-08 0.048008760160405874 2.1655686001106855 2.7886107613771838 1.637987133334049 0.9297771746450766 -0.3608408335756317 -0.06873627145327438 0.296020658035698 -0.11248052259393826 0.48155257636461907 -1.2110250143592367 1.2084569035714738 -1.2075969433729588 0.006195427184474011 0.01630481784460625 7.69294606619395e-18 1.6733738602434988e-19 -9.34317997041767e-17 0.05508000000000002
2297.64 0.00233928 -1.5707963267948966 -1.5707963267948966 -8.881784197001252e-16 1.5707963267948966 0.0 0.06498000000000002 0.0 0.0 1.1022530304079969e-16 0.0 0.0 1.2375000000000007 0.0 0.0 2.0991660897659214e-15 0.0 0.0 0.3516572388262311 0.5426077426024288 0.7556510435774922 0.0670281243973372 0.002312757327099138 0.0 1.0141308425448854 6.250026848571595 6.380107009451302 0.2766578594839827 0.009601139559140015 0.0 0.002279998967424035 -1.5707600752459925 -1.5707953611956995 7.152557373046875e-06 1.5707675218582153 -1.1746083394825746e-05 0.058751463890075684 0.0 2.3968450477696024e-05 -2.3968450477696024e-05 -2.3968450477696024e-05 -2.3968450477696024e-05 0.2444916069507599 0.5495453476905823 0.6862685084342957 0.001118993852287531 -0.024617865681648254 -0.19246694445610046 0.2377624809741974 0.5607605576515198 0.6832184791564941 -0.0055949692614376545 -0.02909383922815323 -0.19806191325187683 0.2960538041501411 -0.11236236576986837 0.48156417117753914 -1.2111796876705847 1.2081397808880923 -1.2073479711068253 0.006601447973619327 0.017391594323846273 5.1122376362115334e-06 -2.3946828234120387e-05 -5.919121117752529e-08 0.05872744938616514 3.0589473989404725 4.255629940320943 1.6690869611181445 0.8936155434509757 -0.42762295476051965 -0.22470264069458395 0.2960731047277891 -0.11234239895845699 0.48155257636461907 -1.2112453845252427 1.2081130161288782 -1.2072534683959473 0.007300009084319976 0.019238830345211747 9.075665130379147e-18 2.4884096509377825e-19 -1.1022499293418096e-16 0.06498000000000002
2297.6479999999997 0.002888000000000001 -1.5707963267948966 -1.5707963267948966 -8.881784197001252e-16 1.5707963267948966 0.0 0.07600000000000001 0.0 0.0 1.2891848308865457e-16 0.0 0.0 1.3774999999999984 0.0 0.0 2.3366475059818607e-15 0.0 0.0 0.3664476058363297 0.5412033929316127 0.7554579210951142 0.06663307303374205 0.0025752663786501777 0.0 1.1288607964489512 6.233850848013094 6.378476439211275 0.2750272892476655 0.010690914958377557 0.0 0.0027481326833367348 -1.5707481543170374 -1.570723835621969 7.152557373046875e-06 1.5707556009292603 -1.1746083394825746e-05 0.06674733757972717 0.0 2.3968450477696024e-05 -2.3968450477696024e-05 -2.3968450477696024e-05 -2.3968450477696024e-05 0.2758941948413849 0.5630035996437073 0.6755932569503784 -0.004475975409150124 -0.019022895023226738 -0.19806191325187683 0.3050537407398224 0.5585175156593323 0.6832184791564941 -0.006713963113725185 -0.027974845841526985 -0.19918090105056763 0.29609631496115135 -0.1122248558268448 0.481588839205745 -1.2113333965257445 1.2077423981867035 -1.207051663022544 0.007490705320754811 0.019761640626760623 5.112236638537156e-06 -2.3944794695506114e-05 -7.010234213771701e-08 0.06672332107754853 4.250793943429934 2.745244228812224 2.017234348893606 0.9201311368363565 -0.5241196173775957 -0.1247480165541485 0.2961347046729891 -0.11217992081978218 0.48155257636461907 -1.2115044684255887 1.2077085516058201 -1.2068494889645875 0.008525673982304235 0.022506237555147173 1.0614813017987301e-17 3.6178196809269004e-19 -1.2891794128204884e-16 0.07600000000000001
2297.656 0.0035280000000000016 -1.5707963267948966 -1.5707963267948966 -8.881784197001252e-16 1.5707963267948966 0.0 0.08400000000000002 0.0 0.0 1.424888497295656e-16 0.0 0.0 1.0000000000000009 0.0 0.0 1.696295830113878e-15 0.0 0.0 0.3429732841100261 0.5450774084946496 0.7559949655237437 0.06773165115497487 0.001871820297143792 0.0 0.8194996707433418 6.278473693173093 6.383010808550942 0.27956165857738946 0.0077706414295744715 0.0 0.0033597026485949755 -1.5707243124591272 -1.570735279713766 -4.0356312887013246e-05 1.5707435607910156 -3.5587941304981996e-05 0.07963278144598007 0.0 2.3968450477696024e-05 -2.3968450477696024e-05 -2.3968450477696024e-05 -2.3968450477696024e-05 0.3274841606616974 0.5854340195655823 0.6832184791564941 -0.004475975409150124 -0.025736859068274498 -0.19134794175624847 0.3633728325366974 0.5607605576515198 0.6832184791564941 -0.006713963113725185 -0.02909383922815323 -0.19806191325187683 0.2961620716029725 -0.11204474523008477 0.48158859511212293 -1.2116598199970519 1.2073149423802543 -1.206611186647614 0.008922430829202901 0.023582209453380437 5.112236606021371e-06 -2.3945588220734073e-05 -8.446175245590754e-08 0.07960876578549744 4.96137165777226 -2.2742453423471614 1.6604663483583944 0.8900046292892408 -0.6175098790634058 0.3169485986057446 0.29620643916902706 -0.11199037164728878 0.48155257636461907 -1.2118065243149807 1.2072367776174244 -1.2063782807523373 0.009407191218373214 0.024881340890198278 1.1732161756722803e-17 4.9105667297593e-19 -1.424879657959707e-16 0.08400000000000002
2297.6639999999998 0.004232000000000002 -1.5707963267948966 -1.5707963267948966 -8.881784197001252e-16 1.5707963267948966 0.0 0.09200000000000003 0.0 0.0 1.5605921637047662e-16 0.0 0.0 1.0000000000000009 0.0 0.0 1.696295830113878e-15 0.0 0.0 0.34645907106320273 0.5450998799243082 0.7559991627337828 0.0677402369681508 0.0018729506846986575 0.0 0.819499670743342 6.278732530317618 6.383046246402075 0.27959709642853836 0.007775334100328559 0.0 0.003984005656093359 -1.5707724730121058 -1.5707715193377894 7.152557373046875e-06 1.5707435607910156 -4.7985707418263246e-05 0.08739855885505676 0.0 2.3968450477696024e-05 -2.3968450477696024e-05 -2.3968450477696024e-05 -2.3968450477696024e-05 0.3813171684741974 0.5428162217140198 0.671018123626709 -0.006713963113725185 -0.025736859068274498 -0.19358593225479126 0.3768310844898224 0.5585175156593323 0.6832184791564941 -0.006713963113725185 -0.02685585245490074 -0.19806191325187683 0.2962468900684247 -0.11185971323816198 0.4815675533570687 -1.2119907852618743 1.2068758200847127 -1.206143131123677 0.009776375531482981 0.025889551190132924 5.11223743782537e-06 -2.394642003229923e-05 -9.941908277246482e-08 0.08737454407694345 3.1826322522322004 -4.3665314025554 2.141937813604698 0.9002417196688183 -0.43500065232734075 0.48904284571950934 0.296285206981832 -0.11178181457922887 0.48155257636461907 -1.212138628087874 1.2067177933209579 -1.205859918796018 0.010283926941289089 0.027258239042328554 1.2849510495458312e-17 6.476888395818154e-19 -1.5605783095220184e-16 0.09200000000000003
2297.672 0.005000000000000004 -1.5707963267948966 -1.5707963267948966 -8.881784197001252e-16 1.5707963267948966 0.0 0.10000000000000003 0.0 0.0 1.6962958301138762e-16 0.0 0.0 1.0000000000000009 0.0 0.0 1.6962958301138748e-15 0.0 0.0 0.34994773923628403 0.5451243942112087 0.756003741508371 0.06774960330979722 0.001874183834758511 0.0 0.8194996707433418 6.279014898111647 6.38308490587604 0.27963575590251877 0.007780453377514837 0.0 0.004764104261994362 -1.5707600752459925 -1.5707476774798792 -4.593526021778871e-06 1.5707556009292603 -2.366701234990387e-05 0.09424394369125366 0.0 2.3968450477696024e-05 -2.3968450477696024e-05 -2.3968450477696024e-05 -2.3968450477696024e-05 0.3723450005054474 0.5473023056983948 0.681693434715271 -0.008951950818300247 -0.02349887043237686 -0.19470493495464325 0.3566437065601349 0.5607605576515198 0.6832184791564941 -0.006713963113725185 -0.027974845841526985 -0.19694292545318604 0.29632893084364736 -0.11162764119010687 0.4815772996629802 -1.2123283138310363 1.2062854874786764 -1.2055535300223803 0.010520228329881314 0.027925207003327176 5.112237074768494e-06 -2.3945744838725696e-05 -1.1838268400949066e-07 0.09421992832694769 3.0056998147075813 -3.4719350089040497 1.6227434464514114 0.9058654576628921 -0.4723860842219618 0.4051293847334198 0.29637096802893087 -0.11155423459684431 0.48155257636461907 -1.2125007347112147 1.206151589339473 -1.2052943937147738 0.011155423459683006 0.029637096802893097 1.3966859234193808e-17 8.342837510434061e-19 -1.696274864172795e-16 0.10000000000000003
2297.68 0.005832000000000005 -1.5707963267948966 -1.5707963267948966 -8.881784197001252e-16 1.5707963267948966 0.0 0.10800000000000004 0.0 0.0 1.8319994965229864e-16 0.0 0.0 1.0000000000000009 0.0 0.0 1.696295830113878e-15 0.0 0.0 0.35343928862927 0.5451509513553507 0.7560087018475085 0.06775975017991423 0.0018755197473233523 0.0 0.819499670743342 6.279320796555178 6.383126786972835 0.27967763699933107 0.007785999261133303 0.0 0.005628091748803854 -1.5707600752459925 -1.570735279713766 -6.467500795537262e-05 1.5707316398620605 -1.1746083394825746e-05 0.10502016544342041 0.0 2.3968450477696024e-05 -2.3968450477696024e-05 0.0 -2.3968450477696024e-05 0.3499145805835724 0.5742188096046448 0.6862685084342957 -0.006713963113725185 -0.019022895023226738 -0.19246694445610046 0.3790741264820099 0.5585175156593323 0.6832184791564941 -0.006713963113725185 -0.02909383922815323 -0.19806191325187683 0.2964293399621438 -0.11137353651004657 0.4815760183234979 -1.2127506377266775 1.2057068396166268 -1.2049036553143369 0.01169645927809451 0.031131032247607097 5.111695944683128e-06 -2.3946390355308377e-05 -1.3193177903095946e-07 0.10502011967169843 4.251393676989989 -2.462481113594052 1.4739823543478812 0.8963962172568656 -0.5801121009398529 0.30181142506584346 0.29646367856386496 -0.11130761536963604 0.48155257636461907 -1.2128927950696715 1.2055381554552342 -1.2046816952865975 0.012021222459920745 0.03201807728489743 1.5084207972929318e-17 1.0534465958810893e-18 -1.8319687226982742e-16 0.10800000000000004
2297.688 0.006728000000000006 -1.5707963267948966 -1.5707963267948966 -8.881784197001252e-16 1.5707963267948966 0.0 0.11600000000000005 0.0 0.0 1.9677031629320967e-16 0.0 0.0 1.0000000000000009 0.0 0.0 1.696295830113878e-15 0.0 0.0 0.3569337192421605 0.5451795513567346 0.7560140437511946 0.06777067757850172 0.001876958422393181 0.0 0.8194996707433418 6.27965022564821 6.383171889692459 0.27972273971897493 0.007791971751183959 0.0 0.006491704843938351 -1.5707123915301722 -1.5707476774798792 -2.8912221090138246e-05 1.5707075595855713 -2.366701234990387e-05 0.11305438727140427 0.0 -0.0 0.0 0.0 -2.3968450477696024e-05 0.3229980766773224 0.5428162217140198 0.6938937306404114 -0.006713963113725185 -0.03021283447742462 -0.19022895395755768 0.3342132866382599 0.5585175156593323 0.6832184791564941 -0.006713963113725185 -0.02909383922815323 -0.19582392275333405 0.296507714317629 -0.11111959757808794 0.48158939821115737 -1.21310233359011 1.2050300501695108 -1.2043276550678543 0.01256255801803574 0.033521497963424116 1.0654524892401995e-22 -2.3967956555549392e-05 -1.5233309485269082e-07 0.11305440898502386 2.283626672351519 0.1510264891358231 1.1436778589603724 0.8854447315507377 -0.4399999141242299 0.1381147218300633 0.29656329117100755 -0.11104193926941693 0.48155257636461907 -1.21331475596866 1.2048774806127478 -1.2040218124513582 0.01288086495525404 0.034401341775836904 1.620155671166483e-17 1.307782441099667e-18 -1.9676591816697924e-16 0.11600000000000005
2297.696 0.0076880000000000065 -1.5707963267948966 -1.5707963267948966 -8.881784197001252e-16 1.5707963267948966 0.0 0.12400000000000005 0.0 0.0 2.103406829341207e-16 0.0 0.0 1.0000000000000009 0.0 0.0 1.696295830113878e-15 0.0 0.0 0.3604310310749557 0.5452101942153601 0.75601976721943 0.06778238550555979 0.0018784998599679973 0.0 0.8194996707433418 6.280003185390745 6.383220214034915 0.2797710640614506 0.007798370847666804 0.0 0.00741561409085989 -1.5707243124591272 -1.5708072821246546 -1.6514454976856996e-05 1.5707556009292603 -4.7985707418263246e-05 0.11999564617872238 0.0 -0.0 0.0 0.0 -2.3968450477696024e-05 0.3252411186695099 0.5293579697608948 0.6862685084342957 -0.004475975409150124 -0.02909383922815323 -0.20029990375041962 0.2938385307788849 0.5562744736671448 0.6832184791564941 -0.006713963113725185 -0.03021283447742462 -0.19806191325187683 0.29661820633023234 -0.11084151679106873 0.4815692739202271 -1.213621513146869 1.2043449584533739 -1.2036017133140973 0.013300499430774377 0.03559289333696982 -5.330307756288384e-23 -2.3967795809363797e-05 -1.7563397564019627e-07 0.11999566930984883 1.8638695958484401 0.47111805376953364 1.5309095332450502 0.9319994123966419 -0.3610176781162285 0.1064533197721393 0.29666975475997814 -0.11075718738550534 0.48155257636461907 -1.2137665601376144 1.2041695529220418 -1.2033147333140797 0.013733891235803066 0.03678704959023731 1.7318905450400334e-17 1.5998962006167615e-18 -2.1033454251087297e-16 0.12400000000000005
2297.7039999999997 0.008712000000000008 -1.5707963267948966 -1.5707963267948966 -8.881784197001252e-16 1.5707963267948966 0.0 0.13200000000000006 0.0 0.0 2.239110495750317e-16 0.0 0.0 1.0000000000000009 0.0 0.0 1.6962958301138748e-15 0.0 0.0 0.36393122412765555 0.5452428799312276 0.7560258722522144 0.06779487396108837 0.0018801440600478023 0.0 0.819499670743342 6.280379675782784 6.383271760000201 0.2798226100267579 0.007805196550581843 0.0 0.008483707904815674 -1.5707243124591272 -1.5707715193377894 7.152557373046875e-06 1.57077956199646 1.1984225238848012e-05 0.1297939568758011 0.0 -0.0 0.0 0.0 -2.3968450477696024e-05 0.2848663628101349 0.5719757676124573 0.6954187750816345 -0.0055949692614376545 -0.031331829726696014 -0.1879909634590149 0.3095398247241974 0.5562744736671448 0.6832184791564941 -0.006713963113725185 -0.02909383922815323 -0.19806191325187683 0.2967313274220221 -0.11052274933002272 0.48158179334484574 -1.2140471693669461 1.2035247526893016 -1.2027811648300686 0.014345184960335293 0.03851393311511315 3.5631396901622096e-23 -2.3967591077375944e-05 -2.0180451457166395e-07 0.1297939785826515 3.7533353118876134 2.0777367509877833 1.110251652851291 0.8768803346492111 -0.5628668559767868 -0.014028610160181946 0.29678301455966144 -0.110453339541065 0.48155257636461907 -1.2142481462335062 1.2034143596621965 -1.2025604451484657 0.014579840819420757 0.039175357921875334 1.8436254189135826e-17 1.9323925986491948e-18 -2.2390265161523335e-16 0.13200000000000006
2297.712 0.00980000000000001 -1.5707963267948966 -1.5707963267948966 -8.881784197001252e-16 1.5707963267948966 0.0 0.14000000000000007 0.0 0.0 2.374814162159427e-16 0.0 0.0 1.0000000000000009 0.0 0.0 1.696295830113878e-15 0.0 0.0 0.36743429840026004 0.5452776085043364 0.7560323588495477 0.06780814294508751 0.0018818910226325943 0.0 0.819499670743342 6.2807796968243235 6.383326527588316 0.279877377614897 0.007812448859929068 0.0 0.009551801718771458 -1.5707243124591272 -1.5707834402667444 7.152557373046875e-06 1.5707316398620605 -2.366701234990387e-05 0.13734880089759827 0.0 -0.0 0.0 0.0 -2.3968450477696024e-05 0.3005676567554474 0.5697327256202698 0.6908436417579651 -0.006713963113725185 -0.0335698164999485 -0.2014188915491104 0.3185119926929474 0.5652466416358948 0.6832184791564941 -0.006713963113725185 -0.02909383922815323 -0.20029990375041962 0.29685026135180875 -0.1102096727844186 0.4815782706389916 -1.2145616242443964 1.202764055738769 -1.2020502481929694 0.015137166404256608 0.0407720274428096 -1.4180105758153107e-22 -2.3967372460108907e-05 -2.2625649315711283e-07 0.13734882288985792 3.8140762425910535 1.2688592658553575 1.2857354424367304 0.9397739257819324 -0.5568521703529679 0.06336575872325988 0.29690301211183395 -0.11013037431069131 0.48155257636461907 -1.214759448844605 1.2026118872851144 -1.2017589344006698 0.015418252403496696 0.041566421695656774 1.955360292787134e-17 2.307876127684067e-18 -2.374701388720645e-16 0.14000000000000007
2297.72 0.010952000000000012 -1.5707963267948966 -1.5707963267948966 -8.881784197001252e-16 1.5707963267948966 0.0 0.14800000000000008 0.0 0.0 2.5105178285685374e-16 0.0 0.0 1.0000000000000009 0.0 0.0 1.696295830113878e-15 0.0 0.0 0.37094025389276913 0.5453143799346871 0.7560392270114301 0.06782219245755718 0.0018837407477223745 0.0 0.819499670743342 6.281203248515366 6.383384516799263 0.2799353668258677 0.007820127775708483 0.0 0.01066783256828785 -1.5707724730121058 -1.570735279713766 7.152557373046875e-06 1.57077956199646 -1.1746083394825746e-05 0.14377234876155853 0.0 -0.0 0.0 0.0 -2.3968450477696024e-05 0.3207550346851349 0.5787048935890198 0.6832184791564941 -0.0055949692614376545 -0.027974845841526985 -0.20813286304473877 0.3252411186695099 0.5607605576515198 0.6832184791564941 -0.006713963113725185 -0.027974845841526985 -0.19918090105056763 0.2969847852664652 -0.1098742759924914 0.4815782649333224 -1.21509945492357 1.2019113349458923 -1.2011839513499207 0.015796882727913263 0.0426982001242068 5.304295732625293e-23 -2.3967092901850688e-05 -2.5415047152968956e-07 0.14377237075414015 4.592283801796205 -0.007750317159666549 1.6440770414022274 0.9719669882923405 -0.5862252812076749 0.14346257001974058 0.2970296852644127 -0.10978826903916324 0.48155257636461907 -1.2153003984944868 1.2017621214195422 -1.2009101866933138 0.016248663817795893 0.0439603934191331 2.0670951666606852e-17 2.728951000661317e-18 -2.5103688391847594e-16 0.14800000000000008
2297.728 0.012168000000000012 -1.5707963267948966 -1.5707963267948966 -8.881784197001252e-16 1.5707963267948966 0.0 0.15600000000000008 0.0 0.0 2.6462214949776476e-16 0.0 0.0 1.0000000000000009 0.0 0.0 1.696295830113878e-15 0.0 0.0 0.3744490906051829 0.5453531942222793 0.7560464767378615 0.06783702249849738 0.0018856932353171422 0.0 0.8194996707433418 6.281650330855911 6.38344572763304 0.2799965776596702 0.007828233297920088 0.0 0.011891347356140614 -1.570796314870016 -1.5707476774798792 -7.659593691045075e-05 1.57077956199646 -1.1746083394825746e-05 0.15334056317806244 0.0 -0.0 0.0 0.0 -2.3968450477696024e-05 0.2960815727710724 0.5652466416358948 0.6801683902740479 -0.0033569815568625927 -0.031331829726696014 -0.19246694445610046 0.2893524467945099 0.5585175156593323 0.6801683902740479 -0.006713963113725185 -0.02909383922815323 -0.19582392275333405 0.2971350645470598 -0.10951061046876841 0.4815606545121535 -1.215762490111883 1.2010964424853763 -1.2002260021840392 0.016792418683255456 0.04556285813759609 -9.741185642026738e-24 -2.3966761156379083e-05 -2.8347756918343474e-07 0.15334058804656894 3.9786078845726647 1.9294353033399476 1.8351847849297338 0.8989747288099282 -0.5093973213273542 -0.0006454890821228571 0.29716296816432747 -0.10942699986136653 0.48155257636461907 -1.2158709216462809 1.200865046875332 -1.2000141868297447 0.01707061197837377 0.04635742303363511 2.1788300405342362e-17 3.1982210969946736e-18 -2.646027518036702e-16 0.15600000000000008
2297.736 0.013448000000000015 -1.5707963267948966 -1.5707963267948966 -8.881784197001252e-16 1.5707963267948966 0.0 0.1640000000000001 0.0 0.0 2.781925161386758e-16 0.0 0.0 1.0000000000000009 0.0 0.0 1.696295830113878e-15 0.0 0.0 0.3779608085375013 0.5453940513671135 0.7560541080288421 0.06785263306790813 0.001887748485416898 0.0 0.819499670743342 6.282120943845959 6.383510160089648 0.2800610101163044 0.007836765426563884 0.0 0.013103252276778221 -1.5707243124591272 -1.5707834402667444 -4.593526021778871e-06 1.5707675218582153 -3.5587941304981996e-05 0.16058862209320068 0.0 -0.0 0.0 0.0 -2.3968450477696024e-05 0.2400055229663849 0.5630035996437073 0.6847434639930725 -0.006713963113725185 -0.024617865681648254 -0.20029990375041962 0.2444916069507599 0.5585175156593323 0.6832184791564941 -0.006713963113725185 -0.02909383922815323 -0.19694292545318604 0.29724075997610977 -0.10915176220240079 0.48157730277349664 -1.2162623534240735 1.2001206396508823 -1.1994101842800777 0.017528531091126752 0.047733484074499254 3.9317490986562525e-23 -2.3966406324371638e-05 -3.122339898957158e-07 0.1605886443672313 3.635878118970722 5.82187872506576 1.5738568098483299 0.9357555453738069 -0.5202579833490056 -0.3522874160255057 0.2973027912500323 -0.10904654172340668 0.48155257636461907 -1.2164709407071588 1.1999206476479467 -1.19907091879854 0.01788363284263778 0.048757657765005305 2.2905649144077865e-17 3.718289902057991e-18 -2.781675921561233e-16 0.1640000000000001
2297.7439999999997 0.014792000000000017 -1.5707963267948966 -1.5707963267948966 -8.881784197001252e-16 1.5707963267948966 0.0 0.1720000000000001 0.0 0.0 2.917628827795868e-16 0.0 0.0 1.0000000000000009 0.0 0.0 1.696295830113878e-15 0.0 0.0 0.3814754076897243 0.5454369513691892 0.7560621208843714 0.06786902416578938 0.0018899064980216415 0.0 0.819499670743342 6.282615087485508 6.383577814169085 0.2801286641957702 0.00784572416163987 0.0 0.014435374177992344 -1.5707243124591272 -1.5707715193377894 -4.0356312887013246e-05 1.570719599723816 -3.5587941304981996e-05 0.17040608823299408 0.0 -0.0 0.0 0.0 -2.3968450477696024e-05 0.2915954887866974 0.5517883896827698 0.6771183013916016 -0.004475975409150124 -0.02685585245490074 -0.2014188915491104 0.3117828667163849 0.5585175156593323 0.6832184791564941 -0.006713963113725185 -0.02685585245490074 -0.19806191325187683 0.29738798307533026 -0.10875963337054696 0.48157788326687523 -1.2168815465762355 1.1991905083627936 -1.1984525512151958 0.01853330368033251 0.05067672288336688 -1.605842764246888e-22 -2.3965985059671373e-05 -3.4301096133866526e-07 0.17040611107816375 3.3620789495081094 3.037565068104259 1.9494855022839772 0.9408694198833506 -0.4516064199527568 -0.11250624494834088 0.29744908124365926 -0.10864686840492364 0.48155257636461907 -1.2171003740330653 1.198928906923209 -1.1980803657782484 0.018687261365647006 0.051161241973909415 2.402299788281335e-17 4.291760439764107e-18 -2.9173123835099226e-16 0.1720000000000001
2297.752 0.01620000000000002 -1.5707963267948966 -1.5707963267948966 -8.881784197001252e-16 1.5707963267948966 0.0 0.1800000000000001 0.0 0.0 3.0533324942049783e-16 0.0 0.0 1.0000000000000009 0.0 0.0 1.696295830113878e-15 0.0 0.0 0.384992888061852 0.5454818942285067 0.7560705153044498 0.06788619579214121 0.0018921672731313716 0.0 0.819499670743342 6.283132761774559 6.383648689871352 0.28019953989806784 0.007855109503148041 0.0 0.01585138402879238 -1.5707243124591272 -1.570735279713766 -4.593526021778871e-06 1.5707435607910156 -3.5587941304981996e-05 0.17519979178905487 0.0 -0.0 0.0 0.0 -2.3968450477696024e-05 0.3319702446460724 0.5271149277687073 0.6954187750816345 -0.0055949692614376545 -0.027974845841526985 -0.19918090105056763 0.3274841606616974 0.5585175156593323 0.6832184791564941 -0.006713963113725185 -0.027974845841526985 -0.19806191325187683 0.29753550346496577 -0.10833658775658261 0.4815915393893471 -1.217501922080118 1.1980754533782152 -1.197424929783776 0.01898054761809313 0.052128158256913616 -1.2868972877613023e-22 -2.3965467928818382e-05 -3.7751717741408967e-07 0.17519981290860273 1.3552707345294466 1.8335989109396265 1.1051562104236161 0.9296965750779544 -0.35270323954818167 -0.010142259060603334 0.2976017611428299 -0.10822795254267852 0.48155257636461907 -1.2177591359336808 1.1978898070822845 -1.197042510142375 0.01948103145767983 0.05356831700570941 2.514034662154886e-17 4.921235197863541e-18 -3.0529350667778925e-16 0.1800000000000001
2297.7599999999998 0.01767200000000002 -1.5707963267948966 -1.5707963267948966 -8.881784197001252e-16 1.5707963267948966 0.0 0.1880000000000001 0.0 0.0 3.1890361606140885e-16 0.0 0.0 1.0000000000000009 0.0 0.0 1.696295830113878e-15 0.0 0.0 0.3885132496538843 0.5455288799450658 0.7560792912890772 0.06790414794696356 0.0018945308107460904 0.0 0.819499670743342 6.2836739667131125 6.38372278719645 0.28027363722319715 0.007864921451088405 0.0 0.01736327074468136 -1.5707724730121058 -1.5707595984088343 -1.6514454976856996e-05 1.570719599723816 -2.366701234990387e-05 0.1835024505853653 0.0 -0.0 0.0 0.0 -2.3968450477696024e-05 0.3319702446460724 0.5652466416358948 0.6832184791564941 -0.001118993852287531 -0.019022895023226738 -0.19134794175624847 0.3297272026538849 0.5585175156593323 0.6832184791564941 -0.006713963113725185 -0.02909383922815323 -0.19806191325187683 0.29771796246670035 -0.10788822238185948 0.48156912915521977 -1.2182515043669606 1.1970444586544355 -1.1962796568908252 0.01979775319637105 0.05463197569592137 4.060413449848321e-23 -2.396487775097441e-05 -4.1317927751029555e-07 0.18350247372769135 3.8556431844077865 0.969933666391247 1.7435593920126355 0.8963160970983663 -0.4910177038910857 0.022795355582302307 0.29776075021213133 -0.1077897656551923 0.48155257636461907 -1.2184471366776255 1.1968033297069105 -1.1959573334646003 0.020264475943175885 0.05597902103988072 2.625769536028438e-17 5.609316045590497e-18 -3.188541955083648e-16 0.1880000000000001
2297.768 0.019208000000000024 -1.5707963267948966 -1.5707963267948966 -8.881784197001252e-16 1.5707963267948966 0.0 0.19600000000000012 0.0 0.0 3.3247398270231983e-16 0.0 0.0 1.0000000000000009 0.0 0.0 1.6962958301138718e-15 0.0 0.0 0.39203649246582123 0.5455779085188668 0.7560884488382539 0.06792288063025645 0.0018969971108657975 0.0 0.819499670743342 6.28423870230117 6.383800106144379 0.2803509561711582 0.00787516000546096 0.0 0.018887139856815338 -1.5707600752459925 -1.5707715193377894 -4.0356312887013246e-05 1.5707675218582153 -3.5587941304981996e-05 0.19232285022735596 0.0 -0.0 0.0 0.0 -2.3968450477696024e-05 0.4172058403491974 0.5899201035499573 0.6847434639930725 -0.0055949692614376545 -0.027974845841526985 -0.19246694445610046 0.3970184624195099 0.5585175156593323 0.6832184791564941 -0.006713963113725185 -0.027974845841526985 -0.19806191325187683 0.29788092400066474 -0.10743047690667647 0.4815673072612939 -1.2190115982793637 1.1958954808208195 -1.1951186164836807 0.020661335519977043 0.05728930833216626 1.0319033231108277e-22 -2.3964198148854654e-05 -4.5084761062922695e-07 0.192322873930018 5.194093464577608 -4.772646950317163 1.558228901370203 0.9054457288507505 -0.6307224211439079 0.5398218009682227 0.2979259639742707 -0.10733227816875063 0.48155257636461907 -1.2191642824978939 1.195669455584854 -1.194824816524241 0.021037126521076567 0.0583934889389571 2.7375044099019887e-17 6.358604143283909e-18 -3.324130844652481e-16 0.19600000000000012
2297.776 0.020808000000000024 -1.5707963267948966 -1.5707963267948966 -8.881784197001252e-16 1.5707963267948966 0.0 0.20400000000000013 0.0 0.0 3.4604434934323085e-16 0.0 0.0 1.0000000000000009 0.0 0.0 1.696295830113878e-15 0.0 0.0 0.3955626164976628 0.5456289799499094 0.7560979879519796 0.0679423938420199 0.0018995661734904923 0.0 0.819499670743342 6.284826968538731 6.38388064671514 0.280431496741951 0.007885825166265705 0.0 0.020495271310210228 -1.5707600752459925 -1.570735279713766 -1.6514454976856996e-05 1.5707435607910156 -1.1746083394825746e-05 0.19993522763252258 0.0 -0.0 0.0 0.0 -2.3968450477696024e-05 0.3701019585132599 0.5585175156593323 0.6740682125091553 -0.006713963113725185 -0.022379877045750618 -0.18910996615886688 0.4015045464038849 0.5585175156593323 0.6832184791564941 -0.006713963113725185 -0.02909383922815323 -0.19806191325187683 0.29804820061423004 -0.10695342743585558 0.4815799832359021 -1.2196884428559736 1.1946937669432096 -1.19396097367534 0.021383757860465362 0.05959033483526988 8.954988087799857e-23 -2.3963455312688442e-05 -4.888068757763075e-07 0.19993524989497405 3.8822544285363314 -0.9597241534858318 2.020973952892573 0.8876927678149397 -0.4908229774708697 0.19842667994236798 0.298097314200916 -0.10685545944448872 0.48155257636461907 -1.2199104755975232 1.1944881647156107 -1.193644939311939 0.021798513726675236 0.060811852096986876 2.8492392837755384e-17 7.171699843611455e-18 -3.459699335903963e-16 0.20400000000000013
2297.784 0.022472000000000027 -1.5707963267948966 -1.5707963267948966 -8.881784197001252e-16 1.5707963267948966 0.0 0.21200000000000013 0.0 0.0 3.5961471598414187e-16 0.0 0.0 1.0000000000000009 0.0 0.0 1.696295830113878e-15 0.0 0.0 0.39909162174940904 0.5456820942381935 0.7561079086302539 0.06796268758225384 0.0019022379986201742 0.0 0.8194996707433418 6.285438765425789 6.383964408908726 0.28051525893557533 0.007896916933502638 0.0 0.022139357402920723 -1.5707481543170374 -1.5707715193377894 7.152557373046875e-06 1.5707075595855713 -3.5587941304981996e-05 0.2099444568157196 0.0 -0.0 0.0 0.0 -2.3968450477696024e-05 0.3409424126148224 0.5450592637062073 0.6954187750816345 -0.006713963113725185 -0.021260883659124374 -0.19694292545318604 0.3588867485523224 0.5585175156593323 0.6832184791564941 -0.006713963113725185 -0.024617865681648254 -0.19806191325187683 0.29822085593752984 -0.10646625774730786 0.48157474516444887 -1.2204555936005623 1.1934953020130352 -1.1927921925577516 0.02235200065196215 0.06260981561092369 2.94735261290865e-23 -2.3962638219533254e-05 -5.273438724995645e-07 0.20994447909354869 2.284857978320358 1.8205389285721028 1.081713744846643 0.9234063378958446 -0.434765351813515 -0.03797536014783673 0.29827470890324137 -0.10635927780678503 0.48155257636461907 -1.220685614155491 1.1932594363163342 -1.1924176810355902 0.022548166895035856 0.06323423828748719 2.960974157649089e-17 8.05120258402481e-18 -3.5952448251440894e-16 0.21200000000000013
2297.792 0.02420000000000003 -1.5707963267948966 -1.5707963267948966 -8.881784197001252e-16 1.5707963267948966 0.0 0.22000000000000014 0.0 0.0 3.731850826250529e-16 0.0 0.0 1.0000000000000009 0.0 0.0 1.696295830113878e-15 0.0 0.0 0.4026235082210599 0.5457372513837194 0.7561182108730774 0.06798376185095835 0.001905012586254844 0.0 0.8194996707433418 6.286074092962352 6.384051392725145 0.2806022427520315 0.00790843530717176 0.0 0.02381902188062668 -1.5707362333880823 -1.570735279713766 -1.6514454976856996e-05 1.570719599723816 -4.7985707418263246e-05 0.21663643419742584 0.0 -0.0 0.0 0.0 -2.3968450477696024e-05 0.3454284965991974 0.5517883896827698 0.6786433458328247 -0.0033569815568625927 -0.03245082125067711 -0.20029990375041962 0.3140259087085724 0.5585175156593323 0.6832184791564941 -0.006713963113725185 -0.027974845841526985 -0.19806191325187683 0.2983942275137509 -0.10596436914783026 0.48158703365004685 -1.2212335651323694 1.1922223334987299 -1.191564926300944 0.02295574308416369 0.0646430614336744 -1.2725081975984023e-22 -2.3961712432122675e-05 -5.678777415812641e-07 0.2166364558882682 3.304754581003958 1.01573652771104 1.8982432058412484 0.9398920785358538 -0.4358836416342061 0.08265375727442197 0.29845805232218253 -0.1058437005727961 0.48155257636461907 -1.2214895923328393 1.1919832488279982 -1.1911430201265 0.02328561412601612 0.06566077151088019 3.0727090315226386e-17 8.999710770074703e-18 -3.7307644962627107e-16 0.22000000000000014
