Fleaurent/UniversalRobot/csv/robolib_movel_x400.csv
timestamp target_q_0 target_q_1 target_q_2 target_q_3 target_q_4 target_q_5 target_TCP_pose_0 target_TCP_pose_1 target_TCP_pose_2 target_TCP_pose_3 target_TCP_pose_4 target_TCP_pose_5 target_TCP_v target_TCP_a
0.0 -0.3527446237002967 -1.8721358656143456 -1.603567670800731 0.33413797321956373 1.9237026852187453 -0.00012831772243472844 300.0 -200.0 400.0 2.4186 -2.4185 2.4185 0.0 1000.0 
0.008 -0.35263492756397374 -1.872045184858162 -1.6036908977386917 0.33417114799546876 1.9235929890833252 -0.00012831253888009457 300.0 -199.968 400.0 2.4186 -2.4185 2.4185 8.0 1000.0 
0.016 -0.3523057563679708 -1.8717731871357173 -1.6040604632532043 0.3342686690050187 1.9232638178900314 -0.0001282969960839277 300.0 -199.872 400.0 2.4186 -2.4185 2.4185 16.0 1000.0 
0.024 -0.35175686169764164 -1.8713200060883128 -1.6046760215441245 0.33443115916967403 1.922714923224219 -0.00012827111766959128 300.0 -199.712 400.0 2.4186 -2.4185 2.4185 24.0 1000.0 
0.032 -0.3509878293507156 -1.8706858644625575 -1.6055369966030129 0.3346583807608754 1.9219458908836187 -0.00012823494307663034 300.0 -199.488 400.0 2.4186 -2.4185 2.4185 32.0 1000.0 
0.04 -0.3499980790726642 -1.8698710741310782 -1.6066425826958843 0.3349486008171352 1.9209561406137015 -0.00012818852766194433 300.0 -199.2 400.0 2.4186 -2.4185 2.4185 40.0 1000.0 
0.048 -0.3487868641905747 -1.8688760361296404 -1.607991745029175 0.3353037255290845 1.9197449257415589 -0.00012813194284195818 300.0 -198.848 400.0 2.4186 -2.4185 2.4185 48.0 1000.0 
0.056 -0.3473532711499465 -1.8677012407187414 -1.6095832205891871 0.3357203379370943 1.9183113327126935 -0.00012806527627632236 300.0 -198.432 400.0 2.4186 -2.4185 2.4185 56.0 1000.0 
0.064 -0.3456962189602215 -1.8663472674800654 -1.6114155191426018 0.33619947661287686 1.9166542805365487 -0.000127988632093828 300.0 -197.952 400.0 2.4186 -2.4185 2.4185 64.0 1000.0 
0.072 -0.343814458556297 -1.8648147854604313 -1.6134869243831385 0.3367386705244195 1.9147725201480255 -0.0001279021311613794 300.0 -197.408 400.0 2.4186 -2.4185 2.4185 72.00000000000001 1000.0 
0.08 -0.341706572084834 -1.863104553378095 -1.6157954952070566 0.33733769570288064 1.9126646336937914 -0.00012780591139702676 300.0 -196.8 400.0 2.4186 -2.4185 2.4185 80.0 1000.0 
0.088 -0.33937097212584333 -1.861217419908498 -1.6183390670979445 0.33799534961897826 1.91032903375386 -0.00012770012812822465 300.0 -196.12800000000001 400.0 2.4186 -2.4185 2.4185 88.0 1000.0 
0.096 -0.33680590086186557 -1.859154324068738 -1.6211152535991724 0.3387086284035028 1.9077639625107787 -0.00012758495449664644 300.0 -195.392 400.0 2.4186 -2.4185 2.4185 96.0 1000.0 
0.104 -0.334009429209031 -1.856916295722187 -1.6241214478505086 0.33947777807653257 1.904967490880682 -0.000127460581911058 300.0 -194.59199999999998 400.0 2.4186 -2.4185 2.4185 104.00000000000001 1000.0 
0.112 -0.3309794559264798 -1.85450445622684 -1.627354824163697 0.340300123298507 1.9019375176227182 -0.00012732722054992578 300.0 -193.728 400.0 2.4186 -2.4185 2.4185 112.0 1000.0 
0.12 -0.32771370672300026 -1.8519200192530865 -1.63081233961032 0.3411745095113963 1.8986717684456813 -0.00012718509991561437 300.0 -192.8 400.0 2.4186 -2.4185 2.4185 120.0 1000.0 
0.128 -0.32420973338239545 -1.8491642917986926 -1.6344907355939906 0.3420976861734595 1.895167795133383 -0.00012703446944221187 300.0 -191.808 400.0 2.4186 -2.4185 2.4185 128.0 1000.0 
0.136 -0.32046491293198187 -1.8462386754308844 -1.6383865393778743 0.34306918678378207 1.891422974713148 -0.00012687559915920959 300.0 -190.752 400.0 2.4186 -2.4185 2.4185 136.0 1000.0 
0.144 -0.31647644688184373 -1.843144667787479 -1.6424960655377037 0.3440856412644051 1.8874345086950695 -0.00012670878041345435 300.0 -189.632 400.0 2.4186 -2.4185 2.4185 144.00000000000003 1000.0 
0.152 -0.3122413605660117 -1.8398838643711142 -1.646815417309834 0.3451455616460195 1.8831994224131885 -0.00012653432665199018 300.0 -188.448 400.0 2.4186 -2.4185 2.4185 152.0 1000.0 
0.16 -0.3077565026206428 -1.8364579606726814 -1.651340487803512 0.34624596461368307 1.8787145645036714 -0.0001263525742686062 300.0 -187.2 400.0 2.4186 -2.4185 2.4185 160.0 1000.0 
0.168 -0.30301854463861044 -1.8328687546621782 -1.6560669610463343 0.3473846265247662 1.8739766065594021 -0.00012616388351711165 300.0 -185.888 400.0 2.4186 -2.4185 2.4185 168.0 1000.0 
0.176 -0.2980239810446621 -1.8291181496872677 -1.6609903128319374 0.3485584974174347 1.8689820430051425 -0.00012596863949456745 300.0 -184.512 400.0 2.4186 -2.4185 2.4185 176.0 1000.0 
0.184 -0.29276912924055476 -1.825208157821983 -1.6661058113391929 0.3497655340433592 1.8637271912426598 -0.00012576725319791098 300.0 -183.072 400.0 2.4186 -2.4185 2.4185 184.0 1000.0 
0.192 -0.28725013007534494 -1.82114090371012 -1.6714085174926454 0.3510025264692396 1.858208192121027 -0.00012556016265761964 300.0 -181.56799999999998 400.0 2.4186 -2.4185 2.4185 192.0 1000.0 
0.2 -0.2814629487023259 -1.8169186289500034 -1.6768932850345926 0.35226668338787626 1.8524210107935486 -0.00012534783415226545 300.0 -180.0 400.0 2.4186 -2.4185 2.4185 200.0 0.0 
0.208 -0.27552254599838033 -1.8126292863554394 -1.6824442127317043 0.3535302400446505 1.8464806081361926 -0.00012513498099465617 300.0 -178.4 400.0 2.4186 -2.4185 2.4185 200.0 0.0 
0.216 -0.26954663732997464 -1.8083593518444092 -1.6879489905482932 0.3547665587328164 1.8405046995144958 -0.00012492602420605722 300.0 -176.8 400.0 2.4186 -2.4185 2.4185 200.0 0.0 
0.224 -0.2635351940880277 -1.8041089484903732 -1.6934076978163553 0.35597633766155057 1.83449325631938 -0.00012472101404988222 300.0 -175.2 400.0 2.4186 -2.4185 2.4185 200.0 0.0 
0.232 -0.25748819523366295 -1.7998782075980744 -1.6988204063984917 0.35716014396890294 1.8284462575119709 -0.00012452000141223118 300.0 -173.6 400.0 2.4186 -2.4185 2.4185 200.0 0.0 
0.24 -0.251405627532332 -1.7956672686925625 -1.7041871808587763 0.35831756644431856 1.8223636898577213 -0.0001243230378047431 300.0 -172.0 400.0 2.4186 -2.4185 2.4185 200.0 0.0 
0.248 -0.24528748579077142 -1.7914762795090888 -1.7095080786294286 0.35944920735384445 1.8162455481633688 -0.00012413017536718715 300.0 -170.4 400.0 2.4186 -2.4185 2.4185 200.0 0.0 
0.256 -0.23913377309664785 -1.787305395983624 -1.7147831501735542 0.36055502974213915 1.8100918355165811 -0.0001239414668697774 300.0 -168.8 400.0 2.4186 -2.4185 2.4185 200.0 0.0 
0.264 -0.23294450106073405 -1.7831547822437537 -1.7200124391441671 0.3616353018013547 1.8039025635281352 -0.00012375696571519595 300.0 -167.2 400.0 2.4186 -2.4185 2.4185 200.0 0.0 
0.272 -0.2267196900614481 -1.779024610599702 -1.7251959825397276 0.36269044882703483 1.7976777525764478 -0.00012357672594030765 300.0 -165.6 400.0 2.4186 -2.4185 2.4185 200.0 0.0 
0.28 -0.22045936949157863 -1.774915061535237 -1.7303338108564024 0.3637204360983337 1.7914174320543115 -0.00012340080221755136 300.0 -164.0 400.0 2.4186 -2.4185 2.4185 200.0 0.0 
0.288 -0.2141635780069946 -1.7708263236982074 -1.7354259482372434 0.36472554422100667 1.7851216406175958 -0.00012322924985598902 300.0 -162.4 400.0 2.4186 -2.4185 2.4185 200.0 0.0 
0.296 -0.20783236377713687 -1.766758593890459 -1.7404724126184978 0.3657060047676355 1.7787904264357435 -0.00012306212480199676 300.0 -160.8 400.0 2.4186 -2.4185 2.4185 200.0 0.0 
0.304 -0.2014657847370671 -1.7627120770568778 -1.7454732158732102 0.3666619548296952 1.772423847443818 -0.00012289948363957928 300.0 -159.2 400.0 2.4186 -2.4185 2.4185 200.0 0.0 
0.312 -0.1950639088408379 -1.7586869862733037 -1.750428363952314 0.3675936822512196 1.7660219715958752 -0.00012274138359028947 300.0 -157.6 400.0 2.4186 -2.4185 2.4185 200.0 0.0 
0.32 -0.18862681431592776 -1.7546835427330623 -1.7553378570233777 0.3685014081430098 1.7595848771193927 -0.00012258788251273459 300.0 -156.0 400.0 2.4186 -2.4185 2.4185 200.0 0.0 
0.328 -0.18215458991848532 -1.7507019757318532 -1.7602016896071584 0.3693854413199482 1.7531126527705225 -0.00012243903890164968 300.0 -154.4 400.0 2.4186 -2.4185 2.4185 200.0 0.0 
0.336 -0.17564733518908615 -1.7467425226507303 -1.7650198507121342 0.3702458710902581 1.7466053980898408 -0.00012229491188651858 300.0 -152.8 400.0 2.4186 -2.4185 2.4185 200.0 0.0 
0.344 -0.16910516070871617 -1.7428054289369177 -1.7697923239671542 0.371083030133859 1.7400632236583378 -0.00012215556122972313 300.0 -151.2 400.0 2.4186 -2.4185 2.4185 200.0 0.0 
0.352 -0.162528188354659 -1.7388909480821924 -1.7745190877523518 0.3718970150854104 1.7334862513532971 -0.00012202104732419914 300.0 -149.6 400.0 2.4186 -2.4185 2.4185 200.0 0.0 
0.36 -0.15591655155596262 -1.7349993415985647 -1.7792001153284596 0.3726881690606092 1.726874614603769 -0.0001218914311905793 300.0 -148.0 400.0 2.4186 -2.4185 2.4185 200.0 0.0 
0.368 -0.14927039554813581 -1.731130878990992 -1.7838353749646514 0.37345658760110734 1.7202284586452645 -0.00012176677447380148 300.0 -146.4 400.0 2.4186 -2.4185 2.4185 200.0 0.0 
0.376 -0.14258987762671094 -1.727285837726845 -1.7884248300650438 0.37420280954811647 1.7135479407733163 -0.00012164713943916075 300.0 -144.8 400.0 2.4186 -2.4185 2.4185 200.0 0.0 
0.384 -0.13587516739929573 -1.7234645032018665 -1.7929684392939695 0.3749268075580301 1.7068332305955367 -0.00012153258896778423 300.0 -143.2 400.0 2.4186 -2.4185 2.4185 200.0 0.0 
0.392 -0.12912644703571097 -1.7196671687023342 -1.7974661567001384 0.3756289568692426 1.7000845102817466 -0.00012142318655150544 300.0 -141.6 400.0 2.4186 -2.4185 2.4185 200.0 0.0 
0.4 -0.12234391151580848 -1.715894135363158 -1.8019179318397966 0.37630936589797837 1.6933019748117992 -0.00012131899628711729 300.0 -140.0 400.0 2.4186 -2.4185 2.4185 200.0 0.0 
0.408 -0.11552776887453442 -1.7121457121216355 -1.806323709898984 0.37696855585211875 1.6864858322206462 -0.0001212200828699801 300.0 -138.4 400.0 2.4186 -2.4185 2.4185 200.0 0.0 
0.416 -0.10867824044378738 -1.7084222156665767 -1.81068343181499 0.37760651476903684 1.679636303840184 -0.00012112651158696264 300.0 -136.8 400.0 2.4186 -2.4185 2.4185 200.0 0.0 
0.424 -0.1017955610906176 -1.704723970382534 -1.8149970343970996 0.3782236079633403 1.672753624537467 -0.00012103834830869325 300.0 -135.2 400.0 2.4186 -2.4185 2.4185 200.0 0.0 
0.432 -0.09487997945127713 -1.7010513082888439 -1.8192644504467184 0.3788201112102023 1.6658380429487492 -0.00012095565948109809 300.0 -133.6 400.0 2.4186 -2.4185 2.4185 200.0 0.0 
0.44 -0.08793175816062915 -1.6974045689732047 -1.8234856088769604 0.3793963036910768 1.6588898217088957 -0.00012087851211620367 300.0 -132.0 400.0 2.4186 -2.4185 2.4185 200.0 0.0 
0.448 -0.08095117407640551 -1.6937840995195135 -1.8276604348317802 0.37995240420310905 1.651909237675641 -0.00012080697378218096 300.0 -130.4 400.0 2.4186 -2.4185 2.4185 200.0 0.0 
0.456 -0.07393851849778321 -1.6901902544296843 -1.8317888498047161 0.3804887536215549 1.6448965821481618 -0.00012074111259260798 300.0 -128.8 400.0 2.4186 -2.4185 2.4185 200.0 0.0 
0.464 -0.06689409737774099 -1.6866233955391658 -1.8358707717573215 0.38100554174675194 1.6378521610794416 -0.0001206809971949283 300.0 -127.19999999999999 400.0 2.4186 -2.4185 2.4185 200.0 0.0 
0.472 -0.059818231528633525 -1.6830838919258864 -1.8399061152373488 0.38150321063945136 1.630776295281836 -0.000120626696758083 300.0 -125.6 400.0 2.4186 -2.4185 2.4185 200.0 0.0 
0.48 -0.05271125682042155 -1.6795721198123585 -1.843894791496742 0.38198181468422465 1.62366932062531 -0.00012057828095929395 300.0 -124.0 400.0 2.4186 -2.4185 2.4185 200.0 0.0 
0.488 -0.04557352437096718 -1.676088462460667 -1.8478367086094996 0.38244184484396615 1.6165315882277251 -0.0001205358199699762 300.0 -122.4 400.0 2.4186 -2.4185 2.4185 200.0 0.0 
0.496 -0.038405400727808514 -1.672633310060079 -1.8517317715894583 0.3828834853768681 1.6093634646366224 -0.00012049938444075824 300.0 -120.80000000000001 400.0 2.4186 -2.4185 2.4185 200.0 0.0 
0.504 -0.03120726804079954 -1.669207059607024 -1.855579882508042 0.383307129148978 1.6021653320018585 -0.00012046904548558905 300.0 -119.2 400.0 2.4186 -2.4185 2.4185 200.0 0.0 
0.512 -0.02397952422500449 -1.6658101147771727 -1.859380940612026 0.3837129766133389 1.5949375882385002 -0.00012044487466491127 300.0 -117.6 400.0 2.4186 -2.4185 2.4185 200.0 0.0 
0.52 -0.016722583113220724 -1.6624428857893825 -1.8631348424413496 0.3841014529240454 1.5876806471793456 -0.00012042694396788124 300.0 -116.0 400.0 2.4186 -2.4185 2.4185 200.0 0.0 
0.528 -0.009436874597498868 -1.6591057892612644 -1.8668414819470163 0.38447275136393966 1.5803949387164498 -0.00012041532579361603 300.0 -114.39999999999999 400.0 2.4186 -2.4185 2.4185 200.0 0.0 
0.536 -0.002122844759019582 -1.6557992480561325 -1.8705007506091111 0.3848272563813451 1.5730809089309943 -0.00012041009293144979 300.0 -112.8 400.0 2.4186 -2.4185 2.4185 200.0 0.0 
0.544 0.0052190440143145 -1.6525236911211254 -1.874112537554959 0.38516521069834986 1.5657390202108834 -0.00012041131854018212 300.0 -111.19999999999999 400.0 2.4186 -2.4185 2.4185 200.0 0.0 
0.552 0.01258831292321716 -1.6492795533162725 -1.8776767296774506 0.3854870562787045 1.5583697513554062 -0.00012041907612630171 300.0 -109.6 400.0 2.4186 -2.4185 2.4185 200.0 0.0 
0.56 0.01998446666593945 -1.646067275234317 -1.8811932117535517 0.38579300584842446 1.5509735976663153 -0.00012043343952117059 300.0 -107.99999999999999 400.0 2.4186 -2.4185 2.4185 200.0 0.0 
0.568 0.027406993361419385 -1.6428873030110906 -1.884661866563013 0.3860834634515373 1.5435510710246734 -0.0001204544828571548 300.0 -106.39999999999999 400.0 2.4186 -2.4185 2.4185 200.0 0.0 
0.576 0.03485536448730375 -1.6397400881262822 -1.888082575007283 0.3863587453201103 1.5361026999528358 -0.00012048228054268894 300.0 -104.79999999999998 400.0 2.4186 -2.4185 2.4185 200.0 0.0 
0.584 0.04232903483348727 -1.6366260871944178 -1.8914552162286387 0.38661913127596415 1.5286290296609117 -0.00012051690723626353 300.0 -103.2 400.0 2.4186 -2.4185 2.4185 200.0 0.0 
0.592 0.04982744247180926 -1.633545761745921 -1.8947796677295305 0.38686500785153144 1.521130622077062 -0.00012055843781932564 300.0 -101.60000000000001 400.0 2.4186 -2.4185 2.4185 200.0 0.0 
0.6 0.057350008742523606 -1.6304995779981188 -1.8980558054921413 0.38709675554425194 1.5136080558610374 -0.00012060694736808494 300.0 -100.0 400.0 2.4186 -2.4185 2.4185 200.0 0.0 
0.608 0.06489613825817497 -1.6274880066160753 -1.901283504098146 0.3873146338248492 1.5060619264002937 -0.00012066251112421898 300.0 -98.4 400.0 2.4186 -2.4185 2.4185 200.0 0.0 
0.616 0.07246521892547375 -1.6245115224631679 -1.9044626368486783 0.38751905218574834 1.498492845788124 -0.00012072520446447377 300.0 -96.8 400.0 2.4186 -2.4185 2.4185 200.0 0.0 
0.624 0.08005662198576591 -1.6215706043413283 -1.907593075884468 0.3877103151084116 1.4909014427831844 -0.00012079510286915757 300.0 -95.2 400.0 2.4186 -2.4185 2.4185 200.0 0.0 
0.632 0.08766970207466884 -1.6186657347209 -1.9106746923061455 0.3878888422868585 1.483288362749859 -0.00012087228188952772 300.0 -93.6 400.0 2.4186 -2.4185 2.4185 200.0 0.0 
0.64 0.09530379730141991 -1.6157973994600785 -1.9137073562946845 0.3880549118643062 1.4756542675789144 -0.0001209568171140729 300.0 -92.0 400.0 2.4186 -2.4185 2.4185 200.0 0.0 
0.648 0.10295822934847632 -1.6129660875139322 -1.9166909372319627 0.38820895757567264 1.4679998355878938 -0.00012104878413369614 300.0 -90.39999999999999 400.0 2.4186 -2.4185 2.4185 200.0 0.0 
0.656 0.11063230359185638 -1.6101722906330198 -1.9196253038213982 0.38835126951344945 1.460325761400783 -0.00012114825850580475 300.0 -88.8 400.0 2.4186 -2.4185 2.4185 200.0 0.0 
0.664 0.11832530924270968 -1.6074165030516592 -1.9225103242086383 0.3884822613817376 1.4526327558064327 -0.00012125531571731811 300.0 -87.19999999999999 400.0 2.4186 -2.4185 2.4185 200.0 0.0 
0.672 0.1260365195105484 -1.604699221165904 -1.9253458661022596 0.38860226543387566 1.4449215455953366 -0.00012137003114660508 300.0 -85.6 400.0 2.4186 -2.4185 2.4185 200.0 0.0 
0.68 0.1337651917885614 -1.6020209432013413 -1.9281317968944327 0.38871167385113536 1.4371928733743045 -0.00012149248002436704 300.0 -83.99999999999999 400.0 2.4186 -2.4185 2.4185 200.0 0.0 
0.688 0.14151056786137017 -1.599382168870838 -1.9308679837815128 0.38881082334220274 1.4294474973587188 -0.00012162273739348463 300.0 -82.39999999999999 400.0 2.4186 -2.4185 2.4185 200.0 0.0 
0.696 0.1492718741355734 -1.5967833990223912 -1.9335542938845003 0.38890011241435496 1.4216861911419834 -0.00012176087806784952 300.0 -80.79999999999998 400.0 2.4186 -2.4185 2.4185 200.0 0.0 
0.704 0.15704832189336382 -1.5942251352772718 -1.9361905943693252 0.38897990432497576 1.4139097434419075 -0.00012190697659020583 300.0 -79.2 400.0 2.4186 -2.4185 2.4185 200.0 0.0 
0.712 0.16483910756946685 -1.591707879658696 -1.9387767525668926 0.38905052553950625 1.4061189578237678 -0.00012206110718902906 300.0 -77.6 400.0 2.4186 -2.4185 2.4185 200.0 0.0 
0.72 0.1726434130515988 -1.5892321342112625 -1.9413126360928343 0.38911241359943816 1.3983146523998502 -0.00012222334373447307 300.0 -76.0 400.0 2.4186 -2.4185 2.4185 200.0 0.0 
0.728 0.18046040600459512 -1.5867984006114553 -1.9437981129668993 0.38916587381311984 1.3904976595053218 -0.00012239375969341957 300.0 -74.39999999999999 400.0 2.4186 -2.4185 2.4185 200.0 0.0 
0.736 0.18828924021830407 -1.584407179769533 -1.946233051731921 0.38921132144173676 1.3826688253503367 -0.00012257242808366847 300.0 -72.8 400.0 2.4186 -2.4185 2.4185 200.0 0.0 
0.744 0.1961290559792881 -1.582058971423151 -1.9486173215722893 0.3892491116519514 1.3748290096483347 -0.0001227594214273085 300.0 -71.19999999999999 400.0 2.4186 -2.4185 2.4185 200.0 0.0 
0.752 0.2039789804663159 -1.5797542737231205 -1.950950792431855 0.3892796019763818 1.3669790852205488 -0.00012295481170331515 300.0 -69.6 400.0 2.4186 -2.4185 2.4185 200.0 0.0 
0.76 0.21183812816957115 -1.5774935828117194 -1.953233335131193 0.3893031827501048 1.3591199375767982 -0.0001231586702994213 300.0 -67.99999999999999 400.0 2.4186 -2.4185 2.4185 200.0 0.0 
0.768 0.21970560133344086 -1.575277392394018 -1.9554648214841448 0.3893201837197644 1.3512524644726982 -0.00012337106796331417 300.0 -66.39999999999999 400.0 2.4186 -2.4185 2.4185 200.0 0.0 
0.776 0.22758049042268502 -1.573106193302714 -1.9576451244135622 0.3893310148123048 1.343377575443491 -0.00012359207475321293 300.0 -64.79999999999998 400.0 2.4186 -2.4185 2.4185 200.0 0.0 
0.784 0.2354618746117203 -1.570980473057011 -1.9597741180661625 0.3893359907945011 1.3354961913147605 -0.00012382175998788461 300.0 -63.19999999999999 400.0 2.4186 -2.4185 2.4185 200.0 0.0 
0.792 0.24334882229669064 -1.5689007154160877 -1.9618516779264221 0.38933548093644754 1.3276092436903661 -0.00012406019219616166 300.0 -61.59999999999998 400.0 2.4186 -2.4185 2.4185 200.0 0.0 
0.8 0.25124039162992573 -1.56686739992778 -1.963877680929408 0.38932988647001965 1.3197176744179813 -0.00012430743906602552 300.0 -59.999999999999986 400.0 2.4186 -2.4185 2.4185 200.0 0.0 
0.808 0.25913563107632376 -1.5648810014730774 -1.9658520055724675 0.3893195007754684 1.3118224350327083 -0.0001245635673933248 300.0 -58.39999999999998 400.0 2.4186 -2.4185 2.4185 200.0 0.0 
0.816 0.26703357999111876 -1.5629419898071177 -1.9677745320256816 0.38930470503652903 1.3039244861793158 -0.00012482864303020008 300.0 -56.79999999999998 400.0 2.4186 -2.4185 2.4185 200.0 0.0 
0.824 0.27493326921843697 -1.5610508290973646 -1.9696451422409864 0.3892858283320566 1.2960247970136791 -0.00012510273083329035 300.0 -55.199999999999974 400.0 2.4186 -2.4185 2.4185 200.0 0.0 
0.832 0.28283372170996324 -1.5592079774596854 -1.9714637200598744 0.3892632488064578 1.2881243445841155 -0.00012538589461179818 300.0 -53.59999999999998 400.0 2.4186 -2.4185 2.4185 200.0 0.0 
0.84 0.29073395316298023 -1.5574138864930918 -1.9732301513195787 0.3892372619013815 1.2802241131933456 -0.0001256781970754953 300.0 -52.000000000000014 400.0 2.4186 -2.4185 2.4185 200.0 0.0 
0.848 0.298632972676971 -1.555669000813909 -1.9749443239576405 0.3892082203546905 1.2723250937418857 -0.00012597969978275138 300.0 -50.400000000000006 400.0 2.4186 -2.4185 2.4185 200.0 0.0 
0.856 0.30652978342790127 -1.553973757590192 -1.9766061281147673 0.38917645489153174 1.2644282830537743 -0.00012629046308867167 300.0 -48.80000000000001 400.0 2.4186 -2.4185 2.4185 200.0 0.0 
0.864 0.31442338335925135 -1.5523285860771971 -1.978215456235882 0.389142270089049 1.256534683185532 -0.00012661054609343234 300.0 -47.20000000000002 400.0 2.4186 -2.4185 2.4185 200.0 0.0 
0.872 0.32231276588877655 -1.550733907154777 -1.9797722031692646 0.3891059877451657 1.2486453007194043 -0.00012694000659090317 300.0 -45.60000000000002 400.0 2.4186 -2.4185 2.4185 200.0 0.0 
0.88 0.33019692062993466 -1.549190132867546 -1.9812762662636938 0.3890679488553115 1.2407611460419374 -0.00012727890101764999 300.0 -44.0 400.0 2.4186 -2.4185 2.4185 200.0 0.0 
0.888 0.33807483412684647 -1.547697665968716 -1.9827275454634807 0.3890283971618773 1.2328832326090098 -0.0001276272844024106 300.0 -42.400000000000006 400.0 2.4186 -2.4185 2.4185 200.0 0.0 
0.896 0.3459454906016002 -1.5462568994684918 -1.9841259434013094 0.388987669415261 1.225012576198537 -0.00012798521031613918 300.0 -40.80000000000001 400.0 2.4186 -2.4185 2.4185 200.0 0.0 
0.904 0.3538078727126588 -1.5448682161879357 -1.9854713654887748 0.38894605920577163 1.2171501941520568 -0.00012835273082271545 300.0 -39.20000000000002 400.0 2.4186 -2.4185 2.4185 200.0 0.0 
0.912 0.3616609623230722 -1.5435319883192222 -1.986763720004533 0.3889038064617589 1.20929710460652 -0.00012872989643041537 300.0 -37.599999999999994 400.0 2.4186 -2.4185 2.4185 200.0 0.0 
0.92 0.36950374127715047 -1.5422485769931997 -1.988002918179964 0.38886122433504267 1.2014543257176196 -0.0001291167560442408 300.0 -36.0 400.0 2.4186 -2.4185 2.4185 200.0 0.0 
0.928 0.3773351921842161 -1.5410183318551933 -1.9891888742822488 0.38881854597002485 1.193622874876033 -0.0001295133569192062 300.0 -34.400000000000006 400.0 2.4186 -2.4185 2.4185 200.0 0.0 
0.936 0.38515429920799793 -1.5398415906499636 -1.9903215056947772 0.38877604965147916 1.1858037679180344 -0.00012991974461467871 300.0 -32.80000000000001 400.0 2.4186 -2.4185 2.4185 200.0 0.0 
0.944 0.3929600488602134 -1.5387186788167497 -1.9914007329947916 0.38873398572543394 1.1779980183319059 -0.00013033596294986994 300.0 -31.19999999999999 400.0 2.4186 -2.4185 2.4185 200.0 0.0 
0.952 0.4007514307968336 -1.5376499090953069 -1.9924264800281748 0.3886925662304672 1.1702066364616797 -0.00013076205396057392 300.0 -29.599999999999994 400.0 2.4186 -2.4185 2.4185 200.0 0.0 
0.96 0.40852743861552376 -1.5366355811438364 -1.993398673981304 0.3886520344322124 1.1624306287096897 -0.00013119805785724762 300.0 -28.0 400.0 2.4186 -2.4185 2.4185 200.0 0.0 
0.968 0.4162870706527022 -1.5356759811697092 -1.9943172454498765 0.38861259631563105 1.1546709967395212 -0.00013164401298452588 300.0 -26.400000000000006 400.0 2.4186 -2.4185 2.4185 200.0 0.0 
0.976 0.42402933077867644 -1.5347713815738349 -1.9951821285046372 0.38857446531545414 1.1469287366808663 -0.00013209995578226377 300.0 -24.799999999999983 400.0 2.4186 -2.4185 2.4185 200.0 0.0 
0.984 0.43175322918927406 -1.5339220406095433 -1.995993260753918 0.3885378429990505 1.1392048383378972 -0.0001325659207481936 300.0 -23.19999999999999 400.0 2.4186 -2.4185 2.4185 200.0 0.0 
0.992 0.43945778319240825 -1.5331282020567938 -1.9967505834029224 0.3885029164323617 1.131500284402705 -0.0001330419404022846 300.0 -21.599999999999994 400.0 2.4186 -2.4185 2.4185 200.0 0.0 
1.0 0.447142017988003 -1.5323900949125067 -1.997454041309683 0.38846982664239427 1.123816049675364 -0.00013352804525288846 300.0 -20.0 400.0 2.4186 -2.4185 2.4185 200.0 0.0 
1.008 0.45480496743971144 -1.531707933097796 -1.9981035830376144 0.3884387770015687 1.1161531002922234 -0.0001340242637647501 300.0 -18.399999999999977 400.0 2.4186 -2.4185 2.4185 200.0 0.0 
1.016 0.4624456748368815 -1.531081915182817 -1.9986991609046065 0.38840990504741524 1.1085123929639342 -0.00013453062232896172 300.0 -16.799999999999983 400.0 2.4186 -2.4185 2.4185 200.0 0.0 
1.024 0.47006319364523375 -1.5305122241299371 -1.9992407310285933 0.3883833334604525 1.1008948742247788 -0.00013504714523493132 300.0 -15.199999999999989 400.0 2.4186 -2.4185 2.4185 200.0 0.0 
1.032 0.4776565882447459 -1.5299990270558725 -1.9997282533695402 0.3883592101057032 1.0933014796947793 -0.00013557385464443527 300.0 -13.599999999999994 400.0 2.4186 -2.4185 2.4185 200.0 0.0 
1.04 0.48522493465326333 -1.5295424750134092 -2.000161691767794 0.3883376426303715 1.0857331333560911 -0.0001361107705678176 300.0 -11.999999999999972 400.0 2.4186 -2.4185 2.4185 200.0 0.0 
1.048 0.4927673212343955 -1.5291427027932645 -2.000541013978754 0.38831873277303885 1.078190746845105 -0.00013665791084239575 300.0 -10.399999999999977 400.0 2.4186 -2.4185 2.4185 200.0 0.0 
1.056 0.5002828493882985 -1.5287998287466031 -2.0008661917038117 0.38830257483695085 1.0706752187616648 -0.00013721529111312644 300.0 -8.799999999999983 400.0 2.4186 -2.4185 2.4185 200.0 0.0 
1.064 0.5077706342239856 -1.5285139546286848 -2.001137200617528 0.38828924142903487 1.063187433996759 -0.00013778292481557978 300.0 -7.199999999999989 400.0 2.4186 -2.4185 2.4185 200.0 0.0 
1.072 0.5152298052118696 -1.5282851654640326 -2.001354020391 0.388278783369834 1.055728263079974 -0.000138360823161265 300.0 -5.599999999999966 400.0 2.4186 -2.4185 2.4185 200.0 0.0 
1.08 0.5226595068152802 -1.5281135294334955 -2.0015166347114097 0.3882712872485121 1.0482985615479814 -0.00013894899512534455 300.0 -3.9999999999999716 400.0 2.4186 -2.4185 2.4185 200.0 0.0 
1.088 0.5300588990997834 -1.527999097783498 -2.0016250312976984 0.3882667649111218 1.0408991693352148 -0.0001395474474367681 300.0 -2.3999999999999773 400.0 2.4186 -2.4185 2.4185 200.0 0.0 
1.096 0.537427158319173 -1.5279419047577139 -2.0016792019123764 0.388265250571608 1.03353091018788 -0.00014015618457085177 300.0 -0.799999999999983 400.0 2.4186 -2.4185 2.4185 200.0 0.0 
1.104 0.5447634774770844 -1.5279419675513535 -2.001679142369433 0.38826676179090436 1.026194591102342 -0.00014077520874432043 300.0 0.8000000000000398 400.0 2.4186 -2.4185 2.4185 200.0 0.0 
1.112 0.5520670668632588 -1.5279992862881788 -2.0016248525383435 0.38827128780576725 1.0188910017888608 -0.00014140451991282785 300.0 2.400000000000034 400.0 2.4186 -2.4185 2.4185 200.0 0.0 
1.12 0.5593371545635477 -1.5281138440203146 -2.0015163363441713 0.3882788327721365 1.0116209141615835 -0.00014204411577095895 300.0 4.000000000000028 400.0 2.4186 -2.4185 2.4185 200.0 0.0 
1.128 0.5665729869428395 -1.5282856067508523 -2.0013536017637534 0.38828934358799283 1.0043850818556217 -0.00014269399175471527 300.0 5.600000000000023 400.0 2.4186 -2.4185 2.4185 200.0 0.0 
1.136 0.5737738291001633 -1.528514523479187 -2.001136660817988 0.38830280677201445 0.9971842397719467 -0.00014335414104647734 300.0 7.2000000000000455 400.0 2.4186 -2.4185 2.4185 200.0 0.0 
1.144 0.5809389652953134 -1.5288005262689657 -2.0008655295602256 0.3883191537363522 0.9900191036507642 -0.00014402455458243117 300.0 8.80000000000004 400.0 2.4186 -2.4185 2.4185 200.0 0.0 
1.152 0.5880676993464218 -1.529143530338471 -2.0005402280607805 0.38833833838582144 0.9828903696739411 -0.00014470522106243918 300.0 10.400000000000034 400.0 2.4186 -2.4185 2.4185 200.0 0.0 
1.16 0.5951593549979891 -1.5295434341731942 -2.000160780387582 0.38836026281306246 0.9757987140969749 -0.00014539612696233193 300.0 12.0 400.0 2.4186 -2.4185 2.4185 200.0 0.0 
1.168 0.6022132762589761 -1.5300001196603028 -1.9997272145829927 0.38838485877233 0.9687447929109075 -0.0001460972565485877 300.0 13.599999999999994 400.0 2.4186 -2.4185 2.4185 200.0 0.0 
1.176 0.609228827710646 -1.5305134522446486 -1.9992395626368222 0.3884119873695424 0.9617292415344727 -0.00014680859189536468 300.0 15.199999999999989 400.0 2.4186 -2.4185 2.4185 200.0 0.0 
1.184 0.6162053947839272 -1.5310832811059063 -1.9986978604555694 0.38844158534964235 0.9547526745367426 -0.00014753011290384094 300.0 16.80000000000001 400.0 2.4186 -2.4185 2.4185 200.0 0.0 
1.192 0.6231423840061645 -1.5317094393563777 -1.9981021478279335 0.388473483903639 0.947815685390372 -0.00014826179732381535 300.0 18.400000000000006 400.0 2.4186 -2.4185 2.4185 200.0 0.0 
1.2 0.6300392232172063 -1.5323917442589525 -1.9974524683866406 0.38850755922277336 0.9409188462555101 -0.00014900362077751453 300.0 20.0 400.0 2.4186 -2.4185 2.4185 200.0 0.0 
1.208 0.6368953617548582 -1.5331299974646582 -1.9967488695666282 0.3885436572321854 0.9340627077943521 -0.00014975555678554785 300.0 21.599999999999994 400.0 2.4186 -2.4185 2.4185 200.0 0.0 
1.216 0.643710270609825 -1.533923985269193 -1.9959914025596466 0.38858162754079606 0.9272477990161911 -0.0001505175767949458 300.0 23.19999999999999 400.0 2.4186 -2.4185 2.4185 200.0 0.0 
1.224 0.6504834425503359 -1.5347734788877925 -1.995180122265328 0.3886212780636158 0.9204746271527982 -0.00015128965020921398 300.0 24.80000000000001 400.0 2.4186 -2.4185 2.4185 200.0 0.0 
1.232 0.6572143922167311 -1.535678234747727 -1.9943150872387903 0.38866242935345374 0.9137436775638322 -0.00015207174442033014 300.0 26.400000000000006 400.0 2.4186 -2.4185 2.4185 200.0 0.0 
1.24 0.6639026561863665 -1.5366379947977133 -1.9933963596348336 0.3887049000766645 0.9070554136719348 -0.00015286382484260713 300.0 28.0 400.0 2.4186 -2.4185 2.4185 200.0 0.0 
1.248 0.670547793009258 -1.537652486833464 -1.9924240051488042 0.38874846360687054 0.9004102769270889 -0.00015366585494834222 300.0 29.600000000000023 400.0 2.4186 -2.4185 2.4185 200.0 0.0 
1.256 0.6771493832149672 -1.5387214248385839 -1.991398092954192 0.38879291584187126 0.8938086867997337 -0.00015447779630516908 300.0 31.200000000000017 400.0 2.4186 -2.4185 2.4185 200.0 0.0 
1.264 0.6837070292912935 -1.5398445093399866 -1.9903186956370407 0.3888380266740121 0.8872510408020667 -0.0001552996086150253 300.0 32.80000000000001 400.0 2.4186 -2.4185 2.4185 200.0 0.0 
1.272 0.6902203556353936 -1.541021427776986 -1.989185889127248 0.3888835572613585 0.8807377145369306 -0.00015613124975464725 300.0 34.400000000000006 400.0 2.4186 -2.4185 2.4185 200.0 0.0 
1.28 0.6966890084780228 -1.5422518548831845 -1.9879997526268365 0.38892927151707357 0.8742690617735696 -0.00015697267581750028 300.0 36.0 400.0 2.4186 -2.4185 2.4185 200.0 0.0 
1.288 0.7031126557816324 -1.543535453080283 -1.9867603685352746 0.38897490438216886 0.8678454145495286 -0.00015782384115705145 300.0 37.60000000000002 400.0 2.4186 -2.4185 2.4185 200.0 0.0 
1.296 0.7094909871131196 -1.544871872882894 -1.9854678223719444 0.3890201882327806 0.8614670832979113 -0.000158684698431289 300.0 39.20000000000002 400.0 2.4186 -2.4185 2.4185 200.0 0.0 
1.304 0.7158237134920695 -1.5462607533134616 -1.9841222026958345 0.389064849909758 0.8551343569991301 -0.00015955519864839388 300.0 40.80000000000001 400.0 2.4186 -2.4185 2.4185 200.0 0.0 
1.312 0.7221105672153669 -1.5477017223263536 -1.9827236010225522 0.38910862630851084 0.8488475033562985 -0.00016043529121346516 300.0 42.400000000000034 400.0 2.4186 -2.4185 2.4185 200.0 0.0 
1.32 0.7283513016591001 -1.5491943972402122 -1.9812721117387473 0.3891512200763416 0.8426067689933259 -0.00016132492397620275 300.0 44.00000000000003 400.0 2.4186 -2.4185 2.4185 200.0 0.0 
1.328 0.7345456910587096 -1.5507383851776289 -1.9797678320140424 0.38919232981945084 0.8364123796747726 -0.00016222404327944915 300.0 45.60000000000002 400.0 2.4186 -2.4185 2.4185 200.0 0.0 
1.336 0.7406935302683624 -1.552333283511226 -1.9782108617105618 0.38923165631095413 0.8302645405464675 -0.00016313259400849376 300.0 47.20000000000002 400.0 2.4186 -2.4185 2.4185 200.0 0.0 
1.344 0.7467946345005576 -1.5539786803152293 -1.9766013032901553 0.38926889954010324 0.824163436395911 -0.00016405051964104138 300.0 48.80000000000001 400.0 2.4186 -2.4185 2.4185 200.0 0.0 
1.352 0.752848839046995 -1.5556741548216109 -1.9749392617194181 0.38930372543556757 0.8181092319314005 -0.00016497776229775038 300.0 50.400000000000034 400.0 2.4186 -2.4185 2.4185 200.0 0.0 
1.36 0.7588559989817398 -1.5574192778799198 -1.9732248443725984 0.38933583377196057 0.8121020720788698 -0.00016591426279324368 300.0 52.00000000000003 400.0 2.4186 -2.4185 2.4185 200.0 0.0 
1.368 0.7648159888477534 -1.5592136124199063 -1.9714581609324948 0.38936487688496113 0.8061420822953548 -0.0001668599606875006 300.0 53.60000000000002 400.0 2.4186 -2.4185 2.4185 200.0 0.0 
1.376 0.7707287023278351 -1.5610567139160736 -1.9696393232894378 0.3893905353666871 0.8002293688980548 -0.00016781479433753573 300.0 55.200000000000045 400.0 2.4186 -2.4185 2.4185 200.0 0.0 
1.384 0.7765940519010566 -1.562948130853313 -1.9677684454384572 0.38941246371360316 0.7943640194078966 -0.0001687787009492756 300.0 56.80000000000004 400.0 2.4186 -2.4185 2.4185 200.0 0.0 
1.392 0.7824119684857482 -1.5648874051927881 -1.965845643374731 0.38943032625109075 0.7885461029065476 -0.00016975161662954492 300.0 58.400000000000034 400.0 2.4186 -2.4185 2.4185 200.0 0.0 
1.4 0.7881824010701004 -1.5668740728372734 -1.9638710349874124 0.3894437734033167 0.7827756704058146 -0.0001707334764380757 300.0 60.00000000000003 400.0 2.4186 -2.4185 2.4185 200.0 0.0 
1.408 0.7939053163314385 -1.5689076640951596 -1.9618447399519288 0.3894524600333842 0.7770527552283724 -0.00017172421443945688 300.0 61.599999999999994 400.0 2.4186 -2.4185 2.4185 200.0 0.0 
1.416 0.7995806982452182 -1.5709877041423774 -1.9597668796208556 0.3894560264715665 0.7713773733987607 -0.00017272376375494292 300.0 63.19999999999999 400.0 2.4186 -2.4185 2.4185 200.0 0.0 
1.424 0.8052085476847692 -1.5731137134815187 -1.957637576913452 0.3894541164694689 0.7657495240436478 -0.00017373205661404406 300.0 64.79999999999998 400.0 2.4186 -2.4185 2.4185 200.0 0.0 
1.432 0.8107888820128093 -1.575285208397459 -1.9554569562039503 0.38944637442451113 0.7601691898003158 -0.00017474902440582288 300.0 66.4 400.0 2.4186 -2.4185 2.4185 200.0 0.0 
1.44 0.816321734665725 -1.5775017014088153 -1.9532251432087002 0.3894324466074144 0.7546363372323738 -0.00017577459772982586 300.0 68.0 400.0 2.4186 -2.4185 2.4185 200.0 0.0 
1.448 0.8218071547315915 -1.5797627017146183 -1.950942264872243 0.3894119512248486 0.7491509172517465 -0.000176808706446581 300.0 69.6 400.0 2.4186 -2.4185 2.4185 200.0 0.0 
1.456 0.8272452065228921 -1.5820677156355933 -1.948608449252415 0.38938453096961334 0.7437128655459473 -0.00017785127972759615 300.0 71.19999999999999 400.0 2.4186 -2.4185 2.4185 200.0 0.0 
1.464 0.8326359691448566 -1.584416247049485 -1.9462238254045618 0.38934982252747075 0.7383221030097432 -0.00017890224610479652 300.0 72.80000000000001 400.0 2.4186 -2.4185 2.4185 200.0 0.0 
1.472 0.8379795360603225 -1.5868077978199064 -1.943788523264941 0.38930745801984235 0.7329785361802968 -0.00017996153351934195 300.0 74.4 400.0 2.4186 -2.4185 2.4185 200.0 0.0 
1.48 0.8432760146519938 -1.5892418682182061 -1.9413026735334051 0.3892570587600328 0.7276820576749014 -0.0001810290693697707 300.0 76.0 400.0 2.4186 -2.4185 2.4185 200.0 0.0 
1.488 0.8485255257829285 -1.591717957337897 -1.9387664075554316 0.38919826281799375 0.7224325466304939 -0.00018210478055941622 300.0 77.60000000000002 400.0 2.4186 -2.4185 2.4185 200.0 0.0 
1.496 0.8537282033560705 -1.5942355635012238 -1.9361798572035835 0.38913070687280205 0.7172298691441302 -0.00018318859354304903 300.0 79.19999999999999 400.0 2.4186 -2.4185 2.4185 200.0 0.0 
1.504 0.8588841938736018 -1.5967941846574725 -1.9335431547584694 0.3890540090377441 0.7120738787136272 -0.00018428043437270156 300.0 80.80000000000001 400.0 2.4186 -2.4185 2.4185 200.0 0.0 
1.512 0.8639936559968534 -1.5993933187726728 -1.9308564327892712 0.3889677995213734 0.70696441667765 -0.00018538022874263092 300.0 82.40000000000003 400.0 2.4186 -2.4185 2.4185 200.0 0.0 
1.52 0.8690567601074864 -1.6020324642103578 -1.9281198240339124 0.38887172458018404 0.7019013126545354 -0.0001864879020333855 300.0 84.0 400.0 2.4186 -2.4185 2.4185 200.0 0.0 
1.528 0.8740736878706172 -1.6047111201031141 -1.9253334612789208 0.3887654005460657 0.6968843849791642 -0.00018760337935493833 300.0 85.60000000000002 400.0 2.4186 -2.4185 2.4185 200.0 0.0 
1.536 0.8790446318005212 -1.6074287867146402 -1.922497477239054 0.38864846521496377 0.6919134411372606 -0.00018872658558885828 300.0 87.19999999999999 400.0 2.4186 -2.4185 2.4185 200.0 0.0 
1.544 0.883969794829526 -1.610184965792114 -1.9196120044367415 0.3885205567933194 0.6869882781964927 -0.00018985744542949026 300.0 88.80000000000001 400.0 2.4186 -2.4185 2.4185 200.0 0.0 
1.552 0.8888493898806535 -1.612979160908663 -1.916677175081392 0.3883813111574783 0.6821086832338359 -0.00019099588342411962 300.0 90.40000000000003 400.0 2.4186 -2.4185 2.4185 200.0 0.0 
1.56 0.89368363944455 -1.615810877795782 -1.913693120948625 0.3882303592852747 0.6772744337586444 -0.00019214182401210072 300.0 92.0 400.0 2.4186 -2.4185 2.4185 200.0 0.0 
1.568 0.8984727751612036 -1.6186796246655715 -1.9106599732594616 0.3880673451169663 0.6724852981309246 -0.00019329519156293014 300.0 93.60000000000002 400.0 2.4186 -2.4185 2.4185 200.0 0.0 
1.576 0.9032170374069053 -1.6215849125226875 -1.9075778625595268 0.3878919088259454 0.6677410359743843 -0.00019445591041324887 300.0 95.20000000000005 400.0 2.4186 -2.4185 2.4185 200.0 0.0 
1.584 0.9079166748868936 -1.6245262554659394 -1.9044469185982944 0.3877036976258772 0.6630413985837825 -0.00019562390490276228 300.0 96.80000000000001 400.0 2.4186 -2.4185 2.4185 200.0 0.0 
1.592 0.912571944234073 -1.6275031709794858 -1.901267270208411 0.38750235279582745 0.6583861293262143 -0.00019679909940906694 300.0 98.40000000000003 400.0 2.4186 -2.4185 2.4185 200.0 0.0 
1.6 0.9171831096141703 -1.6305151802136009 -1.8980390451851343 0.3872875269398153 0.6537749640359487 -0.00019798141838137657 300.0 100.0 400.0 2.4186 -2.4185 2.4185 200.0 0.0 
1.608 0.9217504423376665 -1.633561808255037 -1.894762370165905 0.3870588742347798 0.6492076314025012 -0.00019917078637314412 300.0 101.60000000000002 400.0 2.4186 -2.4185 2.4185 200.0 0.0 
1.616 0.9262742204787959 -1.6366425843869863 -1.8914373705100807 0.3868160444303139 0.6446838533516367 -0.00020036712807357552 300.0 103.20000000000005 400.0 2.4186 -2.4185 2.4185 200.0 0.0 
1.624 0.9307547285018928 -1.6397570423387147 -1.8880641701788474 0.38655869630056516 0.6402033454190201 -0.00020157036833803654 300.0 104.80000000000001 400.0 2.4186 -2.4185 2.4185 200.0 0.0 
1.632 0.9351922568953221 -1.642904720524927 -1.8846428916153288 0.38628648817622513 0.6357658171162808 -0.00020278043221735498 300.0 106.40000000000003 400.0 2.4186 -2.4185 2.4185 200.0 0.0 
1.64 0.9395871018132054 -1.6460851622749653 -1.8811736556248946 0.3859990941197189 0.6313709722892986 -0.00020399724498601995 300.0 108.00000000000006 400.0 2.4186 -2.4185 2.4185 200.0 0.0 
1.648 0.9439395647251333 -1.649297916051942 -1.877656581255685 0.3856961662155869 0.6270185094684759 -0.00020522073216928854 300.0 109.60000000000002 400.0 2.4186 -2.4185 2.4185 200.0 0.0 
1.656 0.9482499520740204 -1.6525425356619534 -1.8740917856793444 0.38537739461756737 0.6227081222109 -0.00020645081956920263 300.0 111.20000000000005 400.0 2.4186 -2.4185 2.4185 200.0 0.0 
1.664 0.9525185749422383 -1.6558185804535017 -1.8704793840719742 0.3850424326786648 0.6184394994341955 -0.00020768743328952987 300.0 112.80000000000001 400.0 2.4186 -2.4185 2.4185 200.0 0.0 
1.672 0.9567457487261383 -1.659125615507299 -1.8668194894952854 0.38469097789526563 0.6142123257420079 -0.00020893049975963753 300.0 114.39999999999998 400.0 2.4186 -2.4185 2.4185 200.0 0.0 
1.68 0.9609317928190488 -1.6624632118166307 -1.8631122127779518 0.38432270397629376 0.6100262817410085 -0.00021017994575731172 300.0 116.0 400.0 2.4186 -2.4185 2.4185 200.0 0.0 
1.688 0.965077030302818 -1.6658309464584575 -1.859357662397147 0.3839372920334272 0.6058810443493444 -0.00021143569843053777 300.0 117.60000000000002 400.0 2.4186 -2.4185 2.4185 200.0 0.0 
1.696 0.9691817876479407 -1.6692284027554745 -1.8555559443602427 0.38353443939859333 0.601776287096523 -0.00021269768531825402 300.0 119.19999999999999 400.0 2.4186 -2.4185 2.4185 200.0 0.0 
1.704 0.9732463944223052 -1.6726551704293173 -1.8517071620866559 0.3831138297661896 0.5977116804146473 -0.0002139658343700991 300.0 120.80000000000001 400.0 2.4186 -2.4185 2.4185 200.0 0.0 
1.712 0.9772711830085532 -1.676110845745163 -1.8478114162898032 0.38267517190319844 0.5936868919210776 -0.00021524007396516546 300.0 122.39999999999998 400.0 2.4186 -2.4185 2.4185 200.0 0.0 
1.72 0.9812564883300591 -1.6795950316479422 -1.8438688048591487 0.38221815824567806 0.5897015866924373 -0.00021652033292978245 300.0 124.0 400.0 2.4186 -2.4185 2.4185 200.0 0.0 
1.728 0.9852026475854894 -1.6831073378904045 -1.839879422742301 0.3817424944858743 0.5857554275300555 -0.00021780654055434276 300.0 125.60000000000002 400.0 2.4186 -2.4185 2.4185 200.0 0.0 
1.736 0.9891099999919084 -1.6866473811532954 -1.835843361827114 0.3812478906044159 0.5818480752168697 -0.00021909862660919707 300.0 127.19999999999999 400.0 2.4186 -2.4185 2.4185 200.0 0.0 
1.744 0.992978886536375 -1.6902147851578797 -1.831760710823768 0.3807340580026759 0.5779791887658133 -0.00022039652135963394 300.0 128.8 400.0 2.4186 -2.4185 2.4185 200.0 0.0 
1.752 0.9968096497359535 -1.693809180771097 -1.8276315551467581 0.3802007207785052 0.5741484256598242 -0.0002217001555799662 300.0 130.40000000000003 400.0 2.4186 -2.4185 2.4185 200.0 0.0 
1.76 1.0006026334060723 -1.697430206103586 -1.8234559767967626 0.379647587489496 0.5703554420834696 -0.00022300946056674854 300.0 132.0 400.0 2.4186 -2.4185 2.4185 200.0 0.0 
1.768 1.004358182437125 -1.70107750660087 -1.8192340542423104 0.37907439048497715 0.5665998931463545 -0.00022432436815114347 300.0 133.60000000000002 400.0 2.4186 -2.4185 2.4185 200.0 0.0 
1.776 1.008076642579221 -1.70475073512796 -1.8149658623012113 0.3784808521595009 0.5628814330983691 -0.00022564481071046157 300.0 135.2 400.0 2.4186 -2.4185 2.4185 200.0 0.0 
1.784 1.0117583602349696 -1.7084495520476581 -1.8106514720216618 0.3778667044323867 0.5591997155368992 -0.00022697072117889775 300.0 136.8 400.0 2.4186 -2.4185 2.4185 200.0 0.0 
1.792 1.0154036822601797 -1.712173625292835 -1.8062909505629723 0.3772316802850697 0.5555543936061338 -0.00022830203305748426 300.0 138.40000000000003 400.0 2.4186 -2.4185 2.4185 200.0 0.0 
1.8 1.0190129557723484 -1.7159226304329607 -1.801884361075835 0.37657552714625275 0.5519451201885779 -0.000229638680423286 300.0 140.0 400.0 2.4186 -2.4185 2.4185 200.0 0.0 
1.808 1.022586527966802 -1.7196962507351699 -1.7974317625820504 0.375897982418385 0.548371548088898 -0.00023098059793785942 300.0 141.60000000000002 400.0 2.4186 -2.4185 2.4185 200.0 0.0 
1.816 1.026124745940351 -1.7234941772201358 -1.7929332098536375 0.37519878442248533 0.5448333302102861 -0.0002323277208549983 300.0 143.20000000000005 400.0 2.4186 -2.4185 2.4185 200.0 0.0 
1.824 1.0296279565223123 -1.7273161087130422 -1.7883887532912306 0.37447770365512545 0.5413301197234192 -0.000233679985027789 300.0 144.8 400.0 2.4186 -2.4185 2.4185 200.0 0.0 
1.832 1.033096506112749 -1.7311617518899247 -1.7837984388016757 0.3737344689799802 0.5378615702282372 -0.00023503732691499893 300.0 146.40000000000003 400.0 2.4186 -2.4185 2.4185 200.0 0.0 
1.84 1.036530740527774 -1.7350308213196617 -1.7791623076747254 0.3729688463071372 0.5344273359086172 -0.00023639968358681965 300.0 148.0 400.0 2.4186 -2.4185 2.4185 200.0 0.0 
1.848 1.0399310048517538 -1.738923039501901 -1.7744803964587268 0.3721805963073552 0.5310270716802006 -0.00023776699272998742 300.0 149.60000000000002 400.0 2.4186 -2.4185 2.4185 200.0 0.0 
1.856 1.0432976432962642 -1.7428381369011894 -1.7697527368352015 0.3713694796068714 0.5276604333314011 -0.00023913919265230497 300.0 151.20000000000005 400.0 2.4186 -2.4185 2.4185 200.0 0.0 
1.864 1.0466309990656186 -1.7467758519775824 -1.7649793554921938 0.3705352642426665 0.5243270776579085 -0.0002405162222865832 300.0 152.8 400.0 2.4186 -2.4185 2.4185 200.0 0.0 
1.872 1.04993141422882 -1.7507359312140145 -1.7601602739962798 0.36967770786860843 0.5210266625907151 -0.0002418980211940292 300.0 154.40000000000003 400.0 2.4186 -2.4185 2.4185 200.0 0.0 
1.88 1.0531992295977575 -1.7547181291406933 -1.7552955086630966 0.36879659018069444 0.517758847317935 -0.0002432845295670971 300.0 156.00000000000006 400.0 2.4186 -2.4185 2.4185 200.0 0.0 
1.888 1.0564347846114903 -1.7587222083567902 -1.750385070426282 0.36789168255463145 0.5145232924004992 -0.0002446756882318271 300.0 157.60000000000002 400.0 2.4186 -2.4185 2.4185 200.0 0.0 
1.896 1.0596384172264446 -1.7627479395497 -1.7454289647046648 0.3669627652747014 0.5113196598819884 -0.00024607143864969 300.0 159.20000000000005 400.0 2.4186 -2.4185 2.4185 200.0 0.0 
1.904 1.0628104638123617 -1.7667951015121293 -1.7404271912675813 0.3660096077533479 0.5081476133926525 -0.0002474717229189612 300.0 160.8 400.0 2.4186 -2.4185 2.4185 200.0 0.0 
1.912 1.0659512590538256 -1.7708634811572734 -1.7353797440981593 0.3650319999778857 0.5050068182479096 -0.0002488764837756404 300.0 162.40000000000003 400.0 2.4186 -2.4185 2.4185 200.0 0.0 
1.92 1.0690611358572077 -1.7749528735323588 -1.7302866112544162 0.3640297230410978 0.5018969415413834 -0.00025028566459393955 300.0 164.0 400.0 2.4186 -2.4185 2.4185 200.0 0.0 
1.928 1.0721404252628597 -1.7790630818307895 -1.7251477747280064 0.36300255643294577 0.49881765223272484 -0.00025169920938635654 300.0 165.60000000000002 400.0 2.4186 -2.4185 2.4185 200.0 0.0 
1.936 1.0751894563623936 -1.7831939174031715 -1.7199632103004512 0.36195029665293 0.49576862123031906 -0.00025311706280335493 300.0 167.2 400.0 2.4186 -2.4185 2.4185 200.0 0.0 
1.944 1.078208556220886 -1.7873451997674596 -1.7147328873966676 0.3608727215706422 0.4927495214690828 -0.0002545391701326658 300.0 168.8 400.0 2.4186 -2.4185 2.4185 200.0 0.0 
1.952 1.0811980498038412 -1.7915167566184844 -1.7094567689356168 0.3597696301512263 0.48976002798351587 -0.00025596547729823135 300.0 170.39999999999998 400.0 2.4186 -2.4185 2.4185 200.0 0.0 
1.96 1.0841582599087634 -1.7957084238371113 -1.704134811177874 0.3586408140171147 0.4867998179761065 -0.00025739593085880844 300.0 172.0 400.0 2.4186 -2.4185 2.4185 200.0 0.0 
1.968 1.0870895071011706 -1.7999200454992788 -1.6987669635699143 0.35748606208505707 0.4838685708813413 -0.00025883047800624465 300.0 173.60000000000002 400.0 2.4186 -2.4185 2.4185 200.0 0.0 
1.976 1.0899921096549063 -1.8041514738851667 -1.6933531685849108 0.3563051694829087 0.4809659684253754 -0.00026026906656344967 300.0 175.2 400.0 2.4186 -2.4185 2.4185 200.0 0.0 
1.984 1.0928663834965904 -1.8084025694887444 -1.6878933615598142 0.35509793712936544 0.47809169468158164 -0.0002617116449820734 300.0 176.8 400.0 2.4186 -2.4185 2.4185 200.0 0.0 
1.992 1.0957126421540602 -1.8126732010279372 -1.6823874705284894 0.3538641579583959 0.475245436122125 -0.00026315816233990675 300.0 178.40000000000003 400.0 2.4186 -2.4185 2.4185 200.0 0.0 
2.0 1.0985311967086604 -1.816963245455671 -1.676835416050658 0.35260363245929294 0.4724268816656584 -0.0002646085683380222 300.0 180.0 400.0 2.4186 -2.4185 2.4185 200.0 -1000.0 
2.008 1.1012667990625937 -1.8211862127031664 -1.6713495309927964 0.3513421665656269 0.46969127940801014 -0.00026603369109499833 300.0 181.56799999999998 400.0 2.4186 -2.4185 2.4185 192.0 -1000.0 
2.016 1.1038662895019788 -1.825254135430478 -1.6660457404890565 0.35010769628465055 0.46709178906108756 -0.0002674040670448294 300.0 183.0719999999999 400.0 2.4186 -2.4185 2.4185 184.0 -1000.0 
2.024 1.1063329612162762 -1.8291647715194892 -1.66092919225705 0.34890312900113973 0.4646251174354139 -0.0002687192307621136 300.0 184.51200000000017 400.0 2.4186 -2.4185 2.4185 176.0 -1000.0 
2.032 1.1086699153429957 -1.8329159958249899 -1.6560048267869767 0.3477312693878749 0.4622881633934647 -0.00026997874503919205 300.0 185.88799999999992 400.0 2.4186 -2.4185 2.4185 168.0 -1000.0 
2.04 1.1108800682202307 -1.8365057957896775 -1.651277377268274 0.3465948407717121 0.4600780105971367 -0.0002711821996707084 300.0 187.2000000000001 400.0 2.4186 -2.4185 2.4185 160.0 -1000.0 
2.048 1.1129661582168322 -1.839932267600679 -1.6467513692278184 0.34549647010770657 0.45799192067756495 -0.00027232921031911984 300.0 188.4480000000002 400.0 2.4186 -2.4185 2.4185 152.0 -1000.0 
2.056 1.1149307521511798 -1.843193612840915 -1.6424311199092416 0.3444386760966145 0.45602732681636043 -0.0002734194174573132 300.0 189.6320000000002 400.0 2.4186 -2.4185 2.4185 144.0 -1000.0 
2.064 1.11677625130983 -1.8462881355907252 -1.6383207374236752 0.34342386228723143 0.454181827726952 -0.00027445248538467067 300.0 190.75200000000018 400.0 2.4186 -2.4185 2.4185 136.0 -1000.0 
2.072 1.1185048970774805 -1.8492142399373195 -1.63442411970264 0.34245433789570145 0.4524531820246381 -0.0002754281013131449 300.0 191.8080000000001 400.0 2.4186 -2.4185 2.4185 128.0 -1000.0 
2.08 1.1201187761896612 -1.8519704278517342 -1.630744953284076 0.3415322905934959 0.4508393029738757 -0.00027634597452011483 300.0 192.79999999999993 400.0 2.4186 -2.4185 2.4185 120.0 -1000.0 
2.088 1.1216198256193806 -1.8545552973950734 -1.6272867119625387 0.3406597893969392 0.44933825360164964 -0.00027720583556499576 300.0 193.72800000000012 400.0 2.4186 -2.4185 2.4185 112.0 -1000.0 
2.096 1.1230098371086572 -1.856967541217904 -1.6240526553344203 0.3398387857292626 0.4479482421659342 -0.00027800743556678146 300.0 194.59199999999984 400.0 2.4186 -2.4185 2.4185 104.0 -1000.0 
2.104 1.1242904613554954 -1.859205945318763 -1.6210458272686428 0.3390711168496303 0.4466676179687173 -0.00027875054553990776 300.0 195.39199999999994 400.0 2.4186 -2.4185 2.4185 96.0 -1000.0 
2.112 1.125463211866356 -1.8612693880297708 -1.6182690543327223 0.33835847676028896 0.44549486750353107 -0.0002794349557860049 300.0 196.12799999999996 400.0 2.4186 -2.4185 2.4185 88.0 -1000.0 
2.12 1.1265294684836797 -1.8631568391995001 -1.6157249442031731 0.33770245130273535 0.4444286109279298 -0.000280060475339321 300.0 196.79999999999993 400.0 2.4186 -2.4185 2.4185 80.0 -1000.0 
2.128 1.1274904805974038 -1.864867359545252 -1.613415884088268 0.3371044836786872 0.44346759885197046 -0.0002806269314637708 300.0 197.40799999999984 400.0 2.4186 -2.4185 2.4185 72.0 -1000.0 
2.136 1.1283473700487952 -1.866400100149065 -1.6113440391898208 0.3365658916434493 0.44261070943438097 -0.00028113416919975387 300.0 197.9520000000001 400.0 2.4186 -2.4185 2.4185 64.0 -1000.0 
2.144 1.1291011337342702 -1.8677543020738454 -1.6095113512292343 0.3360878583806972 0.44185694577873824 -0.0002815820509590635 300.0 198.4319999999999 400.0 2.4186 -2.4185 2.4185 56.0 -1000.0 
2.152 1.1297526459161862 -1.8689292960781958 -1.6079195370613049 0.3356714298666945 0.4412054336226885 -0.0002819704561663896 300.0 198.84800000000007 400.0 2.4186 -2.4185 2.4185 48.0 -1000.0 
2.16 1.130302660246876 -1.8699245024106337 -1.606570087397457 0.3353175186357509 0.44065541931388885 -0.00028229928094607236 300.0 199.20000000000016 400.0 2.4186 -2.4185 2.4185 40.0 -1000.0 
2.168 1.1307518115115012 -1.870739430666128 -1.6054642656579432 0.3350268977250881 0.44020626806717716 -0.00028256843785295064 300.0 199.4880000000001 400.0 2.4186 -2.4185 2.4185 32.0 -1000.0 
2.176 1.1311006170945523 -1.871373679690065 -1.604603106970342 0.33480019897906854 0.4398574624980625 -0.0002827778556462939 300.0 199.71200000000005 400.0 2.4186 -2.4185 2.4185 24.0 -1000.0 
2.184 1.1313494781741071 -1.8718269375169982 -1.6039874173293045 0.33463791571307944 0.43960860142846414 -0.00028292747910598116 300.0 199.87199999999996 400.0 2.4186 -2.4185 2.4185 16.0 -1000.0 
2.192 1.1314986806472014 -1.872098981333819 -1.6036177729299264 0.33454040768376303 0.4394593989613413 -0.00028301726889023326 300.0 199.9679999999998 400.0 2.4186 -2.4185 2.4185 8.0 -1000.0 
2.2 1.131548395788938 -1.8721896774592426 -1.6034945196845334 0.33450787815528416 0.4394096838215963 -0.00028304720143437355 300.0 200.0 400.0 2.4186 -2.4185 2.4185 0.0 -1000.0 
