Fleaurent/UniversalRobot/csv/robot_movel_x400.csv
timestamp target_q_0 target_q_1 target_q_2 target_q_3 target_q_4 target_q_5 target_qd_0 target_qd_1 target_qd_2 target_qd_3 target_qd_4 target_qd_5 target_qdd_0 target_qdd_1 target_qdd_2 target_qdd_3 target_qdd_4 target_qdd_5 target_current_0 target_current_1 target_current_2 target_current_3 target_current_4 target_current_5 target_moment_0 target_moment_1 target_moment_2 target_moment_3 target_moment_4 target_moment_5 actual_q_0 actual_q_1 actual_q_2 actual_q_3 actual_q_4 actual_q_5 actual_qd_0 actual_qd_1 actual_qd_2 actual_qd_3 actual_qd_4 actual_qd_5 actual_current_0 actual_current_1 actual_current_2 actual_current_3 actual_current_4 actual_current_5 joint_control_output_0 joint_control_output_1 joint_control_output_2 joint_control_output_3 joint_control_output_4 joint_control_output_5 actual_TCP_pose_0 actual_TCP_pose_1 actual_TCP_pose_2 actual_TCP_pose_3 actual_TCP_pose_4 actual_TCP_pose_5 actual_TCP_speed_0 actual_TCP_speed_1 actual_TCP_speed_2 actual_TCP_speed_3 actual_TCP_speed_4 actual_TCP_speed_5 actual_TCP_force_0 actual_TCP_force_1 actual_TCP_force_2 actual_TCP_force_3 actual_TCP_force_4 actual_TCP_force_5 target_TCP_pose_0 target_TCP_pose_1 target_TCP_pose_2 target_TCP_pose_3 target_TCP_pose_4 target_TCP_pose_5 target_TCP_speed_0 target_TCP_speed_1 target_TCP_speed_2 target_TCP_speed_3 target_TCP_speed_4 target_TCP_speed_5
7469.92 2.466573362643995 -1.2693636942630313 1.6040544893220925 -3.484740852458191 -0.8989704809528387 0.010797225760630804 -0.2 0.000527559259716018 -0.0007204220635211016 -0.001578126985358611 0.19999397259846544 0.0011834243440521142 0.0 0.0 0.0 0.0 0.0 0.0 -0.3069642586589351 -0.8035904639343325 -0.7203058246043769 -0.08141931018487165 0.23249974415284894 0.02708017896963076 7.112366367638154e-05 -9.404529632346215 -5.9830120393317205 -0.22034129991269333 -0.0014360022200479853 0.0 2.46661639213562 -1.269404713307516 1.6041040420532227 -3.484778706227438 -0.8988431135760706 0.010739363729953766 -0.19985853135585785 0.0006135923322290182 -0.0014381069922819734 -0.0019893813878297806 0.20123910903930664 0.0005752427969127893 -0.3117828667163849 -0.5764618515968323 -0.9363752603530884 -0.1879909634590149 0.2887004017829895 0.1712060570716858 -0.3117828667163849 -0.5944061875343323 -0.9363752603530884 -0.18239599466323853 0.28198644518852234 0.16113510727882385 0.3663593118040446 -0.08187131240123582 0.4002235014113894 -1.2060199300296885 1.2077084121026913 -1.2089805216651688 -0.01638138647884818 -0.056620499112785626 0.00015249260603632104 -0.001932842333990301 -0.0003967825709876434 0.0013879063837345608 -21.464269444470105 7.441988511298381 -0.22197343353641624 -0.6672921818896606 3.4859690924181814 -0.9071327077377274 0.36636568781976464 -0.08190546970724545 0.4002204784520658 -1.2058990273526147 1.2078858630970895 -1.2090395242530354 -0.016377856749213236 -0.05679229268487456 -3.370407239798817e-05 -0.0006655955704684273 0.0004042061676412642 -1.4835339248901229e-06
7469.928 2.4649733626439954 -1.2693594737889544 1.6040487259455845 -3.484753477474074 -0.8973705291720506 0.010806693155383221 -0.2 0.000527559259716018 -0.0007204220635211016 -0.001578126985358611 0.19999397259846544 0.0011834243440521142 0.0 0.0 0.0 0.0 0.0 0.0 -0.3069642117921333 -0.8035682619508737 -0.7202700464740506 -0.08134537328916769 0.2324985110345176 0.02708017896963076 7.166150706550423e-05 -9.404273898817529 -5.982709957700232 -0.22003612617426244 -0.0014411213655170282 0.0 2.465047597885132 -1.269381348286764 1.604032039642334 -3.4847667852984827 -0.8971884886371058 0.010787300765514374 -0.2007022202014923 0.0005368932615965605 -0.0012223910307511687 -0.0019893813878297806 0.20430707931518555 0.0005752427969127893 -0.2714081108570099 -0.5899201035499573 -0.9501006603240967 -0.1667300909757614 0.12644630670547485 0.17232505977153778 -0.2691650688648224 -0.5966492295265198 -0.9348502159118652 -0.17568203806877136 0.12197033315896988 0.16449210047721863 0.36623511148317994 -0.08231322479784997 0.40023271804756216 -1.2060365684814491 1.207643935310921 -1.208909771366107 -0.016552717979758973 -0.0566422285897651 0.0001181963325123644 -0.0018640259089165272 -0.0002519730208611363 0.003611378264033755 -24.52534366203197 3.8733023401020246 -1.2768808587485305 -0.6756458452761467 3.309333005543555 0.14271940815116205 0.3662343016125735 -0.08235970296934374 0.4002202072534407 -1.2059053426740236 1.2078857467827016 -1.2090419201433331 -0.016468688034019595 -0.0567659986240201 -3.409566717170565e-05 -0.0006671623480468273 0.0004089302604323031 -1.511484844600195e-06
7469.936 2.463373362643995 -1.2693552533148766 1.6040429625690762 -3.484766102489957 -0.8957705773912625 0.010816160550135638 -0.2 0.000527559259716018 -0.0007204220635211016 -0.001578126985358611 0.19999397259846544 0.0011834243440521142 0.0 0.0 0.0 0.0 0.0 0.0 -0.3069641649472789 -0.8035460093597588 -0.7202341993094823 -0.08127129517606436 0.23249727631804948 0.02708017896963076 7.219909858557799e-05 -9.404017582364594 -5.982407293199369 -0.21973036956254086 -0.0014462471454627403 0.0 2.463395357131958 -1.2693331877337855 1.6040678024291992 -3.484826389943258 -0.8955577055560511 0.010835986584424973 -0.20164178311824799 0.000517718552146107 -0.0010546118719503284 -0.0019893813878297806 0.1991298943758011 0.0018216022290289402 -0.2287903130054474 -0.6258087754249573 -0.953150749206543 -0.1667300909757614 0.21596580743789673 0.1533021628856659 -0.2310333549976349 -0.6033783555030823 -0.9363752603530884 -0.17568203806877136 0.21484681963920593 0.14770719408988953 0.3661045397015476 -0.08278858977595316 0.4002095936442263 -1.2060085445112543 1.2077116718052685 -1.2088670364418816 -0.016727548832034114 -0.057385051817025266 8.398018965879273e-05 -0.0005018320670091117 -0.00018125524404636527 -0.0025021620636736445 -23.118649695847843 3.0326164137786806 -1.9967174425130807 -0.5862354325496606 3.0017175090938837 -0.20215949821404902 0.36610218892380514 -0.08281372529787553 0.4002199329200622 -1.2059116949223558 1.2078856525906458 -1.2090443075560835 -0.016559477100880547 -0.05673955930046447 -3.448776038781042e-05 -0.0006687187361383942 0.0004136603959975658 -1.5395206630775934e-06
7469.9439999999995 2.4617733626439953 -1.2693510328407989 1.6040371991925682 -3.48477872750584 -0.8941706256104753 0.010825627944888056 -0.2 0.000527559259716018 -0.0007204220635211016 -0.001578126985358611 0.19999397259846544 0.0011834243440521142 0.0 0.0 0.0 0.0 0.0 0.0 -0.3069641181244916 -0.8035237062256844 -0.7201982831989335 -0.08119707602610281 0.2324960400097834 0.02708017896963076 7.273643686355992e-05 -9.40376068373262 -5.9821040465743405 -0.21942403082271036 -0.0014513795335700365 0.0 2.461862564086914 -1.2693455854998987 1.6040558815002441 -3.484778706227438 -0.8939865271197718 0.010859955102205276 -0.2006063461303711 0.000517718552146107 -0.0009347695740871131 -0.0019893813878297806 0.1998010128736496 0.0018216022290289402 -0.2489776909351349 -0.6145935654640198 -0.942475438117981 -0.170087069272995 0.19358593225479126 0.1365172564983368 -0.2444916069507599 -0.6011353135108948 -0.9379003047943115 -0.1712060570716858 0.2025378942489624 0.13875523209571838 0.3659780546818853 -0.0832207759480156 0.4002127348734393 -1.2060263288367217 1.207722988970457 -1.208799591938476 -0.01672768109623408 -0.05692650518735624 5.169665097676657e-05 -0.0004257698631544461 -8.11805927092033e-05 -0.0007960476552850056 -22.767084567014994 3.5126108541354433 -1.415254279749177 -0.5086721246852146 3.013544049384709 -0.13695711923487106 0.36596935009215226 -0.08326753553097165 0.40021965544794985 -1.2059180840716348 1.207885580596235 -1.2090466864077059 -0.016650223717505207 -0.056712974782014786 -3.488035030442561e-05 -0.0006702647194240916 0.0004183965531736103 -1.5676414372814755e-06
7469.951999999999 2.460173362643995 -1.269346812366721 1.60403143581606 -3.484791352521723 -0.8925706738296872 0.010835095339640471 -0.2 0.000527559259716018 -0.0007204220635211016 -0.001578126985358611 0.19999397259846544 0.0011834243440521142 0.0 0.0 0.0 0.0 0.0 0.0 -0.3069640713238914 -0.8035013526134779 -0.720162298230843 -0.08112271602018534 0.23249480211606868 0.02708017896963076 7.327352052216191e-05 -9.403503203668324 -5.98180021857185 -0.21911711070144316 -0.0014565185034805762 0.0 2.460293769836426 -1.2692974249469202 1.6041159629821777 -3.484838310872213 -0.8923442999469202 0.010859955102205276 -0.19895730912685394 0.000517718552146107 -0.0 -0.0017257285071536899 0.1961098611354828 0.0018216022290289402 -0.2714081108570099 -0.6325379014015198 -0.9470505714416504 -0.17568203806877136 0.2528926134109497 0.14435020089149475 -0.2714081108570099 -0.6056213974952698 -0.953150749206543 -0.17568203806877136 0.2506546378135681 0.134279265999794 0.36585322787697816 -0.08366451348628687 0.40018317116114105 -1.2060814677613014 1.2077193781389557 -1.2087025807050635 -0.01665174381660299 -0.05662607353540031 -0.00020954802741577562 0.00034813882212787604 0.0008155793000126291 -0.002842544955436332 -20.72983529375317 4.940937201138373 -1.7590349041290874 -0.544156923701295 2.972440934245271 -0.5308058354726254 0.3658357854581482 -0.08372113250737916 0.4002193748331374 -1.2059245100956701 1.2078855308747143 -1.209049056614609 -0.01674092765171015 -0.05668624513684659 -3.5273435176942156e-05 -0.000671800282626411 0.00042313871076380815 -1.5958472241901333e-06
7469.96 2.458573362643995 -1.2693425918926433 1.6040256724395516 -3.4848039775376054 -0.8909707220489 0.010844562734392889 -0.2 0.000527559259716018 -0.0007204220635211016 -0.001578126985358611 0.19999397259846544 0.0011834243440521142 0.0 0.0 0.0 0.0 0.0 0.0 -0.30696402454559807 -0.8034789485880955 -0.7201262444938249 -0.08104821533957522 0.2324935626432651 0.02708017896963076 7.381034818827656e-05 -9.403245142919902 -5.981495809940087 -0.2188096099469015 -0.0014616640287925394 0.0 2.4587008953094482 -1.2693455854998987 1.604032039642334 -3.484814469014303 -0.8907969633685511 0.01082400232553482 -0.20006944239139557 0.000517718552146107 -0.0 -0.0014141385909169912 0.19879433512687683 0.0018216022290289402 -0.3005676567554474 -0.6370239853858948 -0.9867016673088074 -0.1879909634590149 0.18239599466323853 0.12756529450416565 -0.2960815727710724 -0.6078644394874573 -0.9562008380889893 -0.17792002856731415 0.17456303536891937 0.14323121309280396 0.3657110355910218 -0.08411259200744536 0.40021895050095896 -1.2060893159109476 1.2076491115712624 -1.2088499982326135 -0.016812767720267553 -0.05680033400310948 -0.00023259362781441608 0.0005187861452223303 0.0010978333281038862 -0.0012721566413012428 -22.346001694596325 5.627884576888454 -2.752834853826455 -0.466920827286586 3.0945366163668186 -0.260901627028876 0.3657014953641654 -0.08417451506634122 0.400219091071672 -1.2059309729680556 1.2078855035012641 -1.20905141809319 -0.016831588671418058 -0.056659370433506724 -3.566701325793712e-05 -0.000673325410508653 0.0004278868475377084 -1.624138080428202e-06
7469.968 2.4569733626439954 -1.2693383714185655 1.6040199090630436 -3.4848166025534884 -0.889370770268112 0.010854030129145306 -0.2 0.000527559259716018 -0.0007204220635211016 -0.001578126985358611 0.19999397259846544 0.0011834243440521142 0.0 0.0 0.0 0.0 0.0 0.0 -0.3069639777897312 -0.8034564942146234 -0.7200901220766702 -0.08097357416589554 0.23249232159774272 0.02708017896963076 7.434691848733103e-05 -9.402986502237047 -5.981190821428729 -0.21850152930873265 -0.0014668160830612824 0.0 2.457096576690674 -1.2693694273578089 1.604043960571289 -3.484802548085348 -0.8891542593585413 0.01088392361998558 -0.19997356832027435 0.000517718552146107 -0.0 -0.0011984225129708648 0.18750518560409546 0.001701759989373386 -0.2848663628101349 -0.6123505234718323 -0.9607759714126587 -0.17568203806877136 0.20813286304473877 0.12756529450416565 -0.2983246147632599 -0.6078644394874573 -0.9562008380889893 -0.18015800416469574 0.20813286304473877 0.14099322259426117 0.365572160599707 -0.08456093638635831 0.4002218501101882 -1.2060788010539656 1.2076573352091424 -1.2087751250269827 -0.01688118351826188 -0.05767897074807611 -0.00023802247176914543 0.0005784562734040994 0.0011654894819831587 -0.012466476101992538 -22.550011045300383 5.4347226768010986 -1.8095437291072596 -0.4667643443658424 3.1049064524369996 -0.3642639279965221 0.3655664801544604 -0.084627682047677 0.4002188041596145 -1.205937472662171 1.2078854985509966 -1.209053770759833 -0.01692220654466477 -0.05663235074091401 -3.606108279724099e-05 -0.0006748400878754558 0.00043264094223154293 -1.6525140625074452e-06
7469.976 2.455373362643995 -1.2693341509444878 1.6040141456865353 -3.4848292275693713 -0.8877708184873239 0.010863497523897724 -0.2 0.000527559259716018 -0.0007204220635211016 -0.001578126985358611 0.19999397259846544 0.0011834243440521142 0.0 0.0 0.0 0.0 0.0 0.0 -0.3069639310564106 -0.8034339895582753 -0.7200539310683453 -0.08089879268112929 0.232491078985882 0.02708017896963076 7.488323004558579e-05 -9.402727282370925 -5.980885253788935 -0.2181928695380694 -0.0014719746397990484 0.0 2.4555037021636963 -1.2693212668048304 1.6040797233581543 -3.484778706227438 -0.8876073996173304 0.01082400232553482 -0.19976265728473663 0.000517718552146107 -0.0 -0.0011984225129708648 0.20265324413776398 0.001390170189552009 -0.2512207329273224 -0.6033783555030823 -0.9684011340141296 -0.18239599466323853 0.20029990375041962 0.13875523209571838 -0.3162689507007599 -0.6078644394874573 -0.9562008380889893 -0.18015800416469574 0.1868719756603241 0.1365172564983368 0.3654484158498384 -0.08502501346867845 0.4001935174716482 -1.206126615435515 1.207764549549737 -1.2087616797690377 -0.01695459474174687 -0.05632964288037569 -0.00024830389966620954 0.00022962997893889692 0.0012902194034072876 0.0028909649034203847 -24.43662570039035 4.387346617936791 -1.73103094956881 -0.5189737955108983 3.2861186278287344 -0.24287382298480198 0.36543074017512583 -0.08508063229175035 0.40021851409304116 -1.2059440091511817 1.207885516098955 -1.2090561145309164 -0.017012781039597847 -0.05660518612835424 -3.6455642041986216e-05 -0.0006763442995731403 0.00043740097354851216 -1.6809752268027319e-06
7469.9839999999995 2.4537733626439953 -1.26932993047041 1.6040083823100273 -3.4848418525852543 -0.8861708667065367 0.01087296491865014 -0.2 0.000527559259716018 -0.0007204220635211016 -0.001578126985358611 0.19999397259846544 0.0011834243440521142 0.0 0.0 0.0 0.0 0.0 0.0 -0.3069638843457558 -0.803411434684394 -0.7200176715579916 -0.08082387106761883 0.23248983481407381 0.02708017896963076 7.54192814919658e-05 -9.40246748407419 -5.980579107773346 -0.2178836313875281 -0.0014771396724750285 0.0 2.4539711475372314 -1.2693331877337855 1.6040558815002441 -3.484802548085348 -0.8860843817340296 0.010859955102205276 -0.1972891092300415 0.000517718552146107 -0.0 -0.0011984225129708648 0.18633073568344116 0.0011984225129708648 -0.3992615044116974 -0.5921631455421448 -0.9928017854690552 -0.19358593225479126 0.3222702145576477 0.134279265999794 -0.3880462944507599 -0.6078644394874573 -0.9775514006614685 -0.1868719756603241 0.3200322389602661 0.13987423479557037 0.3653137179590839 -0.0854561200860047 0.4002042134841097 -1.2061037286203475 1.2077440070572547 -1.2087891784259674 -0.016830057381586137 -0.05674339929991283 -0.00023696247521852868 9.002910810918714e-05 0.0011523489591674907 -0.010957795241898237 -20.45891730197884 11.972329141769597 -2.0662451475441364 -0.4950604636059928 3.4948120516395607 -1.437720167139914 0.36529427577411655 -0.08553336463945793 0.4002182208680407 -1.205950582408038 1.207885556220117 -1.209058449322805 -0.017103311924466662 -0.05657787666548841 -3.6850689236485317e-05 -0.0006778380304889073 0.000442166920158132 -1.709521629223715e-06
7469.991999999999 2.452173362643995 -1.2693257099963322 1.604002618933519 -3.484854477601137 -0.8845709149257486 0.010882432313402557 -0.2 0.000527559259716018 -0.0007204220635211016 -0.001578126985358611 0.19999397259846544 0.0011834243440521142 0.0 0.0 0.0 0.0 0.0 0.0 -0.3069638376578862 -0.8033888296584522 -0.7199813436349274 -0.08074880950806511 0.23248858908871922 0.02708017896963076 7.595507145429027e-05 -9.402207108100983 -5.980272384136093 -0.21757381561120467 -0.0014823111545158305 0.0 2.4523541927337646 -1.2693455854998987 1.604020118713379 -3.484814469014303 -0.8845489660846155 0.010847970843315125 -0.20020367205142975 0.000517718552146107 -0.0 -0.0011984225129708648 0.19335348904132843 0.0011984225129708648 -0.3207550346851349 -0.6033783555030823 -0.9821265339851379 -0.17568203806877136 0.27862948179244995 0.13204127550125122 -0.3005676567554474 -0.6078644394874573 -0.9806014895439148 -0.1879909634590149 0.27862948179244995 0.13875523209571838 0.3651716791181814 -0.08591726482504615 0.4002174492476717 -1.2060823254460276 1.207753461509733 -1.208905560832589 -0.01716980035801624 -0.057201372017469054 -0.00024293089164507858 5.741151489329831e-05 0.0012247877404587299 -0.006849997300770457 -22.250267115150862 8.25863050755013 -2.2990962479092283 -0.4856468245377313 3.2611617806070186 -0.9266841369673681 0.36515708730123864 -0.08598587793229802 0.4002179244807168 -1.2059571924054773 1.2078856189893883 -1.2090607750518525 -0.01719379896764723 -0.05655042242234802 -3.724622262237812e-05 -0.0006793212655518265 0.00044693876069707447 -1.7381533257424304e-06
7470.0 2.450573362643995 -1.2693214895222544 1.6039968555570108 -3.48486710261702 -0.8829709631449614 0.010891899708154974 -0.2 0.000527559259716018 -0.0007204220635211016 -0.001578126985358611 0.19999397259846544 0.0011834243440521142 0.0 0.0 0.0 0.0 0.0 0.0 -0.3069637909929215 -0.803366174546049 -0.7199449473886449 -0.08067360818552752 0.23248734181622963 0.02708017896963076 7.649059856063725e-05 -9.401946155206913 -5.9799650836327745 -0.21726342296467493 -0.0014874890593052287 0.0 2.4507017135620117 -1.2693212668048304 1.6040558815002441 -3.4848626295672815 -0.8829906622516077 0.010895907878875732 -0.2007022202014923 0.0004985437844879925 -0.0 -0.0011984225129708648 0.19335348904132843 0.0011984225129708648 -0.2871094048023224 -0.6056213974952698 -0.9882267117500305 -0.19918090105056763 0.168968066573143 0.13987423479557037 -0.2826233208179474 -0.6078644394874573 -0.9851766228675842 -0.18910996615886688 0.1521831601858139 0.14435020089149475 0.3650312762569614 -0.08639384271058753 0.40020168780845694 -1.2060182645179425 1.2078632682961032 -1.2089272209560258 -0.01731048627158926 -0.05735223750087662 -0.00023650349146180427 4.898071473320633e-05 0.0012102966587215747 -0.007348530069871585 -24.47061635009266 5.646812115148509 -2.012025113618604 -0.5237087340554648 3.471193996476863 -0.20261942823239337 0.36501917510816695 -0.08643817101231446 0.400217624927187 -1.205963839116021 1.2078857044816074 -1.209063091634407 -0.01728424193762443 -0.056522823469332316 -3.764224043858529e-05 -0.0006807939897324671 0.000451716473768959 -1.7668703720399612e-06
7470.008 2.4489733626439953 -1.2693172690481767 1.6039910921805027 -3.4848797276329027 -0.8813710113641733 0.010901367102907391 -0.2 0.000527559259716018 -0.0007204220635211016 -0.001578126985358611 0.19999397259846544 0.0011834243440521142 0.0 0.0 0.0 0.0 0.0 0.0 -0.30696374435098095 -0.8033434694129135 -0.719908482908812 -0.08059826728342347 0.23248609300302678 0.02708017896963076 7.702586144121646e-05 -9.401684626149077 -5.979657207020475 -0.2169524542049922 -0.0014926733601842948 0.0 2.4491209983825684 -1.2693093458758753 1.6040081977844238 -3.4848745504962366 -0.881479565297262 0.010895907878875732 -0.20089396834373474 0.0004985437844879925 -0.0 -0.0011984225129708648 0.19474366307258606 0.0011984225129708648 -0.2983246147632599 -0.6101074814796448 -0.9836515784263611 -0.18351499736309052 0.28086745738983154 0.13204127550125122 -0.3005676567554474 -0.6078644394874573 -0.9897517561912537 -0.18351499736309052 0.2898194193840027 0.14323121309280396 0.3648954055667241 -0.08684703567892853 0.4002098946972545 -1.2059948793074082 1.2078803254539976 -1.2090157128806374 -0.017416905187088445 -0.05728048025308717 -0.0002381760534734105 3.867379403243597e-05 0.001230543934469055 -0.006150222705901682 -22.549765042760672 7.447438783387337 -2.2957369363582854 -0.4852719305086642 3.2852770153340076 -0.8703158823022522 0.3648805395483856 -0.08689024272212548 0.40021732220358264 -1.2059705225119781 1.2078858127715444 -1.2090653989868028 -0.017374640602982803 -0.05649507987721033 -3.803874092124681e-05 -0.0006822561880427501 0.0004565000379441071 -1.7956728235735449e-06
7470.016 2.447373362643995 -1.2693130485740989 1.6039853288039945 -3.4848923526487856 -0.8797710595833852 0.010910834497659807 -0.2 0.000527559259716018 -0.0007204220635211016 -0.001578126985358611 0.19999397259846544 0.0011834243440521142 0.0 0.0 0.0 0.0 0.0 0.0 -0.3069636977321839 -0.8033207143249012 -0.7198719502852703 -0.08052278698552721 0.23248484265554248 0.02708017896963076 7.756085872756682e-05 -9.401422521686033 -5.979348755057742 -0.2166409100906828 -0.001497864030451958 0.0 2.4474925994873047 -1.2693093458758753 1.604032039642334 -3.4848745504962366 -0.879920784627096 0.010919876396656036 -0.1992449313402176 0.0004985437844879925 -0.0 -0.0015100124292075634 0.2009994238615036 0.0011984225129708648 -0.2287903130054474 -0.6101074814796448 -1.000427007675171 -0.1868719756603241 0.22491776943206787 0.14658819139003754 -0.2310333549976349 -0.5921631455421448 -0.9836515784263611 -0.19358593225479126 0.24617864191532135 0.14323121309280396 0.3647539936577828 -0.08731299308052602 0.4002024315405323 -1.2059612178009802 1.2079713580085913 -1.2090271649652509 -0.017385518715106536 -0.05611825820979898 -0.0002231862827620521 -0.0001770682654577559 0.0010460807106325574 0.0017560475968520439 -26.073482016543128 4.492331906784962 -2.703505347436614 -0.5539251427185964 3.4277264627343698 -0.3679015050698581 0.36474118097728053 -0.0873420919048538 0.4002170163060498 -1.2059772425654407 1.2078859439338976 -1.2090676970253698 -0.017464994732439884 -0.05646719171712231 -3.8435722303822406e-05 -0.0006837078455366778 0.00046128943176025156 -1.8245607355508552e-06
7470.023999999999 2.4457733626439953 -1.269308828100021 1.6039795654274864 -3.4849049776646686 -0.878171107802598 0.010920301892412224 -0.2 0.000527559259716018 -0.0007204220635211016 -0.001578126985358611 0.19999397259846544 0.0011834243440521142 0.0 0.0 0.0 0.0 0.0 0.0 -0.30696365113664975 -0.8032979093479969 -0.7198353496080371 -0.0804471674759705 0.2324835907802189 0.02708017896963076 7.809558904851904e-05 -9.401159842577826 -5.9790397285046115 -0.21632879138174843 -0.0015030610433644151 0.0 2.4459474086761475 -1.2693455854998987 1.6040558815002441 -3.484910313283102 -0.8783381620990198 0.010895907878875732 -0.19905318319797516 0.0004985437844879925 -0.0 -0.0015100124292075634 0.20569723844528198 0.0011984225129708648 -0.2736511528491974 -0.6078644394874573 -0.9958518743515015 -0.1667300909757614 0.28310543298721313 0.14323121309280396 -0.2736511528491974 -0.6011353135108948 -0.9989019632339478 -0.1857529729604721 0.27639147639274597 0.14323121309280396 0.364609878973251 -0.08773866586261969 0.40020938166869335 -1.2060068565353284 1.207898506283225 -1.2090547207473767 -0.017453765476968107 -0.055632739040601044 -0.00022740402015759752 -0.00020011571704156548 0.0010973019050315926 0.006645326919783735 -24.098482630242607 6.921655982870892 -2.961037684903088 -0.5371730829244569 3.2769321248467556 -0.837968336823836 0.36460109975205285 -0.08779371740426699 0.4002167072307482 -1.2059839992482888 1.2078860980432964 -1.209069985666429 -0.017555304094812135 -0.05643915906058334 -3.883318281710651e-05 -0.0006851489473098673 0.0004660846337222261 -1.8535341631994602e-06
7470.031999999999 2.444173362643995 -1.2693046076259433 1.6039738020509782 -3.4849176026805515 -0.8765711560218099 0.010929769287164642 -0.2 0.000527559259716018 -0.0007204220635211016 -0.001578126985358611 0.19999397259846544 0.0011834243440521142 0.0 0.0 0.0 0.0 0.0 0.0 -0.3069636045644978 -0.8032750545483124 -0.7197986809673034 -0.08037140893924109 0.23248233738350832 0.02708017896963076 7.863005103599704e-05 -9.400896589585965 -5.978730128122582 -0.21601609883966036 -0.0015082643721358153 0.0 2.444319009780884 -1.2692855040179651 1.6040081977844238 -3.4849584738360804 -0.8767069021808069 0.010955829173326492 -0.2006063461303711 0.0004985437844879925 -0.0 -0.0015100124292075634 0.20864535868167877 0.0011984225129708648 -0.3274841606616974 -0.5988922715187073 -0.9745013117790222 -0.168968066573143 0.13316026329994202 0.16113510727882385 -0.3252411186695099 -0.6033783555030823 -0.9928017854690552 -0.17903901636600494 0.12868429720401764 0.14323121309280396 0.364474465758057 -0.08820437223106095 0.40020355991401807 -1.2059761347820492 1.2079014953860907 -1.2090353388199424 -0.017683289012053488 -0.05592907358154423 -0.00023020856346487863 -0.00021484354568836856 0.0011312503088926884 0.008040092180687332 -23.451158501052777 6.746122729086374 -2.1174342078385346 -0.622184547402707 3.3713884062693604 -0.12625616099352407 0.36446029623176224 -0.08824511806468674 0.40021639497385175 -1.205990792532188 1.2078862751742998 -1.2090722648262895 -0.01764556845903553 -0.0564109819794669 -3.923112068911335e-05 -0.000686579478499467 0.0004708856223018944 -1.88259316125517e-06
7470.04 2.442573362643995 -1.2693003871518656 1.6039680386744701 -3.4849302276964345 -0.8749712042410227 0.010939236681917059 -0.2 0.000527559259716018 -0.0007204220635211016 -0.001578126985358611 0.19999397259846544 0.0011834243440521142 0.0 0.0 0.0 0.0 0.0 0.0 -0.30696355801584707 -0.8032521499920872 -0.7197619444534339 -0.08029551156018312 0.2324810824718732 0.02708017896963076 7.916424332313603e-05 -9.40063276347343 -5.978419954674622 -0.21570283322736084 -0.0015134739899378376 0.0 2.4427502155303955 -1.2692974249469202 1.6040081977844238 -3.4849465529071253 -0.8750885168658655 0.010955829173326492 -0.20028036832809448 0.0004985437844879925 -0.0 -0.0024208135437220335 0.19992084801197052 0.0012223910307511687 -0.2960815727710724 -0.5966492295265198 -1.0172024965286255 -0.17232505977153778 0.18351499736309052 0.15889713168144226 -0.3072967827320099 -0.6011353135108948 -1.0050021409988403 -0.18015800416469574 0.19022895395755768 0.14658819139003754 0.3643343865808205 -0.08864151792892444 0.40020560040048025 -1.2060148276027307 1.207873277249447 -1.2089962614385275 -0.01780345108024058 -0.05645029477664122 -0.00016684389440310232 -0.0007407575584050606 0.00035442265672973544 -0.0003527914008986358 -26.12196930149642 7.0318771045572435 -3.272302874922498 -0.6113068134366592 3.5402320205576587 -0.3864824476027496 0.3643187707773063 -0.08869629273100518 0.40021607953154886 -1.2059976223885895 1.207886475401396 -1.2090745344212566 -0.01773578759417336 -0.05638266054602339 -3.9629534145209186e-05 -0.0006879994242848856 0.0004756923759386226 -1.9117377843823283e-06
7470.048 2.4409733626439953 -1.2692961666777887 1.6039622752979619 -3.484942852712317 -0.8733712524602346 0.010948704076669475 -0.2 0.000527559259716018 -0.0007204220635211016 -0.001578126985358611 0.19999397259846544 0.0011834243440521142 0.0 0.0 0.0 0.0 0.0 0.0 -0.3069635114908167 -0.8032291957456874 -0.7197251401569676 -0.0802194755239957 0.23247982605178616 0.02708017896963076 7.969816454307652e-05 -9.40036836500466 -5.978109208925168 -0.21538899530925712 -0.0015186898699004428 0.0 2.4410979747772217 -1.2693212668048304 1.6040081977844238 -3.484910313283102 -0.8734458128558558 0.010919876396656036 -0.19801774621009827 0.0007669904152862728 -0.0006471481756307185 -0.0024208135437220335 0.20140689611434937 0.0012223910307511687 -0.3633728325366974 -0.5809479355812073 -1.0172024965286255 -0.16113510727882385 0.21148984134197235 0.14323121309280396 -0.3229980766773224 -0.6011353135108948 -1.0309278964996338 -0.170087069272995 0.21037083864212036 0.13875523209571838 0.3641855211159543 -0.08910626516903858 0.40021010754586844 -1.2060533472825075 1.2078825563817777 -1.2090170063946633 -0.017650968872992105 -0.0555101716607975 -8.762811041054992e-05 -0.0009870312778966798 7.953099916424309e-05 0.00339757596747662 -24.651861747568272 10.146526411031854 -3.243746164585189 -0.5375638986131694 3.5143542546912503 -0.7727622744532366 0.3641765237514738 -0.08914724024866838 0.4002157609000422 -1.2060044887887305 1.2078866987990016 -1.209076794367627 -0.01782596126938993 -0.05635419483287333 -4.002842140807684e-05 -0.0006894087698874244 0.0004805048730392287 -1.9409680870397187e-06
7470.056 2.439373362643995 -1.26929194620371 1.6039565119214536 -3.4849554777282 -0.8717713006794465 0.010958171471421892 -0.2 0.000527559259716018 -0.0007204220635211016 -0.001578126985358611 0.19999397259846544 0.0011834243440521142 0.0 0.0 0.0 0.0 0.0 0.0 -0.30696346498952576 -0.8032061918756092 -0.7196882681686163 -0.08014330101623378 0.23247856812972995 0.02708017896963076 8.023181332913151e-05 -9.400103394945589 -5.977797891640116 -0.21507458585122524 -0.0015239119851110274 0.0 2.439528703689575 -1.2692974249469202 1.6039485931396484 -3.4849827925311487 -0.8719585577594202 0.010955829173326492 -0.19976265728473663 0.0007669904152862728 -0.0006471481756307185 -0.0024208135437220335 0.20382770895957947 0.0012223910307511687 -0.4037475883960724 -0.6145935654640198 -1.0202525854110718 -0.17232505977153778 0.27862948179244995 0.12197033315896988 -0.3431854546070099 -0.6101074814796448 -1.0278778076171875 -0.16337309777736664 0.27974846959114075 0.14099322259426117 0.3640445377697511 -0.08955434807310957 0.4002212127133984 -1.2059927421117962 1.207872828883479 -1.209138428605873 -0.017894391989410313 -0.0559180846687464 -9.09185255412125e-05 -0.001012569621380516 0.00011927367656107907 0.00407325238906545 -21.025639550180685 11.98568325357324 -3.7065234251437422 -0.4372883212384018 3.2845224885042 -1.2350608953459634 0.3640335555188492 -0.08959795946376425 0.4002154390755476 -1.2060113917036344 1.2078869454414638 -1.2090790445816892 -0.017916089253963374 -0.0563255849130039 -4.04277806976662e-05 -0.0006908075005699817 0.00048532309197761234 -1.970284123552142e-06
7470.063999999999 2.4377733626439952 -1.269287725729633 1.6039507485449456 -3.484968102744083 -0.8701713488986593 0.01096763886617431 -0.2 0.000527559259716018 -0.0007204220635211016 -0.001578126985358611 0.19999397259846544 0.0011834243440521142 0.0 0.0 0.0 0.0 0.0 0.0 -0.30696341851209324 -0.803183138448471 -0.7196513285792661 -0.08006698822280565 0.23247730871219724 0.02708017896963076 8.07651883157404e-05 -9.399837854063561 -5.977486003586837 -0.21475960562059973 -0.0015291403086160483 0.0 2.437924385070801 -1.2692974249469202 1.6039485931396484 -3.484994713460104 -0.8702915350543421 0.010991781949996948 -0.1993599832057953 0.0007669904152862728 -0.006495450157672167 -0.0023968450259417295 0.20804615318775177 0.0012223910307511687 -0.3745880424976349 -0.6190796494483948 -0.9394253492355347 -0.14882618188858032 0.17680102586746216 0.1376362442970276 -0.4172058403491974 -0.6078644394874573 -0.9409503936767578 -0.16225410997867584 0.170087069272995 0.13875523209571838 0.3638998520318848 -0.09000032445878944 0.40022068789548976 -1.2060107535601392 1.2078417970974948 -1.2090729118854953 -0.018012290798117274 -0.055334212014984695 0.001445133346834729 -0.004791682106874246 -0.004282973691217053 0.008713035273861872 -18.799887334506735 8.282158046430851 -1.8641312911395538 -0.5122491080216361 2.9062945800412323 -0.45175208840138564 0.36388986644586296 -0.09004844922292643 0.40021511405429705 -1.206018331104109 1.2078872154030547 -1.2090812849797294 -0.01800617131731045 -0.05629683085976877 -4.082761023133395e-05 -0.0006921956016383579 0.0004901470110959832 -1.9996859479446607e-06
7470.072 2.436173362643995 -1.2692835052555544 1.6039449851684373 -3.484980727759966 -0.8685713971178712 0.010977106260926727 -0.2 0.000527559259716018 -0.0007204220635211016 -0.001578126985358611 0.19999397259846544 0.0011834243440521142 0.0 0.0 0.0 0.0 0.0 0.0 -0.30696337205863816 -0.8031600355310234 -0.7196143214799753 -0.07999053732997508 0.23247604780569106 0.02708017896963076 8.12982881374867e-05 -9.399571743127446 -5.9771735455341535 -0.21444405538618216 -0.001534374813419037 0.0 2.4363315105438232 -1.2692492643939417 1.60390043258667 -3.4849708716021937 -0.8687327543841761 0.010955829173326492 -0.2004912942647934 0.0007669904152862728 -0.004625910893082619 -0.0018455707468092442 0.19752399623394012 0.0012223910307511687 -0.3431854546070099 -0.6370239853858948 -0.8997743129730225 -0.17344404757022858 0.19582392275333405 0.13316026329994202 -0.3185119926929474 -0.6078644394874573 -0.9089245200157166 -0.17344404757022858 0.20925185084342957 0.1353982537984848 0.36376636278764396 -0.09046006796719055 0.4002145373876921 -1.2060378560577814 1.2078785781233818 -1.2091021709693037 -0.018149279251355163 -0.05663626601054226 0.0009258138601140618 -0.0031903797432031714 -0.0025275444232528443 -0.002949130037803075 -16.415202844207045 6.4223696597487745 -0.49300341961669114 -0.4915637700820396 2.8143635634874347 -0.38525107787321566 0.3637454569008428 -0.09049870837336486 0.4002147858325346 -1.2060253069607516 1.207887508757977 -1.2090835154780206 -0.018096207228941875 -0.05626793274689715 -4.122790822370306e-05 -0.0006935730584395278 0.0004949766087032473 -2.0291736139100356e-06
7470.08 2.434573362643995 -1.2692792847814776 1.6039392217919293 -3.4849933527758488 -0.866971445337084 0.010986573655679142 -0.2 0.000527559259716018 -0.0007204220635211016 -0.001578126985358611 0.19999397259846544 0.0011834243440521142 0.0 0.0 0.0 0.0 0.0 0.0 -0.3069633256292793 -0.8031368831901385 -0.7195772469619761 -0.07991394852435799 0.23247478541672417 0.02708017896963076 8.183111143145477e-05 -9.399305062907507 -5.976860518252356 -0.2141279359182279 -0.0015396154724830352 0.0 2.4347152709960938 -1.2693212668048304 1.6039366722106934 -3.4849827925311487 -0.8671377340899866 0.010979797691106796 -0.2026580423116684 0.0007669904152862728 -0.0029241510201245546 -0.0014860439114272594 0.20289292931556702 0.0012223910307511687 -0.2871094048023224 -0.6190796494483948 -0.9302751421928406 -0.1365172564983368 0.24282166361808777 0.14546920359134674 -0.2893524467945099 -0.6078644394874573 -0.9211248755455017 -0.1712060570716858 0.24617864191532135 0.1365172564983368 0.363605962101515 -0.09090460933220988 0.4002286865861253 -1.2060214847404416 1.2078722101644452 -1.2091373921918032 -0.01839197377305977 -0.05698802535262377 0.0004501198176908509 -0.0018855553435849878 -0.0008947352199317611 0.0002451477101670614 -20.326017599653234 5.932570234334266 -1.8423789570905078 -0.5481114407979926 2.830252824306272 -0.5648502058035105 0.36360032725389163 -0.09094873576291157 0.40021445440652087 -1.2060323192439426 1.2078878255803602 -1.2090857359928369 -0.01818619675850092 -0.05623889064847873 -4.162867288675332e-05 -0.0006949398563635468 0.0004998118630768326 -2.0587471753080384e-06
7470.088 2.4329733626439953 -1.2692750643073998 1.603933458415421 -3.4850059777917317 -0.865371493556296 0.01099604105043156 -0.2 0.000527559259716018 -0.0007204220635211016 -0.001578126985358611 0.19999397259846544 0.0011834243440521142 0.0 0.0 0.0 0.0 0.0 0.0 -0.3069632792241354 -0.8031136814928194 -0.7195401051166719 -0.07983722199292463 0.23247352155181958 0.02708017896963076 8.236365683379512e-05 -9.39903781417552 -5.97654692251318 -0.21381124798845455 -0.0015448622587284939 0.0 2.4330861568450928 -1.2692974249469202 1.6038885116577148 -3.485030476246969 -0.8654592672931116 0.011016124859452248 -0.20248547196388245 0.0007669904152862728 -0.002157160546630621 -0.001270327833481133 0.20318055152893066 0.0012223910307511687 -0.2938385307788849 -0.6033783555030823 -0.9257000088691711 -0.18351499736309052 0.3054853081703186 0.14435020089149475 -0.2871094048023224 -0.6145935654640198 -0.9226499199867249 -0.18239599466323853 0.303247332572937 0.14882618188858032 0.3634584651140124 -0.0913592885889542 0.4002350421711249 -1.2060283021877243 1.2077988938346678 -1.209131350155242 -0.018446505976297496 -0.056892042208109804 0.00023336393639971305 -0.0012611742120615893 -0.00013005423195007216 0.0007015210586069415 -19.670826672194796 7.11266893978359 -0.46915339808684303 -0.5420378229477171 3.254298441648553 -0.9569235318813408 0.36345447787700513 -0.09139853023998572 0.400214119772529 -1.2060393679238506 1.2078881659442589 -1.2090879464404423 -0.018276139675747156 -0.05620970463897725 -4.202990242981451e-05 -0.0006962959808422641 0.0005046527524615495 -2.0884066854179716e-06
7470.096 2.431373362643995 -1.269270843833322 1.6039276950389127 -3.485018602807614 -0.8637715417755079 0.011005508445183977 -0.2 0.000527559259716018 -0.0007204220635211016 -0.001578126985358611 0.19999397259846544 0.0011834243440521142 0.0 0.0 0.0 0.0 0.0 0.0 -0.30696323284332544 -0.8030904305061933 -0.7195028960356397 -0.07976035792299734 0.23247225621751016 0.02708017896963076 8.289592298092404e-05 -9.39876999770469 -5.97623275908983 -0.21349399237003303 -0.0015501151450349284 0.0 2.4314937591552734 -1.2692855040179651 1.6038885116577148 -3.4849708716021937 -0.863924805318014 0.010991781949996948 -0.2008364349603653 0.000690291344653815 -0.001701759989373386 -0.0010785802733153105 0.19668510556221008 0.0010785802733153105 -0.2175751030445099 -0.6033783555030823 -0.9104495644569397 -0.15665914118289948 0.28198644518852234 0.13092228770256042 -0.2287903130054474 -0.6101074814796448 -0.9211248755455017 -0.17680102586746216 0.26520153880119324 0.14211222529411316 0.36331886679338066 -0.09181684961086144 0.4002261725054524 -1.2060391288843304 1.207900217039336 -1.2091299922361354 -0.018384159105038794 -0.05680284905873186 0.00013279839054566303 -0.0009994789003554862 0.00023747918965194196 -0.004147386841739566 -21.66001105570823 3.905000215560737 -0.556378877529319 -0.48059629951200383 2.9722266976785763 -0.5801659885339497 0.36330790914399047 -0.09184809065356825 0.4002137819268473 -1.2060464529704293 1.207888529923658 -1.2090901467370976 -0.018366035750561387 -0.05618037479321948 -4.24315950595595e-05 -0.0006976414173498785 0.0005094992550700498 -2.1181521975123343e-06
7470.103999999999 2.4297733626439952 -1.2692666233592442 1.6039219316624047 -3.485031227823497 -0.8621715899947207 0.011014975839936393 -0.2 0.000527559259716018 -0.0007204220635211016 -0.001578126985358611 0.19999397259846544 0.0011834243440521142 0.0 0.0 0.0 0.0 0.0 0.0 -0.30696318648696785 -0.8030671302975134 -0.7194656198106276 -0.07968335650225054 0.23247098942033878 0.02708017896963076 8.342790851180101e-05 -9.398501614269673 -5.9759180287569515 -0.21317616983758753 -0.0015553741042405186 0.0 2.429888963699341 -1.2692378203021448 1.6039485931396484 -3.485006634389059 -0.8623059431659144 0.011040093377232552 -0.1995709091424942 0.0005944175645709038 -0.001390170189552009 -0.0009587380336597562 0.20325246453285217 0.0010066749528050423 -0.2624359428882599 -0.5966492295265198 -0.924174964427948 -0.2014188915491104 0.18239599466323853 0.1376362442970276 -0.2579498589038849 -0.5899201035499573 -0.9180747866630554 -0.19358593225479126 0.19134794175624847 0.14211222529411316 0.3631785856118839 -0.09227284752879486 0.40019534777047344 -1.2060310509114989 1.2079834823937348 -1.2090210599440623 -0.018365451175085173 -0.05576878455251761 7.104174288193187e-05 -0.0008653665085066706 0.00054693120203377 0.0036834568161451626 -22.127684885010936 4.5132258424386125 0.08792906114726153 -0.5129726587966913 3.416593747064707 -0.17025584635816912 0.36316062143051836 -0.09229741585329843 0.4002134408657778 -1.2060535743534186 1.2078889175924676 -1.209092336799058 -0.01845588475293568 -0.05615090118640653 -4.283374898002742e-05 -0.0006989761514031746 0.000514351349083128 -2.1479837645681575e-06
7470.112 2.428173362643995 -1.2692624028851665 1.6039161682858964 -3.48504385283938 -0.8605716382139326 0.01102444323468881 -0.2 0.000527559259716018 -0.0007204220635211016 -0.001578126985358611 0.19999397259846544 0.0011834243440521142 0.0 0.0 0.0 0.0 0.0 0.0 -0.30696314015518145 -0.8030437809341604 -0.7194282765335572 -0.07960621791871034 0.23246972116685818 0.02708017896963076 8.395961206424582e-05 -9.398232664646592 -5.975602732290656 -0.2128577811671937 -0.0015606391091421248 0.0 2.428272247314453 -1.2692254225360315 1.6039366722106934 -3.485018555318014 -0.8606632391559046 0.010991781949996948 -0.20028036832809448 0.0005560680292546749 -0.0011984225129708648 -0.0009347695740871131 0.19757193326950073 0.0010066749528050423 -0.3095398247241974 -0.6258087754249573 -0.9150246977806091 -0.18910996615886688 0.27639147639274597 0.14770719408988953 -0.3028106987476349 -0.6033783555030823 -0.9150246977806091 -0.19582392275333405 0.27639147639274597 0.13875523209571838 0.3630305848063565 -0.09272581764045729 0.40019381225907896 -1.2060934697085204 1.2079400886731642 -1.2090442561688983 -0.01852604329203425 -0.05646184818770774 3.5935086002109596e-05 -0.0007300950174767947 0.0006332747582747002 -0.002706994099975801 -17.745196951229996 6.815909493568048 -0.42758590470536906 -0.558090253092239 3.1331468205291086 -0.7957914362937633 0.363012615114089 -0.09274650468939484 0.40021309658563814 -1.2060607320423467 1.2078893290245214 -1.2090945165425762 -0.018545686452990786 -0.05612128389410251 -4.323636239260327e-05 -0.000700300168561478 0.0005192090126496136 -2.177901439443429e-06
7470.12 2.426573362643995 -1.2692581824110887 1.6039104049093884 -3.485056477855263 -0.8589716864331454 0.011033910629441228 -0.2 0.000527559259716018 -0.0007204220635211016 -0.001578126985358611 0.19999397259846544 0.0011834243440521142 0.0 0.0 0.0 0.0 0.0 0.0 -0.30696309384808457 -0.803020382483639 -0.7193908662965202 -0.07952894236075439 0.23246845146363115 0.02708017896963076 8.449103227893278e-05 -9.397963149613002 -5.97528687046849 -0.21253882713637837 -0.0015659101324952858 0.0 2.42671537399292 -1.2692855040179651 1.603912353515625 -3.485042397175924 -0.8591163794146937 0.011016124859452248 -0.2007022202014923 0.0005560680292546749 -0.0010306433541700244 -0.0009347695740871131 0.2003283053636551 0.0010066749528050423 -0.2893524467945099 -0.6011353135108948 -0.9348502159118652 -0.2025378942489624 0.26184457540512085 0.15554013848304749 -0.2624359428882599 -0.6011353135108948 -0.9363752603530884 -0.19694292545318604 0.2707965075969696 0.14211222529411316 0.3628729298354336 -0.09315209892393521 0.4002206372334242 -1.2060775655421145 1.207872854709284 -1.209121537154439 -0.01864851702620086 -0.05635820692248059 -1.167266532840739e-05 -0.0006455486347989938 0.0008025611252771615 -0.00037327884261299213 -20.7022143655022 6.67394899566552 -0.30062229932885026 -0.594613148837002 3.5049331827965498 -0.7199374222300666 0.3628638905740287 -0.09319535601265777 0.40021274908275906 -1.2060679260065255 1.207889764293583 -1.2090966858838978 -0.018635440620970455 -0.05609152299224023 -4.363943349607242e-05 -0.0007016134544264342 0.000524072223886245 -2.2079052747688577e-06
7470.128 2.4249733626439953 -1.269253961937011 1.6039046415328801 -3.485069102871146 -0.8573717346523573 0.011043378024193645 -0.2 0.000527559259716018 -0.0007204220635211016 -0.001578126985358611 0.19999397259846544 0.0011834243440521142 0.0 0.0 0.0 0.0 0.0 0.0 -0.3069630475657959 -0.8029969350135805 -0.7193533891917798 -0.07945153001711057 0.23246718031723027 0.02708017896963076 8.502216779522967e-05 -9.397693069947913 -5.974970444069453 -0.21221930852411375 -0.0015711871470147315 0.0 2.425075054168701 -1.2692492643939417 1.6039366722106934 -3.4850786367999476 -0.8575332800494593 0.010991781949996948 -0.19937916100025177 0.0005560680292546749 -0.0009108011145144701 -0.0009347695740871131 0.2063443958759308 0.0010066749528050423 -0.3319702446460724 -0.5854340195655823 -0.9272250533103943 -0.1879909634590149 0.28086745738983154 0.16001611948013306 -0.3454284965991974 -0.6011353135108948 -0.9394253492355347 -0.19358593225479126 0.2752724885940552 0.14994516968727112 0.3627245743831453 -0.09362096203362179 0.40020311681610243 -1.2060851995940614 1.207932645502895 -1.209158546471079 -0.018616031899214368 -0.05535442004731993 -4.774447297326181e-05 -0.0005837720898053241 0.0009485788686062969 0.0069651896231765174 -19.675705253188948 8.640748357892809 -0.11011003276923752 -0.6145357498782955 3.510619299135831 -0.9703849706359795 0.3627144481915169 -0.09364396867451606 0.40021239835348643 -1.2060751562150558 1.207890223473338 -1.2090988447392659 -0.018725147027238563 -0.056061618557120094 -4.4042960486580505e-05 -0.0007029159946423742 0.0005289409608781439 -2.237995322811081e-06
7470.1359999999995 2.423373362643995 -1.2692497414629331 1.603898878156372 -3.4850817278870285 -0.8557717828715692 0.01105284541894606 -0.2 0.000527559259716018 -0.0007204220635211016 -0.001578126985358611 0.19999397259846544 0.0011834243440521142 0.0 0.0 0.0 0.0 0.0 0.0 -0.3069630013084338 -0.802973438591742 -0.7193158453117715 -0.0793739810768575 0.232465907734238 0.02708017896963076 8.555301725444958e-05 -9.397422426431785 -5.9746534538739935 -0.21189922611081982 -0.001576470125374023 0.0 2.4234938621520996 -1.2692492643939417 1.6039247512817383 -3.4850905577289026 -0.8558428923236292 0.011052077636122704 -0.198094442486763 0.0005560680292546749 -0.0008149273344315588 -0.0023009711876511574 0.2016226053237915 0.0010066749528050423 -0.3880462944507599 -0.6033783555030823 -0.9607759714126587 -0.2014188915491104 0.1521831601858139 0.14882618188858032 -0.3701019585132599 -0.6056213974952698 -0.9379003047943115 -0.19918090105056763 0.14546920359134674 0.14882618188858032 0.3625754242591427 -0.09405436629303932 0.40020568440916576 -1.2061068549757434 1.2078688969247289 -1.2090505897298771 -0.01867116797616113 -0.05517149029164804 1.4246799042212117e-05 -0.0014013904910893612 -4.91703667304214e-05 0.0035357680067213053 -20.07369403252321 9.251113958902863 -1.1317298307017964 -0.5644722624041522 3.555345672922318 -0.4229068632492673 0.3625642883495696 -0.09409234152702146 0.40021204439418034 -1.2060824226368232 1.207890706637398 -1.2091009930249221 -0.018814805442275217 -0.05603157066540725 -4.444694155763779e-05 -0.000704207774896397 0.000533815201678632 -2.2681716359181116e-06
7470.143999999999 2.4217733626439952 -1.2692455209888553 1.6038931147798638 -3.4850943529029115 -0.854171831090782 0.011062312813698478 -0.2 0.000527559259716018 -0.0007204220635211016 -0.001578126985358611 0.19999397259846544 0.0011834243440521142 0.0 0.0 0.0 0.0 0.0 0.0 -0.30696295507611665 -0.8029498932860057 -0.7192782347491015 -0.07929629572942298 0.2324646337212466 0.02708017896963076 8.608357929758624e-05 -9.39715121984652 -5.974335900664003 -0.21157858067835777 -0.0015817590402062687 0.0 2.4219014644622803 -1.26927358308901 1.6038885116577148 -3.4851024786578577 -0.8542359511004847 0.010991781949996948 -0.20100900530815125 0.0005560680292546749 -0.0007430219557136297 -0.0023009711876511574 0.1992257684469223 0.0010066749528050423 -0.3723450005054474 -0.5787048935890198 -0.9333252310752869 -0.21484681963920593 0.2540116012096405 0.14994516968727112 -0.3745880424976349 -0.6033783555030823 -0.9379003047943115 -0.18239599466323853 0.2506546378135681 0.14435020089149475 0.3624197053742299 -0.09449421392551911 0.4002228435915558 -1.206168458009278 1.2077752097090515 -1.2091422247972508 -0.019033251103701486 -0.05639502466898309 -3.90684582004668e-06 -0.001356373692203692 -4.084188723205751e-06 -0.0017758338460679137 -19.17452830097571 9.958730881622657 0.378510359971511 -0.568303653950577 3.741656793213332 -0.9560856182099451 0.3624134114330249 -0.09454047342281503 0.4002116872012154 -1.2060897252405018 1.2078912138593014 -1.209103130657103 -0.018904415636694857 -0.05600137939413838 -4.485137490018838e-05 -0.000705488780918253 0.0005386949243094089 -2.2984342659190354e-06
7470.152 2.420173362643995 -1.2692413005147776 1.6038873514033556 -3.4851069779187944 -0.8525718793099939 0.011071780208450895 -0.2 0.000527559259716018 -0.0007204220635211016 -0.001578126985358611 0.19999397259846544 0.0011834243440521142 0.0 0.0 0.0 0.0 0.0 0.0 -0.3069629088689627 -0.8029262991643782 -0.7192405575965453 -0.07921847416458438 0.23246335828485817 0.02708017896963076 8.661385256738025e-05 -9.396879450975451 -5.974017785222804 -0.21125737301003167 -0.0015870538641034808 0.0 2.42024827003479 -1.2692135016070765 1.603912353515625 -3.485114399586813 -0.8526776472674769 0.011016124859452248 -0.2006063461303711 0.0005560680292546749 -0.0006711166352033615 -0.0023009711876511574 0.20150277018547058 0.0010066749528050423 -0.3297272026538849 -0.5899201035499573 -0.924174964427948 -0.16561108827590942 0.23498870432376862 0.15554013848304749 -0.3342132866382599 -0.6033783555030823 -0.9394253492355347 -0.17792002856731415 0.22939373552799225 0.14323121309280396 0.3622738989840781 -0.09497435486085323 0.4001959903923235 -1.206125373517385 1.2079269833626813 -1.2091311914717517 -0.01908890977162196 -0.05603301706117676 -2.4058618636310018e-05 -0.0013063827103060852 6.562293343373213e-05 0.0009035366911592746 -19.985882844839175 7.983901849026955 -0.5547197824035187 -0.5945787313658686 3.3141234741213896 -0.701304080218937 0.3622618178285849 -0.09498836321518808 0.4002113267709806 -1.2060970639945505 1.207891745212507 -1.2091052575520425 -0.01899397738122566 -0.055971044820713835 -4.525625870253843e-05 -0.0007067589984804515 0.0005435801067605479 -2.328783264701172e-06
7470.16 2.418573362643995 -1.2692370800406998 1.6038815880268475 -3.4851196029346774 -0.8509719275292067 0.011081247603203313 -0.2 0.000527559259716018 -0.0007204220635211016 -0.001578126985358611 0.19999397259846544 0.0011834243440521142 0.0 0.0 0.0 0.0 0.0 0.0 -0.30696286268709017 -0.8029026562949921 -0.7192028139470507 -0.07914051657246801 0.23246208143168468 0.02708017896963076 8.714383570847473e-05 -9.396607120603363 -5.973699108335173 -0.2109356038905858 -0.0015923545696171159 0.0 2.4186439514160156 -1.269261662160055 1.6039605140686035 -3.4851630369769495 -0.8510707060443323 0.011064061895012856 -0.20143085718154907 0.0005560680292546749 -0.0006231797160580754 -0.003187804017215967 0.20289292931556702 0.0010066749528050423 -0.2893524467945099 -0.5988922715187073 -0.9577258825302124 -0.14546920359134674 0.27862948179244995 0.14323121309280396 -0.2871094048023224 -0.6033783555030823 -0.9394253492355347 -0.16001611948013306 0.27751046419143677 0.14323121309280396 0.3621097401737087 -0.09541292207475635 0.40020121210447984 -1.206103497993146 1.2079138191617314 -1.209131819251372 -0.01931201665175112 -0.05613412402959067 1.5759993141248906e-05 -0.001871521817191738 -0.000542058914678954 0.001473934485626936 -22.12283445755034 7.616598019098882 -2.118438412900372 -0.536990819717298 3.171180282340051 -0.8738337922978872 0.3621095079247383 -0.09543600975802195 0.40021096309987986 -1.2061044388672157 1.2078923007704017 -1.2091073736259743 -0.019083490446722282 -0.055940567022900456 -4.5661591150404346e-05 -0.0007080184133986396 0.0005484707269908257 -2.3592186837432476e-06
7470.168 2.4169733626439953 -1.269232859566622 1.6038758246503393 -3.4851322279505603 -0.8493719757484186 0.011090714997955728 -0.2 0.000527559259716018 -0.0007204220635211016 -0.001578126985358611 0.19999397259846544 0.0011834243440521142 0.0 0.0 0.0 0.0 0.0 0.0 -0.30696281653061736 -0.8028789647461043 -0.7191650038937348 -0.07906242314354801 0.23246080316834766 0.02708017896963076 8.767352736195666e-05 -9.396334229516475 -5.973379870787315 -0.21061327410620012 -0.0015976611292583243 0.0 2.417051315307617 -1.2692015806781214 1.6039366722106934 -3.485138241444723 -0.8494637648211878 0.011088029481470585 -0.20269639790058136 0.0005560680292546749 -0.0005752427969127893 -0.003187804017215967 0.20308467745780945 0.0009827064350247383 -0.2512207329273224 -0.5944061875343323 -0.9257000088691711 -0.1521831601858139 0.18015800416469574 0.16113510727882385 -0.2736511528491974 -0.6033783555030823 -0.9409503936767578 -0.16337309777736664 0.17232505977153778 0.15777812898159027 0.36197004137586364 -0.09586823275034376 0.40018460067160155 -1.2061117837667852 1.207975997395929 -1.2090496169513778 -0.019524594603816364 -0.05654863245483359 3.3366320069350594e-06 -0.0018560338944421323 -0.0005079276863267919 0.0003999624139835688 -22.96153220983544 4.549171576220026 -0.9351860903484059 -0.6220019456459996 3.2322449031044673 -0.16261734981702117 0.3619564821118567 -0.09588341190583119 0.40021059618433075 -1.2061118498265313 1.2078928806062925 -1.2091094787951266 -0.019172954604171243 -0.05590994607883272 -4.6067370426926564e-05 -0.0007092670115309098 0.0005533667629272709 -2.3897405744714354e-06
7470.1759999999995 2.415373362643995 -1.2692286390925442 1.6038700612738312 -3.4851448529664433 -0.8477720239676314 0.011100182392708146 -0.2 0.000527559259716018 -0.0007204220635211016 -0.001578126985358611 0.19999397259846544 0.0011834243440521142 0.0 0.0 0.0 0.0 0.0 0.0 -0.3069627703996623 -0.8028552245860964 -0.7191271275298853 -0.07898419406864678 0.23245952350147858 0.02708017896963076 8.820292617366397e-05 -9.396060778502438 -5.973060073366875 -0.21029038444449194 -0.0016029735154976079 0.0 2.41548228263855 -1.2692135016070765 1.60390043258667 -3.4851506392108362 -0.8478329817401331 0.011040093377232552 -0.20168012380599976 0.000517718552146107 -0.0005273059359751642 -0.002996056340634823 0.20243753492832184 0.0009827064350247383 -0.2601929008960724 -0.6056213974952698 -0.913499653339386 -0.168968066573143 0.23498870432376862 0.14435020089149475 -0.2714081108570099 -0.6011353135108948 -0.9409503936767578 -0.15665914118289948 0.2372266948223114 0.1510641723871231 0.3618159968021113 -0.09629868191413217 0.4001975953806064 -1.2061879743270392 1.2078640383290487 -1.2090872917312432 -0.019509178602013646 -0.05620797129524913 -8.683011238436334e-06 -0.0017305674608178907 -0.0003503321968068597 0.0007678482599657071 -20.75180146494561 5.148971777531854 -0.4318685898424085 -0.5435174419781883 3.165699475636232 -0.46639852361579576 0.3618027407821057 -0.09633056851376876 0.4002102260207662 -1.2061192968403172 1.207893484793414 -1.2091115729757305 -0.019262369624681266 -0.05587918206700908 -4.647359471265897e-05 -0.0007105047787787867 0.0005582681924659311 -2.4203489879909124e-06
7470.183999999999 2.4137733626439952 -1.2692244186184674 1.603864297897323 -3.485157477982326 -0.8461720721868433 0.011109649787460563 -0.2 0.000527559259716018 -0.0007204220635211016 -0.001578126985358611 0.19999397259846544 0.0011834243440521142 0.0 0.0 0.0 0.0 0.0 0.0 -0.30696272429434296 -0.8028314358834737 -0.7190891849489591 -0.07890582953893356 0.23245824243771848 0.02708017896963076 8.873203078997931e-05 -9.395786768350332 -5.972739716862929 -0.2099669356945104 -0.001608291700765368 0.0 2.413841724395752 -1.2692378203021448 1.603912353515625 -3.4851749579059046 -0.8463104406939905 0.011076045222580433 -0.19905318319797516 0.00046019424917176366 -0.0005033374764025211 -0.002181129064410925 0.19157983362674713 0.0009827064350247383 -0.2758941948413849 -0.6437531113624573 -0.9607759714126587 -0.17456303536891937 0.2707965075969696 0.14435020089149475 -0.2803802788257599 -0.6101074814796448 -0.9623009562492371 -0.16001611948013306 0.27751046419143677 0.14658819139003754 0.36165181513626116 -0.09676145688608409 0.40020290788820895 -1.2061181020015619 1.2079438630772175 -1.2091758901228697 -0.01930521417242547 -0.05615622361954205 -3.774572345000538e-05 -0.0011799297842942512 0.00014171646734490684 -0.007467052437198951 -20.267028250484902 6.341324193759343 -2.3893955760216175 -0.542430055009364 3.091659011601604 -0.732043913236791 0.3616482843295006 -0.09677747843760447 0.40020985260563374 -1.2061267798761814 1.2078941134049166 -1.2091136560840126 -0.019351735279479747 -0.055848275066294854 -4.688026218557471e-05 -0.0007117317010867922 0.0005631749934715387 -2.4510439752409964e-06
7470.192 2.412173362643995 -1.2692201981443887 1.6038585345208147 -3.4851701029982087 -0.8445721204060552 0.01111911718221298 -0.2 0.000527559259716018 -0.0007204220635211016 -0.001578126985358611 0.19999397259846544 0.0011834243440521142 0.0 0.0 0.0 0.0 0.0 0.0 -0.30696267821477735 -0.8028075987068685 -0.7190511762445826 -0.0788273297459251 0.2324569599837182 0.02708017896963076 8.926083985623623e-05 -9.395512199850696 -5.972418802065981 -0.2096429286467387 -0.001613615657451403 0.0 2.4122369289398193 -1.2692015806781214 1.6038885116577148 -3.4851868788348597 -0.8446553389178675 0.011147950775921345 -0.20028036832809448 0.0004218447138555348 -0.0004793690168298781 -0.0017257285071536899 0.2027970552444458 0.0029241510201245546 -0.3162689507007599 -0.5809479355812073 -0.9577258825302124 -0.17344404757022858 0.3368171453475952 0.13987423479557037 -0.3140259087085724 -0.5899201035499573 -0.9638260006904602 -0.17680102586746216 0.3524830639362335 0.13204127550125122 0.3615019835570771 -0.0972104679747931 0.40019647857375334 -1.2061048228341045 1.2079498961990067 -1.209082343604279 -0.01949138163763148 -0.055666150865014793 -6.794854907418291e-05 0.0010143634185329252 0.0005812093903914448 0.0025248649405629677 -21.297700643970842 9.708816645402583 -1.237339544873515 -0.5203565865912175 3.5053650808950008 -1.3196529452654393 0.36149311314988536 -0.09722414053372896 0.4002094759353943 -1.2061342989015178 1.207894766513883 -1.2091157280361986 -0.019441051339924863 -0.055817225155924396 -4.7287371021044484e-05 -0.0007129477644420916 0.0005680871437772662 -2.481825586954774e-06
7470.2 2.410573362643995 -1.2692159776703118 1.6038527711443067 -3.4851827280140917 -0.842972168625268 0.011128584576965396 -0.2 0.000527559259716018 -0.0007204220635211016 -0.001578126985358611 0.19999397259846544 0.0011834243440521142 0.0 0.0 0.0 0.0 0.0 0.0 -0.3069626321610835 -0.8027837131250327 -0.7190131015105524 -0.07874869488148344 0.23245567614613807 0.02708017896963076 8.978935201890108e-05 -9.395237073795451 -5.972097329767975 -0.20931836409308532 -0.001618945357906264 0.0 2.4106202125549316 -1.2692135016070765 1.6039605140686035 -3.4851630369769495 -0.8430369536029261 0.011111997999250889 -0.1984395980834961 0.0004218447138555348 -0.00045540055725723505 -0.0014141385909169912 0.20150277018547058 0.0029241510201245546 -0.3117828667163849 -0.6101074814796448 -0.9684011340141296 -0.18127700686454773 0.2562496066093445 0.1007094457745552 -0.2871094048023224 -0.5944061875343323 -0.9668760895729065 -0.17792002856731415 0.2540116012096405 0.1186133474111557 0.36134469626800797 -0.09766168201109833 0.4001788881089736 -1.2061522456130256 1.2080131694080802 -1.209034378649174 -0.019381857969623502 -0.05509418380003947 -9.14868860247206e-05 0.0012557570086373167 0.0008113482313638356 0.0030694895633531626 -21.348683076795986 8.205188101633356 -1.8870129041500858 -0.34000438461051724 3.2379278375077103 -0.8179308036461309 0.3613372276409259 -0.09767055365920681 0.40020909600652527 -1.2061418538835065 1.2078954441933092 -1.2091177887485176 -0.019530317577508647 -0.05578603241549277 -4.7694919391952375e-05 -0.0007141529548759134 0.0005730046211860146 -2.512693873671882e-06
7470.208 2.4089733626439953 -1.2692117571962331 1.6038470077677984 -3.4851953530299746 -0.8413722168444799 0.011138051971717813 -0.2 0.000527559259716018 -0.0007204220635211016 -0.001578126985358611 0.19999397259846544 0.0011834243440521142 0.0 0.0 0.0 0.0 0.0 0.0 -0.306962586133379 -0.802759779206847 -0.7189749608408325 -0.07866992513781773 0.23245439093164827 0.02708017896963076 9.031756592742174e-05 -9.394961390978 -5.971775300762268 -0.20899324282689155 -0.0016242807744393272 0.0 2.4090516567230225 -1.2692254225360315 1.6038885116577148 -3.4851630369769495 -0.8414543310748499 0.011147950775921345 -0.20252381265163422 0.0004218447138555348 -0.00043143212678842247 -0.0011984225129708648 0.19778765738010406 0.0029241510201245546 -0.3117828667163849 -0.6078644394874573 -0.9684011340141296 -0.168968066573143 0.24729764461517334 0.11525636911392212 -0.3297272026538849 -0.5944061875343323 -0.9714512228965759 -0.17232505977153778 0.2394646853208542 0.12197033315896988 0.3611883024125955 -0.09809524137098914 0.4002005100285367 -1.2061428747779828 1.2079554327832305 -1.2090650966282808 -0.01985498850262108 -0.05685692966224131 -0.00010912889560599113 0.0014173688651506061 0.0009688781312679057 -0.004730964083391749 -21.632201253192143 8.195410965935636 -2.103783515534796 -0.40760559801207835 3.2325867113534454 -0.7760478780436966 0.3611806282021142 -0.09811671667171662 0.4002087128155168 -1.2061494447891183 1.2078961465161187 -1.2091198381371935 -0.0196195337638479 -0.05575469692496518 -4.810290546856758e-05 -0.0007153472584618577 0.0005779274034688032 -2.5436488856387144e-06
7470.215999999999 2.407373362643995 -1.2692075367221562 1.6038412443912904 -3.4852079780458576 -0.8397722650636927 0.01114751936647023 -0.2 0.000527559259716018 -0.0007204220635211016 -0.001578126985358611 0.19999397259846544 0.0011834243440521142 0.0 0.0 0.0 0.0 0.0 0.0 -0.30696254013178176 -0.8027357970213116 -0.7189367543295583 -0.0785910207074811 0.2324531043469283 0.02708017896963076 9.084548022877969e-05 -9.394685152193118 -5.971452715843661 -0.20866756564291827 -0.0016296218793214192 0.0 2.407482624053955 -1.2692135016070765 1.6038885116577148 -3.485222641621725 -0.8398955504046839 0.011135966517031193 -0.19562090933322906 0.0004218447138555348 -0.0004074636672157794 -0.0010306433541700244 0.20140689611434937 0.0023489082232117653 -0.3745880424976349 -0.6258087754249573 -0.9714512228965759 -0.19246694445610046 0.2730345129966736 0.1197323426604271 -0.3970184624195099 -0.6056213974952698 -0.9760263562202454 -0.17792002856731415 0.28086745738983154 0.11413737386465073 0.3610325569493481 -0.0985320151009808 0.4001989274144053 -1.2061591540308692 1.207924145162558 -1.2091185626027166 -0.019251876721719578 -0.05404508418059397 -0.00012912305773056656 0.000951711296498495 0.0011545046460618164 0.005788434305209849 -18.431911971188768 10.435929918571988 -2.036327549258175 -0.42753630544151605 3.303430955181797 -1.0814376925103804 0.361023315234776 -0.09856262842955048 0.4002083263588753 -1.2061570715851069 1.2078968735551543 -1.2091218761184555 -0.019708699670680493 -0.05572321876466222 -4.8511327418613554e-05 -0.000716530661317495 0.0005828554683664531 -2.5746906729750075e-06
7470.223999999999 2.405773362643995 -1.2692033162480785 1.6038354810147821 -3.48522060306174 -0.8381723132829046 0.011156986761222648 -0.2 0.000527559259716018 -0.0007204220635211016 -0.001578126985358611 0.19999397259846544 0.0011834243440521142 0.0 0.0 0.0 0.0 0.0 0.0 -0.3069624941564096 -0.8027117666375527 -0.7188984820710302 -0.07851198178337271 0.2324518163986676 0.02708017896963076 9.137309357162006e-05 -9.394408358237039 -5.971129575808353 -0.2083413333373547 -0.0016349686447823986 0.0 2.405902147293091 -1.2691777388202112 1.6038527488708496 -3.485222641621725 -0.838360611592428 0.011171919293701649 -0.2007022202014923 0.0004218447138555348 -0.0003834952076431364 -0.0009108011145144701 0.20418722927570343 0.0018216022290289402 -0.3319702446460724 -0.6033783555030823 -0.9653510451316833 -0.18910996615886688 0.29541438817977905 0.10854240506887436 -0.3095398247241974 -0.6011353135108948 -0.9790764451026917 -0.19246694445610046 0.28198644518852234 0.11637535691261292 0.36088278396454676 -0.09898166348077164 0.4001951427824719 -1.206125888388626 1.2079826999245975 -1.2091227768201451 -0.019833932041536648 -0.05562776485151352 -0.00014500683583895717 0.0005125266692015966 0.001289839722473654 0.0034851510686301195 -20.359328742410387 9.561213082340323 -1.5271621332761849 -0.37541481770767904 3.3792848919718628 -1.113501502884182 0.3608652891420715 -0.09900828779170288 0.4002079366331208 -1.2061647342380168 1.20789762538318 -1.2091239026085285 -0.019797815069880736 -0.05569159801528095 -4.892018340729133e-05 -0.0007177031496033797 0.0005877887935884929 -2.605819285548458e-06
7470.232 2.404173362643995 -1.2691990957740007 1.603829717638274 -3.485233228077623 -0.8365723615021174 0.011166454155975064 -0.2 0.000527559259716018 -0.0007204220635211016 -0.001578126985358611 0.19999397259846544 0.0011834243440521142 0.0 0.0 0.0 0.0 0.0 0.0 -0.30696244820737995 -0.8026876881248198 -0.7188601441597203 -0.07843280855873545 0.23245052709356484 0.02708017896963076 9.190040460723325e-05 -9.39413100990741 -5.970805881453988 -0.20801454670780883 -0.0016403210430132164 0.0 2.404249429702759 -1.2691295782672327 1.6039247512817383 -3.485222641621725 -0.8366940657245081 0.0111839035525918 -0.20028036832809448 0.000862864195369184 -0.00035952674807049334 -0.0008628642535768449 0.20670391619205475 0.0014860439114272594 -0.3319702446460724 -0.6145935654640198 -0.9806014895439148 -0.2215607762336731 0.24953563511371613 0.10518541932106018 -0.3229980766773224 -0.6011353135108948 -0.9836515784263611 -0.19470493495464325 0.24953563511371613 0.1186133474111557 0.3607285735043863 -0.09944956510657968 0.4001589124888293 -1.206145480757184 1.2080911538190275 -1.2089995835987415 -0.019801699968504477 -0.05531419117278119 -0.0003022447397990565 0.0005333075566838882 0.0016790304737339251 0.006421864178010983 -20.854160665600514 9.015662016432197 -1.4947977323704857 -0.3606683139168516 3.577559803354669 -0.8564936322273705 0.3607065503289554 -0.09945369361778049 0.40020754363478833 -1.2061724327141774 1.2078984020728818 -1.2091259175236428 -0.01988687973344866 -0.05565983475787781 -4.932947159724964e-05 -0.0007188647095236283 0.0005927273568138448 -2.6370347730806974e-06
7470.24 2.402573362643995 -1.269194875299923 1.6038239542617658 -3.485245853093506 -0.8349724097213294 0.011175921550727481 -0.2 0.000527559259716018 -0.0007204220635211016 -0.001578126985358611 0.19999397259846544 0.0011834243440521142 0.0 0.0 0.0 0.0 0.0 0.0 -0.30696240228481053 -0.8026635615524846 -0.718821740690267 -0.07835350122715604 0.23244923643832838 0.02708017896963076 9.242741198571714e-05 -9.393853108003292 -5.970481633579618 -0.20768720655330764 -0.0016456790461650836 0.0 2.402620792388916 -1.2692135016070765 1.603912353515625 -3.4851987997638147 -0.8350399176227015 0.011111997999250889 -0.20125828683376312 0.000862864195369184 -0.00033555831760168076 -0.0008628642535768449 0.20780646800994873 0.0012463594321161509 -0.2893524467945099 -0.5899201035499573 -0.9821265339851379 -0.16113510727882385 0.12756529450416565 0.1197323426604271 -0.2826233208179474 -0.6101074814796448 -0.9882267117500305 -0.19134794175624847 0.12532731890678406 0.12085133790969849 0.3605523678671922 -0.09988788439988996 0.40018745400157507 -1.2062226602013009 1.2079847768620644 -1.20909186550293 -0.01998738720437893 -0.05554113491573078 -0.0003103245118843969 0.0002975628047889188 0.001718868250772076 0.006545679864392689 -25.31947293957568 6.642514676266693 -2.33798486066745 -0.4301190960426769 3.4026774173307057 -0.09245362782177229 0.3605470992022313 -0.09989884476802291 0.40020714736042756 -1.2061801669797076 1.2078992036968648 -1.2091279207800258 -0.01997589343351924 -0.05562792907387389 -4.973919014862962e-05 -0.0007200153273259079 0.0005976711356908306 -2.6683371850377442e-06
7470.248 2.4009733626439953 -1.2691906548258451 1.6038181908852576 -3.485258478109389 -0.8333724579405413 0.011185388945479898 -0.2 0.000527559259716018 -0.0007204220635211016 -0.001578126985358611 0.19999397259846544 0.0011834243440521142 0.0 0.0 0.0 0.0 0.0 0.0 -0.3069623563888187 -0.8026393869900427 -0.7187832717574771 -0.07827405998256481 0.23244794443967604 0.02708017896963076 9.295411435950952e-05 -9.393574653325166 -5.970156832985713 -0.20735931367429664 -0.00165104262634965 0.0 2.401087760925293 -1.269153896962301 1.6038885116577148 -3.48523456255068 -0.8334329763995569 0.011196262203156948 -0.20110487937927246 0.000862864195369184 -0.00033555831760168076 -0.0008628642535768449 0.20186229050159454 0.0010785802733153105 -0.2198181450366974 -0.5944061875343323 -1.021777629852295 -0.2025378942489624 0.21596580743789673 0.13092228770256042 -0.2243042290210724 -0.6213226914405823 -1.021777629852295 -0.19470493495464325 0.2215607762336731 0.1365172564983368 0.36040741678961397 -0.10031583076485134 0.4001746950451337 -1.206210845993615 1.2079786659782759 -1.2089720399769808 -0.0200599668596043 -0.05594635381914357 -0.0003058191579738563 0.00015305892519242747 0.0016639986812219123 0.0007547721022708173 -27.996493333599535 5.9298672278014815 -2.731354492874568 -0.4814877091888679 3.850751202975221 -0.44996379017437166 0.360386936170529 -0.10034374010338677 0.4002067478066033 -1.206187937000512 1.207900030327655 -1.2091299122939116 -0.020064855942359947 -0.055595881045057104 -5.014933721903898e-05 -0.0007211549893014932 0.0006026201078371683 -2.6997265705622607e-06
7470.255999999999 2.399373362643995 -1.2691864343517674 1.6038124275087495 -3.485271103125272 -0.8317725061597541 0.011194856340232316 -0.2 0.000527559259716018 -0.0007204220635211016 -0.001578126985358611 0.19999397259846544 0.0011834243440521142 0.0 0.0 0.0 0.0 0.0 0.0 -0.306962310519522 -0.8026151645071118 -0.7187447374563247 -0.07819448501923502 0.23244665110433513 0.02708017896963076 9.348051038036386e-05 -9.393295646674927 -5.9698314804741575 -0.20703086887263647 -0.0016564117556392656 0.0 2.399447202682495 -1.269165341054098 1.6038646697998047 -3.4852827231036585 -0.8318265120135706 0.01112398225814104 -0.19985853135585785 0.000862864195369184 -0.0003115898580290377 -0.0008628642535768449 0.20356404781341553 0.0009587380336597562 -0.2444916069507599 -0.5966492295265198 -1.0156774520874023 -0.21372783184051514 0.21372783184051514 0.1353982537984848 -0.2512207329273224 -0.6213226914405823 -1.0263527631759644 -0.20701386034488678 0.20701386034488678 0.1353982537984848 0.3602371849184594 -0.10076967651773473 0.4001863911426295 -1.2062594326049096 1.2079059698574877 -1.20911761210259 -0.020024835045765674 -0.05532343117296849 -0.0003144799583816953 3.368609740109508e-05 0.0017107380421394235 0.003702303122640918 -26.730867813413525 6.627941934599908 -2.363894623313893 -0.5019931734018223 3.920309525674089 -0.4977826344126976 0.36022606164427534 -0.10078837848538932 0.40020634496989427 -1.206195742742283 1.2079008820377 -1.2091318919815326 -0.020153767032354365 -0.05556369075357263 -5.055991096354434e-05 -0.0007222836817849856 0.0006075742508398689 -2.731202978830937e-06
7470.263999999999 2.397773362643995 -1.2691822138776896 1.6038066641322413 -3.485283728141155 -0.830172554378966 0.011204323734984731 -0.2 0.000527559259716018 -0.0007204220635211016 -0.001578126985358611 0.19999397259846544 0.0011834243440521142 0.0 0.0 0.0 0.0 0.0 0.0 -0.3069622646770377 -0.8025908941734328 -0.7187061378819511 -0.07811477653178193 0.2324453564390424 0.02708017896963076 9.400659870200545e-05 -9.393016088855884 -5.96950557684825 -0.20670187295159956 -0.0016617864060671826 0.0 2.3978662490844727 -1.2691777388202112 1.6038765907287598 -3.485330406819479 -0.8302195707904261 0.011135966517031193 -0.20018449425697327 0.000862864195369184 -0.0003115898580290377 -0.002229065867140889 0.20195816457271576 0.0008388957940042019 -0.2826233208179474 -0.6145935654640198 -1.0416030883789062 -0.19806191325187683 0.2394646853208542 0.12868429720401764 -0.2781372368335724 -0.6190796494483948 -1.023302674293518 -0.1868719756603241 0.23386971652507782 0.12868429720401764 0.36007249718370393 -0.10120199583745687 0.4001890146385921 -1.2062762204886712 1.2078594618890623 -1.2091270713347497 -0.02023130140081412 -0.0554607310112822 -0.00023178142435192743 -0.0010066277527617721 0.0006949437170872052 0.0017779285159500316 -25.716218324539966 8.500376462820942 -3.778385322497074 -0.4701932110722759 3.741510076083593 -0.7713890714879263 0.3600644760357299 -0.10123275877628851 0.40020593884689487 -1.2062035841705037 1.2079017588993626 -1.2091338597591244 -0.020242626476033795 -0.055531358281935936 -5.097090953473937e-05 -0.0007234013911550857 0.0006125335422558394 -2.7627664585612526e-06
7470.272 2.396173362643995 -1.2691779934036118 1.6038009007557332 -3.4852963531570373 -0.8285726025981788 0.011213791129737149 -0.2 0.000527559259716018 -0.0007204220635211016 -0.001578126985358611 0.19999397259846544 0.0011834243440521142 0.0 0.0 0.0 0.0 0.0 0.0 -0.3069622188614832 -0.8025665760588695 -0.7186674731296662 -0.07803493471516317 0.23244406045054408 0.02708017896963076 9.453237797656373e-05 -9.392735980672764 -5.969179122912709 -0.20637232671587138 -0.0016671665496272704 0.0 2.3962135314941406 -1.269165341054098 1.6038527488708496 -3.4852946440326136 -0.828648869191305 0.011159935034811497 -0.2008172571659088 0.000862864195369184 -0.0003115898580290377 -0.002229065867140889 0.2021499127149582 0.0007669904152862728 -0.3252411186695099 -0.5854340195655823 -1.0477032661437988 -0.17680102586746216 0.15777812898159027 0.13875523209571838 -0.3072967827320099 -0.6190796494483948 -1.0324528217315674 -0.18015800416469574 0.1533021628856659 0.14099322259426117 0.3599092319317914 -0.1016715145038393 0.4001877227928777 -1.2062359867625034 1.2079606463620296 -1.209146486833618 -0.020388265840227272 -0.05564001825602656 -0.00023189762122371129 -0.00107443457108187 0.0006964303118760055 0.0013367374276810186 -27.213401802298307 9.707297902593515 -3.8859890821455187 -0.5173625652690327 3.873596583376582 -0.491723211114336 0.35990217975899497 -0.10167687983896721 0.4002055294342138 -1.2062114612504393 1.207902660984929 -1.2091358155429275 -0.02033143404605669 -0.055498883713027566 -5.138233108270984e-05 -0.0007245081038339914 0.0006174979596113629 -2.7944170584155227e-06
7470.28 2.394573362643995 -1.269173772929534 1.603795137379225 -3.4853089781729203 -0.8269726508173907 0.011223258524489566 -0.2 0.000527559259716018 -0.0007204220635211016 -0.001578126985358611 0.19999397259846544 0.0011834243440521142 0.0 0.0 0.0 0.0 0.0 0.0 -0.3069621730729757 -0.8025422102334065 -0.7186287432949443 -0.07795495976467705 0.23244276314559567 0.02708017896963076 9.505784686112385e-05 -9.392455322931685 -5.968852119473642 -0.20604223097154378 -0.0016725521582747998 0.0 2.3946807384490967 -1.2691777388202112 1.603804588317871 -3.4852946440326136 -0.8270424048053187 0.011171919293701649 -0.20018449425697327 0.0007286408799700439 -0.0003115898580290377 -0.002229065867140889 0.19229887425899506 0.0006950850947760046 -0.2915954887866974 -0.6033783555030823 -1.0324528217315674 -0.18015800416469574 0.24505965411663055 0.14211222529411316 -0.3095398247241974 -0.6190796494483948 -1.0355029106140137 -0.17456303536891937 0.2394646853208542 0.14211222529411316 0.35975041569011734 -0.10208812984066336 0.4002031675420793 -1.2062750239261606 1.2078685389673556 -1.20913134004569 -0.02043371533196903 -0.056169111497941876 -0.0001802796492301024 -0.0012105971473503037 0.0005143816664108392 -0.007881130472862333 -25.56160467186471 9.046351485296833 -3.6864836023704153 -0.5322742009271981 3.7333176788370093 -0.8426158723833611 0.35973917322993487 -0.10212074053698769 0.4002051167284746 -1.2062193739471487 1.207903588366601 -1.2091377592491814 -0.0204201895152171 -0.05546626713008312 -5.179417375502199e-05 -0.0007256038062878207 0.0006224674804026806 -2.826154826797547e-06
7470.288 2.3929733626439953 -1.2691695524554563 1.6037893740027167 -3.4853216031888032 -0.8253726990366026 0.011232725919241984 -0.2 0.000527559259716018 -0.0007204220635211016 -0.001578126985358611 0.19999397259846544 0.0011834243440521142 0.0 0.0 0.0 0.0 0.0 0.0 -0.30696212731163225 -0.8025177967671524 -0.7185899484734282 -0.07787485187596341 0.23244146453096218 0.02708017896963076 9.558300400977135e-05 -9.39217411644019 -5.968524567338581 -0.20571158652611785 -0.0016779432039257325 0.0 2.3930881023406982 -1.2691414991961878 1.603780746459961 -3.4853909651385706 -0.825411621724264 0.011196262203156948 -0.19773012399673462 0.0006135923322290182 -0.0038109836168587208 -0.0020373184233903885 0.20174245536327362 0.0006471481756307185 -0.3297272026538849 -0.5809479355812073 -0.9699261784553528 -0.17568203806877136 0.26072555780410767 0.15777812898159027 -0.3297272026538849 -0.5988922715187073 -0.9851766228675842 -0.1868719756603241 0.2730345129966736 0.14994516968727112 0.35958785750338335 -0.10252687981694725 0.4002017815071019 -1.2062876276216197 1.2077880547132553 -1.2091526488323667 -0.02031642258762284 -0.05442900673741693 0.0007514080533547226 -0.0036293516648050065 -0.001891184336868035 0.00402651864778118 -22.15518537944773 9.861793055525924 -1.546559787075814 -0.604690023117027 3.7236906657075677 -0.9817601087151173 0.3595754568662907 -0.10256433973455727 0.40020470072631553 -1.206227322225475 1.207904541116501 -1.2091396907941339 -0.020508892656436215 -0.055433508616708885 -5.2206435696782175e-05 -0.0007266884850265055 0.0006274420820956754 -2.857979811854274e-06
7470.295999999999 2.391373362643995 -1.2691653319813785 1.6037836106262087 -3.485334228204686 -0.8237727472558154 0.0112421933139944 -0.2 0.000527559259716018 -0.0007204220635211016 -0.001578126985358611 0.19999397259846544 0.0011834243440521142 0.0 0.0 0.0 0.0 0.0 0.0 -0.30696208157757005 -0.8024933357303368 -0.718551088760927 -0.07779461124500232 0.23244016461341785 0.02708017896963076 9.610784807951802e-05 -9.391892362007221 -5.968196467316458 -0.20538039418849932 -0.001683339658457375 0.0 2.3914592266082764 -1.2691896597491663 1.6037688255310059 -3.485354725514547 -0.8238890806781214 0.011196262203156948 -0.1969439685344696 0.0005368932615965605 -0.0038109836168587208 -0.0017736653098836541 0.1919872909784317 0.0006471481756307185 -0.3992615044116974 -0.5674896836280823 -0.953150749206543 -0.1857529729604721 0.2842244505882263 0.14770719408988953 -0.3947754204273224 -0.5988922715187073 -0.9638260006904602 -0.1846339851617813 0.27862948179244995 0.1544211506843567 0.3594140047139869 -0.10298090238753103 0.4002175638924669 -1.2062514041210555 1.2078540772556465 -1.2092484527262022 -0.020321513566261117 -0.05491779913323762 0.0007682141389818396 -0.0034741339557533045 -0.0018382569365301934 -0.004943415486576503 -19.40837794106881 12.50714703708661 -0.6223187994645037 -0.5567215551182942 3.7974393984815706 -1.3089321231430096 0.35941103108757083 -0.10300767629660432 0.40020428142439035 -1.2062353060500492 1.2079055193066695 -1.2091416100940349 -0.020597543242777933 -0.05540060825686978 -5.2619115050596504e-05 -0.000727762126604037 0.000632421742126362 -2.8898920616290054e-06
7470.304 2.389773362643995 -1.2691611115073007 1.6037778472497004 -3.485346853220569 -0.8221727954750273 0.011251660708746817 -0.2 0.000527559259716018 -0.0007204220635211016 -0.001578126985358611 0.19999397259846544 0.0011834243440521142 0.0 0.0 0.0 0.0 0.0 0.0 -0.3069620358709061 -0.8024688271933104 -0.7185121642534145 -0.07771423806811334 0.23243886339974631 0.02708017896963076 9.663237772690922e-05 -9.391610060443112 -5.967867820217601 -0.20504865476899506 -0.0016887414937083998 0.0 2.389902353286743 -1.269165341054098 1.603792667388916 -3.4853184858905237 -0.8223422209369105 0.011256183497607708 -0.20075973868370056 0.0004793690168298781 -0.0029241510201245546 -0.0017736653098836541 0.19757193326950073 0.0006471481756307185 -0.2669220268726349 -0.5787048935890198 -0.9409503936767578 -0.2036568820476532 0.26296356320381165 0.15777812898159027 -0.2960815727710724 -0.5899201035499573 -0.9516257047653198 -0.17903901636600494 0.24841663241386414 0.15777812898159027 0.3592603987852106 -0.103419475409569 0.4001998446660992 -1.2062206174731864 1.207971169902423 -1.2091375164723566 -0.02080267382912902 -0.0557985694984301 0.0005519912960038915 -0.0029193917146716967 -0.0011822622686539427 -0.00317755527108865 -22.580337326434346 7.221893234465813 -0.06127871499932929 -0.6048733755921515 3.85902071941394 -0.7744895839627077 0.35924589631515885 -0.1034507490886494 0.40020385881936665 -1.2062433253852929 1.2079065230090622 -1.2091435170651357 -0.02068614104743575 -0.055367566134900334 -5.303220995661183e-05 -0.0007288247176181881 0.0006374064379004251 -2.921891623797671e-06
7470.312 2.388173362643995 -1.269156891033223 1.6037720838731924 -3.4853594782364516 -0.8205728436942401 0.011261128103499234 -0.2 0.000527559259716018 -0.0007204220635211016 -0.001578126985358611 0.19999397259846544 0.0011834243440521142 0.0 0.0 0.0 0.0 0.0 0.0 -0.30696199019175724 -0.802444271226547 -0.7184731750470318 -0.07763373254195603 0.23243756089674053 0.02708017896963076 9.715659161100335e-05 -9.391327212559617 -5.967538626853748 -0.20471636907931526 -0.0016941486814787 0.0 2.388249635696411 -1.269153896962301 1.6038165092468262 -3.485342804585592 -0.8207481543170374 0.011171919293701649 -0.20143085718154907 0.0004410194815136492 -0.002157160546630621 -0.0017736653098836541 0.2003283053636551 0.0006471481756307185 -0.2422485649585724 -0.6258087754249573 -0.9653510451316833 -0.16561108827590942 0.21148984134197235 0.1510641723871231 -0.2534637749195099 -0.6011353135108948 -0.9455255270004272 -0.17903901636600494 0.21260882914066315 0.1533021628856659 0.3590900257126162 -0.10388259431593316 0.4001899968429211 -1.206270604146002 1.2079927020581573 -1.2092304757760775 -0.020962785865003067 -0.055780338493258454 0.00036220304075154506 -0.002431764505194107 -0.0006190461784361847 -0.0010948918797799934 -23.064861381567738 5.419365932815896 -2.3826255002429577 -0.5744658518288864 3.306087923005553 -0.3826721730589569 0.3590800529721805 -0.10389355697694526 0.4002034329079277 -1.2062513801954133 1.2079075522955567 -1.2091454116236977 -0.020774685843738403 -0.055334382335486945 -5.3445718552481114e-05 -0.000729876244710919 0.0006423961467938343 -2.9539785459319793e-06
7470.32 2.386573362643995 -1.2691526705591452 1.603766320496684 -3.4853721032523346 -0.818972891913452 0.011270595498251651 -0.2 0.000527559259716018 -0.0007204220635211016 -0.001578126985358611 0.19999397259846544 0.0011834243440521142 0.0 0.0 0.0 0.0 0.0 0.0 -0.3069619445402404 -0.802419667900641 -0.7184341212380855 -0.07755309486352802 0.23243625711120258 0.02708017896963076 9.76804883901493e-05 -9.391043819169873 -5.967208888038031 -0.20438353793256547 -0.0016995611935301358 0.0 2.3866565227508545 -1.2691414991961878 1.6037688255310059 -3.485342804585592 -0.8192012945758265 0.011256183497607708 -0.20131580531597137 0.0003834952076431364 -0.001701759989373386 -0.0017736653098836541 0.2010473608970642 0.0006471481756307185 -0.2848663628101349 -0.5944061875343323 -0.9623009562492371 -0.1678490787744522 0.2562496066093445 0.1667300909757614 -0.2758941948413849 -0.5966492295265198 -0.9653510451316833 -0.19246694445610046 0.24841663241386414 0.15665914118289948 0.3589260364358012 -0.10432872089732613 0.40019707082424266 -1.2062005743994106 1.20804443064756 -1.2092292082002798 -0.02104525694639026 -0.05564200094977236 0.0002612641125297873 -0.002168275815188786 -0.000312134542641915 -0.00026229210749902364 -22.575876836539933 8.02131663440355 -1.7111114100989873 -0.6459161572324117 3.610923452279255 -0.8080515375011956 0.35891350148361073 -0.10433609882843728 0.4002030036867716 -1.2062594704444083 1.207908607237941 -1.2091472936859824 -0.02086317740514915 -0.05530105694368489 -5.385963897342669e-05 -0.0007309166945685779 0.00064739084615292 -2.9861528753437244e-06
7470.3279999999995 2.3849733626439953 -1.2691484500850674 1.6037605571201758 -3.4853847282682175 -0.8173729401326639 0.011280062893004067 -0.2 0.000527559259716018 -0.0007204220635211016 -0.001578126985358611 0.19999397259846544 0.0011834243440521142 0.0 0.0 0.0 0.0 0.0 0.0 -0.3069618989164725 -0.8023950172863079 -0.7183950029230469 -0.07747232523016594 0.23243495204994394 0.02708017896963076 9.820406672219425e-05 -9.390759881088421 -5.966878604584979 -0.20405016214325059 -0.0017049790015857575 0.0 2.38505220413208 -1.2691414991961878 1.603804588317871 -3.4853909651385706 -0.8176544348346155 0.011196262203156948 -0.19884225726127625 0.00036432043998502195 -0.001390170189552009 -0.0017736653098836541 0.2027970552444458 0.0015819177497178316 -0.1906585842370987 -0.6258087754249573 -0.9623009562492371 -0.16225410997867584 0.268558531999588 0.16001611948013306 -0.1816864162683487 -0.5966492295265198 -0.9699261784553528 -0.18910996615886688 0.28198644518852234 0.16561108827590942 0.35875581373907633 -0.10477458469819997 0.4001893777614665 -1.2062320461865486 1.2080561368269886 -1.20932309879536 -0.02087476672805819 -0.054576374797114774 0.00018454289924644662 -0.0010415628777525497 -7.60632837162712e-05 0.003962205506707742 -23.911674864412348 4.381381333615779 -2.3605909033237604 -0.6151949194648214 3.320802303628143 -0.5629884162091329 0.3587462422762604 -0.10477837351070227 0.40020257115261093 -1.2062675960960612 1.2079096879079265 -1.2091491631682598 -0.020951615505271505 -0.05526759004491482 -5.427396935219961e-05 -0.0007319460539211629 0.0006523905132937263 -3.0184146592438656e-06
7470.335999999999 2.383373362643995 -1.2691442296109905 1.6037547937436678 -3.4853973532841005 -0.8157729883518767 0.011289530287756484 -0.2 0.000527559259716018 -0.0007204220635211016 -0.001578126985358611 0.19999397259846544 0.0011834243440521142 0.0 0.0 0.0 0.0 0.0 0.0 -0.30696185332057013 -0.8023703194543841 -0.7183558201985534 -0.07739142383954394 0.2324336457197852 0.02708017896963076 9.872732527004932e-05 -9.390475399131187 -5.9665477773105176 -0.20371624252726847 -0.0017104020773306594 0.0 2.383423089981079 -1.2691176573382776 1.603780746459961 -3.4853184858905237 -0.8160236517535608 0.011244199238717556 -0.1992449313402176 0.0003451456723269075 -0.0011984225129708648 -0.0014860439114272594 0.2088850438594818 0.0015819177497178316 -0.2377624809741974 -0.5764618515968323 -0.9851766228675842 -0.20029990375041962 0.22715574502944946 0.1712060570716858 -0.2310333549976349 -0.5988922715187073 -0.9729762673377991 -0.1868719756603241 0.2215607762336731 0.15554013848304749 0.3585934677171244 -0.10523269389506028 0.40018205518313776 -1.2062154107744756 1.208149215011357 -1.209222155264777 -0.020991061232663755 -0.05420290577842118 0.00011957177695727061 -0.0007362841726215658 0.0003118545492124596 0.00964499117833176 -26.249467497406787 6.834020316269454 -1.38982920144733 -0.6670892930450704 4.093838748009458 -0.5787232386925387 0.3585782757786898 -0.10522037989203353 0.4002021353021739 -1.2062757571139453 1.207910794377138 -1.2091510199868056 -0.021039999917852343 -0.055233981724951316 -5.4688707819121175e-05 -0.0007329643095434881 0.0006573951255031957 -3.050763944425503e-06
7470.344 2.381773362643995 -1.2691400091369118 1.6037490303671595 -3.4854099782999834 -0.8141730365710886 0.011298997682508902 -0.2 0.000527559259716018 -0.0007204220635211016 -0.001578126985358611 0.19999397259846544 0.0011834243440521142 0.0 0.0 0.0 0.0 0.0 0.0 -0.3069618077526499 -0.8023455744758289 -0.7183165731614056 -0.07731039088967409 0.2324323381275563 0.02708017896963076 9.925026269408908e-05 -9.39019037411552 -5.966216407031955 -0.20338177990191184 -0.0017158303924111914 0.0 2.3818066120147705 -1.269165341054098 1.6037688255310059 -3.4854028860675257 -0.8143332640277308 0.011304120533168316 -0.2001461535692215 0.0003451456723269075 -0.0010306433541700244 -0.001270327833481133 0.20531374216079712 0.0015819177497178316 -0.2893524467945099 -0.6033783555030823 -0.9577258825302124 -0.19806191325187683 0.11189938336610794 0.14435020089149475 -0.2960815727710724 -0.6033783555030823 -0.9745013117790222 -0.204775869846344 0.10742340981960297 0.1521831601858139 0.3584092016439855 -0.10565969788461992 0.400204678166229 -1.206218686689942 1.2080081502817384 -1.2092417784234144 -0.021157663374496385 -0.05479791195689308 6.393261143260658e-05 -0.00048165514676204045 0.0005802535084270259 0.005170750454809248 -23.20474991443217 6.161406106929479 -1.089512406859674 -0.5442543656821345 3.682985894361265 0.016922052765788308 0.3584096024213437 -0.10566211684139701 0.40020169613220263 -1.2062839534614225 1.2079119267171161 -1.2091528640578981 -0.021128330416761376 -0.05520023206993542 -5.510385250202268e-05 -0.0007339714482540039 0.0006624046600380456 -3.083200777603422e-06
7470.352 2.380173362643995 -1.269135788662835 1.6037432669906515 -3.4854226033158664 -0.8125730847903014 0.011308465077261319 -0.2 0.000527559259716018 -0.0007204220635211016 -0.001578126985358611 0.19999397259846544 0.0011834243440521142 0.0 0.0 0.0 0.0 0.0 0.0 -0.30696176221282856 -0.8023207824217183 -0.7182772619085714 -0.07722922657890412 0.232431029280096 0.02708017896963076 9.977287765596427e-05 -9.389904806860104 -5.965884494568008 -0.20304677508585878 -0.0017212639184368116 0.0 2.3801774978637695 -1.2691414991961878 1.6037449836730957 -3.4853909651385706 -0.8127983252154749 0.011316104792058468 -0.19966678321361542 0.0003451456723269075 -0.0009108011145144701 -0.0010785802733153105 0.2033722996711731 0.0037151097785681486 -0.2422485649585724 -0.5742188096046448 -0.9867016673088074 -0.2014188915491104 0.22715574502944946 0.13092228770256042 -0.2467346489429474 -0.6011353135108948 -0.9760263562202454 -0.20813286304473877 0.22603675723075867 0.1186133474111557 0.35824160315434106 -0.1061215683544187 0.40020101749445736 -1.2061805936556727 1.2081018160461925 -1.2092892359046836 -0.02118457969278452 -0.05476521475577128 2.2836790875207103e-05 0.0018754066946380583 0.0007888538317613489 0.0037126773963038454 -26.269922979355034 7.138965372348513 -1.371989234576299 -0.4800341814323924 3.9631071200280497 -0.6023355980755594 0.35824022263640026 -0.1061035832284963 0.4002012536394556 -1.2062921851016428 1.2079130849993176 -1.2091546952978267 -0.02121660677601557 -0.05516634116636953 -5.551940152636091e-05 -0.0007349674569162706 0.000667419094126133 -3.1157252052730186e-06
7470.36 2.378573362643995 -1.2691315681887563 1.6037375036141432 -3.485435228331749 -0.8109731330095133 0.011317932472013735 -0.2 0.000527559259716018 -0.0007204220635211016 -0.001578126985358611 0.19999397259846544 0.0011834243440521142 0.0 0.0 0.0 0.0 0.0 0.0 -0.3069617167012225 -0.8022959433632538 -0.7182378865371806 -0.07714793110591968 0.23242971918425268 0.02708017896963076 0.00010029516881904186 -9.389618698185075 -5.965552040738762 -0.2027112288991821 -0.0017267026269776244 0.0 2.37858510017395 -1.269165341054098 1.603792667388916 -3.4854028860675257 -0.8111441771136683 0.011340073309838772 -0.1992449313402176 0.0003451456723269075 -0.0008149273344315588 -0.0010546118719503284 0.200951486825943 0.0037151097785681486 -0.3252411186695099 -0.5899201035499573 -0.9790764451026917 -0.21484681963920593 0.2394646853208542 0.10742340981960297 -0.3207550346851349 -0.6011353135108948 -0.9775514006614685 -0.21148984134197235 0.24282166361808777 0.10854240506887436 0.3580679153717808 -0.10655140076900863 0.4001959118697903 -1.2062084925277425 1.208087274189052 -1.2092126516926247 -0.021224171697004097 -0.05478133640411934 -1.696160530172805e-06 0.0019694629140412897 0.0008535175101832295 0.0017133279313379832 -22.16040774473954 9.671962038842084 -1.1576676409603717 -0.370613780209263 3.8209312602185945 -0.8667951915777948 0.35807013685790146 -0.10654477792364281 0.4002008078207049 -1.2063004519975447 1.2079142692951144 -1.2091565136228828 -0.021304828769768917 -0.05513230910111538 -5.5935353015130364e-05 -0.0007359523224376099 0.0006724384049653174 -3.148337273650997e-06
7470.3679999999995 2.3769733626439953 -1.2691273477146794 1.6037317402376352 -3.485447853347632 -0.8093731812287253 0.011327399866766152 -0.2 0.000527559259716018 -0.0007204220635211016 -0.001578126985358611 0.19999397259846544 0.0011834243440521142 0.0 0.0 0.0 0.0 0.0 0.0 -0.30696167121794826 -0.8022710573717516 -0.7181984471445287 -0.07706650466974038 0.2324284078468833 0.02708017896963076 0.00010081713484659227 -9.38933204891189 -5.965219046365704 -0.20237514216333324 -0.0017321464895674996 0.0 2.3769681453704834 -1.2691295782672327 1.6038165092468262 -3.4854629675494593 -0.8095973173724573 0.011316104792058468 -0.19721241295337677 0.0003451456723269075 -0.0007430219557136297 -0.0010546118719503284 0.20620058476924896 0.0027563718613237143 -0.3252411186695099 -0.5988922715187073 -0.9745013117790222 -0.21148984134197235 0.2853434383869171 0.10742340981960297 -0.3162689507007599 -0.6011353135108948 -0.9775514006614685 -0.20701386034488678 0.2842244505882263 0.11301837861537933 0.35789833066069 -0.10700570050307255 0.4001801188853192 -1.2062079128354946 1.2081355274952663 -1.2092790973903311 -0.021094757414542736 -0.05358862397423968 -2.484722721733727e-05 0.0010436300438978583 0.0009593264523918339 0.008991989468885943 -20.94551374441296 10.014391335944577 -1.2534076510647476 -0.3697658034495535 3.718619500694547 -1.1076423794541732 0.35789934552165503 -0.10698569979790805 0.4002003586727391 -1.2063087541118565 1.2079154796757927 -1.2091583189493706 -0.021392996172315538 -0.05509813596139676 -5.635170508893333e-05 -0.0007369260317705843 0.0006774625697247799 -3.1810370288001003e-06
7470.375999999999 2.375373362643995 -1.2691231272406016 1.603725976861127 -3.485460478363515 -0.8077732294479381 0.01133686726151857 -0.2 0.000527559259716018 -0.0007204220635211016 -0.001578126985358611 0.19999397259846544 0.0011834243440521142 0.0 0.0 0.0 0.0 0.0 0.0 -0.306961625763122 -0.8022461245186534 -0.7181589438280741 -0.0769849474697228 0.23242709527485433 0.02708017896963076 0.00010133877440401526 -9.389044859863446 -5.964885512271693 -0.20203851570115422 -0.0017375954777012251 0.0 2.375399351119995 -1.2690938154803675 1.603792667388916 -3.4854748884784144 -0.8079546133624476 0.011316104792058468 -0.19905318319797516 0.0003451456723269075 -0.0006711166352033615 -0.0028762139845639467 0.20754282176494598 0.0020373184233903885 -0.3925323784351349 -0.5966492295265198 -0.991276741027832 -0.23163172602653503 0.12644630670547485 0.10966140031814575 -0.4082336723804474 -0.5831909775733948 -0.9790764451026917 -0.21820379793643951 0.12197033315896988 0.11637535691261292 0.3577356763689495 -0.10743694073683036 0.4001738152430455 -1.2062587236519 1.208090335105426 -1.2092211754604902 -0.021490695992609367 -0.05399666758473405 6.230354690649586e-05 -0.0008874876380205657 -0.0002895277304102162 0.008501684325647756 -21.431883329579207 10.710564935731343 -1.2851315620461603 -0.3821252582242502 3.9667079001517753 -0.42793380388887814 0.357727849065312 -0.10742634772305586 0.4001999061923604 -1.2063170914070924 1.207916716212556 -1.2091601111935988 -0.021481108758089076 -0.055063821834798965 -5.676845586591514e-05 -0.00073788857191149 0.000682491565543693 -3.213824516593889e-06
7470.384 2.373773362643995 -1.2691189067665238 1.6037202134846187 -3.4854731033793978 -0.80617327766715 0.011346334656270985 -0.2 0.000527559259716018 -0.0007204220635211016 -0.001578126985358611 0.19999397259846544 0.0011834243440521142 0.0 0.0 0.0 0.0 0.0 0.0 -0.3069615803368603 -0.8022211448755172 -0.7181193766854395 -0.07690325970555746 0.2324257814750411 0.02708017896963076 0.00010186008615622619 -9.38875713186399 -5.964551439280974 -0.2017013503368655 -0.0017430495628366792 0.0 2.3738183975219727 -1.2691295782672327 1.603780746459961 -3.4854748884784144 -0.806335751210348 0.011292136274278164 -0.19822867214679718 0.0003451456723269075 -0.0006231797160580754 -0.0028762139845639467 0.20670391619205475 0.0016298546688631177 -0.3140259087085724 -0.5831909775733948 -1.0065271854400635 -0.204775869846344 0.28086745738983154 0.11189938336610794 -0.3050537407398224 -0.5876770615577698 -1.0080522298812866 -0.19358593225479126 0.2853434383869171 0.1186133474111557 0.3575591183266537 -0.1078627349120405 0.4001874961097807 -1.2063091078401726 1.2080192419695799 -1.2092480560857115 -0.021486546208620658 -0.05373614914722786 4.955396894709269e-05 -0.0012663910110664084 -0.00025165757436811255 0.008486110992813855 -23.767960824306314 10.608830815326103 -2.0630295387726214 -0.3908787873920984 3.9316801375930703 -1.1387100126667948 0.35755564792830813 -0.10786672057153314 0.40019945037638716 -1.2063254638455592 1.207917978976518 -1.2091618902718821 -0.021569166301668972 -0.05502936680926824 -5.7185603461890046e-05 -0.0007388399299018538 0.0006875253695326305 -3.246699782530495e-06
7470.392 2.372173362643995 -1.269114686292446 1.6037144501081106 -3.4854857283952807 -0.8045733258863628 0.011355802051023402 -0.2 0.000527559259716018 -0.0007204220635211016 -0.001578126985358611 0.19999397259846544 0.0011834243440521142 0.0 0.0 0.0 0.0 0.0 0.0 -0.30696153493927913 -0.8021961185140234 -0.7180797458144114 -0.07682144157726951 0.232424466454328 0.02708017896963076 0.00010238106876923607 -9.388468865739167 -5.964216828219181 -0.20136364689606884 -0.0017485087163940855 0.0 2.372177839279175 -1.2690814177142542 1.603780746459961 -3.485546890889303 -0.80475360551943 0.011340073309838772 -0.2004912942647934 0.0006327670998871326 -0.0005752427969127893 -0.0028762139845639467 0.20174245536327362 0.001342233270406723 -0.2624359428882599 -0.6011353135108948 -1.021777629852295 -0.19694292545318604 0.2551305890083313 0.10854240506887436 -0.2601929008960724 -0.6033783555030823 -1.0095772743225098 -0.1879909634590149 0.2573685944080353 0.12085133790969849 0.3573860620029043 -0.10832291499587357 0.40017444460493296 -1.2062611594481996 1.20807290609955 -1.2092725054582243 -0.02177039921464548 -0.054969197918818775 -5.5101032648106806e-05 -0.0013074674151102308 -5.123577494360196e-05 0.0012610282629211657 -25.656557080044408 8.54670967012493 -2.9765504610980384 -0.37579879929235877 3.791231687663219 -0.8481939718205831 0.35738274255187286 -0.1083068172165021 0.4001989912216519 -1.2063338713893499 1.2079192680387116 -1.2091636561005477 -0.021657168577768816 -0.05499477097311122 -5.7603145990177924e-05 -0.0007397800928274427 0.0006925639587726984 -3.279662872048634e-06
7470.4 2.370573362643995 -1.2691104658183683 1.6037086867316024 -3.485498353411163 -0.8029733741055747 0.01136526944577582 -0.2 0.000527559259716018 -0.0007204220635211016 -0.001578126985358611 0.19999397259846544 0.0011834243440521142 0.0 0.0 0.0 0.0 0.0 0.0 -0.30696148957049485 -0.8021710455059696 -0.7180400513129385 -0.07673949328521762 0.2324231502196084 0.02708017896963076 0.00010290172090974292 -9.388180062315982 -5.963881679913311 -0.20102540620574239 -0.0017539729097563554 0.0 2.3705849647521973 -1.2690938154803675 1.6037688255310059 -3.4855106512652796 -0.8031352202044886 0.01132808905094862 -0.2017376571893692 0.0006327670998871326 -0.0005273059359751642 -0.002684466540813446 0.1955585926771164 0.0011504855938255787 -0.2624359428882599 -0.6190796494483948 -1.0248277187347412 -0.16113510727882385 0.34688809514045715 0.13875523209571838 -0.2781372368335724 -0.5988922715187073 -1.0141524076461792 -0.18127700686454773 0.3200322389602661 0.12308932095766068 0.3572132181406954 -0.10875865451685443 0.4001782282059249 -1.2062979966307255 1.2080680143548876 -1.2092491933488563 -0.02198185279376898 -0.05590096128724033 -7.399557199109685e-05 -0.0013098460581333683 6.305043981270454e-05 -0.006170592742798776 -24.03896121669614 9.503601130457273 -4.13572536377107 -0.5148263129060101 3.5430238528614004 -1.3532783934652675 0.35720913337904725 -0.10874663653184426 0.400198528725003 -1.2063423140003484 1.2079205834700777 -1.2091654085959271 -0.021745115361238788 -0.05496003441498776 -5.8021081561760044e-05 -0.0007407090478189939 0.000697607310316184 -3.3127138303246284e-06
