Fleaurent/UniversalRobot/csv/robolib_movej_Dreieck_Zeit.csv
timestamp target_q_0 target_q_1 target_q_2 target_q_3 target_q_4 target_q_5 target_qd_0 target_qd_1 target_qd_2 target_qd_3 target_qd_4 target_qd_5 target_qdd_0 target_qdd_1 target_qdd_2 target_qdd_3 target_qdd_4 target_qdd_5 target_TCP_pose_0 target_TCP_pose_1 target_TCP_pose_2 target_TCP_pose_3 target_TCP_pose_4 target_TCP_pose_5 target_TCP_speed_0 target_TCP_speed_1 target_TCP_speed_2 target_TCP_speed_3 target_TCP_speed_4 target_TCP_speed_5
0.0 0.0 -1.5707963267948966 -1.5707963267948966 0.0 1.5707963267948966 0.0 0.0 0.0 0.0 0.0 0.0 0.0 0.23271056693257725 0.0 0.0 0.0 0.0 0.0 0.29514999999999997 -0.11234999999999999 0.4809 -1.2091995761561454 1.2091995761561456 -1.2091995761561458 0.0 0.0 0.0 0.0 0.0 0.0 
0.008 7.446738141842471e-06 -1.5707963267948966 -1.5707963267948966 0.0 1.5707963267948966 0.0 0.001861684535460618 0.0 0.0 0.0 0.0 0.0 0.23271056693257725 0.0 0.0 0.0 0.0 0.0 0.2951508366328466 -0.11234780209212233 0.4809 -1.2092030969625922 1.2091940923772966 -1.2091940923772968 0.00020915616574789422 0.0005494777481876337 0.0 0.0 0.0 0.001861684535460618 
0.016 2.9786952567369885e-05 -1.5707963267948966 -1.5707963267948966 0.0 1.5707963267948966 0.0 0.003723369070921236 0.0 0.0 0.0 0.0 0.0 0.23271056693257725 0.0 0.0 0.0 0.0 0.0 0.2951533464331827 -0.11234120833110907 0.4809 -1.2092136592710256 1.2091776410175474 -1.2091776410175479 0.0004182877804899706 0.0010989648412882132 0.0 0.0 0.0 0.003723369070921236 
0.024 6.702064327658225e-05 -1.5707963267948966 -1.5707963267948966 0.0 1.5707963267948966 0.0 0.005585053606381854 0.0 0.0 0.0 0.0 0.0 0.23271056693257725 0.0 0.0 0.0 0.0 0.0 0.29515752910639403 -0.11233021860482674 0.4809 -1.2092312627487243 1.2091502220072958 -1.209150222007296 0.0006273702925245496 0.001648470622386423 0.0 0.0 0.0 0.005585053606381854 
0.032 0.00011914781026947954 -1.5707963267948966 -1.5707963267948966 0.0 1.5707963267948966 0.0 0.007446738141842472 0.0 0.0 0.0 0.0 0.0 0.23271056693257725 0.0 0.0 0.0 0.0 0.0 0.2951633841614478 -0.11231483272641059 0.4809 -1.2092559068411588 1.209111835230541 -1.2091118352305417 0.0008363791487584188 0.0021980044309103555 0.0 0.0 0.0 0.007446738141842472 
0.04 0.0001861684535460618 -1.5707963267948966 -1.5707963267948966 0.0 1.5707963267948966 0.0 0.00930842267730309 0.0 0.0 0.0 0.0 0.0 0.23271056693257725 0.0 0.0 0.0 0.0 0.0 0.29517091091087844 -0.1122950504343012 0.4809 -1.2092875907719982 1.209062480524895 -1.2090624805248953 0.0010452897940115436 0.002747575600803031 0.0 0.0 0.0 0.00930842267730309 
0.048 0.000268082573106329 -1.5707963267948966 -1.5707963267948966 0.0 1.5707963267948966 0.0 0.011170107212763708 0.0 0.0 0.0 0.0 0.0 0.23271056693257725 0.0 0.0 0.0 0.0 0.0 0.29518010847076837 -0.1122708713922956 0.4809 -1.209326313543123 1.2090021576815906 -1.2090021576815908 0.0012540776703223477 0.0032971934586937036 0.0 0.0 0.0 0.011170107212763708 
0.056 0.00036489016895028116 -1.5707963267948966 -1.5707963267948966 0.0 1.5707963267948966 0.0 0.013031791748224325 0.0 0.0 0.0 0.0 0.0 0.23271056693257725 0.0 0.0 0.0 0.0 0.0 0.29519097576072295 -0.11224229518961318 0.4809 -1.2093720739346374 1.2089308664454979 -1.2089308664454983 0.00146271821625376 0.0038468673220688763 0.0 0.0 0.0 0.013031791748224325 
0.064 0.00047659124107791816 -1.5707963267948966 -1.5707963267948966 0.0 1.5707963267948966 0.0 0.014893476283684945 0.0 0.0 0.0 0.0 0.0 0.23271056693257725 0.0 0.0 0.0 0.0 0.0 0.2952035115038396 -0.11220932134097604 0.4809 -1.2094248705048907 1.2088486065151436 -1.2088486065151438 0.0016711868662002095 0.004396606497442951 0.0 0.0 0.0 0.014893476283684945 
0.072 0.0006031857894892404 -1.5707963267948966 -1.5707963267948966 0.0 1.5707963267948966 0.0 0.016755160819145562 0.0 0.0 0.0 0.0 0.0 0.23271056693257725 0.0 0.0 0.0 0.0 0.0 0.2952177142266721 -0.11217194928670421 0.4809 -1.2094847015904922 1.2087553775427262 -1.2087553775427264 0.0018794590496957694 0.004946420278528448 0.0 0.0 0.0 0.016755160819145562 
0.08 0.0007446738141842472 -1.5707963267948966 -1.5707963267948966 0.0 1.5707963267948966 0.0 0.01861684535460618 0.0 0.0 0.0 0.0 0.0 0.23271056693257725 0.0 0.0 0.0 0.0 0.0 0.2952335822591887 -0.11213017839282534 0.4809 -1.2095515653063402 1.2086511791341452 -1.2086511791341454 0.002087510190723633 0.005496317944405719 0.0 0.0 0.0 0.01861684535460618 
0.088 0.000901055315162939 -1.5707963267948966 -1.5707963267948966 0.0 1.5707963267948966 0.0 0.020478529890066797 0.0 0.0 0.0 0.0 0.0 0.23271056693257725 0.0 0.0 0.0 0.0 0.0 0.295251113734725 -0.11208400795119901 0.4809 -1.2096254595456475 1.2085360108490264 -1.2085360108490266 0.0022953157070271135 0.006046308757692078 0.0 0.0 0.0 0.020478529890066797 
0.096 0.001072330292425316 -1.5707963267948966 -1.5707963267948966 0.0 1.5707963267948966 0.0 0.022340214425527416 0.0 0.0 0.0 0.0 0.0 0.23271056693257725 0.0 0.0 0.0 0.0 0.0 0.29527030658993136 -0.11203343717965586 0.4809 -1.2097063819799718 1.2084098722007524 -1.2084098722007526 0.0025028510094223673 0.006596401962710287 0.0 0.0 0.0 0.022340214425527416 
0.104 0.001258498745971378 -1.5707963267948966 -1.5707963267948966 0.0 1.5707963267948966 0.0 0.024201898960988035 0.0 0.0 0.0 0.0 0.0 0.23271056693257725 0.0 0.0 0.0 0.0 0.0 0.29529115856471466 -0.11197846522215123 0.4809 -1.209794330059249 1.2082727626564966 -1.2082727626564969 0.0027100915011130165 0.007146606783656321 0.0 0.0 0.0 0.024201898960988035 
0.112 0.0014595606758011246 -1.5707963267948966 -1.5707963267948966 0.0 1.5707963267948966 0.0 0.02606358349644865 0.0 0.0 0.0 0.0 0.0 0.23271056693257725 0.0 0.0 0.0 0.0 0.0 0.29531366720217456 -0.11191909114893346 0.4809 -1.2098893010118317 1.208124681637259 -1.2081246816372593 0.002917012577006874 0.007696932422766326 0.0 0.0 0.0 0.02606358349644865 
0.12 0.001675516081914556 -1.5707963267948966 -1.5707963267948966 0.0 1.5707963267948966 0.0 0.02792526803190927 0.0 0.0 0.0 0.0 0.0 0.23271056693257725 0.0 0.0 0.0 0.0 0.0 0.2953378298485346 -0.11185531395672707 0.4809 -1.2099912918445241 1.2079656285179061 -1.2079656285179066 0.003123589623034965 0.008247388058482744 0.0 0.0 0.0 0.02792526803190927 
0.128 0.0019063649643116726 -1.5707963267948966 -1.5707963267948966 0.0 1.5707963267948966 0.0 0.02978695256736989 0.0 0.0 0.0 0.0 0.0 0.23271056693257725 0.0 0.0 0.0 0.0 0.0 0.2953636436530678 -0.11178713256893019 0.4809 -1.2101002993426329 1.207795602627216 -1.2077956026272163 0.003329798015473013 0.008797982843619472 0.0 0.0 0.0 0.02978695256736989 
0.136 0.0021521073229924747 -1.5707963267948966 -1.5707963267948966 0.0 1.5707963267948966 0.0 0.03164863710283051 0.0 0.0 0.0 0.0 0.0 0.23271056693257725 0.0 0.0 0.0 0.0 0.0 0.2953911055680162 -0.11171454583582717 0.4809 -1.210216320070007 1.2076146032479231 -1.2076146032479236 0.003535613120265619 0.009348725903526041 0.0 0.0 0.0 0.03164863710283051 
0.144 0.0024127431579569615 -1.5707963267948966 -1.5707963267948966 0.0 1.5707963267948966 0.0 0.033510321638291124 0.0 0.0 0.0 0.0 0.0 0.23271056693257725 0.0 0.0 0.0 0.0 0.0 0.2954202123485059 -0.11163755253481548 0.4809 -1.2103393503690887 1.2074226296167663 -1.2074226296167667 0.0037410102923532895 0.009899626334250696 0.0 0.0 0.0 0.033510321638291124 
0.152 0.0026882724692051324 -1.5707963267948966 -1.5707963267948966 0.0 1.5707963267948966 0.0 0.03537200617375174 0.0 0.0 0.0 0.0 0.0 0.23271056693257725 0.0 0.0 0.0 0.0 0.0 0.2954509605524564 -0.11155615137064762 0.4809 -1.2104693863609695 1.2072196809245452 -1.2072196809245455 0.003945964875002531 0.01045069320070237 0.0 0.0 0.0 0.03537200617375174 
0.16 0.002978695256736989 -1.5707963267948966 -1.5707963267948966 0.0 1.5707963267948966 0.0 0.03723369070921236 0.0 0.0 0.0 0.0 0.0 0.23271056693257725 0.0 0.0 0.0 0.0 0.0 0.29548334654048436 -0.1114703409756874 0.4809 -1.2106064239454422 1.2070057563161734 -1.2070057563161736 0.004150452199139186 0.01100193553481141 0.0 0.0 0.0 0.03723369070921236 
0.168 0.00328401152055253 -1.5707963267948966 -1.5707963267948966 0.0 1.5707963267948966 0.0 0.03909537524467298 0.0 0.0 0.0 0.0 0.0 0.23271056693257725 0.0 0.0 0.0 0.0 0.0 0.29551736647580223 -0.1113801199101813 0.4809 -1.2107504588010605 1.206780854890737 -1.2067808548907373 0.00435444758268521 0.01155336233368903 0.0 0.0 0.0 0.03909537524467298 
0.176 0.003604221260651756 -1.5707963267948966 -1.5707963267948966 0.0 1.5707963267948966 0.0 0.040957059780133594 0.0 0.0 0.0 0.0 0.0 0.23271056693257725 0.0 0.0 0.0 0.0 0.0 0.29555301632411174 -0.11128548666254437 0.4809 -1.2109014863852028 1.2065449757015596 -1.2065449757015598 0.004557926329899089 0.012104982557785445 0.0 0.0 0.0 0.040957059780133594 
0.184 0.003939324477034667 -1.5707963267948966 -1.5707963267948966 0.0 1.5707963267948966 0.0 0.04281874431559421 0.0 0.0 0.0 0.0 0.0 0.23271056693257725 0.0 0.0 0.0 0.0 0.0 0.2955902918534916 -0.11118643964966074 0.4809 -1.2110595019341353 1.206298117756264 -1.2062981177562642 0.004760863730720069 0.012656805129046527 0.0 0.0 0.0 0.04281874431559421 
0.192 0.004289321169701264 -1.5707963267948966 -1.5707963267948966 0.0 1.5707963267948966 0.0 0.04468042885105483 0.0 0.0 0.0 0.0 0.0 0.23271056693257725 0.0 0.0 0.0 0.0 0.0 0.29562918863428084 -0.11108297721719917 0.4809 -1.211224500463082 1.2060402800168437 -1.206040280016844 0.004963235060116413 0.013208838929069053 0.0 0.0 0.0 0.04468042885105483 
0.2 0.004654211338651546 -1.5707963267948966 -1.5707963267948966 0.0 1.5707963267948966 0.0 0.046542113386515455 0.0 0.0 0.0 0.0 0.0 0.23271056693257725 0.0 0.0 0.0 0.0 0.0 0.29566970203895604 -0.11097509763994326 0.4809 -1.211396476766297 1.205771461399733 -1.2057714613997332 0.0051650155774378625 0.013761092797254331 0.0 0.0 0.0 0.046542113386515455 
0.208 0.005033994983885512 -1.5707963267948966 -1.5707963267948966 0.0 1.5707963267948966 0.0 0.04840379792197607 0.0 0.0 0.0 0.0 0.0 0.23271056693257725 0.0 0.0 0.0 0.0 0.0 0.29571182724200407 -0.11086279912213631 0.4809 -1.2115754254171358 1.2054916607758817 -1.2054916607758819 0.005366180525772512 0.014313575528960263 0.0 0.0 0.0 0.04840379792197607 
0.216 0.005428672105403162 -1.5707963267948966 -1.5707963267948966 0.0 1.5707963267948966 0.0 0.050265482457436686 0.0 0.0 0.0 0.0 0.0 0.23271056693257725 0.0 0.0 0.0 0.0 0.0 0.29575555921978913 -0.11074607979784104 0.4809 -1.2117613407681371 1.205200876970834 -1.2052008769708344 0.005566705131308262 0.014866295873651687 0.0 0.0 0.0 0.050265482457436686 
0.224 0.0058382427032044985 -1.5707963267948966 -1.5707963267948966 0.0 1.5707963267948966 0.0 0.0521271669928973 0.0 0.0 0.0 0.0 0.0 0.23271056693257725 0.0 0.0 0.0 0.0 0.0 0.29580089275041554 -0.11062493773131424 0.4809 -1.2119542169511006 1.2048991087648082 -1.2048991087648087 0.0057665646026990825 0.015419262533049016 0.0 0.0 0.0 0.0521271669928973 
0.232 0.006262706777289519 -1.5707963267948966 -1.5707963267948966 0.0 1.5707963267948966 0.0 0.053988851528357924 0.0 0.0 0.0 0.0 0.0 0.23271056693257725 0.0 0.0 0.0 0.0 0.0 0.2958478224135842 -0.11049937091739613 0.4809 -1.2121540478771735 1.2045863548927824 -1.2045863548927827 0.0059657341304362515 0.015972484159274998 0.0 0.0 0.0 0.053988851528357924 
0.24 0.006702064327658224 -1.5707963267948966 -1.5707963267948966 0.0 1.5707963267948966 0.0 0.05585053606381854 0.0 0.0 0.0 0.0 0.0 0.23271056693257725 0.0 0.0 0.0 0.0 0.0 0.29589634259044567 -0.11036937728191445 0.4809 -1.2123608272369366 1.2042626140445798 -1.20426261404458 0.006164188886224758 0.016525969352999693 0.0 0.0 0.0 0.05585053606381854 
0.248 0.007156315354310615 -1.5707963267948966 -1.5707963267948966 0.0 1.5707963267948966 0.0 0.057712220599279156 0.0 0.0 0.0 0.0 0.0 0.23271056693257725 0.0 0.0 0.0 0.0 0.0 0.29594644746344656 -0.1102349546821036 0.4809 -1.212574548500493 1.2039278848649604 -1.2039278848649606 0.0063619040223651035 0.017079726661583406 0.0 0.0 0.0 0.057712220599279156 
0.256 0.0076254598572466905 -1.5707963267948966 -1.5707963267948966 0.0 1.5707963267948966 0.0 0.05957390513473978 0.0 0.0 0.0 0.0 0.0 0.23271056693257725 0.0 0.0 0.0 0.0 0.0 0.2959981310161724 -0.11009610090703859 0.4809 -1.2127952049175654 1.2035821659537151 -1.2035821659537154 0.006558854671140655 0.01763376457721773 0.0 0.0 0.0 0.05957390513473978 
0.264 0.008109497836466454 -1.5707963267948966 -1.5707963267948966 0.0 1.5707963267948966 0.0 0.061435589670200394 0.0 0.0 0.0 0.0 0.0 0.23271056693257725 0.0 0.0 0.0 0.0 0.0 0.29605138703318484 -0.10995281367808366 0.4809 -1.2130227895175887 1.2032254558657611 -1.2032254558657616 0.006755015944210745 0.01818809153506443 0.0 0.0 0.0 0.061435589670200394 
0.272 0.008608429291969899 -1.5707963267948966 -1.5707963267948966 0.0 1.5707963267948966 0.0 0.06329727420566102 0.0 0.0 0.0 0.0 0.0 0.23271056693257725 0.0 0.0 0.0 0.0 0.0 0.2961062090998543 -0.10980509064935619 0.4809 -1.2132572951098108 1.2028577531112412 -1.2028577531112414 0.0069503629320097635 0.018742715911392274 0.0 0.0 0.0 0.06329727420566102 
0.28 0.00912225422375703 -1.5707963267948966 -1.5707963267948966 0.0 1.5707963267948966 0.0 0.06515895874112164 0.0 0.0 0.0 0.0 0.0 0.23271056693257725 0.0 0.0 0.0 0.0 0.0 0.2961625906021879 -0.10965292940820517 0.4809 -1.2134987142833955 1.2024790561556271 -1.2024790561556273 0.007144870703152365 0.019297646021711662 0.0 0.0 0.0 0.06515895874112164 
0.288 0.009650972631827846 -1.5707963267948966 -1.5707963267948966 0.0 1.5707963267948966 0.0 0.06702064327658225 0.0 0.0 0.0 0.0 0.0 0.23271056693257725 0.0 0.0 0.0 0.0 0.0 0.2962205247266523 -0.10949632747570473 0.4809 -1.213747039407529 1.2020893634198269 -1.202089363419827 0.0073385143038450385 0.019852890118906973 0.0 0.0 0.0 0.06702064327658225 
0.296 0.010194584516182343 -1.5707963267948966 -1.5707963267948966 0.0 1.5707963267948966 0.0 0.06888232781204286 0.0 0.0 0.0 0.0 0.0 0.23271056693257725 0.0 0.0 0.0 0.0 0.0 0.2962800044599922 -0.10933528230716272 0.4809 -1.2140022626315268 1.2016886732802912 -1.2016886732802914 0.007531268757304232 0.0204084563913667 0.0 0.0 0.0 0.06888232781204286 
0.304 0.01075308987682053 -1.5707963267948966 -1.5707963267948966 0.0 1.5707963267948966 0.0 0.07074401234750348 0.0 0.0 0.0 0.0 0.0 0.23271056693257725 0.0 0.0 0.0 0.0 0.0 0.2963410225890444 -0.10916979129264404 0.4809 -1.2142643758849476 1.201276984069127 -1.2012769840691273 0.007723109063181187 0.02096435296111116 0.0 0.0 0.0 0.07074401234750348 
0.312 0.0113264887137424 -1.5707963267948966 -1.5707963267948966 0.0 1.5707963267948966 0.0 0.0726056968829641 0.0 0.0 0.0 0.0 0.0 0.23271056693257725 0.0 0.0 0.0 0.0 0.0 0.29640357170054643 -0.1089998517575092 0.4809 -1.2145333708777053 1.200854294074212 -1.2008542940742122 0.007914010196993735 0.02152058788191779 0.0 0.0 0.0 0.0726056968829641 
0.32 0.011914781026947955 -1.5707963267948966 -1.5707963267948966 0.0 1.5707963267948966 0.0 0.07446738141842472 0.0 0.0 0.0 0.0 0.0 0.23271056693257725 0.0 0.0 0.0 0.0 0.0 0.2964676441809419 -0.10882546096296772 0.4809 -1.214809239100188 1.2004206015393113 -1.2004206015393115 0.008103947109565208 0.022077169137444026 0.0 0.0 0.0 0.07446738141842472 
0.328 0.012517966816437198 -1.5707963267948966 -1.5707963267948966 0.0 1.5707963267948966 0.0 0.07632906595388533 0.0 0.0 0.0 0.0 0.0 0.23271056693257725 0.0 0.0 0.0 0.0 0.0 0.29653323221618005 -0.10864661610664654 0.4809 -1.2150919718233815 1.1999759046642033 -1.1999759046642038 0.008292894726470684 0.0226341046393476 0.0 0.0 0.0 0.07632906595388533 
0.336 0.01313604608221012 -1.5707963267948966 -1.5707963267948966 0.0 1.5707963267948966 0.0 0.07819075048934596 0.0 0.0 0.0 0.0 0.0 0.23271056693257725 0.0 0.0 0.0 0.0 0.0 0.296600327791512 -0.10846331432317369 0.4809 -1.215381560098989 1.1995202016047974 -1.1995202016047977 0.008480827947490777 0.02319140222540434 0.0 0.0 0.0 0.07819075048934596 
0.344 0.013769018824266734 -1.5707963267948966 -1.5707963267948966 0.0 1.5707963267948966 0.0 0.08005243502480658 0.0 0.0 0.0 0.0 0.0 0.23271056693257725 0.0 0.0 0.0 0.0 0.0 0.2966689226912824 -0.10827555268477673 0.4809 -1.215677994759561 1.1990534904732655 -1.1990534904732657 0.008667721646073111 0.023749069657623252 0.0 0.0 0.0 0.08005243502480658 
0.352 0.014416885042607025 -1.5707963267948966 -1.5707963267948966 0.0 1.5707963267948966 0.0 0.08191411956026719 0.0 0.0 0.0 0.0 0.0 0.23271056693257725 0.0 0.0 0.0 0.0 0.0 0.29673900849871604 -0.10808332820189659 0.4809 -1.2159812664186223 1.198575769338171 -1.1985757693381711 0.008853550668801755 0.024307114620358967 0.0 0.0 0.0 0.08191411956026719 
0.36 0.015079644737231005 -1.5707963267948966 -1.5707963267948966 0.0 1.5707963267948966 0.0 0.08377580409572781 0.0 0.0 0.0 0.0 0.0 0.23271056693257725 0.0 0.0 0.0 0.0 0.0 0.2968105765957013 -0.10788663782381622 0.4809 -1.2162913654708087 1.1980870362246023 -1.1980870362246026 0.009038289834874766 0.024865544718421485 0.0 0.0 0.0 0.08377580409572781 
0.368 0.01575729790813867 -1.5707963267948966 -1.5707963267948966 0.0 1.5707963267948966 0.0 0.08563748863118842 0.0 0.0 0.0 0.0 0.0 0.23271056693257725 0.0 0.0 0.0 0.0 0.0 0.296883618162569 -0.10768547843930457 0.4809 -1.216608282091998 1.197587289114307 -1.1975872891143071 0.00922191393559003 0.025424367475183084 0.0 0.0 0.0 0.08563748863118842 
0.376 0.01644984455533002 -1.5707963267948966 -1.5707963267948966 0.0 1.5707963267948966 0.0 0.08749917316664904 0.0 0.0 0.0 0.0 0.0 0.23271056693257725 0.0 0.0 0.0 0.0 0.0 0.2969581241778667 -0.10747984687727574 0.4809 -1.2169320062394535 1.1970765259458347 -1.197076525945835 0.009404397733839673 0.02598359033068243 0.0 0.0 0.0 0.08749917316664904 
0.384 0.017157284678805056 -1.5707963267948966 -1.5707963267948966 0.0 1.5707963267948966 0.0 0.08936085770210966 0.0 0.0 0.0 0.0 0.0 0.23271056693257725 0.0 0.0 0.0 0.0 0.0 0.29703408541813037 -0.10726973990746311 0.4809 -1.217262527651962 1.1965547446146756 -1.196554744614676 0.009585715963613125 0.026543220639725834 0.0 0.0 0.0 0.08936085770210966 
0.392 0.017879618278563776 -1.5707963267948966 -1.5707963267948966 0.0 1.5707963267948966 0.0 0.09122254223757029 0.0 0.0 0.0 0.0 0.0 0.23271056693257725 0.0 0.0 0.0 0.0 0.0 0.29711149245765023 -0.10705515424110897 0.4809 -1.2175998358499807 1.1960219429734082 -1.1960219429734087 0.009765843329509164 0.027103265669985544 0.0 0.0 0.0 0.09122254223757029 
0.4 0.018616845354606185 -1.5707963267948966 -1.5707963267948966 0.0 1.5707963267948966 0.0 0.09308422677303091 0.0 0.0 0.0 0.0 0.0 0.23271056693257725 0.0 0.0 0.0 0.0 0.0 0.29719033566823416 -0.106836086531669 0.4809 -1.2179439201357833 1.1954781188318455 -1.1954781188318457 0.00994475450625703 0.027663732600095085 0.0 0.0 0.0 0.09308422677303091 
0.408 0.019368965906932274 -1.5707963267948966 -1.5707963267948966 0.0 1.5707963267948966 0.0 0.09494591130849152 0.0 0.0 0.0 0.0 0.0 0.23271056693257725 0.0 0.0 0.0 0.0 0.0 0.29727060521896703 -0.10661253337553242 0.4809 -1.2182947695936115 1.1949232699571863 -1.1949232699571868 0.010122424138246893 0.02822462851774164 0.0 0.0 0.0 0.09494591130849152 
0.416 0.02013597993554205 -1.5707963267948966 -1.5707963267948966 0.0 1.5707963267948966 0.0 0.09680759584395214 0.0 0.0 0.0 0.0 0.0 0.23271056693257725 0.0 0.0 0.0 0.0 0.0 0.29735229107596584 -0.10638449131275705 0.4809 -1.2186523730898267 1.1943573940741703 -1.1943573940741705 0.010298826839069823 0.028785960417755316 0.0 0.0 0.0 0.09680759584395214 
0.424 0.020917887440435504 -1.5707963267948966 -1.5707963267948966 0.0 1.5707963267948966 0.0 0.09866928037941275 0.0 0.0 0.0 0.0 0.0 0.23271056693257725 0.0 0.0 0.0 0.0 0.0 0.29743538300213146 -0.10615195682781994 0.4809 -1.2190167192730685 1.193780488865234 -1.1937804888652344 0.010473937191067484 0.029347735200195325 0.0 0.0 0.0 0.09866928037941275 
0.432 0.021714688421612647 -1.5707963267948966 -1.5707963267948966 0.0 1.5707963267948966 0.0 0.10053096491487337 0.0 0.0 0.0 0.0 0.0 0.23271056693257725 0.0 0.0 0.0 0.0 0.0 0.29751987055689727 -0.10591492635038305 0.4809 -1.219387796574413 1.193192551970671 -1.1931925519706712 0.010647729744891756 0.029909959668433107 0.0 0.0 0.0 0.10053096491487337 
0.44 0.022526382879073478 -1.5707963267948966 -1.5707963267948966 0.0 1.5707963267948966 0.0 0.102392649450334 0.0 0.0 0.0 0.0 0.0 0.23271056693257725 0.0 0.0 0.0 0.0 0.0 0.29760574309597354 -0.10567339625607457 0.4809 -1.2197655932075324 1.1925935809887926 -1.1925935809887929 0.010820179019074479 0.030472640527232177 0.0 0.0 0.0 0.102392649450334 
0.448 0.023352970812817994 -1.5707963267948966 -1.5707963267948966 0.0 1.5707963267948966 0.0 0.1042543339857946 0.0 0.0 0.0 0.0 0.0 0.23271056693257725 0.0 0.0 0.0 0.0 0.0 0.29769298977108904 -0.10542736286728543 0.4809 -1.2201500971688635 1.1919835734760973 -1.1919835734760975 0.010991259499607536 0.031035784380824855 0.0 0.0 0.0 0.1042543339857946 
0.456 0.02419445222284619 -1.5707963267948966 -1.5707963267948966 0.0 1.5707963267948966 0.0 0.10611601852125523 0.0 0.0 0.0 0.0 0.0 0.23271056693257725 0.0 0.0 0.0 0.0 0.0 0.2977815995297286 -0.10517682245398124 0.4809 -1.2205412962377724 1.1913625269474348 -1.191362526947435 0.011160945639533446 0.03159939773098569 0.0 0.0 0.0 0.10611601852125523 
0.464 0.025050827109158076 -1.5707963267948966 -1.5707963267948966 0.0 1.5707963267948966 0.0 0.10797770305671585 0.0 0.0 0.0 0.0 0.0 0.23271056693257725 0.0 0.0 0.0 0.0 0.0 0.2978715611148688 -0.10492177123452967 0.4809 -1.220939177976727 1.1907304388761806 -1.190730438876181 0.011329211858546715 0.03216348697510169 0.0 0.0 0.0 0.10797770305671585 
0.472 0.02592209547175365 -1.5707963267948966 -1.5707963267948966 0.0 1.5707963267948966 0.0 0.10983938759217647 0.0 0.0 0.0 0.0 0.0 0.23271056693257725 0.0 0.0 0.0 0.0 0.0 0.29796286306470854 -0.10466220537654328 0.4809 -1.221343729731468 1.1900873066944098 -1.19008730669441 0.011496032542606113 0.032728058404239126 0.0 0.0 0.0 0.10983938759217647 
0.48 0.026808257310632896 -1.5707963267948966 -1.5707963267948966 0.0 1.5707963267948966 0.0 0.11170107212763708 0.0 0.0 0.0 0.0 0.0 0.23271056693257725 0.0 0.0 0.0 0.0 0.0 0.2980554937123986 -0.10439812099773783 0.4809 -1.221754938631188 1.1894331277930703 -1.1894331277930708 0.011661382043558098 0.03329311820120712 0.0 0.0 0.0 0.11170107212763708 
0.488 0.02770931262579584 -1.5707963267948966 -1.5707963267948966 0.0 1.5707963267948966 0.0 0.11356275666309769 0.0 0.0 0.0 0.0 0.0 0.23271056693257725 0.0 0.0 0.0 0.0 0.0 0.2981494411857666 -0.10412951416680616 0.4809 -1.2221727915887066 1.1887678995221693 -1.1887678995221695 0.011825234678771591 0.033858672438617766 0.0 0.0 0.0 0.11356275666309769 
0.496 0.02862526141724246 -1.5707963267948966 -1.5707963267948966 0.0 1.5707963267948966 0.0 0.11542444119855831 0.0 0.0 0.0 0.0 0.0 0.23271056693257725 0.0 0.0 0.0 0.0 0.0 0.2982446934070402 -0.10385638090430738 0.4809 -1.222597275300656 1.1880916191909496 -1.1880916191909499 0.0119875647307843 0.03442472707694296 0.0 0.0 0.0 0.11542444119855831 
0.504 0.029556103684972773 -1.5707963267948966 -1.5707963267948966 0.0 1.5707963267948966 0.0 0.11728612573401893 0.0 0.0 0.0 0.0 0.0 0.23271056693257725 0.0 0.0 0.0 0.0 0.0 0.29834123809256674 -0.10357871718357195 0.4809 -1.2230283762476604 1.1874042840680774 -1.1874042840680776 0.012148346446960808 0.03499128796256766 0.0 0.0 0.0 0.11728612573401893 
0.512 0.030501839428986762 -1.5707963267948966 -1.5707963267948966 0.0 1.5707963267948966 0.0 0.11914781026947956 0.0 0.0 0.0 0.0 0.0 0.23271056693257725 0.0 0.0 0.0 0.0 0.0 0.29843906275253085 -0.10329651893162207 0.4809 -1.223466080694527 1.186705891381832 -1.1867058913818322 0.01230755403916261 0.03555836082583985 0.0 0.0 0.0 0.11914781026947956 
0.52 0.031462468649284446 -1.5707963267948966 -1.5707963267948966 0.0 1.5707963267948966 0.0 0.12100949480494017 0.0 0.0 0.0 0.0 0.0 0.23271056693257725 0.0 0.0 0.0 0.0 0.0 0.2985381546906687 -0.10300978203010784 0.4809 -1.2239103746904358 1.185996438320295 -1.1859964383202952 0.012465161683430353 0.03612595127911689 0.0 0.0 0.0 0.12100949480494017 
0.528 0.032437991345865815 -1.5707963267948966 -1.5707963267948966 0.0 1.5707963267948966 0.0 0.12287117934040079 0.0 0.0 0.0 0.0 0.0 0.23271056693257725 0.0 0.0 0.0 0.0 0.0 0.29863850100398087 -0.10271850231625894 0.4809 -1.2243612440691287 1.185275922031545 -1.1852759220315452 0.012621143519678427 0.036694064814808594 0.0 0.0 0.0 0.12287117934040079 
0.536 0.033428407518730864 -1.5707963267948966 -1.5707963267948966 0.0 1.5707963267948966 0.0 0.12473286387586141 0.0 0.0 0.0 0.0 0.0 0.23271056693257725 0.0 0.0 0.0 0.0 0.0 0.29874008858244144 -0.10242267558385211 0.4809 -1.2248186744491076 1.184544339623852 -1.1845443396238522 0.01277547365140214 0.03726270680341645 0.0 0.0 0.0 0.12473286387586141 
0.544 0.034433717167879595 -1.5707963267948966 -1.5707963267948966 0.0 1.5707963267948966 0.0 0.12659454841132203 0.0 0.0 0.0 0.0 0.0 0.23271056693257725 0.0 0.0 0.0 0.0 0.0 0.29884290410870595 -0.10212229758419428 0.4809 -1.2252826512338306 1.1838016881658802 -1.1838016881658804 0.012928126145397718 0.03783188249156964 0.0 0.0 0.0 0.12659454841132203 
0.552 0.03545392029331201 -1.5707963267948966 -1.5707963267948966 0.0 1.5707963267948966 0.0 0.12845623294678266 0.0 0.0 0.0 0.0 0.0 0.23271056693257725 0.0 0.0 0.0 0.0 0.0 0.29894693405781675 -0.10181736402712141 0.4809 -1.2257531596119147 1.1830479646868874 -1.1830479646868879 0.013079075031495276 0.03840159700005738 0.0 0.0 0.0 0.12845623294678266 
0.56 0.03648901689502812 -1.5707963267948966 -1.5707963267948966 0.0 1.5707963267948966 0.0 0.13031791748224328 0.0 0.0 0.0 0.0 0.0 0.23271056693257725 0.0 0.0 0.0 0.0 0.0 0.29905216469690576 -0.10150787058201301 0.4809 -1.2262301845573342 1.1822831661769309 -1.182283166176931 0.013228294302305 0.03897185532185759 0.0 0.0 0.0 0.13031791748224328 
0.568 0.03753900697302791 -1.5707963267948966 -1.5707963267948966 0.0 1.5707963267948966 0.0 0.1321796020177039 0.0 0.0 0.0 0.0 0.0 0.23271056693257725 0.0 0.0 0.0 0.0 0.0 0.29915858208489654 -0.10119381287882262 0.4809 -1.2267137108296318 1.181507289587073 -1.1815072895870733 0.013375757912976773 0.03954266232016223 0.0 0.0 0.0 0.1321796020177039 
0.576 0.038603890527311384 -1.5707963267948966 -1.5707963267948966 0.0 1.5707963267948966 0.0 0.1340412865531645 0.0 0.0 0.0 0.0 0.0 0.23271056693257725 0.0 0.0 0.0 0.0 0.0 0.29926617207220296 -0.10087518650912404 0.4809 -1.227203722974124 1.180720331829594 -1.1807203318295942 0.013521439780973409 0.040114022726398794 0.0 0.0 0.0 0.1340412865531645 
0.584 0.03968366755787853 -1.5707963267948966 -1.5707963267948966 0.0 1.5707963267948966 0.0 0.1359029710886251 0.0 0.0 0.0 0.0 0.0 0.23271056693257725 0.0 0.0 0.0 0.0 0.0 0.2993749203004272 -0.10055198702717322 0.4809 -1.2277002053221113 1.1799222897782022 -1.1799222897782025 0.013665313785857726 0.0406859411382484 0.0 0.0 0.0 0.1359029710886251 
0.592 0.04077833806472937 -1.5707963267948966 -1.5707963267948966 0.0 1.5707963267948966 0.0 0.1377646556240857 0.0 0.0 0.0 0.0 0.0 0.23271056693257725 0.0 0.0 0.0 0.0 0.0 0.29948481220205575 -0.10022420995098633 0.4809 -1.2282031419910933 1.179113160268251 -1.1791131602682512 0.013807353769093696 0.041258422017660196 0.0 0.0 0.0 0.1377646556240857 
0.6 0.041887902047863905 -1.5707963267948966 -1.5707963267948966 0.0 1.5707963267948966 0.0 0.13962634015954634 0.0 0.0 0.0 0.0 0.0 0.23271056693257725 0.0 0.0 0.0 0.0 0.0 0.2995958330001536 -0.09989185076343347 0.4809 -1.228712516884985 1.178292940096957 -1.1782929400969573 0.0139475335338618 0.04183146968886208 0.0 0.0 0.0 0.13962634015954634 
0.608 0.04301235950728212 -1.5707963267948966 -1.5707963267948966 0.0 1.5707963267948966 0.0 0.14148802469500696 0.0 0.0 0.0 0.0 0.0 0.23271056693257725 0.0 0.0 0.0 0.0 0.0 0.29970796770805763 -0.09955490491334845 0.4809 -1.2292283136943325 1.1774616260236181 -1.1774616260236186 0.014085826844888915 0.042405088336368 0.0 0.0 0.0 0.14148802469500696 
0.616 0.044151710442984014 -1.5707963267948966 -1.5707963267948966 0.0 1.5707963267948966 0.0 0.14334970923046758 0.0 0.0 0.0 0.0 0.0 0.23271056693257725 0.0 0.0 0.0 0.0 0.0 0.29982120112906824 -0.09921336781665452 0.4809 -1.2297505158965372 1.1766192147698418 -1.176619214769842 0.014222207428292855 0.04297928200298147 0.0 0.0 0.0 0.14334970923046758 
0.624 0.0453059548549696 -1.5707963267948966 -1.5707963267948966 0.0 1.5707963267948966 0.0 0.1452113937659282 0.0 0.0 0.0 0.0 0.0 0.23271056693257725 0.0 0.0 0.0 0.0 0.0 0.2999355178561398 -0.09886723485750594 0.4809 -1.2302791067560779 1.175765703019765 -1.1757657030197655 0.014356648971441798 0.04355405458779551 0.0 0.0 0.0 0.1452113937659282 
0.632 0.04647509274323887 -1.5707963267948966 -1.5707963267948966 0.0 1.5707963267948966 0.0 0.14707307830138883 0.0 0.0 0.0 0.0 0.0 0.23271056693257725 0.0 0.0 0.0 0.0 0.0 0.3000509022715701 -0.09851650138944577 0.4809 -1.2308140693247351 1.174901087420287 -1.1749010874202872 0.01448912512282884 0.044129409844189 0.0 0.0 0.0 0.14707307830138883 
0.64 0.04765912410779182 -1.5707963267948966 -1.5707963267948966 0.0 1.5707963267948966 0.0 0.14893476283684945 0.0 0.0 0.0 0.0 0.0 0.23271056693257725 0.0 0.0 0.0 0.0 0.0 0.30016733854668914 -0.09816116273657963 0.4809 -1.2313553864418236 1.1740253645812992 -1.1740253645813 0.014619609491961871 0.04470535137781945 0.0 0.0 0.0 0.14893476283684945 
0.648 0.048858048948628455 -1.5707963267948966 -1.5707963267948966 0.0 1.5707963267948966 0.0 0.15079644737231007 0.0 0.0 0.0 0.0 0.0 0.23271056693257725 0.0 0.0 0.0 0.0 0.0 0.3002848106415468 -0.09780121419476541 0.4809 -1.2319030407344194 1.173138531075918 -1.1731385310759181 0.014748075649268966 0.0452818826446121 0.0 0.0 0.0 0.15079644737231007 
0.656 0.05007186726574879 -1.5707963267948966 -1.5707963267948966 0.0 1.5707963267948966 0.0 0.15265813190777067 0.0 0.0 0.0 0.0 0.0 0.23271056693257725 0.0 0.0 0.0 0.0 0.0 0.30040330230459944 -0.09743665103281926 0.4809 -1.2324570146175944 1.1722405834407204 -1.1722405834407206 0.014874497126019542 0.04585900694874545 0.0 0.0 0.0 0.15265813190777067 
0.664 0.0513005790591528 -1.5707963267948966 -1.5707963267948966 0.0 1.5707963267948966 0.0 0.1545198164432313 0.0 0.0 0.0 0.0 0.0 0.23271056693257725 0.0 0.0 0.0 0.0 0.0 0.3005227970723972 -0.09706746849373762 0.4809 -1.2330172902946517 1.1713315181759845 -1.1713315181759847 0.014998847414261473 0.04643672744063326 0.0 0.0 0.0 0.1545198164432313 
0.672 0.05254418432884048 -1.5707963267948966 -1.5707963267948966 0.0 1.5707963267948966 0.0 0.1563815009786919 0.0 0.0 0.0 0.0 0.0 0.23271056693257725 0.0 0.0 0.0 0.0 0.0 0.30064327826926923 -0.09669366179593541 0.4809 -1.2335838497573655 1.1704113317459306 -1.170411331745931 0.015121099966774378 0.04701504711490287 0.0 0.0 0.0 0.1563815009786919 
0.68 0.05380268307481187 -1.5707963267948966 -1.5707963267948966 0.0 1.5707963267948966 0.0 0.15824318551415253 0.0 0.0 0.0 0.0 0.0 0.23271056693257725 0.0 0.0 0.0 0.0 0.0 0.3007647290070098 -0.09631522613450043 0.4809 -1.2341566747862183 1.169480020578962 -1.1694800205789622 0.015241228197039304 0.047593968808370066 0.0 0.0 0.0 0.15824318551415253 
0.688 0.055076075297066936 -1.5707963267948966 -1.5707963267948966 0.0 1.5707963267948966 0.0 0.16010487004961316 0.0 0.0 0.0 0.0 0.0 0.23271056693257725 0.0 0.0 0.0 0.0 0.0 0.3008871321845638 -0.09593215668246398 0.4809 -1.2347357469506461 1.1685375810679133 -1.1685375810679135 0.015359205479225023 0.04817349519801037 0.0 0.0 0.0 0.16010487004961316 
0.696 0.056364360995605677 -1.5707963267948966 -1.5707963267948966 0.0 1.5707963267948966 0.0 0.16196655458507378 0.0 0.0 0.0 0.0 0.0 0.23271056693257725 0.0 0.0 0.0 0.0 0.0 0.30101047048771223 -0.09554444859208763 0.4809 -1.2353210476092824 1.1675840095702996 -1.1675840095703 0.015475005148191136 0.048753628798926786 0.0 0.0 0.0 0.16196655458507378 
0.704 0.0576675401704281 -1.5707963267948966 -1.5707963267948966 0.0 1.5707963267948966 0.0 0.16382823912053437 0.0 0.0 0.0 0.0 0.0 0.23271056693257725 0.0 0.0 0.0 0.0 0.0 0.30113472638875793 -0.09515209699616647 0.4809 -1.2359125579102073 1.1666193024085667 -1.166619302408567 0.015588600499508241 0.049334371962314126 0.0 0.0 0.0 0.16382823912053437 
0.712 0.058985612821534215 -1.5707963267948966 -1.5707963267948966 0.0 1.5707963267948966 0.0 0.165689923655995 0.0 0.0 0.0 0.0 0.0 0.23271056693257725 0.0 0.0 0.0 0.0 0.0 0.301259882146211 -0.09475509700934845 0.4809 -1.236510258791192 1.165643455870342 -1.1656434558703423 0.015699964789495344 0.049915726873419754 0.0 0.0 0.0 0.165689923655995 
0.72 0.06031857894892402 -1.5707963267948966 -1.5707963267948966 0.0 1.5707963267948966 0.0 0.16755160819145562 0.0 0.0 0.0 0.0 0.0 0.23271056693257725 0.0 0.0 0.0 0.0 0.0 0.30138591980447543 -0.09435344372947004 0.4809 -1.237114130979957 1.1646564662086938 -1.164656466208694 0.015809071235274717 0.05049769554950093 0.0 0.0 0.0 0.16755160819145562 
0.728 0.06166643855259751 -1.5707963267948966 -1.5707963267948966 0.0 1.5707963267948966 0.0 0.16941329272691624 0.0 0.0 0.0 0.0 0.0 0.23271056693257725 0.0 0.0 0.0 0.0 0.0 0.3015128211935356 -0.0939471322389086 0.4809 -1.237724154994424 1.1636583296423901 -1.1636583296423904 0.015915893014844532 0.051080279837778804 0.0 0.0 0.0 0.16941329272691624 
0.736 0.06302919163255467 -1.5707963267948966 -1.5707963267948966 0.0 1.5707963267948966 0.0 0.17127497726237684 0.0 0.0 0.0 0.0 0.0 0.23271056693257725 0.0 0.0 0.0 0.0 0.0 0.30164056792864374 -0.09353615760595056 0.4809 -1.2383403111429687 1.1626490423561535 -1.1626490423561537 0.01602040326716928 0.05166348141338889 0.0 0.0 0.0 0.17127497726237684 
0.744 0.06440683818879554 -1.5707963267948966 -1.5707963267948966 0.0 1.5707963267948966 0.0 0.17313666179783746 0.0 0.0 0.0 0.0 0.0 0.23271056693257725 0.0 0.0 0.0 0.0 0.0 0.30176914141000794 -0.09312051488617648 0.4809 -1.2389625795246848 1.161628600500931 -1.1616286005009313 0.016122575092288427 0.05224730177732833 0.0 0.0 0.0 0.17313666179783746 
0.752 0.06579937822132008 -1.5707963267948966 -1.5707963267948966 0.0 1.5707963267948966 0.0 0.17499834633329808 0.0 0.0 0.0 0.0 0.0 0.23271056693257725 0.0 0.0 0.0 0.0 0.0 0.30189852282248125 -0.09270019912386243 0.4809 -1.23959094002964 1.1605970001941552 -1.1605970001941555 0.016222381551443375 0.05283174225439967 0.0 0.0 0.0 0.17499834633329808 
0.76 0.06720681173012831 -1.5707963267948966 -1.5707963267948966 0.0 1.5707963267948966 0.0 0.1768600308687587 0.0 0.0 0.0 0.0 0.0 0.23271056693257725 0.0 0.0 0.0 0.0 0.0 0.3020286931352521 -0.0922752053533976 0.4809 -1.240225372339142 1.1595542375200116 -1.159554237520012 0.01631979566722295 0.053416803991151535 0.0 0.0 0.0 0.1768600308687587 
0.768 0.06862913871522022 -1.5707963267948966 -1.5707963267948966 0.0 1.5707963267948966 0.0 0.17872171540421933 0.0 0.0 0.0 0.0 0.0 0.23271056693257725 0.0 0.0 0.0 0.0 0.0 0.3021596331015355 -0.09184552860071869 0.4809 -1.240865855926003 1.1585003085297128 -1.158500308529713 0.016414790423727732 0.05400248795381595 0.0 0.0 0.0 0.17872171540421933 
0.776 0.07006635917659582 -1.5707963267948966 -1.5707963267948966 0.0 1.5707963267948966 0.0 0.18058339993967995 0.0 0.0 0.0 0.0 0.0 0.23271056693257725 0.0 0.0 0.0 0.0 0.0 0.30229132325826585 -0.09141116388476077 0.4809 -1.2415123700548034 1.1574352092417637 -1.157435209241764 0.016507338766753383 0.054588794926242495 0.0 0.0 0.0 0.18058339993967995 
0.784 0.0715184731142551 -1.5707963267948966 -1.5707963267948966 0.0 1.5707963267948966 0.0 0.18244508447514057 0.0 0.0 0.0 0.0 0.0 0.23271056693257725 0.0 0.0 0.0 0.0 0.0 0.3024237439257915 -0.09097210621892449 0.4809 -1.2421648937821652 1.1563589356422423 -1.1563589356422426 0.01659741360399314 0.055175725507829315 0.0 0.0 0.0 0.18244508447514057 
0.792 0.07298548052819807 -1.5707963267948966 -1.5707963267948966 0.0 1.5707963267948966 0.0 0.1843067690106012 0.0 0.0 0.0 0.0 0.0 0.23271056693257725 0.0 0.0 0.0 0.0 0.0 0.3025568752075705 -0.09052835061255998 0.4809 -1.2428234059570202 1.1552714836850737 -1.155271483685074 0.01668498780525981 0.05576328011145099 0.0 0.0 0.0 0.1843067690106012 
0.8 0.07446738141842474 -1.5707963267948966 -1.5707963267948966 0.0 1.5707963267948966 0.0 0.18616845354606182 0.0 0.0 0.0 0.0 0.0 0.23271056693257725 0.0 0.0 0.0 0.0 0.0 0.30269069698986883 -0.09007989207246749 0.4809 -1.243487885220886 1.1541728492923087 -1.1541728492923093 0.016770034202727425 0.05635145896138347 0.0 0.0 0.0 0.18616845354606182 
0.808 0.07596417578493507 -1.5707963267948966 -1.5707963267948966 0.0 1.5707963267948966 0.0 0.1880301380815224 0.0 0.0 0.0 0.0 0.0 0.23271056693257725 0.0 0.0 0.0 0.0 0.0 0.3028251889414601 -0.08962672560441429 0.4809 -1.2441583100081357 1.1530630283544052 -1.1530630283544054 0.016852525591192737 0.05694026209122586 0.0 0.0 0.0 0.1880301380815224 
0.816 0.0774758636277291 -1.5707963267948966 -1.5707963267948966 0.0 1.5707963267948966 0.0 0.18989182261698304 0.0 0.0 0.0 0.0 0.0 0.23271056693257725 0.0 0.0 0.0 0.0 0.0 0.3029603305133277 -0.08916884621466854 0.4809 -1.2448346585462833 1.1519420167305126 -1.1519420167305128 0.016932434728356878 0.05752968934181938 0.0 0.0 0.0 0.18989182261698304 
0.824 0.0790024449468068 -1.5707963267948966 -1.5707963267948966 0.0 1.5707963267948966 0.0 0.19175350715244366 0.0 0.0 0.0 0.0 0.0 0.23271056693257725 0.0 0.0 0.0 0.0 0.0 0.30309610093836936 -0.08870624891154967 0.4809 -1.2455169088562545 1.1508098102487563 -1.1508098102487565 0.017009734335127286 0.0581197403591634 0.0 0.0 0.0 0.19175350715244366 
0.832 0.0805439197421682 -1.5707963267948966 -1.5707963267948966 0.0 1.5707963267948966 0.0 0.19361519168790428 0.0 0.0 0.0 0.0 0.0 0.23271056693257725 0.0 0.0 0.0 0.0 0.0 0.30323247923110375 -0.08823892870699539 0.4809 -1.2462050387526735 1.149666404706525 -1.1496664047065253 0.017084397095940233 0.058710414592328605 0.0 0.0 0.0 0.19361519168790428 
0.84 0.08210028801381324 -1.5707963267948966 -1.5707963267948966 0.0 1.5707963267948966 0.0 0.19547687622336488 0.0 0.0 0.0 0.0 0.0 0.23271056693257725 0.0 0.0 0.0 0.0 0.0 0.3033694441873805 -0.08776688061814554 0.4809 -1.2468990258441426 1.1485117958707625 -1.1485117958707627 0.017156395659104078 0.059301711291367576 0.0 0.0 0.0 0.19547687622336488 
0.848 0.08367154976174201 -1.5707963267948966 -1.5707963267948966 0.0 1.5707963267948966 0.0 0.1973385607588255 0.0 0.0 0.0 0.0 0.0 0.23271056693257725 0.0 0.0 0.0 0.0 0.0 0.3035069743840923 -0.0872900996689426 0.4809 -1.2475988475335285 1.1473459794782566 -1.1473459794782568 0.017225702637163564 0.05989362950522249 0.0 0.0 0.0 0.1973385607588255 
0.856 0.08525770498595445 -1.5707963267948966 -1.5707963267948966 0.0 1.5707963267948966 0.0 0.19920024529428612 0.0 0.0 0.0 0.0 0.0 0.23271056693257725 0.0 0.0 0.0 0.0 0.0 0.3036450481788904 -0.08680858089174892 0.4809 -1.2483044810182493 1.1461689512359365 -1.1461689512359368 0.017292290607285266 0.06048616807963029 0.0 0.0 0.0 0.19920024529428612 
0.864 0.08685875368645059 -1.5707963267948966 -1.5707963267948966 0.0 1.5707963267948966 0.0 0.20106192982974674 0.0 0.0 0.0 0.0 0.0 0.23271056693257725 0.0 0.0 0.0 0.0 0.0 0.30378364370990324 -0.08632231932898078 0.4809 -1.249015903290562 1.1449807068211666 -1.1449807068211668 0.017356132111664525 0.06107932565502535 0.0 0.0 0.0 0.20106192982974674 
0.872 0.0884746958632304 -1.5707963267948966 -1.5707963267948966 0.0 1.5707963267948966 0.0 0.20292361436520737 0.0 0.0 0.0 0.0 0.0 0.23271056693257725 0.0 0.0 0.0 0.0 0.0 0.3039227388954585 -0.08583131003475919 0.4809 -1.2497330911378528 1.1437812418820463 -1.1437812418820466 0.017417199657954026 0.06167310066443963 0.0 0.0 0.0 0.20292361436520737 
0.88 0.09010553151629391 -1.5707963267948966 -1.5707963267948966 0.0 1.5707963267948966 0.0 0.204785298900668 0.0 0.0 0.0 0.0 0.0 0.23271056693257725 0.0 0.0 0.0 0.0 0.0 0.3040623114338081 -0.08533554807657748 0.4809 -1.2504560211429294 1.1425705520377072 -1.1425705520377074 0.017475465719714242 0.06226749133140039 0.0 0.0 0.0 0.204785298900668 
0.888 0.0917512606456411 -1.5707963267948966 -1.5707963267948966 0.0 1.5707963267948966 0.0 0.20664698343612858 0.0 0.0 0.0 0.0 0.0 0.23271056693257725 0.0 0.0 0.0 0.0 0.0 0.30420233880285796 -0.08483502853698587 0.4809 -1.2511846696843159 1.1413486328786209 -1.141348632878621 0.017530902736886015 0.06286249566782577 0.0 0.0 0.0 0.20664698343612858 
0.896 0.09341188325127198 -1.5707963267948966 -1.5707963267948966 0.0 1.5707963267948966 0.0 0.2085086679715892 0.0 0.0 0.0 0.0 0.0 0.23271056693257725 0.0 0.0 0.0 0.0 0.0 0.30434279825990046 -0.08432974651529264 0.4809 -1.2519190129365472 1.1401154799668982 -1.1401154799668984 0.017583483116285433 0.06345811147191795 0.0 0.0 0.0 0.2085086679715892 
0.904 0.09508739933318652 -1.5707963267948966 -1.5707963267948966 0.0 1.5707963267948966 0.0 0.21037035250704983 0.0 0.0 0.0 0.0 0.0 0.23271056693257725 0.0 0.0 0.0 0.0 0.0 0.30448366684135186 -0.08381969712928236 0.4809 -1.252659026870466 1.1388710888365983 -1.1388710888365985 0.017633179232121283 0.06405433632605431 0.0 0.0 0.0 0.21037035250704983 
0.912 0.09677780889138476 -1.5707963267948966 -1.5707963267948966 0.0 1.5707963267948966 0.0 0.21223203704251045 0.0 0.0 0.0 0.0 0.0 0.23271056693257725 0.0 0.0 0.0 0.0 0.0 0.3046249213624934 -0.0833048755169509 0.4809 -1.2534046872535227 1.1376154549940347 -1.137615454994035 0.017679963426535245 0.06465116759467654 0.0 0.0 0.0 0.21223203704251045 
0.92 0.0984831119258667 -1.5707963267948966 -1.5707963267948966 0.0 1.5707963267948966 0.0 0.21409372157797107 0.0 0.0 0.0 0.0 0.0 0.23271056693257725 0.0 0.0 0.0 0.0 0.0 0.3047665384172171 -0.08278527683825744 0.4809 -1.2541559696500753 1.1363485739180892 -1.1363485739180894 0.017723808010165147 0.06524860242217771 0.0 0.0 0.0 0.21409372157797107 
0.928 0.1002033084366323 -1.5707963267948966 -1.5707963267948966 0.0 1.5707963267948966 0.0 0.2159554061134317 0.0 0.0 0.0 0.0 0.0 0.23271056693257725 0.0 0.0 0.0 0.0 0.0 0.30490849437777595 -0.08226089627689318 0.4809 -1.254912849421693 1.1350704410605212 -1.1350704410605215 0.017764685262731346 0.06584663773078761 0.0 0.0 0.0 0.2159554061134317 
0.936 0.1019383984236816 -1.5707963267948966 -1.5707963267948966 0.0 1.5707963267948966 0.0 0.21781709064889232 0.0 0.0 0.0 0.0 0.0 0.23271056693257725 0.0 0.0 0.0 0.0 0.0 0.305050765394539 -0.08173172904206723 0.4809 -1.2556753017274578 1.1337810518462823 -1.1337810518462825 0.017802567433646662 0.0664452702184563 0.0 0.0 0.0 0.21781709064889232 
0.944 0.1036883818870146 -1.5707963267948966 -1.5707963267948966 0.0 1.5707963267948966 0.0 0.21967877518435294 0.0 0.0 0.0 0.0 0.0 0.23271056693257725 0.0 0.0 0.0 0.0 0.0 0.3051933273957517 -0.08119777037030926 0.4809 -1.2564433015242713 1.1324804016738328 -1.132480401673833 0.017837426742649883 0.06704449635673597 0.0 0.0 0.0 0.21967877518435294 
0.952 0.10545325882663126 -1.5707963267948966 -1.5707963267948966 0.0 1.5707963267948966 0.0 0.22154045971981356 0.0 0.0 0.0 0.0 0.0 0.23271056693257725 0.0 0.0 0.0 0.0 0.0 0.3053361560873008 -0.08065901552728923 0.4809 -1.2572168235671612 1.1311684859154603 -1.1311684859154605 0.017869235380463235 0.06764431238866137 0.0 0.0 0.0 0.22154045971981356 
0.96 0.10723302924253159 -1.5707963267948966 -1.5707963267948966 0.0 1.5707963267948966 0.0 0.22340214425527416 0.0 0.0 0.0 0.0 0.0 0.23271056693257725 0.0 0.0 0.0 0.0 0.0 0.30547922695248475 -0.08011545980965387 0.4809 -1.2579958424095914 1.1298452999175979 -1.129845299917598 0.017897965509473913 0.06824471432662864 0.0 0.0 0.0 0.22340214425527416 
0.968 0.10902769313471562 -1.5707963267948966 -1.5707963267948966 0.0 1.5707963267948966 0.0 0.22526382879073475 0.0 0.0 0.0 0.0 0.0 0.23271056693257725 0.0 0.0 0.0 0.0 0.0 0.3056225152517906 -0.07956709854688049 0.4809 -1.258780332403769 1.1285108390011473 -1.1285108390011476 0.017923589264440005 0.06884569795027308 0.0 0.0 0.0 0.22526382879073475 
0.976 0.11083725050318335 -1.5707963267948966 -1.5707963267948966 0.0 1.5707963267948966 0.0 0.22712551332619538 0.0 0.0 0.0 0.0 0.0 0.23271056693257725 0.0 0.0 0.0 0.0 0.0 0.305765996022675 -0.07901392710314731 0.4809 -1.2595702677009581 1.1271650984618025 -1.1271650984618027 0.017946078753220913 0.06944725880434548 0.0 0.0 0.0 0.22712551332619538 
0.984 0.11266170134793475 -1.5707963267948966 -1.5707963267948966 0.0 1.5707963267948966 0.0 0.228987197861656 0.0 0.0 0.0 0.0 0.0 0.23271056693257725 0.0 0.0 0.0 0.0 0.0 0.3059096440793525 -0.07845594087922125 0.4809 -1.2603656222517912 1.1258080735703728 -1.125808073570373 0.01796540605753262 0.07004939219658746 0.0 0.0 0.0 0.228987197861656 
0.992 0.11450104566896983 -1.5707963267948966 -1.5707963267948966 0.0 1.5707963267948966 0.0 0.23084888239711662 0.0 0.0 0.0 0.0 0.0 0.23271056693257725 0.0 0.0 0.0 0.0 0.0 0.3060534340125894 -0.07789313531436239 0.4809 -1.2611663698065845 1.124439759573113 -1.1244397595731133 0.017981543233727935 0.07065209319560593 0.0 0.0 0.0 0.23084888239711662 
1.0 0.11635528346628862 -1.5707963267948966 -1.5707963267948966 0.0 1.5707963267948966 0.0 0.23271056693257725 0.0 0.0 0.0 0.0 0.0 0.23271056693257725 0.0 0.0 0.0 0.0 0.0 0.30619734018950406 -0.0773255058882456 0.4809 -1.2619724839156536 1.1230601516920509 -1.1230601516920515 0.017994462313601974 0.07125535662874671 0.0 0.0 0.0 0.23271056693257725 
1.008 0.11822441473989109 -1.5707963267948966 -1.5707963267948966 0.0 1.5707963267948966 0.0 0.23457225146803787 0.0 0.0 0.0 0.0 0.0 0.23271056693257725 0.0 0.0 0.0 0.0 0.0 0.3063413367533737 -0.07675304812289907 0.4809 -1.2627839379296288 1.1216692451253172 -1.1216692451253174 0.01800413530522309 0.07185917707996725 0.0 0.0 0.0 0.23457225146803787 
1.016 0.12010843948977723 -1.5707963267948966 -1.5707963267948966 0.0 1.5707963267948966 0.0 0.2364339360034985 0.0 0.0 0.0 0.0 0.0 0.23271056693257725 0.0 0.0 0.0 0.0 0.0 0.3064853976234481 -0.07617575758466005 0.4809 -1.2636007049997753 1.1202670350474786 -1.1202670350474788 0.01801053419378953 0.07246354888770912 0.0 0.0 0.0 0.2364339360034985 
1.024 0.12200735771594705 -1.5707963267948966 -1.5707963267948966 0.0 1.5707963267948966 0.0 0.2382956205389591 0.0 0.0 0.0 0.0 0.0 0.23271056693257725 0.0 0.0 0.0 0.0 0.0 0.30662949649476995 -0.07559362988614735 0.4809 -1.2644227580783118 1.1188535166098728 -1.118853516609873 0.018013630942511887 0.0730684661427698 0.0 0.0 0.0 0.2382956205389591 
1.032 0.12392116941840058 -1.5707963267948966 -1.5707963267948966 0.0 1.5707963267948966 0.0 0.24015730507441974 0.0 0.0 0.0 0.0 0.0 0.23271056693257725 0.0 0.0 0.0 0.0 0.0 0.3067736068380028 -0.07500666068825108 0.4809 -1.265250069918732 1.1174286849409423 -1.1174286849409425 0.0180133974935218 0.07367392268617434 0.0 0.0 0.0 0.24015730507441974 
1.04 0.12584987459713778 -1.5707963267948966 -1.5707963267948966 0.0 1.5707963267948966 0.0 0.24201898960988033 0.0 0.0 0.0 0.0 0.0 0.23271056693257725 0.0 0.0 0.0 0.0 0.0 0.30691770189926604 -0.07441484570213938 0.4809 -1.2660826130761258 1.1159925351465736 -1.115992535146574 0.018009805768806918 0.07427991210704682 0.0 0.0 0.0 0.24201898960988033 
1.048 0.12779347325215867 -1.5707963267948966 -1.5707963267948966 0.0 1.5707963267948966 0.0 0.24388067414534095 0.0 0.0 0.0 0.0 0.0 0.23271056693257725 0.0 0.0 0.0 0.0 0.0 0.3070617546999776 -0.07381818069128207 0.4809 -1.2669203599075043 1.1145450623104367 -1.1145450623104372 0.01800282767117246 0.07488642774048185 0.0 0.0 0.0 0.24388067414534095 
1.056 0.12975196538346326 -1.5707963267948966 -1.5707963267948966 0.0 1.5707963267948966 0.0 0.24574235868080158 0.0 0.0 0.0 0.0 0.0 0.23271056693257725 0.0 0.0 0.0 0.0 0.0 0.3072057380367042 -0.07321666147349137 0.4809 -1.2677632825721217 1.1130862614943238 -1.113086261494324 0.017992435085229543 0.07549346266541614 0.0 0.0 0.0 0.24574235868080158 
1.064 0.1317253509910515 -1.5707963267948966 -1.5707963267948966 0.0 1.5707963267948966 0.0 0.2476040432162622 0.0 0.0 0.0 0.0 0.0 0.23271056693257725 0.0 0.0 0.0 0.0 0.0 0.3073496244810204 -0.07261028392297987 0.4809 -1.2686113530318022 1.1116161277384924 -1.1116161277384926 0.017978599878410575 0.07610100970250053 0.0 0.0 0.0 0.2476040432162622 
1.072 0.13371363007492346 -1.5707963267948966 -1.5707963267948966 0.0 1.5707963267948966 0.0 0.24946572775172282 0.0 0.0 0.0 0.0 0.0 0.23271056693257725 0.0 0.0 0.0 0.0 0.0 0.30749338637937457 -0.071999043972435 0.4809 -1.2694645430512677 1.110134656062011 -1.1101346560620113 0.01796129390201179 0.07670906141197237 0.0 0.0 0.0 0.24946572775172282 
1.08 0.13571680263507907 -1.5707963267948966 -1.5707963267948966 0.0 1.5707963267948966 0.0 0.2513274122871834 0.0 0.0 0.0 0.0 0.0 0.23271056693257725 0.0 0.0 0.0 0.0 0.0 0.3076369958529649 -0.07138293761511123 0.4809 -1.270322824198465 1.108641841463104 -1.1086418414631043 0.017940488992263356 0.07731761009152864 0.0 0.0 0.0 0.2513274122871834 
1.088 0.13773486867151838 -1.5707963267948966 -1.5707963267948966 0.0 1.5707963267948966 0.0 0.25318909682264407 0.0 0.0 0.0 0.0 0.0 0.23271056693257725 0.0 0.0 0.0 0.0 0.0 0.30778042479762235 -0.07076196090693854 0.4809 -1.2711861678448932 1.1071376789194962 -1.1071376789194964 0.017916156971427014 0.07792664777419973 0.0 0.0 0.0 0.25318909682264407 
1.096 0.13976782818424138 -1.5707963267948966 -1.5707963267948966 0.0 1.5707963267948966 0.0 0.25505078135810466 0.0 0.0 0.0 0.0 0.0 0.23271056693257725 0.0 0.0 0.0 0.0 0.0 0.3079236448837043 -0.0701361099686485 0.4809 -1.2720545451659349 1.1056221633887653 -1.1056221633887655 0.01788826964892175 0.07853616622622432 0.0 0.0 0.0 0.25505078135810466 
1.104 0.14181568117324805 -1.5707963267948966 -1.5707963267948966 0.0 1.5707963267948966 0.0 0.2569124658935653 0.0 0.0 0.0 0.0 0.0 0.23271056693257725 0.0 0.0 0.0 0.0 0.0 0.30806662755599556 -0.06950538098791705 0.4809 -1.2729279271411886 1.1040952898086915 -1.1040952898086918 0.0178567988224775 0.0791461569449254 0.0 0.0 0.0 0.2569124658935653 
1.112 0.14387842763853845 -1.5707963267948966 -1.5707963267948966 0.0 1.5707963267948966 0.0 0.2587741504290259 0.0 0.0 0.0 0.0 0.0 0.23271056693257725 0.0 0.0 0.0 0.0 0.0 0.3082093440336202 -0.06886977022152418 0.4809 -1.2738062845547962 1.1025570530976054 -1.1025570530976057 0.017821716279317147 0.07975661115658743 0.0 0.0 0.0 0.2587741504290259 
1.12 0.14595606758011248 -1.5707963267948966 -1.5707963267948966 0.0 1.5707963267948966 0.0 0.26063583496448656 0.0 0.0 0.0 0.0 0.0 0.23271056693257725 0.0 0.0 0.0 0.0 0.0 0.3083517653099619 -0.06822927399753095 0.4809 -1.2746895879957807 1.1010074481547474 -1.1010074481547476 0.01778299379736721 0.08036751981433532 0.0 0.0 0.0 0.26063583496448656 
1.128 0.1480486009979702 -1.5707963267948966 -1.5707963267948966 0.0 1.5707963267948966 0.0 0.26249751949994715 0.0 0.0 0.0 0.0 0.0 0.23271056693257725 0.0 0.0 0.0 0.0 0.0 0.3084938621525949 -0.06758388871747302 0.4809 -1.2755778078583764 1.0994464698606168 -1.099446469860617 0.01774060314649713 0.08097887359601479 0.0 0.0 0.0 0.26249751949994715 
1.136 0.15015602789211163 -1.5707963267948966 -1.5707963267948966 0.0 1.5707963267948966 0.0 0.2643592040354078 0.0 0.0 0.0 0.0 0.0 0.23271056693257725 0.0 0.0 0.0 0.0 0.0 0.30863560510322413 -0.06693361085857152 0.4809 -1.276470914342365 1.0978741130773315 -1.097874113077332 0.017694516089787695 0.08159066290207478 0.0 0.0 0.0 0.2643592040354078 
1.144 0.15227834826253675 -1.5707963267948966 -1.5707963267948966 0.0 1.5707963267948966 0.0 0.2662208885708684 0.0 0.0 0.0 0.0 0.0 0.23271056693257725 0.0 0.0 0.0 0.0 0.0 0.30877696447763653 -0.06627843697596059 0.4809 -1.2773688774534107 1.096290372648984 -1.0962903726489843 0.017644704384828527 0.08220287785345186 0.0 0.0 0.0 0.2662208885708684 
1.152 0.15441556210924554 -1.5707963267948966 -1.5707963267948966 0.0 1.5707963267948966 0.0 0.268082573106329 0.0 0.0 0.0 0.0 0.0 0.23271056693257725 0.0 0.0 0.0 0.0 0.0 0.3089179103656621 -0.06561836370493206 0.4809 -1.2782716670033958 1.0946952434020012 -1.0946952434020014 0.017591139785045132 0.082815508289457 0.0 0.0 0.0 0.268082573106329 
1.16 0.15656766943223796 -1.5707963267948966 -1.5707963267948966 0.0 1.5707963267948966 0.0 0.2699442576417896 0.0 0.0 0.0 0.0 0.0 0.23271056693257725 0.0 0.0 0.0 0.0 0.0 0.30905841263114614 -0.06495338776319667 0.4809 -1.2791792526107595 1.093088720145505 -1.0930887201455053 0.017533794041055425 0.08342854376566464 0.0 0.0 0.0 0.2699442576417896 
1.168 0.1587346702315141 -1.5707963267948966 -1.5707963267948966 0.0 1.5707963267948966 0.0 0.2718059421772502 0.0 0.0 0.0 0.0 0.0 0.23271056693257725 0.0 0.0 0.0 0.0 0.0 0.30919844091193227 -0.06428350595316268 0.4809 -1.280091603700832 1.0914707976716722 -1.0914707976716727 0.01747263890205625 0.08404197355180457 0.0 0.0 0.0 0.2718059421772502 
1.176 0.16091656450707395 -1.5707963267948966 -1.5707963267948966 0.0 1.5707963267948966 0.0 0.27366762671271083 0.0 0.0 0.0 0.0 0.0 0.23271056693257725 0.0 0.0 0.0 0.0 0.0 0.30933796461985674 -0.0636087151642308 0.4809 -1.2810086895061767 1.0898414707561004 -1.0898414707561008 0.017407646117239866 0.0846557866296567 0.0 0.0 0.0 0.27366762671271083 
1.184 0.1631133522589175 -1.5707963267948966 -1.5707963267948966 0.0 1.5707963267948966 0.0 0.2755293112481714 0.0 0.0 0.0 0.0 0.0 0.23271056693257725 0.0 0.0 0.0 0.0 0.0 0.30947695294075406 -0.06292901237510637 0.4809 -1.2819304790669284 1.0882007341581705 -1.0882007341581708 0.017338787437240714 0.08526997169094873 0.0 0.0 0.0 0.2755293112481714 
1.192 0.16532503348704472 -1.5707963267948966 -1.5707963267948966 0.0 1.5707963267948966 0.0 0.2773909957836321 0.0 0.0 0.0 0.0 0.0 0.23271056693257725 0.0 0.0 0.0 0.0 0.0 0.30961537483447454 -0.0622443946561281 0.4809 -1.2828569412311304 1.086548582621414 -1.0865485826214143 0.01726603461561276 0.0858845171352574 0.0 0.0 0.0 0.2773909957836321 
1.2 0.16755160819145562 -1.5707963267948966 -1.5707963267948966 0.0 1.5707963267948966 0.0 0.27925268031909267 0.0 0.0 0.0 0.0 0.0 0.23271056693257725 0.0 0.0 0.0 0.0 0.0 0.3097531990349136 -0.06155485917161364 0.4809 -1.2837880446550782 1.0848850108738781 -1.0848850108738783 0.017189359410337394 0.08649941106791302 0.0 0.0 0.0 0.27925268031909267 
1.208 0.1697930763721502 -1.5707963267948966 -1.5707963267948966 0.0 1.5707963267948966 0.0 0.2811143648545533 0.0 0.0 0.0 0.0 0.0 0.23271056693257725 0.0 0.0 0.0 0.0 0.0 0.30989039405005336 -0.06086040318222205 0.4809 -1.2847237578036579 1.0832100136284954 -1.0832100136284957 0.017108733585362388 0.087114641297908 0.0 0.0 0.0 0.2811143648545533 
1.216 0.17204943802912848 -1.5707963267948966 -1.5707963267948966 0.0 1.5707963267948966 0.0 0.2829760493900139 0.0 0.0 0.0 0.0 0.0 0.23271056693257725 0.0 0.0 0.0 0.0 0.0 0.31002692816201666 -0.060161024047332645 0.4809 -1.2856640489506903 1.0815235855834553 -1.0815235855834555 0.017024128912171817 0.08773019533580913 0.0 0.0 0.0 0.2829760493900139 
1.224 0.1743206931623904 -1.5707963267948966 -1.5707963267948966 0.0 1.5707963267948966 0.0 0.28483773392547457 0.0 0.0 0.0 0.0 0.0 0.23271056693257725 0.0 0.0 0.0 0.0 0.0 0.3101627694271336 -0.05945671922744098 0.4809 -1.28660888617927 1.0798257214225708 -1.0798257214225713 0.01693551717138748 0.0883460603916742 0.0 0.0 0.0 0.28483773392547457 
1.232 0.17660684177193606 -1.5707963267948966 -1.5707963267948966 0.0 1.5707963267948966 0.0 0.28669941846093516 0.0 0.0 0.0 0.0 0.0 0.23271056693257725 0.0 0.0 0.0 0.0 0.0 0.31029788567602123 -0.05874748628657098 0.4809 -1.2875582373821095 1.0781164158156549 -1.078116415815655 0.01684287015440166 0.08896222337297303 0.0 0.0 0.0 0.28669941846093516 
1.24 0.1789078838577654 -1.5707963267948966 -1.5707963267948966 0.0 1.5707963267948966 0.0 0.28856110299639576 0.0 0.0 0.0 0.0 0.0 0.23271056693257725 0.0 0.0 0.0 0.0 0.0 0.31043224451367646 -0.05803332289470416 0.4809 -1.2885120702618822 1.0763956634188896 -1.07639566341889 0.01674615966504182 0.0895786708825133 0.0 0.0 0.0 0.28856110299639576 
1.248 0.1812238194198784 -1.5707963267948966 -1.5707963267948966 0.0 1.5707963267948966 0.0 0.2904227875318564 0.0 0.0 0.0 0.0 0.0 0.23271056693257725 0.0 0.0 0.0 0.0 0.0 0.31056581331958205 -0.05731422683022512 0.4809 -1.2894703523315647 1.074663458875206 -1.0746634588752062 0.016645357521267095 0.09019538921637116 0.0 0.0 0.0 0.2904227875318564 
1.256 0.1835546484582751 -1.5707963267948966 -1.5707963267948966 0.0 1.5707963267948966 0.0 0.292284472067317 0.0 0.0 0.0 0.0 0.0 0.23271056693257725 0.0 0.0 0.0 0.0 0.0 0.31069855924782686 -0.056590195982383656 0.4809 -1.2904330509147819 1.0729197968146544 -1.0729197968146547 0.01654043555689701 0.09081236436182709 0.0 0.0 0.0 0.292284472067317 
1.264 0.18590037097295548 -1.5707963267948966 -1.5707963267948966 0.0 1.5707963267948966 0.0 0.29414615660277765 0.0 0.0 0.0 0.0 0.0 0.23271056693257725 0.0 0.0 0.0 0.0 0.0 0.31083044922723957 -0.055861228353773336 0.4809 -1.2914001331461498 1.071164671854785 -1.0711646718547851 0.016431365623372534 0.09142958199530733 0.0 0.0 0.0 0.29414615660277765 
1.272 0.18826098696391955 -1.5707963267948966 -1.5707963267948966 0.0 1.5707963267948966 0.0 0.29600784113823825 0.0 0.0 0.0 0.0 0.0 0.23271056693257725 0.0 0.0 0.0 0.0 0.0 0.31096144996153685 -0.055127322062826625 0.4809 -1.2923715659716204 1.0693980786010238 -1.069398078601024 0.01631811959154968 0.09204702748033082 0.0 0.0 0.0 0.29600784113823825 
1.28 0.19063649643116728 -1.5707963267948966 -1.5707963267948966 0.0 1.5707963267948966 0.0 0.2978695256736989 0.0 0.0 0.0 0.0 0.0 0.23271056693257725 0.0 0.0 0.0 0.0 0.0 0.3110915279294858 -0.05438847534632625 0.4809 -1.2933473161488256 1.067620011647053 -1.0676200116470531 0.016200669353525866 0.09266468586546218 0.0 0.0 0.0 0.2978695256736989 
1.288 0.19302689937469875 -1.5707963267948966 -1.5707963267948966 0.0 1.5707963267948966 0.0 0.2997312102091595 0.0 0.0 0.0 0.0 0.0 0.23271056693257725 0.0 0.0 0.0 0.0 0.0 0.3112206493850817 -0.053644686561933067 0.4809 -1.2943273502474235 1.0658304655751905 -1.0658304655751907 0.016078986824499233 0.09328254188227104 0.0 0.0 0.0 0.2997312102091595 
1.296 0.19543219579451382 -1.5707963267948966 -1.5707963267948966 0.0 1.5707963267948966 0.0 0.30159289474462014 0.0 0.0 0.0 0.0 0.0 0.23271056693257725 0.0 0.0 0.0 0.0 0.0 0.3113487803577399 -0.052895954190730135 0.4809 -1.2953116346494429 1.0640294349567727 -1.064029434956773 0.015953043944661124 0.0939005799432977 0.0 0.0 0.0 0.30159289474462014 
1.304 0.19785238569061264 -1.5707963267948966 -1.5707963267948966 0.0 1.5707963267948966 0.0 0.30345457928008074 0.0 0.0 0.0 0.0 0.0 0.23271056693257725 0.0 0.0 0.0 0.0 0.0 0.3114758866525038 -0.05214227683978305 0.4809 -1.2963001355496278 1.0622169143525342 -1.0622169143525344 0.015822812681121862 0.09451878414002565 0.0 0.0 0.0 0.30345457928008074 
1.312 0.20028746906299516 -1.5707963267948966 -1.5707963267948966 0.0 1.5707963267948966 0.0 0.30531626381554133 0.0 0.0 0.0 0.0 0.0 0.23271056693257725 0.0 0.0 0.0 0.0 0.0 0.31160193385026785 -0.05138365324471652 0.4809 -1.2972928189557824 1.060392898312993 -1.0603928983129933 0.015688265029870165 0.09513713824086124 0.0 0.0 0.0 0.30531626381554133 
1.32 0.20273744591166132 -1.5707963267948966 -1.5707963267948966 0.0 1.5707963267948966 0.0 0.307177948351002 0.0 0.0 0.0 0.0 0.0 0.23271056693257725 0.0 0.0 0.0 0.0 0.0 0.3117268873080165 -0.05062008227230705 0.4809 -1.29828965068912 1.0585573813788365 -1.0585573813788367 0.015549373017766205 0.09575562568912051 0.0 0.0 0.0 0.307177948351002 
1.328 0.2052023162366112 -1.5707963267948966 -1.5707963267948966 0.0 1.5707963267948966 0.0 0.3090396328864626 0.0 0.0 0.0 0.0 0.0 0.23271056693257725 0.0 0.0 0.0 0.0 0.0 0.31185071215907945 -0.049851562923091626 0.4809 -1.2992905963846044 1.0567103580813024 -1.0567103580813026 0.015406108704568626 0.09637422960102382 0.0 0.0 0.0 0.3090396328864626 
1.336 0.20768208003784472 -1.5707963267948966 -1.5707963267948966 0.0 1.5707963267948966 0.0 0.31090131742192323 0.0 0.0 0.0 0.0 0.0 0.23271056693257725 0.0 0.0 0.0 0.0 0.0 0.3119733733134027 -0.04907809433399253 0.4809 -1.3002956214912973 1.0548518229425703 -1.0548518229425707 0.015258444184995704 0.09699293276369836 0.0 0.0 0.0 0.31090131742192323 
1.344 0.21017673731536193 -1.5707963267948966 -1.5707963267948966 0.0 1.5707963267948966 0.0 0.3127630019573838 0.0 0.0 0.0 0.0 0.0 0.23271056693257725 0.0 0.0 0.0 0.0 0.0 0.31209483545783695 -0.04829967578095801 0.4809 -1.3013046912727038 1.0529817704761466 -1.0529817704761466 0.015106351590820773 0.09761171763318884 0.0 0.0 0.0 0.3127630019573838 
1.352 0.21268628806916287 -1.5707963267948966 -1.5707963267948966 0.0 1.5707963267948966 0.0 0.3146246864928445 0.0 0.0 0.0 0.0 0.0 0.23271056693257725 0.0 0.0 0.0 0.0 0.0 0.3122150630564424 -0.047516306681618915 0.4809 -1.302317770807119 1.051100195187252 -1.0511001951872523 0.014949803093002203 0.09823056633247687 0.0 0.0 0.0 0.3146246864928445 
1.36 0.21521073229924748 -1.5707963267948966 -1.5707963267948966 0.0 1.5707963267948966 0.0 0.31648637102830507 0.0 0.0 0.0 0.0 0.0 0.23271056693257725 0.0 0.0 0.0 0.0 0.0 0.3123340203508109 -0.04672798659796108 0.4809 -1.3033348249879715 1.0492070915732132 -1.0492070915732135 0.014788770903847977 0.09884946064950893 0.0 0.0 0.0 0.31648637102830507 
1.368 0.21775007000561575 -1.5707963267948966 -1.5707963267948966 0.0 1.5707963267948966 0.0 0.3183480555637657 0.0 0.0 0.0 0.0 0.0 0.23271056693257725 0.0 0.0 0.0 0.0 0.0 0.3124516713604053 -0.04593471523901348 0.4809 -1.3043558185241702 1.047302454123853 -1.0473024541238531 0.014623227279215218 0.09946838203523377 0.0 0.0 0.0 0.3183480555637657 
1.376 0.22030430118826774 -1.5707963267948966 -1.5707963267948966 0.0 1.5707963267948966 0.0 0.3202097400992263 0.0 0.0 0.0 0.0 0.0 0.23271056693257725 0.0 0.0 0.0 0.0 0.0 0.3125679798829172 -0.04513649246355189 0.4809 -1.3053807159404485 1.045386277321878 -1.0453862773218783 0.014453144520744638 0.1000873116016491 0.0 0.0 0.0 0.3202097400992263 
1.384 0.22287342584720338 -1.5707963267948966 -1.5707963267948966 0.0 1.5707963267948966 0.0 0.3220714246346869 0.0 0.0 0.0 0.0 0.0 0.23271056693257725 0.0 0.0 0.0 0.0 0.0 0.3126829094946417 -0.04433331828281849 0.4809 -1.306409481577712 1.0434585556432767 -1.043458555643277 0.014278494978130362 0.10070623011985813 0.0 0.0 0.0 0.3220714246346869 
1.392 0.2254574439824227 -1.5707963267948966 -1.5707963267948966 0.0 1.5707963267948966 0.0 0.32393310917014756 0.0 0.0 0.0 0.0 0.0 0.23271056693257725 0.0 0.0 0.0 0.0 0.0 0.31279642355087167 -0.04352519286325666 0.4809 -1.307442079593379 1.0415192835577063 -1.0415192835577065 0.014099251051425047 0.10132511801813623 0.0 0.0 0.0 0.32393310917014756 
1.4 0.22805635559392576 -1.5707963267948966 -1.5707963267948966 0.0 1.5707963267948966 0.0 0.32579479370560815 0.0 0.0 0.0 0.0 0.0 0.23271056693257725 0.0 0.0 0.0 0.0 0.0 0.31290848518630937 -0.04271211652926125 0.4809 -1.3084784739617286 1.0395684555288909 -1.039568455528891 0.013915385193380564 0.101943955380008 0.0 0.0 0.0 0.32579479370560815 
1.408 0.2306701606817124 -1.5707963267948966 -1.5707963267948966 0.0 1.5707963267948966 0.0 0.32765647824106875 0.0 0.0 0.0 0.0 0.0 0.23271056693257725 0.0 0.0 0.0 0.0 0.0 0.31301905731549795 -0.041894089765944345 0.4809 -1.3095186284742442 1.0376060660150155 -1.0376060660150157 0.013726869911824525 0.1025627219423353 0.0 0.0 0.0 0.32765647824106875 
1.416 0.23329885924578278 -1.5707963267948966 -1.5707963267948966 0.0 1.5707963267948966 0.0 0.32951816277652934 0.0 0.0 0.0 0.0 0.0 0.23271056693257725 0.0 0.0 0.0 0.0 0.0 0.3131281026332714 -0.04107111322191607 0.4809 -1.310562506739956 1.0356321094691183 -1.0356321094691185 0.013533677772072606 0.10318139709341612 0.0 0.0 0.0 0.32951816277652934 
1.424 0.23594245128613686 -1.5707963267948966 -1.5707963267948966 0.0 1.5707963267948966 0.0 0.33137984731199 0.0 0.0 0.0 0.0 0.0 0.23271056693257725 0.0 0.0 0.0 0.0 0.0 0.31323558361522436 -0.040243187712080776 0.4809 -1.3116100721857875 1.033646580339492 -1.0336465803394923 0.01333578139937708 0.10379995987109512 0.0 0.0 0.0 0.33137984731199 
1.432 0.23860093680277464 -1.5707963267948966 -1.5707963267948966 0.0 1.5707963267948966 0.0 0.3332415318474506 0.0 0.0 0.0 0.0 0.0 0.23271056693257725 0.0 0.0 0.0 0.0 0.0 0.3133414625182016 -0.03941031422044809 0.4809 -1.3126612880568964 1.0316494730700776 -1.0316494730700778 0.013133153481411487 0.10441838896088602 0.0 0.0 0.0 0.3332415318474506 
1.44 0.24127431579569608 -1.5707963267948966 -1.5707963267948966 0.0 1.5707963267948966 0.0 0.33510321638291124 0.0 0.0 0.0 0.0 0.0 0.23271056693257725 0.0 0.0 0.0 0.0 0.0 0.3134457013808072 -0.03857249390295914 0.4809 -1.3137161174170175 1.0296407821008629 -1.029640782100863 0.01292576677079184 0.10503666269410601 0.0 0.0 0.0 0.33510321638291124 
1.448 0.24396258826490122 -1.5707963267948966 -1.5707963267948966 0.0 1.5707963267948966 0.0 0.33696490091837183 0.0 0.0 0.0 0.0 0.0 0.23271056693257725 0.0 0.0 0.0 0.0 0.0 0.3135482620239346 -0.0377297280903274 0.4809 -1.3147745231488066 1.0276205018682818 -1.027620501868282 0.012713594087634283 0.10565475904602281 0.0 0.0 0.0 0.33696490091837183 
1.456 0.24666575421039005 -1.5707963267948966 -1.5707963267948966 0.0 1.5707963267948966 0.0 0.3388265854538325 0.0 0.0 0.0 0.0 0.0 0.23271056693257725 0.0 0.0 0.0 0.0 0.0 0.3136491060513167 -0.036882018290894575 0.4809 -1.3158364679541803 1.025588626805613 -1.0255886268056131 0.012496608322149603 0.10627265563401463 0.0 0.0 0.0 0.3388265854538325 
1.464 0.24938381363216253 -1.5707963267948966 -1.5707963267948966 0.0 1.5707963267948966 0.0 0.3406882699892931 0.0 0.0 0.0 0.0 0.0 0.23271056693257725 0.0 0.0 0.0 0.0 0.0 0.3137481948500972 -0.03602936619350107 0.4809 -1.31690191435466 1.0235451513433818 -1.023545151343382 0.012274782437274602 0.10689032971574325 0.0 0.0 0.0 0.3406882699892931 
1.472 0.2521167665302187 -1.5707963267948966 -1.5707963267948966 0.0 1.5707963267948966 0.0 0.3425499545247537 0.0 0.0 0.0 0.0 0.0 0.23271056693257725 0.0 0.0 0.0 0.0 0.0 0.31384548959142333 -0.03517177367037077 0.4809 -1.3179708246917088 1.0214900699097582 -1.0214900699097584 0.012048089471340435 0.10750775818734111 0.0 0.0 0.0 0.3425499545247537 
1.48 0.2548646129045586 -1.5707963267948966 -1.5707963267948966 0.0 1.5707963267948966 0.0 0.3444116390602143 0.0 0.0 0.0 0.0 0.0 0.23271056693257725 0.0 0.0 0.0 0.0 0.0 0.31394095123105914 -0.034309242780010685 0.4809 -1.3190431611270759 1.019423376930961 -1.0194233769309613 0.011816502540778304 0.10812491758161188 0.0 0.0 0.0 0.3444116390602143 
1.488 0.25762735275518217 -1.5707963267948966 -1.5707963267948966 0.0 1.5707963267948966 0.0 0.3462733235956749 0.0 0.0 0.0 0.0 0.0 0.23271056693257725 0.0 0.0 0.0 0.0 0.0 0.31403454051002205 -0.03344177577012473 0.4809 -1.3201188856431325 1.0173450668316604 -1.0173450668316606 0.011579994842862401 0.10874178406624595 0.0 0.0 0.0 0.3462733235956749 
1.496 0.2604049860820894 -1.5707963267948966 -1.5707963267948966 0.0 1.5707963267948966 0.0 0.34813500813113557 0.0 0.0 0.0 0.0 0.0 0.23271056693257725 0.0 0.0 0.0 0.0 0.0 0.3141262179552401 -0.03256937508054153 0.4809 -1.3211979600432124 1.015255134035377 -1.0152551340353773 0.01133853965849033 0.10935833344205037 0.0 0.0 0.0 0.34813500813113557 
1.504 0.2631937895162094 -1.5707963267948966 -1.5707963267948966 0.0 1.5707963267948966 0.0 0.3481350081311355 0.0 0.0 0.0 0.0 0.0 -0.23271056693257725 0.0 0.0 0.0 0.0 0.0 0.31421582587688024 -0.03169321328786409 0.4809 -1.32227890442205 1.0131563753276356 -1.0131563753276358 0.011033517065672377 0.10938952909657916 0.0 0.0 0.0 0.3481350081311355 
1.512 0.26597142284311664 -1.5707963267948966 -1.5707963267948966 0.0 1.5707963267948966 0.0 0.3462733235956749 0.0 0.0 0.0 0.0 0.0 -0.23271056693257725 0.0 0.0 0.0 0.0 0.0 0.3143026457635884 -0.03082031579994304 0.4809 -1.3233530607985087 1.0110656043659896 -1.0110656043659898 0.01067225318631457 0.10883462176347183 0.0 0.0 0.0 0.3462733235956749 
1.52 0.26873416269374023 -1.5707963267948966 -1.5707963267948966 0.0 1.5707963267948966 0.0 0.34441163906021427 0.0 0.0 0.0 0.0 0.0 -0.23271056693257725 0.0 0.0 0.0 0.0 0.0 0.3143865946768518 -0.029951862838442405 0.4809 -1.3244190249061423 1.008985630823886 -1.0089856308238863 0.01031577017309467 0.10827840237121376 0.0 0.0 0.0 0.34441163906021427 
1.528 0.27148200906808007 -1.5707963267948966 -1.5707963267948966 0.0 1.5707963267948966 0.0 0.3425499545247537 0.0 0.0 0.0 0.0 0.0 -0.23271056693257725 0.0 0.0 0.0 0.0 0.0 0.3144677107786354 -0.029087864783179145 0.4809 -1.325476837065888 1.0069164625005476 -1.0069164625005478 0.0099640467587002 0.10772090002672495 0.0 0.0 0.0 0.3425499545247537 
1.536 0.27421496196613626 -1.5707963267948966 -1.5707963267948966 0.0 1.5707963267948966 0.0 0.340688269989293 0.0 0.0 0.0 0.0 0.0 -0.23271056693257725 0.0 0.0 0.0 0.0 0.0 0.3145460320601389 -0.02822833178248496 0.4809 -1.3265265373495028 1.0048581071206755 -1.0048581071206757 0.009617061519658578 0.10716214349456543 0.0 0.0 0.0 0.340688269989293 
1.544 0.27693302138790876 -1.5707963267948966 -1.5707963267948966 0.0 1.5707963267948966 0.0 0.33882658545383243 0.0 0.0 0.0 0.0 0.0 -0.23271056693257725 0.0 0.0 0.0 0.0 0.0 0.31462159634056003 -0.027373273755940678 0.4809 -1.3275681655801799 1.0028105723350533 -1.0028105723350536 0.009274792879418382 0.10660216119810594 0.0 0.0 0.0 0.33882658545383243 
1.552 0.2796361873333976 -1.5707963267948966 -1.5707963267948966 0.0 1.5707963267948966 0.0 0.33696490091837183 0.0 0.0 0.0 0.0 0.0 -0.23271056693257725 0.0 0.0 0.0 0.0 0.0 0.3146944412658819 -0.026522700397100935 0.4809 -1.3286017613331595 1.0007738657211425 -1.0007738657211427 0.008937219111396779 0.10604098122072028 0.0 0.0 0.0 0.33696490091837183 
1.56 0.28232445980260273 -1.5707963267948966 -1.5707963267948966 0.0 1.5707963267948966 0.0 0.3351032163829112 0.0 0.0 0.0 0.0 0.0 -0.23271056693257725 0.0 0.0 0.0 0.0 0.0 0.3147646043076848 -0.02567662117620936 0.4809 -1.3296273639363345 0.9987479947836776 -0.9987479947836778 0.008604318341993324 0.10547863130699953 0.0 0.0 0.0 0.3351032163829112 
1.568 0.2849978387955242 -1.5707963267948966 -1.5707963267948966 0.0 1.5707963267948966 0.0 0.3332415318474506 0.0 0.0 0.0 0.0 0.0 -0.23271056693257725 0.0 0.0 0.0 0.0 0.0 0.31483212276198225 -0.024835045342903816 0.4809 -1.3306450124708467 0.9967329669552506 -0.9967329669552508 0.008276068553570161 0.10491513886398758 0.0 0.0 0.0 0.3332415318474506 
1.576 0.2876563243121619 -1.5707963267948966 -1.5707963267948966 0.0 1.5707963267948966 0.0 0.33137984731198994 0.0 0.0 0.0 0.0 0.0 -0.23271056693257725 0.0 0.0 0.0 0.0 0.0 0.3148970337480803 -0.023997981928911883 0.4809 -1.3316547457716812 0.9947287895968917 -0.9947287895968919 0.007952447587398714 0.10435053096243739 0.0 0.0 0.0 0.33137984731198994 
1.584 0.290299916352516 -1.5707963267948966 -1.5707963267948966 0.0 1.5707963267948966 0.0 0.32951816277652934 0.0 0.0 0.0 0.0 0.0 -0.23271056693257725 0.0 0.0 0.0 0.0 0.0 0.3149593742074603 -0.023165439750735987 0.4809 -1.3326566024282522 0.9927354699986471 -0.9927354699986474 0.007633433146572904 0.10378483433808772 0.0 0.0 0.0 0.32951816277652934 
1.592 0.2929286149165864 -1.5707963267948966 -1.5707963267948966 0.0 1.5707963267948966 0.0 0.3276564782410687 0.0 0.0 0.0 0.0 0.0 -0.23271056693257725 0.0 0.0 0.0 0.0 0.0 0.3150191809026856 -0.02233742741232836 0.4809 -1.3336506207849828 0.990753015380146 -0.9907530153801465 0.007319002798889018 0.10321807539296009 0.0 0.0 0.0 0.3276564782410687 
1.6 0.2955424200043731 -1.5707963267948966 -1.5707963267948966 0.0 1.5707963267948966 0.0 0.3257947937056081 0.0 0.0 0.0 0.0 0.0 -0.23271056693257725 0.0 0.0 0.0 0.0 0.0 0.31507649041633 -0.02151395330775562 0.4809 -1.3346368389418803 0.9887814328911686 -0.9887814328911688 0.007009133979692327 0.10265028019667524 0.0 0.0 0.0 0.3257947937056081 
1.608 0.2981413316158762 -1.5707963267948966 -1.5707963267948966 0.0 1.5707963267948966 0.0 0.3239331091701475 0.0 0.0 0.0 0.0 0.0 -0.23271056693257725 0.0 0.0 0.0 0.0 0.0 0.3151313391499298 -0.02069502562385247 0.4809 -1.3356152947551045 0.9868207296122029 -0.9868207296122031 0.006703803994690402 0.102081474487789 0.0 0.0 0.0 0.3239331091701475 
1.616 0.3007253497510955 -1.5707963267948966 -1.5707963267948966 0.0 1.5707963267948966 0.0 0.32207142463468685 0.0 0.0 0.0 0.0 0.0 -0.23271056693257725 0.0 0.0 0.0 0.0 0.0 0.31518376332295756 -0.019880652342865117 0.4809 -1.336586025837531 0.9848709125550009 -0.984870912555001 0.006402990022733493 0.1015116836751469 0.0 0.0 0.0 0.32207142463468685 
1.624 0.30329447441003116 -1.5707963267948966 -1.5707963267948966 0.0 1.5707963267948966 0.0 0.32020974009922626 0.0 0.0 0.0 0.0 0.0 -0.23271056693257725 0.0 0.0 0.0 0.0 0.0 0.3152337989718184 -0.019070841245083077 0.4809 -1.3375490695593084 0.9829319886631267 -0.9829319886631268 0.0061066691185616565 0.10094093283925772 0.0 0.0 0.0 0.32020974009922626 
1.632 0.3058487055926831 -1.5707963267948966 -1.5707963267948966 0.0 1.5707963267948966 0.0 0.3183480555637656 0.0 0.0 0.0 0.0 0.0 -0.23271056693257725 0.0 0.0 0.0 0.0 0.0 0.3152814819488681 -0.018265599911460557 0.4809 -1.3385044630484093 0.9810039648124999 -0.9810039648125001 0.0058148182155191575 0.10036924673368464 0.0 0.0 0.0 0.3183480555637656 
1.64 0.3083880432990514 -1.5707963267948966 -1.5707963267948966 0.0 1.5707963267948966 0.0 0.316486371028305 0.0 0.0 0.0 0.0 0.0 -0.23271056693257725 0.0 0.0 0.0 0.0 0.0 0.3153268479214524 -0.01746493572622638 0.4809 -1.3394522431911768 0.9790868478119358 -0.979086847811936 0.005527414128235981 0.0997966497864547 0.0 0.0 0.0 0.316486371028305 
1.648 0.31091248752913603 -1.5707963267948966 -1.5707963267948966 0.0 1.5707963267948966 0.0 0.31462468649284436 0.0 0.0 0.0 0.0 0.0 -0.23271056693257725 0.0 0.0 0.0 0.0 0.0 0.3153699323709681 -0.016668855879482563 0.4809 -1.3403924466328645 0.9771806444036779 -0.9771806444036781 0.0052444335552766065 0.09922316610148538 0.0 0.0 0.0 0.31462468649284436 
1.656 0.31342203828293697 -1.5707963267948966 -1.5707963267948966 0.0 1.5707963267948966 0.0 0.31276300195738377 0.0 0.0 0.0 0.0 0.0 -0.23271056693257725 0.0 0.0 0.0 0.0 0.0 0.31541077059194517 -0.015877367369791347 0.4809 -1.3413251097781713 0.975285361263927 -0.9752853612639272 0.004965853081756152 0.09864881946002847 0.0 0.0 0.0 0.31276300195738377 
1.664 0.31591669556045415 -1.5707963267948966 -1.5707963267948966 0.0 1.5707963267948966 0.0 0.3109013174219231 0.0 0.0 0.0 0.0 0.0 -0.23271056693257725 0.0 0.0 0.0 0.0 0.0 0.31544939769114905 -0.015090477006750865 0.4809 -1.34225026879177 0.9734010050033641 -0.9734010050033642 0.0046916491819240826 0.09807363332213039 0.0 0.0 0.0 0.3109013174219231 
1.672 0.31839645936168764 -1.5707963267948966 -1.5707963267948966 0.0 1.5707963267948966 0.0 0.3090396328864626 0.0 0.0 0.0 0.0 0.0 -0.23271056693257725 0.0 0.0 0.0 0.0 0.0 0.31548584858670436 -0.014308191413558664 0.4809 -1.3431679595988326 0.9715275821676709 -0.9715275821676711 0.004421798221715406 0.09749763082810924 0.0 0.0 0.0 0.3090396328864626 
1.68 0.3208613296866375 -1.5707963267948966 -1.5707963267948966 0.0 1.5707963267948966 0.0 0.30717794835100193 0.0 0.0 0.0 0.0 0.0 -0.23271056693257725 0.0 0.0 0.0 0.0 0.0 0.31552015800723837 -0.013530517029563753 0.4809 -1.344078217885547 0.9696650992380416 -0.9696650992380418 0.004156276461269687 0.09692083480004744 0.0 0.0 0.0 0.30717794835100193 
1.688 0.32331130653530366 -1.5707963267948966 -1.5707963267948966 0.0 1.5707963267948966 0.0 0.30531626381554133 0.0 0.0 0.0 0.0 0.0 -0.23271056693257725 0.0 0.0 0.0 0.0 0.0 0.3155523604910445 -0.012757460112806387 0.4809 -1.34498107909963 0.9678135626316924 -0.9678135626316926 0.0038950600574178405 0.09634326774330054 0.0 0.0 0.0 0.30531626381554133 
1.696 0.3257463899076862 -1.5707963267948966 -1.5707963267948966 0.0 1.5707963267948966 0.0 0.3034545792800807 0.0 0.0 0.0 0.0 0.0 -0.23271056693257725 0.0 0.0 0.0 0.0 0.0 0.315582490385266 -0.011989026742545813 0.4809 -1.3458765784508357 0.9659729787023669 -0.965972978702367 0.003638125066136876 0.095764951848021 0.0 0.0 0.0 0.3034545792800807 
1.704 0.32816657980378494 -1.5707963267948966 -1.5707963267948966 0.0 1.5707963267948966 0.0 0.3015928947446201 0.0 0.0 0.0 0.0 0.0 -0.23271056693257725 0.0 0.0 0.0 0.0 0.0 0.31561058184509827 -0.011225222821775762 0.4809 -1.3467647509114582 0.9641433537408332 -0.9641433537408334 0.0033854474449727247 0.09518590899069702 0.0 0.0 0.0 0.3015928947446201 
1.712 0.3305718762236001 -1.5707963267948966 -1.5707963267948966 0.0 1.5707963267948966 0.0 0.2997312102091595 0.0 0.0 0.0 0.0 0.0 -0.23271056693257725 0.0 0.0 0.0 0.0 0.0 0.31563666883301156 -0.010466054079727508 0.4809 -1.347645631216828 0.9623246939753809 -0.9623246939753811 0.003137003055431237 0.09460616073570625 0.0 0.0 0.0 0.2997312102091595 
1.72 0.33296227916713156 -1.5707963267948966 -1.5707963267948966 0.0 1.5707963267948966 0.0 0.29786952567369884 0.0 0.0 0.0 0.0 0.0 -0.23271056693257725 0.0 0.0 0.0 0.0 0.0 0.3156607851179918 -0.009711526074360526 0.4809 -1.348519253865802 0.9605170055723089 -0.9605170055723091 0.0028927676653375286 0.0940257283368836 0.0 0.0 0.0 0.29786952567369884 
1.728 0.3353377886343793 -1.5707963267948966 -1.5707963267948966 0.0 1.5707963267948966 0.0 0.29600784113823825 0.0 0.0 0.0 0.0 0.0 -0.23271056693257725 0.0 0.0 0.0 0.0 0.0 0.3156829642748007 -0.008961644194840603 0.4809 -1.3493856531212542 0.9587202946364114 -0.9587202946364116 0.002652716951163792 0.09344463273910335 0.0 0.0 0.0 0.29600784113823825 
1.736 0.33769840462534334 -1.5707963267948966 -1.5707963267948966 0.0 1.5707963267948966 0.0 0.2941461566027776 0.0 0.0 0.0 0.0 0.0 -0.23271056693257725 0.0 0.0 0.0 0.0 0.0 0.3157032396832537 -0.008216413664004923 0.4809 -1.350244863010555 0.9569345672114598 -0.9569345672114602 0.002416826500325594 0.09286289457987458 0.0 0.0 0.0 0.2941461566027776 
1.744 0.3400441271400237 -1.5707963267948966 -1.5707963267948966 0.0 1.5707963267948966 0.0 0.292284472067317 0.0 0.0 0.0 0.0 0.0 -0.23271056693257725 0.0 0.0 0.0 0.0 0.0 0.3157216445275173 -0.007475839540814766 0.4809 -1.3510969173260456 0.9551598292806754 -0.9551598292806757 0.0021850718134470174 0.09228053419095052 0.0 0.0 0.0 0.292284472067317 
1.752 0.3423749561784204 -1.5707963267948966 -1.5707963267948966 0.0 1.5707963267948966 0.0 0.29042278753185635 0.0 0.0 0.0 0.0 0.0 -0.23271056693257725 0.0 0.0 0.0 0.0 0.0 0.3157382117954229 -0.0067399267227950255 0.4809 -1.3519418496255153 0.9533960867672052 -0.9533960867672056 0.0019574283065945807 0.09169757159995036 0.0 0.0 0.0 0.29042278753185635 
1.76 0.3446908917405334 -1.5707963267948966 -1.5707963267948966 0.0 1.5707963267948966 0.0 0.28856110299639576 0.0 0.0 0.0 0.0 0.0 -0.23271056693257725 0.0 0.0 0.0 0.0 0.0 0.3157529742777999 -0.006008679948460709 0.4809 -1.3527796932326615 0.9516433455345852 -0.9516433455345854 0.0017338713134801484 0.09111402653199452 0.0 0.0 0.0 0.28856110299639576 
1.768 0.3469919338263628 -1.5707963267948966 -1.5707963267948966 0.0 1.5707963267948966 0.0 0.28669941846093516 0.0 0.0 0.0 0.0 0.0 -0.23271056693257725 0.0 0.0 0.0 0.0 0.0 0.3157659645678249 -0.00528210379973033 0.4809 -1.3536104812375562 0.9499016113872047 -0.949901611387205 0.0015143760876329816 0.09052991841135166 0.0 0.0 0.0 0.28669941846093516 
1.776 0.3492780824359084 -1.5707963267948966 -1.5707963267948966 0.0 1.5707963267948966 0.0 0.2848377339254745 0.0 0.0 0.0 0.0 0.0 -0.23271056693257725 0.0 0.0 0.0 0.0 0.0 0.3157772150603894 -0.004560202704326246 0.4809 -1.3544342464970986 0.9481708900707638 -0.948170890070764 0.0012989178045411086 0.08994526636309855 0.0 0.0 0.0 0.2848377339254745 
1.784 0.35154933756917034 -1.5707963267948966 -1.5707963267948966 0.0 1.5707963267948966 0.0 0.28297604939001386 0.0 0.0 0.0 0.0 0.0 -0.23271056693257725 0.0 0.0 0.0 0.0 0.0 0.31578675795148364 -0.003842980938161284 0.4809 -1.3552510216354705 0.946451187272727 -0.9464511872727271 0.0010874715637620093 0.08936008921479138 0.0 0.0 0.0 0.28297604939001386 
1.792 0.35380569922614863 -1.5707963267948966 -1.5707963267948966 0.0 1.5707963267948966 0.0 0.28111436485455327 0.0 0.0 0.0 0.0 0.0 -0.23271056693257725 0.0 0.0 0.0 0.0 0.0 0.3157946252375974 -0.0031304426277123307 0.4809 -1.3560608390445807 0.9447425086227724 -0.9447425086227726 0.0008800123910029706 0.08877440549814887 0.0 0.0 0.0 0.28111436485455327 
1.8 0.35604716740684317 -1.5707963267948966 -1.5707963267948966 0.0 1.5707963267948966 0.0 0.27925268031909267 0.0 0.0 0.0 0.0 0.0 -0.23271056693257725 0.0 0.0 0.0 0.0 0.0 0.3158008487151377 -0.002422591752380264 0.4809 -1.35686373088451 0.9430448596932379 -0.9430448596932381 0.0006765152401711163 0.0881882334507465 0.0 0.0 0.0 0.27925268031909267 
1.808 0.3582737421112541 -1.5707963267948966 -1.5707963267948966 0.0 1.5707963267948966 0.0 0.277390995783632 0.0 0.0 0.0 0.0 0.0 -0.23271056693257725 0.0 0.0 0.0 0.0 0.0 0.3158054599798623 -0.0017194321468361855 0.4809 -1.3576597290839423 0.9413582459995586 -0.9413582459995589 0.0004769549953932777 0.08760159101772196 0.0 0.0 0.0 0.277390995783632 
1.816 0.3604854233393813 -1.5707963267948966 -1.5707963267948966 0.0 1.5707963267948966 0.0 0.2755293112481714 0.0 0.0 0.0 0.0 0.0 -0.23271056693257725 0.0 0.0 0.0 0.0 0.0 0.3158084904263295 -0.0010209675033542552 0.4809 -1.3584488653406057 0.9396826730007071 -0.9396826730007074 0.0002813064730059631 0.08701449585349132 0.0 0.0 0.0 0.2755293112481714 
1.824 0.36268221109122484 -1.5707963267948966 -1.5707963267948966 0.0 1.5707963267948966 0.0 0.27366762671271083 0.0 0.0 0.0 0.0 0.0 -0.23271056693257725 0.0 0.0 0.0 0.0 0.0 0.31580997124736376 -0.0003272013741302364 0.4809 -1.359231171121695 0.9380181460996226 -0.9380181460996229 8.954442351535958e-05 0.08642696532347549 0.0 0.0 0.0 0.27366762671271083 
1.832 0.3648641053667847 -1.5707963267948966 -1.5707963267948966 0.0 1.5707963267948966 0.0 0.2718059421772502 0.0 0.0 0.0 0.0 0.0 -0.23271056693257725 0.0 0.0 0.0 0.0 0.0 0.31580993343353664 0.00036186282641310213 0.4809 -1.3600066776642954 0.9363646706436403 -0.9363646706436405 -9.835646647213596e-05 0.08583901650583708 0.0 0.0 0.0 0.2718059421772502 
1.84 0.3670311061660608 -1.5707963267948966 -1.5707963267948966 0.0 1.5707963267948966 0.0 0.26994425764178953 0.0 0.0 0.0 0.0 0.0 -0.23271056693257725 0.0 0.0 0.0 0.0 0.0 0.3158084077726632 0.0010462218193351101 0.4809 -1.3607754159758034 0.9347222519249146 -0.9347222519249149 -0.00028242157234905876 0.08525066619322713 0.0 0.0 0.0 0.26994425764178953 
1.848 0.3691832134890533 -1.5707963267948966 -1.5707963267948966 0.0 1.5707963267948966 0.0 0.26808257310632894 0.0 0.0 0.0 0.0 0.0 -0.23271056693257725 0.0 0.0 0.0 0.0 0.0 0.3158054248493138 0.0017258724589002475 0.4809 -1.3615374168343393 0.9330908951808389 -0.9330908951808391 -0.0004626763296353253 0.08466193089454144 0.0 0.0 0.0 0.26808257310632894 
1.856 0.3713204273357621 -1.5707963267948966 -1.5707963267948966 0.0 1.5707963267948966 0.0 0.26622088857086834 0.0 0.0 0.0 0.0 0.0 -0.23271056693257725 0.0 0.0 0.0 0.0 0.0 0.31580101504434016 0.0024008117303149015 0.4809 -1.362292710789157 0.9314706055944606 -0.9314706055944608 -0.000639146232135797 0.0840728268366864 0.0 0.0 0.0 0.26622088857086834 
1.864 0.37344274770618724 -1.5707963267948966 -1.5707963267948966 0.0 1.5707963267948966 0.0 0.2643592040354077 0.0 0.0 0.0 0.0 0.0 -0.23271056693257725 0.0 0.0 0.0 0.0 0.0 0.31579520853441656 0.0030710367474787136 0.4809 -1.3630413281610503 0.9298613882948934 -0.9298613882948936 -0.00081185683012696 0.08348336996635394 0.0 0.0 0.0 0.2643592040354077 
1.872 0.37555017460032863 -1.5707963267948966 -1.5707963267948966 0.0 1.5707963267948966 0.0 0.2624975194999471 0.0 0.0 0.0 0.0 0.0 -0.23271056693257725 0.0 0.0 0.0 0.0 0.0 0.315788035291595 0.003736544750749915 0.4809 -1.3637832990427532 0.9282632483577243 -0.9282632483577246 -0.0009808337285724007 0.08289357595180544 0.0 0.0 0.0 0.2624975194999471 
1.88 0.3776427080181864 -1.5707963267948966 -1.5707963267948966 0.0 1.5707963267948966 0.0 0.26063583496448645 0.0 0.0 0.0 0.0 0.0 -0.23271056693257725 0.0 0.0 0.0 0.0 0.0 0.315779525082875 0.004397333104725131 0.4809 -1.3645186532993336 0.9266761908054156 -0.9266761908054159 -0.001146102585367012 0.08230346018466411 0.0 0.0 0.0 0.26063583496448645 
1.888 0.37972034795976045 -1.5707963267948966 -1.5707963267948966 0.0 1.5707963267948966 0.0 0.25877415042902585 0.0 0.0 0.0 0.0 0.0 -0.23271056693257725 0.0 0.0 0.0 0.0 0.0 0.31576970746978694 0.005053399296033361 0.4809 -1.3652474205685907 0.9251002206077068 -0.925100220607707 -0.0013076891096096704 0.08171303778171614 0.0 0.0 0.0 0.25877415042902585 
1.896 0.38178309442505076 -1.5707963267948966 -1.5707963267948966 0.0 1.5707963267948966 0.0 0.2569124658935652 0.0 0.0 0.0 0.0 0.0 -0.23271056693257725 0.0 0.0 0.0 0.0 0.0 0.31575861180798936 0.00570474093114455 0.4809 -1.3659696302614361 0.9235353426820078 -0.923535342682008 -0.0014656190599042997 0.08112232358671956 0.0 0.0 0.0 0.2569124658935652 
1.904 0.3838309474140575 -1.5707963267948966 -1.5707963267948966 0.0 1.5707963267948966 0.0 0.2550507813581046 0.0 0.0 0.0 0.0 0.0 -0.23271056693257725 0.0 0.0 0.0 0.0 0.0 0.31574626724687926 0.006351355734192789 0.4809 -1.3666853115622826 0.921981561893791 -0.9219815618937911 -0.001619918242689149 0.08053133217222147 0.0 0.0 0.0 0.2550507813581046 
1.912 0.38586390692678046 -1.5707963267948966 -1.5707963267948966 0.0 1.5707963267948966 0.0 0.253189096822644 0.0 0.0 0.0 0.0 0.0 -0.23271056693257725 0.0 0.0 0.0 0.0 0.0 0.3157327027292166 0.006993241544813639 0.4809 -1.3673944934294202 0.92043888305698 -0.9204388830569802 -0.001770612510593957 0.0799400778413827 0.0 0.0 0.0 0.253189096822644 
1.92 0.3878819729632197 -1.5707963267948966 -1.5707963267948966 0.0 1.5707963267948966 0.0 0.2513274122871834 0.0 0.0 0.0 0.0 0.0 -0.23271056693257725 0.0 0.0 0.0 0.0 0.0 0.3157179469907607 0.007630396315996553 0.4809 -1.3680972045953912 0.9189073109343312 -0.9189073109343314 -0.001917727760825071 0.07934857462981004 0.0 0.0 0.0 0.2513274122871834 
1.928 0.3898851455233754 -1.5707963267948966 -1.5707963267948966 0.0 1.5707963267948966 0.0 0.2494657277517228 0.0 0.0 0.0 0.0 0.0 -0.23271056693257725 0.0 0.0 0.0 0.0 0.0 0.31570202855992036 0.008262818111951804 0.4809 -1.3687934735673617 0.9173868502378157 -0.9173868502378161 -0.0020612899335781727 0.0787568363073957 0.0 0.0 0.0 0.2494657277517228 
1.936 0.3918734246072473 -1.5707963267948966 -1.5707963267948966 0.0 1.5707963267948966 0.0 0.24760404321626217 0.0 0.0 0.0 0.0 0.0 -0.23271056693257725 0.0 0.0 0.0 0.0 0.0 0.315684975757416 0.008890505105992017 0.4809 -1.369483328627487 0.9158775056289943 -0.9158775056289944 -0.0022013250104784467 0.07816487638016391 0.0 0.0 0.0 0.24760404321626217 
1.944 0.3938468102148356 -1.5707963267948966 -1.5707963267948966 0.0 1.5707963267948966 0.0 0.24574235868080155 0.0 0.0 0.0 0.0 0.0 -0.23271056693257725 0.0 0.0 0.0 0.0 0.0 0.31566681669595437 0.009513455578428736 0.4809 -1.3701667978332737 0.9143792817193884 -0.9143792817193886 -0.0023378590130481067 0.07757270809212405 0.0 0.0 0.0 0.24574235868080155 
1.952 0.39580530234614014 -1.5707963267948966 -1.5707963267948966 0.0 1.5707963267948966 0.0 0.24388067414534093 0.0 0.0 0.0 0.0 0.0 -0.23271056693257725 0.0 0.0 0.0 0.0 0.0 0.3156475792799156 0.010131667914483746 0.4809 -1.3708439090179394 0.9128921830708523 -0.9128921830708525 -0.002470918001201016 0.07698034442713077 0.0 0.0 0.0 0.24388067414534093 
1.96 0.397748901001161 -1.5707963267948966 -1.5707963267948966 0.0 1.5707963267948966 0.0 0.24201898960988033 0.0 0.0 0.0 0.0 0.0 -0.23271056693257725 0.0 0.0 0.0 0.0 0.0 0.31562729120505184 0.010745140602215247 0.4809 -1.3715146897907657 0.9114162141959338 -0.911416214195934 -0.002600528071764235 0.07638779811075011 0.0 0.0 0.0 0.24201898960988033 
1.968 0.3996776061798982 -1.5707963267948966 -1.5707963267948966 0.0 1.5707963267948966 0.0 0.24015730507441968 0.0 0.0 0.0 0.0 0.0 -0.23271056693257725 0.0 0.0 0.0 0.0 0.0 0.31560597995819784 0.011353872230459073 0.4809 -1.3721791675374473 0.9099513795582377 -0.9099513795582379 -0.0027267153570263414 0.0757950816121321 0.0 0.0 0.0 0.24015730507441968 
1.976 0.4015914178823517 -1.5707963267948966 -1.5707963267948966 0.0 1.5707963267948966 0.0 0.23829562053895909 0.0 0.0 0.0 0.0 0.0 -0.23271056693257725 0.0 0.0 0.0 0.0 0.0 0.31558367281699296 0.01195786148678481 0.4809 -1.3728373694204392 0.9084976835727823 -0.9084976835727825 -0.0028495060233123064 0.07520220714588917 0.0 0.0 0.0 0.23829562053895909 
1.984 0.4034903361085216 -1.5707963267948966 -1.5707963267948966 0.0 1.5707963267948966 0.0 0.23643393600349846 0.0 0.0 0.0 0.0 0.0 -0.23271056693257725 0.0 0.0 0.0 0.0 0.0 0.31556039684961434 0.012557107155467161 0.4809 -1.3734893223792994 0.9070551306063532 -0.9070551306063535 -0.0029689262695847957 0.0746091866739803 0.0 0.0 0.0 0.23643393600349846 
1.992 0.4053743608584077 -1.5707963267948966 -1.5707963267948966 0.0 1.5707963267948966 0.0 0.23457225146803784 0.0 0.0 0.0 0.0 0.0 -0.23271056693257725 0.0 0.0 0.0 0.0 0.0 0.3155361789145217 0.013151608115472047 0.4809 -1.3741350531310248 0.9056237249778534 -0.9056237249778536 -0.0030850023260715963 0.07401603190760096 0.0 0.0 0.0 0.23457225146803784 
2.0 0.40724349213201017 -1.5707963267948966 -1.5707963267948966 0.0 1.5707963267948966 0.0 0.23271056693257722 0.0 0.0 0.0 0.0 0.0 -0.23271056693257725 0.0 0.0 0.0 0.0 0.0 0.3155110456602121 0.013741363338458313 0.4809 -1.3747745881703877 0.90420347095865 -0.9042034709586502 -0.003197760452919166 0.07342275430907821 0.0 0.0 0.0 0.23271056693257722 
2.008 0.4090977299293289 -1.5707963267948966 -1.5707963267948966 0.0 1.5707963267948966 0.0 0.2308488823971166 0.0 0.0 0.0 0.0 0.0 -0.23271056693257725 0.0 0.0 0.0 0.0 0.0 0.3154850235249864 0.014326371886794285 0.4809 -1.3754079537702646 0.9027943727729163 -0.9027943727729166 -0.003307226938871931 0.07282936509377115 0.0 0.0 0.0 0.2308488823971166 
2.016 0.410937074250364 -1.5707963267948966 -1.5707963267948966 0.0 1.5707963267948966 0.0 0.22898719786165597 0.0 0.0 0.0 0.0 0.0 -0.23271056693257725 0.0 0.0 0.0 0.0 0.0 0.3154581387367254 0.014906632911589637 0.4809 -1.3760351759819636 0.9013964345979718 -0.901396434597972 -0.003413428099977249 0.07223587523197626 0.0 0.0 0.0 0.22898719786165597 
2.024 0.4127615250951155 -1.5707963267948966 -1.5707963267948966 0.0 1.5707963267948966 0.0 0.22712551332619535 0.0 0.0 0.0 0.0 0.0 -0.23271056693257725 0.0 0.0 0.0 0.0 0.0 0.3154304173126764 0.01548214565074248 0.4809 -1.3766562806355458 0.9000096605646177 -0.900009660564618 -0.0035163902783158086 0.07164229545083764 0.0 0.0 0.0 0.22712551332619535 
2.032 0.41457108246358315 -1.5707963267948966 -1.5707963267948966 0.0 1.5707963267948966 0.0 0.22526382879073475 0.0 0.0 0.0 0.0 0.0 -0.23271056693257725 0.0 0.0 0.0 0.0 0.0 0.31540188505925015 0.01605290942700183 0.4809 -1.377271293340146 0.8986340547574696 -0.8986340547574698 -0.0036161398407573123 0.07104863623626193 0.0 0.0 0.0 0.22526382879073475 
2.04 0.41636574635576723 -1.5707963267948966 -1.5707963267948966 0.0 1.5707963267948966 0.0 0.22340214425527413 0.0 0.0 0.0 0.0 0.0 -0.23271056693257725 0.0 0.0 0.0 0.0 0.0 0.31537256757182747 0.016618923646045513 0.4809 -1.3778802394842857 0.8972696212152849 -0.8972696212152851 -0.003712703177741246 0.07045490783483759 0.0 0.0 0.0 0.22340214425527413 
2.048 0.41814551677166756 -1.5707963267948966 -1.5707963267948966 0.0 1.5707963267948966 0.0 0.2215404597198135 0.0 0.0 0.0 0.0 0.0 -0.23271056693257725 0.0 0.0 0.0 0.0 0.0 0.3153424902345752 0.017180187794573098 0.4809 -1.3784831442361867 0.8959163639312896 -0.8959163639312898 -0.003806106702082453 0.0698611202557586 0.0 0.0 0.0 0.2215404597198135 
2.056 0.4199103937112842 -1.5707963267948966 -1.5707963267948966 0.0 1.5707963267948966 0.0 0.2196787751843529 0.0 0.0 0.0 0.0 0.0 -0.23271056693257725 0.0 0.0 0.0 0.0 0.0 0.3153116782202723 0.017736701438414573 0.4809 -1.3790800325440766 0.8945742868534995 -0.8945742868534997 -0.003896376847801463 0.06926728327275221 0.0 0.0 0.0 0.2196787751843529 
2.064 0.42166037717461724 -1.5707963267948966 -1.5707963267948966 0.0 1.5707963267948966 0.0 0.21781709064889226 0.0 0.0 0.0 0.0 0.0 -0.23271056693257725 0.0 0.0 0.0 0.0 0.0 0.3152801564901442 0.018288464220654426 0.4809 -1.3796709291364941 0.8932433938850382 -0.8932433938850384 -0.003983540068979308 0.06867340642601068 0.0 0.0 0.0 0.21781709064889226 
2.072 0.4233954671616665 -1.5707963267948966 -1.5707963267948966 0.0 1.5707963267948966 0.0 0.21595540611343164 0.0 0.0 0.0 0.0 0.0 -0.23271056693257725 0.0 0.0 0.0 0.0 0.0 0.3152479497937076 0.018835475859770783 0.4809 -1.3802558585225897 0.8919236888844534 -0.8919236888844536 -0.004067622838636538 0.06807949902412684 0.0 0.0 0.0 0.21595540611343164 
2.08 0.42511566367243214 -1.5707963267948966 -1.5707963267948966 0.0 1.5707963267948966 0.0 0.21409372157797102 0.0 0.0 0.0 0.0 0.0 -0.23271056693257725 0.0 0.0 0.0 0.0 0.0 0.31521508266862264 0.019377736147790797 0.4809 -1.3808348449924215 0.8906151756660264 -0.8906151756660267 -0.0041486516476365075 0.06748557014603321 0.0 0.0 0.0 0.21409372157797102 
2.088 0.42682096670691405 -1.5707963267948966 -1.5707963267948966 0.0 1.5707963267948966 0.0 0.2122320370425104 0.0 0.0 0.0 0.0 0.0 -0.23271056693257725 0.0 0.0 0.0 0.0 0.0 0.3151815794405548 0.019915244948460743 0.4809 -1.3814079126172476 0.8893178580000825 -0.8893178580000826 -0.0042266530036123885 0.06689162864294476 0.0 0.0 0.0 0.2122320370425104 
2.096 0.42851137626511226 -1.5707963267948966 -1.5707963267948966 0.0 1.5707963267948966 0.0 0.21037035250704977 0.0 0.0 0.0 0.0 0.0 -0.23271056693257725 0.0 0.0 0.0 0.0 0.0 0.3151474642230452 0.020448002195432316 0.4809 -1.381975085249819 0.8880317396132944 -0.8880317396132946 -0.004301653429918024 0.06629768314030487 0.0 0.0 0.0 0.21037035250704977 
2.104 0.43018689234702684 -1.5707963267948966 -1.5707963267948966 0.0 1.5707963267948966 0.0 0.20850866797158915 0.0 0.0 0.0 0.0 0.0 -0.23271056693257725 0.0 0.0 0.0 0.0 0.0 0.3151127609173884 0.020976007890464193 0.4809 -1.3825363865246614 0.8867568241889849 -0.8867568241889852 -0.004373679464602233 0.06570374203973449 0.0 0.0 0.0 0.20850866797158915 
2.112 0.4318475149526577 -1.5707963267948966 -1.5707963267948966 0.0 1.5707963267948966 0.0 0.20664698343612856 0.0 0.0 0.0 0.0 0.0 -0.23271056693257725 0.0 0.0 0.0 0.0 0.0 0.3150774932125191 0.02149926210163916 0.4809 -1.3830918398583616 0.8854931153674245 -0.8854931153674247 -0.004442757659406414 0.06510981352098434 0.0 0.0 0.0 0.20664698343612856 
2.12 0.43349324408200496 -1.5707963267948966 -1.5707963267948966 0.0 1.5707963267948966 0.0 0.20478529890066793 0.0 0.0 0.0 0.0 0.0 -0.23271056693257725 0.0 0.0 0.0 0.0 0.0 0.3150416845849067 0.022017764961597068 0.4809 -1.3836414684498441 0.8842406167461263 -0.8842406167461264 -0.004508914578785309 0.06451590554389007 0.0 0.0 0.0 0.20478529890066793 
2.128 0.4351240797350684 -1.5707963267948966 -1.5707963267948966 0.0 1.5707963267948966 0.0 0.2029236143652073 0.0 0.0 0.0 0.0 0.0 -0.23271056693257725 0.0 0.0 0.0 0.0 0.0 0.3150053582984574 0.022531516665783353 0.4809 -1.3841852952806473 0.882999331880138 -0.8829993318801382 -0.004572176798950662 0.06392202585033012 0.0 0.0 0.0 0.2029236143652073 
2.136 0.43674002191184824 -1.5707963267948966 -1.5707963267948966 0.0 1.5707963267948966 0.0 0.2010619298297467 0.0 0.0 0.0 0.0 0.0 -0.23271056693257725 0.0 0.0 0.0 0.0 0.0 0.31496853740442354 0.023040517470713145 0.4809 -1.3847233431151964 0.8817692642823308 -0.8817692642823309 -0.004632570906937579 0.06332818196618616 0.0 0.0 0.0 0.2010619298297467 
2.144 0.43834107061234434 -1.5707963267948966 -1.5707963267948966 0.0 1.5707963267948966 0.0 0.19920024529428607 0.0 0.0 0.0 0.0 0.0 -0.23271056693257725 0.0 0.0 0.0 0.0 0.0 0.31493124474132117 0.023544767692251202 0.4809 -1.3852556345010723 0.8805504174236842 -0.8805504174236843 -0.004690123499693421 0.06273438120330602 0.0 0.0 0.0 0.19920024529428607 
2.152 0.4399272258365568 -1.5707963267948966 -1.5707963267948966 0.0 1.5707963267948966 0.0 0.19733856075882544 0.0 0.0 0.0 0.0 0.0 -0.23271056693257725 0.0 0.0 0.0 0.0 0.0 0.31489350293485385 0.024044267703907503 0.4809 -1.3857821917692763 0.8793427947335679 -0.879342794733568 -0.004744861183189015 0.062140630661469035 0.0 0.0 0.0 0.19733856075882544 
2.16 0.4414984875844856 -1.5707963267948966 -1.5707963267948966 0.0 1.5707963267948966 0.0 0.19547687622336482 0.0 0.0 0.0 0.0 0.0 -0.23271056693257725 0.0 0.0 0.0 0.0 0.0 0.3148553343978444 0.024539017935148504 0.4809 -1.386303037034493 0.8781463996000216 -0.8781463996000217 -0.004796810571551954 0.06154693723035357 0.0 0.0 0.0 0.19547687622336482 
2.168 0.44305485585613064 -1.5707963267948966 -1.5707963267948966 0.0 1.5707963267948966 0.0 0.1936151916879042 0.0 0.0 0.0 0.0 0.0 -0.23271056693257725 0.0 0.0 0.0 0.0 0.0 0.3148167613301728 0.02502901886972418 0.4809 -1.386818192195348 0.8769612353700292 -0.8769612353700293 -0.004845998286221819 0.060953307591506585 0.0 0.0 0.0 0.1936151916879042 
2.176 0.44459633065149207 -1.5707963267948966 -1.5707963267948966 0.0 1.5707963267948966 0.0 0.19175350715244358 0.0 0.0 0.0 0.0 0.0 -0.23271056693257725 0.0 0.0 0.0 0.0 0.0 0.31477780571872077 0.025514271044011168 0.4809 -1.3873276789346654 0.8757873053497933 -0.8757873053497934 -0.004892450955127179 0.060359748220315215 0.0 0.0 0.0 0.19175350715244358 
2.184 0.4461229119705697 -1.5707963267948966 -1.5707963267948966 0.0 1.5707963267948966 0.0 0.18989182261698295 0.0 0.0 0.0 0.0 0.0 -0.23271056693257725 0.0 0.0 0.0 0.0 0.0 0.31473848933732357 0.025994775045370816 0.4809 -1.3878315187197174 0.8746246128050027 -0.8746246128050028 -0.00493619521188393 0.05976626538798023 0.0 0.0 0.0 0.18989182261698295 
2.192 0.4476345998133638 -1.5707963267948966 -1.5707963267948966 0.0 1.5707963267948966 0.0 0.18803013808152236 0.0 0.0 0.0 0.0 0.0 -0.23271056693257725 0.0 0.0 0.0 0.0 0.0 0.3146988337467273 0.026470531510524233 0.4809 -1.388329732802477 0.8734731609611006 -0.8734731609611007 -0.00497725769501516 0.059172865163491184 0.0 0.0 0.0 0.18803013808152236 
2.2 0.44913139417987413 -1.5707963267948966 -1.5707963267948966 0.0 1.5707963267948966 0.0 0.18616845354606174 0.0 0.0 0.0 0.0 0.0 -0.23271056693257725 0.0 0.0 0.0 0.0 0.0 0.31465886029455287 0.026941541123941953 0.4809 -1.3888223422198598 0.872332953003546 -0.8723329530035461 -0.0050156650471919 0.0585795534156032 0.0 0.0 0.0 0.18616845354606174 
2.208 0.45061329507010073 -1.5707963267948966 -1.5707963267948966 0.0 1.5707963267948966 0.0 0.1843067690106011 0.0 0.0 0.0 0.0 0.0 -0.23271056693257725 0.0 0.0 0.0 0.0 0.0 0.3146185901152655 0.027407804616250225 0.4809 -1.3893093677939694 0.8712039920780754 -0.8712039920780755 -0.005051443914494917 0.05798633581481523 0.0 0.0 0.0 0.1843067690106011 
2.216 0.45208030248404374 -1.5707963267948966 -1.5707963267948966 0.0 1.5707963267948966 0.0 0.1824450844751405 0.0 0.0 0.0 0.0 0.0 -0.23271056693257725 0.0 0.0 0.0 0.0 0.0 0.31457804413015067 0.02786932276265309 0.4809 -1.389790830132336 0.8700862812909591 -0.8700862812909592 -0.005084620945697198 0.057393217835349813 0.0 0.0 0.0 0.1824450844751405 
2.224 0.45353241642170294 -1.5707963267948966 -1.5707963267948966 0.0 1.5707963267948966 0.0 0.18058339993967987 0.0 0.0 0.0 0.0 0.0 -0.23271056693257725 0.0 0.0 0.0 0.0 0.0 0.31453724304729536 0.028326096381369573 0.4809 -1.390266749628152 0.868979823709255 -0.8689798237092551 -0.00511522279156678 0.05680020475713403 0.0 0.0 0.0 0.18058339993967987 
2.232 0.4549696368830786 -1.5707963267948966 -1.5707963267948966 0.0 1.5707963267948966 0.0 0.17872171540421924 0.0 0.0 0.0 0.0 0.0 -0.23271056693257725 0.0 0.0 0.0 0.0 0.0 0.31449620736157435 0.028778126332087813 0.4809 -1.3907371464605072 0.8678846223610606 -0.8678846223610607 -0.005143276104190066 0.056207301667781616 0.0 0.0 0.0 0.17872171540421924 
2.24 0.4563919638681706 -1.5707963267948966 -1.5707963267948966 0.0 1.5707963267948966 0.0 0.17686003086875862 0.0 0.0 0.0 0.0 0.0 -0.23271056693257725 0.0 0.0 0.0 0.0 0.0 0.314454957354643 0.029225413514433942 0.4809 -1.3912020405946164 0.86680068023576 -0.8668006802357601 -0.005168807536315022 0.05561451346457634 0.0 0.0 0.0 0.17686003086875862 
2.248 0.4577993973769787 -1.5707963267948966 -1.5707963267948966 0.0 1.5707963267948966 0.0 0.174998346333298 0.0 0.0 0.0 0.0 0.0 -0.23271056693257725 0.0 0.0 0.0 0.0 0.0 0.31441351309493387 0.029667958866457785 0.4809 -1.3916614517820496 0.8657280002842703 -0.8657280002842704 -0.005191843740714418 0.05502184485645616 0.0 0.0 0.0 0.174998346333298 
