Fleaurent/UniversalRobot/csv/robolib_movel_x400.csv
timestamp target_q_0 target_q_1 target_q_2 target_q_3 target_q_4 target_q_5 target_qd_0 target_qd_1 target_dq_2 target_qd_3 target_qd_4 target_qd_5 target_TCP_pose_0 target_TCP_pose_1 target_TCP_pose_2 target_TCP_pose_3 target_TCP_pose_4 target_TCP_pose_5 target_TCP_speed_0 target_TCP_speed_1 target_TCP_speed_2 target_TCP_speed_3 target_TCP_speed_4 target_TCP_speed_5 target_TCP_acc_0 target_TCP_acc_1 target_TCP_acc_2 target_TCP_acc_3 target_TCP_acc_4 target_TCP_acc_5
0.0 -0.3527446237002967 -1.8721358656143456 -1.603567670800731 0.33413797321956373 1.9237026852187453 -0.00012831772243472844 0.0 0.0 0.0 0.0 0.0 0.0 300.0 -200.0 400.0 2.4186 -2.4185 2.4185 0.0 0.0 0.0 0.0 0.0 0.0 0.0 1000.0 0.0 0.0 0.0 0.0 
0.008 -0.35263492756397374 -1.872045184858162 -1.6036908977386917 0.33417114799546876 1.9235929890833252 -0.00012831253888009457 0.0012838072624298655 -0.020662312955651376 0.04061426174858575 -0.021382539413904576 0.00023252442038484885 -0.0019080573905939733 300.0 -199.968 400.0 2.4186 -2.4185 2.4185 0.0 8.0 0.0 0.0 0.0 0.0 0.0 1000.0 0.0 0.0 0.0 0.0 
0.016 -0.3523057563679708 -1.8717731871357173 -1.6040604632532043 0.3342686690050187 1.9232638178900314 -0.0001282969960839277 0.0026712450038798986 -0.04767359976309893 0.07969983121535919 -0.03504173241799357 0.00022977974589720104 -0.004021939484063281 300.0 -199.872 400.0 2.4186 -2.4185 2.4185 0.0 16.0 0.0 0.0 0.0 0.0 0.0 1000.0 0.0 0.0 0.0 0.0 
0.024 -0.35175686169764164 -1.8713200060883128 -1.6046760215441245 0.33443115916967403 1.922714923224219 -0.00012827111766959128 0.004391135310027427 -0.08600083580538273 0.11333138741603002 -0.032292464934365946 -0.0003240950716143643 -0.0066179766943999995 300.0 -199.712 400.0 2.4186 -2.4185 2.4185 0.0 24.0 0.0 0.0 0.0 0.0 0.0 1000.0 0.0 0.0 0.0 0.0 
0.032 -0.3509878293507156 -1.8706858644625575 -1.6055369966030129 0.3346583807608754 1.9219458908836187 -0.00012823494307663034 0.007109752617902683 -0.13721912970045658 0.13318682003403925 -0.0036688104205849052 -0.0020866295313945226 -0.010271407405069448 300.0 -199.488 400.0 2.4186 -2.4185 2.4185 0.0 32.0 0.0 0.0 0.0 0.0 0.0 1000.0 0.0 0.0 0.0 0.0 
0.04 -0.3499980790726642 -1.8698710741310782 -1.6066425826958843 0.3349486008171352 1.9209561406137015 -0.00012818852766194433 0.013613940952575362 -0.1973996350364043 0.1259372475399084 0.05860931843996955 -0.007527525130446321 -0.01714284509183182 300.0 -199.2 400.0 2.4186 -2.4185 2.4185 0.0 40.0 0.0 0.0 0.0 0.0 0.0 1000.0 0.0 0.0 0.0 0.0 
0.048 -0.3487868641905747 -1.8688760361296404 -1.607991745029175 0.3353037255290845 1.9197449257415589 -0.00012813194284195818 0.0672038345738751 -0.2806975635286854 0.07687506291945133 0.158781296759849 -0.05418660600824762 -0.060073930743223175 300.0 -198.848 400.0 2.4186 -2.4185 2.4185 0.0 48.0 0.0 0.0 0.0 0.0 0.0 1000.0 0.0 0.0 0.0 0.0 
0.056 -0.3473532711499465 -1.8677012407187414 -1.6095832205891871 0.3357203379370943 1.9183113327126935 -0.00012806527627632236 -0.027935573743423703 -0.22084797408975212 -0.030026156310952984 0.25768667415222674 0.027280887709814176 0.009086264276652512 300.0 -198.432 400.0 2.4186 -2.4185 2.4185 0.0 56.0 0.0 0.0 0.0 0.0 0.0 1000.0 0.0 0.0 0.0 0.0 
0.064 -0.3456962189602215 -1.8663472674800654 -1.6114155191426018 0.33619947661287686 1.9166542805365487 -0.000127988632093828 -0.013647195072449967 -0.16750660960232117 -0.17829260542444822 0.3417779339089041 0.013177652862846933 -0.005363403788705984 300.0 -197.952 400.0 2.4186 -2.4185 2.4185 0.0 64.0 0.0 0.0 0.0 0.0 0.0 1000.0 0.0 0.0 0.0 0.0 
0.072 -0.343814458556297 -1.8648147854604313 -1.6134869243831385 0.3367386705244195 1.9147725201480255 -0.0001279021311613794 -0.011200960825734563 -0.016718410261927868 -0.3271163263735408 0.33466804217119617 0.0077467211886738056 -0.012226124555471944 300.0 -197.408 400.0 2.4186 -2.4185 2.4185 0.0 72.00000000000001 0.0 0.0 0.0 0.0 0.0 1000.0 0.0 0.0 0.0 0.0 
0.08 -0.341706572084834 -1.863104553378095 -1.6157954952070566 0.33733769570288064 1.9126646336937914 -0.00012780591139702676 -0.012964698659877238 0.19903326335826427 -0.39396951642439754 0.18042402726208306 0.002010698382849686 -0.019355753696055567 300.0 -196.8 400.0 2.4186 -2.4185 2.4185 0.0 80.0 0.0 0.0 0.0 0.0 0.0 1000.0 0.0 0.0 0.0 0.0 
0.088 -0.33937097212584333 -1.861217419908498 -1.6183390670979445 0.33799534961897826 1.91032903375386 -0.00012770012812822465 -0.026321679188837026 0.3797477059534383 -0.2884667370981673 -0.11721810702186572 -0.012993682578740574 -0.03459378765957867 300.0 -196.12800000000001 400.0 2.4186 -2.4185 2.4185 0.0 88.0 0.0 0.0 0.0 0.0 0.0 1000.0 0.0 0.0 0.0 0.0 
0.096 -0.33680590086186557 -1.859154324068738 -1.6211152535991724 0.3387086284035028 1.9077639625107787 -0.00012758495449664644 0.0708573885754833 0.4686306002278868 0.011099584043645696 -0.454587862961328 0.06729336536316231 0.033533696704993864 300.0 -195.392 400.0 2.4186 -2.4185 2.4185 0.0 96.0 0.0 0.0 0.0 0.0 0.0 1000.0 0.0 0.0 0.0 0.0 
0.104 -0.334009429209031 -1.856916295722187 -1.6241214478505086 0.33947777807653257 1.904967490880682 -0.000127460581911058 0.018606690286729833 0.18022611607607184 0.3897312511389502 -0.5797207066365111 0.01649126341061999 -0.013021902749100565 300.0 -194.59199999999998 400.0 2.4186 -2.4185 2.4185 0.0 104.00000000000001 0.0 0.0 0.0 0.0 0.0 1000.0 0.0 0.0 0.0 0.0 
0.112 -0.3309794559264798 -1.85450445622684 -1.627354824163697 0.340300123298507 1.9019375176227182 -0.00012732722054992578 0.017716990825516036 -0.2684512442137763 0.5717331908799257 -0.32284922192896826 0.003958152287923216 -0.026097951176058853 300.0 -193.728 400.0 2.4186 -2.4185 2.4185 0.0 112.0 0.0 0.0 0.0 0.0 0.0 1000.0 0.0 0.0 0.0 0.0 
0.12 -0.32771370672300026 -1.8519200192530865 -1.63081233961032 0.3411745095113963 1.8986717684456813 -0.00012718509991561437 0.05387787984275244 -0.6158434973938621 0.3193477368394536 0.24990984277971354 -0.03481974697546886 -0.06213420066135092 300.0 -192.8 400.0 2.4186 -2.4185 2.4185 0.0 120.0 0.0 0.0 0.0 0.0 0.0 1000.0 0.0 0.0 0.0 0.0 
0.128 -0.32420973338239545 -1.8491642917986926 -1.6344907355939906 0.3420976861734595 1.895167795133383 -0.00012703446944221187 -0.03202564102800017 -0.398695758044191 -0.2787381127836843 0.67294963211928 0.03178016999395903 -0.005980875789134055 300.0 -191.808 400.0 2.4186 -2.4185 2.4185 0.0 128.0 0.0 0.0 0.0 0.0 0.0 1000.0 0.0 0.0 0.0 0.0 
0.136 -0.32046491293198187 -1.8462386754308844 -1.6383865393778743 0.34306918678378207 1.891422974713148 -0.00012687559915920959 -0.020741683531070743 0.2034342150545877 -0.6795179207471317 0.4543546972701451 0.007903089304397698 -0.028981173581663074 300.0 -190.752 400.0 2.4186 -2.4185 2.4185 0.0 136.0 0.0 0.0 0.0 0.0 0.0 1000.0 0.0 0.0 0.0 0.0 
0.144 -0.31647644688184373 -1.843144667787479 -1.6424960655377037 0.3440856412644051 1.8874345086950695 -0.00012670878041345435 -0.06983552425453779 0.6337067711214749 -0.3445895028072277 -0.34812975004153696 -0.04652412159807713 -0.07870819243920675 300.0 -189.632 400.0 2.4186 -2.4185 2.4185 0.0 144.00000000000003 0.0 0.0 0.0 0.0 0.0 1000.0 0.0 0.0 0.0 0.0 
0.152 -0.3122413605660117 -1.8398838643711142 -1.646815417309834 0.3451455616460195 1.8831994224131885 -0.00012653432665199018 0.030133444562678035 0.3593066462336385 0.4906767614916897 -0.8614437938167154 0.02838526185780418 -0.015285347226659205 300.0 -188.448 400.0 2.4186 -2.4185 2.4185 0.0 152.0 0.0 0.0 0.0 0.0 0.0 1000.0 0.0 0.0 0.0 0.0 
0.16 -0.3077565026206428 -1.8364579606726814 -1.651340487803512 0.34624596461368307 1.8787145645036714 -0.0001263525742686062 0.02826812762349968 -0.5419037448372476 0.771824970215737 -0.26194502953410903 -0.0005512848184474799 -0.04271190884267399 300.0 -187.2 400.0 2.4186 -2.4185 2.4185 0.0 160.0 0.0 0.0 0.0 0.0 0.0 1000.0 0.0 0.0 0.0 0.0 
0.168 -0.30301854463861044 -1.8328687546621782 -1.6560669610463343 0.3473846265247662 1.8739766065594021 -0.00012616388351711165 -0.09017347982658515 -0.6664474635921188 -0.07132110339248332 0.7619852601492976 0.08760405547263242 0.03229913553977213 300.0 -185.888 400.0 2.4186 -2.4185 2.4185 0.0 168.0 0.0 0.0 0.0 0.0 0.0 1000.0 0.0 0.0 0.0 0.0 
0.176 -0.2980239810446621 -1.8291181496872677 -1.6609903128319374 0.3485584974174347 1.8689820430051425 -0.00012596863949456745 -0.02671179824184007 0.22919403758346127 -0.8763432821076751 0.6196898974075437 0.011234567055511775 -0.036624041454511445 300.0 -184.512 400.0 2.4186 -2.4185 2.4185 0.0 176.0 0.0 0.0 0.0 0.0 0.0 1000.0 0.0 0.0 0.0 0.0 
0.184 -0.29276912924055476 -1.825208157821983 -1.6661058113391929 0.3497655340433592 1.8637271912426598 -0.00012576725319791098 -0.6931995307855153 0.3754570089466665 -0.18313969196151325 -0.6127821304217609 -0.5855108211086908 -0.5607970463404445 300.0 -183.072 400.0 2.4186 -2.4185 2.4185 0.0 184.0 0.0 0.0 0.0 0.0 0.0 1000.0 0.0 0.0 0.0 0.0 
0.192 -0.28725013007534494 -1.82114090371012 -1.6714085174926454 0.3510025264692396 1.858208192121027 -0.00012556016265761964 0.02918715224327921 -0.09410322790898384 0.9422517815018134 -0.8748381973743184 0.01723510356467911 -0.03559744578435227 300.0 -181.56799999999998 400.0 2.4186 -2.4185 2.4185 0.0 192.0 0.0 0.0 0.0 0.0 0.0 1000.0 0.0 0.0 0.0 0.0 
0.2 -0.2814629487023259 -1.8169186289500034 -1.6768932850345926 0.35226668338787626 1.8524210107935486 -0.00012534783415226545 0.27606085598808167 -1.1668959727325143 0.3217063574871384 0.6597765313039298 -0.22233416423833274 -0.24729562737337696 300.0 -180.0 400.0 2.4186 -2.4185 2.4185 0.0 200.0 0.0 0.0 0.0 0.0 0.0 0.0 0.0 0.0 0.0 0.0 
0.208 -0.27552254599838033 -1.8126292863554394 -1.6824442127317043 0.3535302400446505 1.8464806081361926 -0.00012513498099465617 -0.030327903805097187 0.10261505686408702 -0.9637913349520444 0.8329173712117128 0.01725621400252521 -0.037690458279922116 300.0 -178.4 400.0 2.4186 -2.4185 2.4185 0.0 200.0 0.0 0.0 0.0 0.0 0.0 0.0 0.0 0.0 0.0 0.0 
0.216 -0.26954663732997464 -1.8083593518444092 -1.6879489905482932 0.3547665587328164 1.8405046995144958 -0.00012492602420605722 -0.5893440252391735 0.5258268529043902 -0.21475179176715883 -0.674832005079456 -0.49422940541154864 -0.48516264198497966 300.0 -176.8 400.0 2.4186 -2.4185 2.4185 0.0 200.0 0.0 0.0 0.0 0.0 0.0 0.0 0.0 0.0 0.0 0.0 
0.224 -0.2635351940880277 -1.8041089484903732 -1.6934076978163553 0.35597633766155057 1.83449325631938 -0.00012472101404988222 0.030237034241401693 -0.18088734894539402 1.0033888947103553 -0.8517656840098099 0.015723682266360114 -0.03903119064179118 300.0 -175.2 400.0 2.4186 -2.4185 2.4185 0.0 200.0 0.0 0.0 0.0 0.0 0.0 0.0 0.0 0.0 0.0 0.0 
0.232 -0.25748819523366295 -1.7998782075980744 -1.6988204063984917 0.35716014396890294 1.8284462575119709 -0.00012452000141223118 -4.263065957633379 2.0553027299979107 0.07798083749959515 0.2570320846238272 3.7045091029507606 3.1880954474519383 300.0 -173.6 400.0 2.4186 -2.4185 2.4185 0.0 200.0 0.0 0.0 0.0 0.0 0.0 0.0 0.0 0.0 0.0 0.0 
0.24 -0.251405627532332 -1.7956672686925625 -1.7041871808587763 0.35831756644431856 1.8223636898577213 -0.0001243230378047431 -0.03024956397972089 0.210969387037249 -0.9888317431052038 0.7475955830615879 0.014195109203678958 -0.04036845976598321 300.0 -172.0 400.0 2.4186 -2.4185 2.4185 0.0 200.0 0.0 0.0 0.0 0.0 0.0 0.0 0.0 0.0 0.0 0.0 
0.248 -0.24528748579077142 -1.7914762795090888 -1.7095080786294286 0.35944920735384445 1.8162455481633688 -0.00012413017536718715 0.4618622519832638 1.2443157856711728 -0.12820594231359342 -0.8841297590337758 0.41400518688391685 0.30940459686815214 300.0 -170.4 400.0 2.4186 -2.4185 2.4185 0.0 200.0 0.0 0.0 0.0 0.0 0.0 0.0 0.0 0.0 0.0 0.0 
0.256 -0.23913377309664785 -1.787305395983624 -1.7147831501735542 0.36055502974213915 1.8100918355165811 -0.0001239414668697774 0.03036570771786908 -0.29290101821927317 1.0218357306995824 -0.7602083869530367 0.012660031309590107 -0.04171141962908198 300.0 -168.8 400.0 2.4186 -2.4185 2.4185 0.0 200.0 0.0 0.0 0.0 0.0 0.0 0.0 0.0 0.0 0.0 0.0 
0.264 -0.23294450106073405 -1.7831547822437537 -1.7200124391441671 0.3616353018013547 1.8039025635281352 -0.00012375696571519595 -0.24459815088431316 -0.755704431808761 0.07472501329280477 0.7891225990437755 0.22520886485967342 0.14423650751219377 300.0 -167.2 400.0 2.4186 -2.4185 2.4185 0.0 200.0 0.0 0.0 0.0 0.0 0.0 0.0 0.0 0.0 0.0 0.0 
0.272 -0.2267196900614481 -1.779024610599702 -1.7251959825397276 0.36269044882703483 1.7976777525764478 -0.00012357672594030765 -0.030587465810250562 0.3162475166989401 -1.0002196489662523 0.6516803087661479 0.011107805874770105 -0.04306938098431437 300.0 -165.6 400.0 2.4186 -2.4185 2.4185 0.0 200.0 0.0 0.0 0.0 0.0 0.0 0.0 0.0 0.0 0.0 0.0 
0.28 -0.22045936949157863 -1.774915061535237 -1.7303338108564024 0.3637204360983337 1.7914174320543115 -0.00012340080221755136 0.16673375165669968 0.9989025800240503 -0.001685780896992722 -0.933779137343802 0.1570527881616931 0.08461029845522919 300.0 -164.0 400.0 2.4186 -2.4185 2.4185 0.0 200.0 0.0 0.0 0.0 0.0 0.0 0.0 0.0 0.0 0.0 0.0 
0.288 -0.2141635780069946 -1.7708263236982074 -1.7354259482372434 0.36472554422100667 1.7851216406175958 -0.00012322924985598902 0.030918709085227952 -0.40117513045121883 1.0265314377760513 -0.658684821750777 0.009527312276538396 -0.044452072686463846 300.0 -162.4 400.0 2.4186 -2.4185 2.4185 0.0 200.0 0.0 0.0 0.0 0.0 0.0 0.0 0.0 0.0 0.0 0.0 
0.296 -0.20783236377713687 -1.766758593890459 -1.7404724126184978 0.3657060047676355 1.7787904264357435 -0.00012306212480199676 -0.12680090540453745 -0.7983668187843476 -0.040236634769696876 0.878865550710602 0.12172033694372593 0.05369977330641376 300.0 -160.8 400.0 2.4186 -2.4185 2.4185 0.0 200.0 0.0 0.0 0.0 0.0 0.0 0.0 0.0 0.0 0.0 0.0 
0.304 -0.2014657847370671 -1.7627120770568778 -1.7454732158732102 0.3666619548296952 1.772423847443818 -0.00012289948363957928 -0.03136534621748736 0.4169085571500358 -0.9977955758662171 0.5464954489204986 0.007906624599742661 -0.04586992809884165 300.0 -159.2 400.0 2.4186 -2.4185 2.4185 0.0 200.0 0.0 0.0 0.0 0.0 0.0 0.0 0.0 0.0 0.0 0.0 
0.312 -0.1950639088408379 -1.7586869862733037 -1.750428363952314 0.3675936822512196 1.7660219715958752 -0.00012274138359028947 0.1025822408130344 0.9044598919314871 0.118408680214555 -0.9968651438426285 0.09998219464593394 0.034682202460869435 300.0 -157.6 400.0 2.4186 -2.4185 2.4185 0.0 200.0 0.0 0.0 0.0 0.0 0.0 0.0 0.0 0.0 0.0 0.0 
0.32 -0.18862681431592776 -1.7546835427330623 -1.7553378570233777 0.3685014081430098 1.7595848771193927 -0.00012258788251273459 0.0319355873684286 -0.5043445821839883 1.0174164616531807 -0.548561467217182 0.006232634500202932 -0.04733441503045817 300.0 -156.0 400.0 2.4186 -2.4185 2.4185 0.0 200.0 0.0 0.0 0.0 0.0 0.0 0.0 0.0 0.0 0.0 0.0 
0.328 -0.18215458991848532 -1.7507019757318532 -1.7602016896071584 0.3693854413199482 1.7531126527705225 -0.00012243903890164968 -0.0863787077969546 -0.7744813986504611 -0.1567207264527654 0.9474923310403706 0.08517384106519128 0.02172714358464489 300.0 -154.4 400.0 2.4186 -2.4185 2.4185 0.0 200.0 0.0 0.0 0.0 0.0 0.0 0.0 0.0 0.0 0.0 0.0 
0.336 -0.17564733518908615 -1.7467425226507303 -1.7650198507121342 0.3702458710902581 1.7466053980898408 -0.00012229491188651858 -0.032640326591212444 0.5114624363355781 -0.9815878197152947 0.43349314398306354 0.004490597821233657 -0.048858432377662644 300.0 -152.8 400.0 2.4186 -2.4185 2.4185 0.0 200.0 0.0 0.0 0.0 0.0 0.0 0.0 0.0 0.0 0.0 0.0 
0.344 -0.16910516070871617 -1.7428054289369177 -1.7697923239671542 0.371083030133859 1.7400632236583378 -0.00012215556122972313 0.07481616409625078 0.8241489335130407 0.23599222115784432 -1.0509350797948183 0.07437368498835202 0.012278648376519923 300.0 -151.2 400.0 2.4186 -2.4185 2.4185 0.0 200.0 0.0 0.0 0.0 0.0 0.0 0.0 0.0 0.0 0.0 0.0 
0.352 -0.162528188354659 -1.7388909480821924 -1.7745190877523518 0.3718970150854104 1.7334862513532971 -0.00012202104732419914 0.03349367745773056 -0.6011315991208069 0.9946202033971181 -0.4313192436060974 0.0026635697483871554 -0.05045680427790023 300.0 -149.6 400.0 2.4186 -2.4185 2.4185 0.0 200.0 0.0 0.0 0.0 0.0 0.0 0.0 0.0 0.0 0.0 0.0 
0.36 -0.15591655155596262 -1.7349993415985647 -1.7792001153284596 0.3726881690606092 1.726874614603769 -0.0001218914311905793 -0.06618273974989038 -0.7251662572281203 -0.2714999947304393 1.0004445169688978 0.06609868369322382 0.005039279840734027 300.0 -148.0 400.0 2.4186 -2.4185 2.4185 0.0 200.0 0.0 0.0 0.0 0.0 0.0 0.0 0.0 0.0 0.0 0.0 
0.368 -0.14927039554813581 -1.731130878990992 -1.7838353749646514 0.37345658760110734 1.7202284586452645 -0.00012176677447380148 -0.03451371351584498 0.5984778275462773 -0.9518115656876911 0.31423591688396013 0.000731679657906975 -0.05214691450710982 300.0 -146.4 400.0 2.4186 -2.4185 2.4185 0.0 200.0 0.0 0.0 0.0 0.0 0.0 0.0 0.0 0.0 0.0 0.0 
0.376 -0.14258987762671094 -1.727285837726845 -1.7884248300650438 0.37420280954811647 1.7135479407733163 -0.00012164713943916075 0.05951766977479008 0.7418713832774735 0.3501531946493433 -1.0925642380479135 0.059515764073931415 -0.0007197743836525191 300.0 -144.8 400.0 2.4186 -2.4185 2.4185 0.0 200.0 0.0 0.0 0.0 0.0 0.0 0.0 0.0 0.0 0.0 0.0 
0.384 -0.13587516739929573 -1.7234645032018665 -1.7929684392939695 0.3749268075580301 1.7068332305955367 -0.00012153258896778423 0.03572349073487008 -0.6903782624109603 0.9584598629845115 -0.30853096532483515 -0.0013288243830477929 -0.053949542396815355 300.0 -143.2 400.0 2.4186 -2.4185 2.4185 0.0 200.0 0.0 0.0 0.0 0.0 0.0 0.0 0.0 0.0 0.0 0.0 
0.392 -0.12912644703571097 -1.7196671687023342 -1.7974661567001384 0.3756289568692426 1.7000845102817466 -0.00012142318655150544 -0.05424027420132617 -0.6597748571745 -0.3826610533125927 1.0383574811340928 0.05412071142810219 -0.005439625532935025 300.0 -141.6 400.0 2.4186 -2.4185 2.4185 0.0 200.0 0.0 0.0 0.0 0.0 0.0 0.0 0.0 0.0 0.0 0.0 
0.4 -0.12234391151580848 -1.715894135363158 -1.8019179318397966 0.37630936589797837 1.6933019748117992 -0.00012131899628711729 -0.03715246835896749 0.6765825917588631 -0.9088651888597058 0.1903783562503171 -0.0035468647903750066 -0.055889990665428914 300.0 -140.0 400.0 2.4186 -2.4185 2.4185 0.0 200.0 0.0 0.0 0.0 0.0 0.0 0.0 0.0 0.0 0.0 0.0 
0.408 -0.11552776887453442 -1.7121457121216355 -1.806323709898984 0.37696855585211875 1.6864858322206462 -0.0001212200828699801 0.04997910824641613 0.653833679734722 0.45953311690548937 -1.120416856622729 0.049590293466492096 -0.009403052736813331 300.0 -138.4 400.0 2.4186 -2.4185 2.4185 0.0 200.0 0.0 0.0 0.0 0.0 0.0 0.0 0.0 0.0 0.0 0.0 
0.416 -0.10867824044378738 -1.7084222156665767 -1.81068343181499 0.37760651476903684 1.679636303840184 -0.00012112651158696264 0.038838506656273836 -0.7710870591763145 0.9094371113092707 -0.18183603132713397 -0.005958313821579977 -0.057999642086563365 300.0 -136.8 400.0 2.4186 -2.4185 2.4185 0.0 200.0 0.0 0.0 0.0 0.0 0.0 0.0 0.0 0.0 0.0 0.0 
0.424 -0.1017955610906176 -1.704723970382534 -1.8149970343970996 0.3782236079633403 1.672753624537467 -0.00012103834830869325 -0.04648568686020556 -0.5822154388759336 -0.4885674991332926 1.061186093502809 0.045707577278006846 -0.012799839324007373 300.0 -135.2 400.0 2.4186 -2.4185 2.4185 0.0 200.0 0.0 0.0 0.0 0.0 0.0 0.0 0.0 0.0 0.0 0.0 
0.432 -0.09487997945127713 -1.7010513082888439 -1.8192644504467184 0.3788201112102023 1.6658380429487492 -0.00012095565948109809 -0.04083072099500839 0.7444494534263112 -0.8533234968542567 0.0636497270559309 -0.008608506579582703 -0.06031815798544878 300.0 -133.6 400.0 2.4186 -2.4185 2.4185 0.0 200.0 0.0 0.0 0.0 0.0 0.0 0.0 0.0 0.0 0.0 0.0 
0.44 -0.08793175816062915 -1.6974045689732047 -1.8234856088769604 0.3793963036910768 1.6588898217088957 -0.00012087851211620367 0.04358766566929121 0.5592674120013207 0.5627202366823575 -1.1338055890890475 0.04232139170866997 -0.015762237079935595 300.0 -132.0 400.0 2.4186 -2.4185 2.4185 0.0 200.0 0.0 0.0 0.0 0.0 0.0 0.0 0.0 0.0 0.0 0.0 
0.448 -0.08095117407640551 -1.6937840995195135 -1.8276604348317802 0.37995240420310905 1.651909237675641 -0.00012080697378218096 0.04319364085711398 -0.8424796257889607 0.8482330669162957 -0.052911022143444474 -0.011555877218838424 -0.06289665936667387 300.0 -130.4 400.0 2.4186 -2.4185 2.4185 0.0 200.0 0.0 0.0 0.0 0.0 0.0 0.0 0.0 0.0 0.0 0.0 
0.456 -0.07393851849778321 -1.6901902544296843 -1.8317888498047161 0.3804887536215549 1.6448965821481618 -0.00012074111259260798 -0.041161920528080743 -0.4948929143865372 -0.5877216395574317 1.0688298883151373 0.039323008534994514 -0.01838536667612255 300.0 -128.8 400.0 2.4186 -2.4185 2.4185 0.0 200.0 0.0 0.0 0.0 0.0 0.0 0.0 0.0 0.0 0.0 0.0 
0.464 -0.06689409737774099 -1.6866233955391658 -1.8358707717573215 0.38100554174675194 1.6378521610794416 -0.0001206809971949283 -0.046013415471935014 0.8007508239869574 -0.7859273522162381 -0.0641597091298519 -0.014877361299183236 -0.06580245315277494 300.0 -127.19999999999999 400.0 2.4186 -2.4185 2.4185 0.0 200.0 0.0 0.0 0.0 0.0 0.0 0.0 0.0 0.0 0.0 0.0 
0.472 -0.059818231528633525 -1.6830838919258864 -1.8399061152373488 0.38150321063945136 1.630776295281836 -0.000120626696758083 0.03911831512711748 0.45850144242462415 0.6583466856251425 -1.1323978567045379 0.036632070719015634 -0.02073952830848662 300.0 -125.6 400.0 2.4186 -2.4185 2.4185 0.0 200.0 0.0 0.0 0.0 0.0 0.0 0.0 0.0 0.0 0.0 0.0 
0.48 -0.05271125682042155 -1.6795721198123585 -1.843894791496742 0.38198181468422465 1.62366932062531 -0.00012057828095929395 0.0494073346699241 -0.9040983553702022 0.775702669729966 0.07656737766759548 -0.018676663055226663 -0.06912626478853261 300.0 -124.0 400.0 2.4186 -2.4185 2.4185 0.0 200.0 0.0 0.0 0.0 0.0 0.0 0.0 0.0 0.0 0.0 0.0 
0.488 -0.04557352437096718 -1.676088462460667 -1.8478367086094996 0.38244184484396615 1.6165315882277251 -0.0001205358199699762 -0.0373895168910444 -0.39970469664185454 -0.6787435634113201 1.0612952326947616 0.034187751706869315 -0.02287793596751299 300.0 -122.4 400.0 2.4186 -2.4185 2.4185 0.0 200.0 0.0 0.0 0.0 0.0 0.0 0.0 0.0 0.0 0.0 0.0 
0.496 -0.038405400727808514 -1.672633310060079 -1.8517317715894583 0.3828834853768681 1.6093634646366224 -0.00012049938444075824 -0.053538922000902024 0.8440422522329272 -0.7075681625671584 -0.19120204707388205 -0.023097341639687848 -0.07299368671510219 300.0 -120.80000000000001 400.0 2.4186 -2.4185 2.4185 0.0 200.0 0.0 0.0 0.0 0.0 0.0 0.0 0.0 0.0 0.0 0.0 
0.504 -0.03120726804079954 -1.669207059607024 -1.855579882508042 0.383307129148978 1.6021653320018585 -0.00012046904548558905 0.03592438955786301 0.35237298485436325 0.7451306128471478 -1.1161290179025125 0.031943006039508386 -0.024841747280110845 300.0 -119.2 400.0 2.4186 -2.4185 2.4185 0.0 200.0 0.0 0.0 0.0 0.0 0.0 0.0 0.0 0.0 0.0 0.0 
0.512 -0.02397952422500449 -1.6658101147771727 -1.859380940612026 0.3837129766133389 1.5949375882385002 -0.00012044487466491127 0.05864280490595954 -0.9560183029808091 0.6928712944752512 0.20497738444458444 -0.028344355944599272 -0.07758402681428225 300.0 -117.6 400.0 2.4186 -2.4185 2.4185 0.0 200.0 0.0 0.0 0.0 0.0 0.0 0.0 0.0 0.0 0.0 0.0 
0.52 -0.016722583113220724 -1.6624428857893825 -1.8631348424413496 0.3841014529240454 1.5876806471793456 -0.00012042694396788124 -0.03468358222570908 -0.2983654457675443 -0.7603758574285835 1.0387500494013613 0.029860715937804365 -0.026663434662024522 300.0 -116.0 400.0 2.4186 -2.4185 2.4185 0.0 200.0 0.0 0.0 0.0 0.0 0.0 0.0 0.0 0.0 0.0 0.0 
0.528 -0.009436874597498868 -1.6591057892612644 -1.8668414819470163 0.38447275136393966 1.5803949387164498 -0.00012041532579361603 -0.06506763344174235 0.8724562141544634 -0.6192626317772973 -0.31554597844451526 -0.03472122702634646 -0.08316281988264615 300.0 -114.39999999999999 400.0 2.4186 -2.4185 2.4185 0.0 200.0 0.0 0.0 0.0 0.0 0.0 0.0 0.0 0.0 0.0 0.0 
0.536 -0.002122844759019582 -1.6557992480561325 -1.8705007506091111 0.3848272563813451 1.5730809089309943 -0.00012041009293144979 0.03363651241758839 0.24199627032878232 0.8219024961075158 -1.085168869480905 0.027911038358727484 -0.02836910624049376 300.0 -112.8 400.0 2.4186 -2.4185 2.4185 0.0 200.0 0.0 0.0 0.0 0.0 0.0 0.0 0.0 0.0 0.0 0.0 
0.544 0.0052190440143145 -1.6525236911211254 -1.874112537554959 0.38516521069834986 1.5657390202108834 -0.00012041131854018212 0.07335441845878252 -0.9993854728948608 0.6009424510994202 0.3308585293342472 -0.04269785213045464 -0.09014115459716007 300.0 -111.19999999999999 400.0 2.4186 -2.4185 2.4185 0.0 200.0 0.0 0.0 0.0 0.0 0.0 0.0 0.0 0.0 0.0 0.0 
0.552 0.01258831292321716 -1.6492795533162725 -1.8776767296774506 0.3854870562787045 1.5583697513554062 -0.00012041907612630171 -0.03275926013217815 -0.192526929819921 -0.8314949880941345 1.0015439190133424 0.02606953321744161 -0.02998014337545608 300.0 -109.6 400.0 2.4186 -2.4185 2.4185 0.0 200.0 0.0 0.0 0.0 0.0 0.0 0.0 0.0 0.0 0.0 0.0 
0.56 0.01998446666593945 -1.646067275234317 -1.8811932117535517 0.38579300584842446 1.5509735976663153 -0.00012043343952117059 -0.08438981579683025 0.8827868629239245 -0.5221010924756941 -0.43505605835875594 -0.053043178794574875 -0.09919174319208286 300.0 -107.99999999999999 400.0 2.4186 -2.4185 2.4185 0.0 200.0 0.0 0.0 0.0 0.0 0.0 0.0 0.0 0.0 0.0 0.0 
0.568 0.027406993361419385 -1.6428873030110906 -1.884661866563013 0.3860834634515373 1.5435510710246734 -0.0001204544828571548 0.032033073257845816 0.1286509977274174 0.8876249556657408 -1.0399042682352557 0.024315811893328793 -0.031514383011381396 300.0 -106.39999999999999 400.0 2.4186 -2.4185 2.4185 0.0 200.0 0.0 0.0 0.0 0.0 0.0 0.0 0.0 0.0 0.0 0.0 
0.576 0.03485536448730375 -1.6397400881262822 -1.888082575007283 0.3863587453201103 1.5361026999528358 -0.00012048228054268894 0.09973385837566001 -1.0381537154473006 0.5013518194838509 0.45320553038058775 -0.0671088529018416 -0.11149707039809961 300.0 -104.79999999999998 400.0 2.4186 -2.4185 2.4185 0.0 200.0 0.0 0.0 0.0 0.0 0.0 0.0 0.0 0.0 0.0 0.0 
0.584 0.04232903483348727 -1.6366260871944178 -1.8914552162286387 0.38661913127596415 1.5286290296609117 -0.00012051690723626353 -0.031443293639873166 -0.08382223344411396 -0.8911239338165553 0.9502137456170866 0.022632539000898358 -0.03298699097602019 300.0 -103.2 400.0 2.4186 -2.4185 2.4185 0.0 200.0 0.0 0.0 0.0 0.0 0.0 0.0 0.0 0.0 0.0 0.0 
0.592 0.04982744247180926 -1.633545761745921 -1.8947796677295305 0.38686500785153144 1.521130622077062 -0.00012055843781932564 -0.12240795378084884 0.8669765527126472 -0.41708967155556154 -0.5468657299060731 -0.08751120086007279 -0.1293460242045396 300.0 -101.60000000000001 400.0 2.4186 -2.4185 2.4185 0.0 200.0 0.0 0.0 0.0 0.0 0.0 0.0 0.0 0.0 0.0 0.0 
0.6 0.057350008742523606 -1.6304995779981188 -1.8980558054921413 0.38709675554425194 1.5136080558610374 -0.00012060694736808494 0.03097857976549686 0.013717460560591033 0.9414088003139065 -0.9809264433396565 0.021004677598230857 -0.034411122308305245 300.0 -100.0 400.0 2.4186 -2.4185 2.4185 0.0 200.0 0.0 0.0 0.0 0.0 0.0 0.0 0.0 0.0 0.0 0.0 
0.608 0.06489613825817497 -1.6274880066160753 -1.901283504098146 0.3873146338248492 1.5060619264002937 -0.00012066251112421898 0.15912769907899818 -1.0871576737224835 0.39607432211450555 0.5727524385864077 -0.12006362326987587 -0.15782444664247688 300.0 -98.4 400.0 2.4186 -2.4185 2.4185 0.0 200.0 0.0 0.0 0.0 0.0 0.0 0.0 0.0 0.0 0.0 0.0 
0.616 0.07246521892547375 -1.6245115224631679 -1.9044626368486783 0.38751905218574834 1.498492845788124 -0.00012072520446447377 -0.03063034402895067 0.026121932888548957 -0.9384441124849612 0.8854818426970473 0.019418903685159413 -0.035798433483460956 300.0 -96.8 400.0 2.4186 -2.4185 2.4185 0.0 200.0 0.0 0.0 0.0 0.0 0.0 0.0 0.0 0.0 0.0 0.0 
0.624 0.08005662198576591 -1.6215706043413283 -1.907593075884468 0.3877103151084116 1.4909014427831844 -0.00012079510286915757 -0.2284311766215925 0.7900101983574557 -0.3042436723860591 -0.6439435193695618 -0.18081121297525876 -0.21096935548942658 300.0 -95.2 400.0 2.4186 -2.4185 2.4185 0.0 200.0 0.0 0.0 0.0 0.0 0.0 0.0 0.0 0.0 0.0 0.0 
0.632 0.08766970207466884 -1.6186657347209 -1.9106746923061455 0.3878888422868585 1.483288362749859 -0.00012087228188952772 0.03039234974939495 -0.10136809241587826 0.9825261852096114 -0.9090189005344685 0.017863138515988822 -0.037159491568297294 300.0 -93.6 400.0 2.4186 -2.4185 2.4185 0.0 200.0 0.0 0.0 0.0 0.0 0.0 0.0 0.0 0.0 0.0 0.0 
0.64 0.09530379730141991 -1.6157973994600785 -1.9137073562946845 0.3880549118643062 1.4756542675789144 -0.0001209568171140729 0.4071360524412788 -1.2562616493914613 0.290987519682582 0.7051489779217033 -0.3362369120277764 -0.34694322126220384 300.0 -92.0 400.0 2.4186 -2.4185 2.4185 0.0 200.0 0.0 0.0 0.0 0.0 0.0 0.0 0.0 0.0 0.0 0.0 
0.648 0.10295822934847632 -1.6129660875139322 -1.9166909372319627 0.38820895757567264 1.4679998355878938 -0.00012104878413369614 -0.030260431289426768 0.13568760521143924 -0.9728057430567847 0.8082491831589229 0.016326161818643378 -0.03850411259567395 300.0 -90.39999999999999 400.0 2.4186 -2.4185 2.4185 0.0 200.0 0.0 0.0 0.0 0.0 0.0 0.0 0.0 0.0 0.0 0.0 
0.656 0.11063230359185638 -1.6101722906330198 -1.9196253038213982 0.38835126951344945 1.460325761400783 -0.00012114825850580475 -1.900057126658477 -0.4061863216927888 -0.14253196925957365 -0.5593967357792241 -1.6290451508953714 -1.477953955094098 300.0 -88.8 400.0 2.4186 -2.4185 2.4185 0.0 200.0 0.0 0.0 0.0 0.0 0.0 0.0 0.0 0.0 0.0 0.0 
0.664 0.11832530924270968 -1.6074165030516592 -1.9225103242086383 0.3884822613817376 1.4526327558064327 -0.00012125531571731811 0.03023231321503896 -0.2151486521197088 1.0104211602768784 -0.8251443012052243 0.01479727835614347 -0.039841653272534215 300.0 -87.19999999999999 400.0 2.4186 -2.4185 2.4185 0.0 200.0 0.0 0.0 0.0 0.0 0.0 0.0 0.0 0.0 0.0 0.0 
0.672 0.1260365195105484 -1.604699221165904 -1.9253458661022596 0.38860226543387566 1.4449215455953366 -0.00012137003114660508 -0.7115531520251679 -0.44672248946990395 0.14345472708418308 0.677187708445325 0.6304004860468921 0.4987175968521782 300.0 -85.6 400.0 2.4186 -2.4185 2.4185 0.0 200.0 0.0 0.0 0.0 0.0 0.0 0.0 0.0 0.0 0.0 0.0 
0.68 0.1337651917885614 -1.6020209432013413 -1.9281317968944327 0.38871167385113536 1.4371928733743045 -0.00012149248002436704 -0.03030751360323228 0.2432748899892783 -0.9937361905560962 0.7195851088373201 0.013266016098369124 -0.041181275033740986 300.0 -83.99999999999999 400.0 2.4186 -2.4185 2.4185 0.0 200.0 0.0 0.0 0.0 0.0 0.0 0.0 0.0 0.0 0.0 0.0 
0.688 0.14151056786137017 -1.599382168870838 -1.9308679837815128 0.38881082334220274 1.4294474973587188 -0.00012162273739348463 0.3000966507953343 1.1201638839552643 -0.08791556401983039 -0.8924022474747516 0.2735417059675008 0.18652039807389612 300.0 -82.39999999999999 400.0 2.4186 -2.4185 2.4185 0.0 200.0 0.0 0.0 0.0 0.0 0.0 0.0 0.0 0.0 0.0 0.0 
0.696 0.1492718741355734 -1.5967833990223912 -1.9335542938845003 0.38890011241435496 1.4216861911419834 -0.00012176087806784952 0.030487323753967056 -0.32617708761890624 1.0247176811436298 -0.7304296560709993 0.011721837593967622 -0.042532196547793506 300.0 -80.79999999999998 400.0 2.4186 -2.4185 2.4185 0.0 200.0 0.0 0.0 0.0 0.0 0.0 0.0 0.0 0.0 0.0 0.0 
0.704 0.15704832189336382 -1.5942251352772718 -1.9361905943693252 0.38897990432497576 1.4139097434419075 -0.00012190697659020583 -0.19055681695317442 -0.782883705770797 0.04042687753985976 0.8196169689970578 0.17797347885732098 0.10291272338149517 300.0 -79.2 400.0 2.4186 -2.4185 2.4185 0.0 200.0 0.0 0.0 0.0 0.0 0.0 0.0 0.0 0.0 0.0 0.0 
0.712 0.16483910756946685 -1.591707879658696 -1.9387767525668926 0.38905052553950625 1.4061189578237678 -0.00012206110718902906 -0.030774862701757034 0.3473142249192251 -1.0009460244833501 0.6207142474911589 0.01015384748821111 -0.04390394959425165 300.0 -77.6 400.0 2.4186 -2.4185 2.4185 0.0 200.0 0.0 0.0 0.0 0.0 0.0 0.0 0.0 0.0 0.0 0.0 
0.72 0.1726434130515988 -1.5892321342112625 -1.9413126360928343 0.38911241359943816 1.3983146523998502 -0.00012222334373447307 0.13995017213361752 0.9663561283258962 0.0349824041453051 -0.9534119966378966 0.13340520460590655 0.06392225669722765 300.0 -76.0 400.0 2.4186 -2.4185 2.4185 0.0 200.0 0.0 0.0 0.0 0.0 0.0 0.0 0.0 0.0 0.0 0.0 
0.728 0.18046040600459512 -1.5867984006114553 -1.9437981129668993 0.38916587381311984 1.3904976595053218 -0.00012239375969341957 0.031175210854358454 -0.43304476649373824 1.0252250922328767 -0.6261495732024521 0.00855047873866127 -0.045306653577341906 300.0 -74.39999999999999 400.0 2.4186 -2.4185 2.4185 0.0 200.0 0.0 0.0 0.0 0.0 0.0 0.0 0.0 0.0 0.0 0.0 
0.736 0.18828924021830407 -1.584407179769533 -1.946233051731921 0.38921132144173676 1.3826688253503367 -0.00012257242808366847 -0.11088130492360268 -0.7949426418174846 -0.07558321645551451 0.9014419280710306 0.10747179279621913 0.04123446260695258 300.0 -72.8 400.0 2.4186 -2.4185 2.4185 0.0 200.0 0.0 0.0 0.0 0.0 0.0 0.0 0.0 0.0 0.0 0.0 
0.744 0.1961290559792881 -1.582058971423151 -1.9486173215722893 0.3892491116519514 1.3748290096483347 -0.0001227594214273085 -0.03169563357751176 0.44627901219917504 -0.9943326117054402 0.5130011903713405 0.006899137874272515 -0.04675132587033014 300.0 -71.19999999999999 400.0 2.4186 -2.4185 2.4185 0.0 200.0 0.0 0.0 0.0 0.0 0.0 0.0 0.0 0.0 0.0 0.0 
0.752 0.2039789804663159 -1.5797542737231205 -1.950950792431855 0.3892796019763818 1.3669790852205488 -0.00012295481170331515 0.09207130003436485 0.8798266467863205 0.15433654298460908 -1.0144380724253377 0.0904105566202122 0.02630847384282854 300.0 -69.6 400.0 2.4186 -2.4185 2.4185 0.0 200.0 0.0 0.0 0.0 0.0 0.0 0.0 0.0 0.0 0.0 0.0 
0.76 0.21183812816957115 -1.5774935828117194 -1.953233335131193 0.3893031827501048 1.3591199375767982 -0.0001231586702994213 0.032345913469186534 -0.5344098798747651 1.0119410921954417 -0.5137074583998555 0.005185785269948973 -0.0482502490114962 300.0 -67.99999999999999 400.0 2.4186 -2.4185 2.4185 0.0 200.0 0.0 0.0 0.0 0.0 0.0 0.0 0.0 0.0 0.0 0.0 
0.768 0.21970560133344086 -1.575277392394018 -1.9554648214841448 0.3893201837197644 1.3512524644726982 -0.00012337106796331417 -0.07894777531520804 -0.761597975554198 -0.19178600334290935 0.965141109210196 0.07826291242400504 0.015681131315435977 300.0 -66.39999999999999 400.0 2.4186 -2.4185 2.4185 0.0 200.0 0.0 0.0 0.0 0.0 0.0 0.0 0.0 0.0 0.0 0.0 
0.776 0.22758049042268502 -1.573106193302714 -1.9576451244135622 0.3893310148123048 1.343377575443491 -0.00012359207475321293 -0.03313882058226276 0.5386963975696419 -0.9739811122780377 0.39793346038184113 0.003394419137135175 -0.04981742213394626 300.0 -64.79999999999998 400.0 2.4186 -2.4185 2.4185 0.0 200.0 0.0 0.0 0.0 0.0 0.0 0.0 0.0 0.0 0.0 0.0 
0.784 0.2354618746117203 -1.570980473057011 -1.9597741180661625 0.3893359907945011 1.3354961913147605 -0.00012382175998788461 0.06930556306575193 0.7996912341492172 0.2710145530673727 -1.0649464632512142 0.06911891944653735 0.0076815271230476516 300.0 -63.19999999999999 400.0 2.4186 -2.4185 2.4185 0.0 200.0 0.0 0.0 0.0 0.0 0.0 0.0 0.0 0.0 0.0 0.0 
0.792 0.24334882229669064 -1.5689007154160877 -1.9618516779264221 0.38933548093644754 1.3276092436903661 -0.00012406019219616166 0.03409076465981327 -0.629027298482045 0.985052230187675 -0.39461457831542557 0.0015064204781549417 -0.05146913403101566 300.0 -61.59999999999998 400.0 2.4186 -2.4185 2.4185 0.0 200.0 0.0 0.0 0.0 0.0 0.0 0.0 0.0 0.0 0.0 0.0 
0.8 0.25124039162992573 -1.56686739992778 -1.963877680929408 0.38932988647001965 1.3197176744179813 -0.00012430743906602552 -0.061950567958692006 -0.7068164619128559 -0.3056525942115816 1.0135218825569376 0.06194359935546849 0.0014042125162137882 300.0 -59.999999999999986 400.0 2.4186 -2.4185 2.4185 0.0 200.0 0.0 0.0 0.0 0.0 0.0 0.0 0.0 0.0 0.0 0.0 
0.808 0.25913563107632376 -1.5648810014730774 -1.9658520055724675 0.3893195007754684 1.3118224350327083 -0.0001245635673933248 -0.03522269519864682 0.6231534351910735 -0.9401627596022313 0.2771034114659126 -0.0005003015515454294 -0.053224710834421575 300.0 -58.39999999999998 400.0 2.4186 -2.4185 2.4185 0.0 200.0 0.0 0.0 0.0 0.0 0.0 0.0 0.0 0.0 0.0 0.0 
0.816 0.26703357999111876 -1.5629419898071177 -1.9677745320256816 0.38930470503652903 1.3039244861793158 -0.00012482864303020008 0.056180100916658426 0.7158634771870404 0.38387539742943916 -1.1025012037741608 0.0561271801678319 -0.003684270319759493 300.0 -56.79999999999998 400.0 2.4186 -2.4185 2.4185 0.0 200.0 0.0 0.0 0.0 0.0 0.0 0.0 0.0 0.0 0.0 0.0 
0.824 0.27493326921843697 -1.5610508290973646 -1.9696451422409864 0.3892858283320566 1.2960247970136791 -0.00012510273083329035 0.03656134819270517 -0.7157828781479745 0.9449320598882942 -0.27046675183919433 -0.002652452246491124 -0.055107515618323194 300.0 -55.199999999999974 400.0 2.4186 -2.4185 2.4185 0.0 200.0 0.0 0.0 0.0 0.0 0.0 0.0 0.0 0.0 0.0 0.0 
0.832 0.28283372170996324 -1.5592079774596854 -1.9714637200598744 0.3892632488064578 1.2881243445841155 -0.00012538589461179818 -0.05155386979717605 -0.6374261709915845 -0.4153865402442422 1.0468754953735826 0.05128688689263295 -0.007918791329572515 300.0 -53.59999999999998 400.0 2.4186 -2.4185 2.4185 0.0 200.0 0.0 0.0 0.0 0.0 0.0 0.0 0.0 0.0 0.0 0.0 
0.84 0.29073395316298023 -1.5574138864930918 -1.9732301513195787 0.3892372619013815 1.2802241131933456 -0.0001256781970754953 -0.03814099006020242 0.6982940753867114 -0.8933302683355571 0.15219000611120925 -0.004982914404511206 -0.05714631583344133 300.0 -52.000000000000014 400.0 2.4186 -2.4185 2.4185 0.0 200.0 0.0 0.0 0.0 0.0 0.0 0.0 0.0 0.0 0.0 0.0 
0.848 0.298632972676971 -1.555669000813909 -1.9749443239576405 0.3892082203546905 1.2723250937418857 -0.00012597969978275138 0.04778213940448292 0.6258594615698089 0.49152652399646485 -1.126023497024922 0.047170134443627755 -0.01152032407694438 300.0 -50.400000000000006 400.0 2.4186 -2.4185 2.4185 0.0 200.0 0.0 0.0 0.0 0.0 0.0 0.0 0.0 0.0 0.0 0.0 
0.856 0.30652978342790127 -1.553973757590192 -1.9766061281147673 0.38917645489153174 1.2644282830537743 -0.00012629046308867167 0.04000589231941251 -0.7937380454016165 0.8921372295570615 -0.14291800287542517 -0.007532935745542781 -0.059377196966078113 300.0 -48.80000000000001 400.0 2.4186 -2.4185 2.4185 0.0 200.0 0.0 0.0 0.0 0.0 0.0 0.0 0.0 0.0 0.0 0.0 
0.864 0.31442338335925135 -1.5523285860771971 -1.978215456235882 0.389142270089049 1.256534683185532 -0.00012661054609343234 -0.044666619993816055 -0.5566870176671439 -0.5193991389704482 1.065109090888449 0.043603352396580405 -0.014640716304629178 300.0 -47.20000000000002 400.0 2.4186 -2.4185 2.4185 0.0 200.0 0.0 0.0 0.0 0.0 0.0 0.0 0.0 0.0 0.0 0.0 
0.872 0.32231276588877655 -1.550733907154777 -1.9797722031692646 0.3891059877451657 1.2486453007194043 -0.00012694000659090317 -0.042213908107536176 0.7627978474083519 -0.83411006412352 0.024942152695379277 -0.01035526328325553 -0.06184630463694082 300.0 -45.60000000000002 400.0 2.4186 -2.4185 2.4185 0.0 200.0 0.0 0.0 0.0 0.0 0.0 0.0 0.0 0.0 0.0 0.0 
0.88 0.33019692062993466 -1.549190132867546 -1.9812762662636938 0.3890679488553115 1.2407611460419374 -0.00012727890101764999 0.042067197616494544 0.5293494074066984 0.5925631926541253 -1.1349493997168079 0.040463172256088566 -0.01738789669711579 300.0 -44.0 400.0 2.4186 -2.4185 2.4185 0.0 200.0 0.0 0.0 0.0 0.0 0.0 0.0 0.0 0.0 0.0 0.0 
0.888 0.33807483412684647 -1.547697665968716 -1.9827275454634807 0.3890283971618773 1.2328832326090098 -0.0001276272844024106 0.04484175669917197 -0.862197818075739 0.8274021145899624 -0.013649382149871908 -0.013518750395631189 -0.06461387508773696 300.0 -42.400000000000006 400.0 2.4186 -2.4185 2.4185 0.0 200.0 0.0 0.0 0.0 0.0 0.0 0.0 0.0 0.0 0.0 0.0 
0.896 0.3459454906016002 -1.5462568994684918 -1.9841259434013094 0.388987669415261 1.225012576198537 -0.00012798521031613918 -0.03988222458650926 -0.4667920856334355 -0.616228767168111 1.0681449444269626 0.03765934761875372 -0.019840817142135262 300.0 -40.80000000000001 400.0 2.4186 -2.4185 2.4185 0.0 200.0 0.0 0.0 0.0 0.0 0.0 0.0 0.0 0.0 0.0 0.0 
0.904 0.3538078727126588 -1.5448682161879357 -1.9854713654887748 0.38894605920577163 1.2171501941520568 -0.00012835273082271545 -0.04799303842678786 0.815319249727615 -0.7632905858350801 -0.10283284387909315 -0.017115322363335687 -0.06776032896865877 300.0 -39.20000000000002 400.0 2.4186 -2.4185 2.4185 0.0 200.0 0.0 0.0 0.0 0.0 0.0 0.0 0.0 0.0 0.0 0.0 
0.912 0.3616609623230722 -1.5435319883192222 -1.986763720004533 0.3889038064617589 1.20929710460652 -0.00012872989643041537 0.038036335749619586 0.42685401507918597 0.6856402003941214 -1.1290330099126702 0.035124184324516174 -0.022058699741886362 300.0 -37.599999999999994 400.0 2.4186 -2.4185 2.4185 0.0 200.0 0.0 0.0 0.0 0.0 0.0 0.0 0.0 0.0 0.0 0.0 
0.92 0.36950374127715047 -1.5422485769931997 -1.988002918179964 0.38886122433504267 1.2014543257176196 -0.0001291167560442408 0.05181076974231978 -0.920835259088354 0.7516334292859658 0.11567192042401676 -0.021270850063345535 -0.07139578416777144 300.0 -36.0 400.0 2.4186 -2.4185 2.4185 0.0 200.0 0.0 0.0 0.0 0.0 0.0 0.0 0.0 0.0 0.0 0.0 
0.928 0.3773351921842161 -1.5410183318551933 -1.9891888742822488 0.38881854597002485 1.193622874876033 -0.0001295133569192062 -0.03647264236759292 -0.36956270995590235 -0.7045316641901439 1.0560348558913124 0.032805755371949484 -0.024086972730985187 300.0 -34.400000000000006 400.0 2.4186 -2.4185 2.4185 0.0 200.0 0.0 0.0 0.0 0.0 0.0 0.0 0.0 0.0 0.0 0.0 
0.936 0.38515429920799793 -1.5398415906499636 -1.9903215056947772 0.38877604965147916 1.1858037679180344 -0.00012991974461467871 -0.056497709833477947 0.8543327314234789 -0.6818045712508538 -0.22926681551314418 -0.026162763680320833 -0.07567546513161166 300.0 -32.80000000000001 400.0 2.4186 -2.4185 2.4185 0.0 200.0 0.0 0.0 0.0 0.0 0.0 0.0 0.0 0.0 0.0 0.0 
0.944 0.3929600488602134 -1.5387186788167497 -1.9914007329947916 0.38873398572543394 1.1779980183319059 -0.00013033596294986994 0.03514757636967639 0.3193110811091902 0.7695073503577409 -1.1082831785741458 0.030663404983509127 -0.025961203736101147 300.0 -31.19999999999999 400.0 2.4186 -2.4185 2.4185 0.0 200.0 0.0 0.0 0.0 0.0 0.0 0.0 0.0 0.0 0.0 0.0 
0.952 0.4007514307968336 -1.5376499090953069 -1.9924264800281748 0.3886925662304672 1.1702066364616797 -0.00013076205396057392 0.06235077052714774 -0.9699665059323284 0.6659087433093749 0.24345759771288122 -0.03204985211555911 -0.0808257728192424 300.0 -29.599999999999994 400.0 2.4186 -2.4185 2.4185 0.0 200.0 0.0 0.0 0.0 0.0 0.0 0.0 0.0 0.0 0.0 0.0 
0.96 0.40852743861552376 -1.5366355811438364 -1.993398673981304 0.3886520344322124 1.1624306287096897 -0.00013119805785724762 -0.03402739585467293 -0.2666866440076338 -0.7830896772275735 1.0290005564630866 0.028664684847136163 -0.027709780098937344 300.0 -28.0 400.0 2.4186 -2.4185 2.4185 0.0 200.0 0.0 0.0 0.0 0.0 0.0 0.0 0.0 0.0 0.0 0.0 
0.968 0.4162870706527022 -1.5356759811697092 -1.9943172454498765 0.38861259631563105 1.1546709967395212 -0.00013164401298452588 -0.06982236724309063 0.8777137277402959 -0.5906986685471978 -0.35238744832380875 -0.03932537623731721 -0.08719075072437162 300.0 -26.400000000000006 400.0 2.4186 -2.4185 2.4185 0.0 200.0 0.0 0.0 0.0 0.0 0.0 0.0 0.0 0.0 0.0 0.0 
0.976 0.42402933077867644 -1.5347713815738349 -1.9951821285046372 0.38857446531545414 1.1469287366808663 -0.00013209995578226377 0.03308576418476197 0.20789383149572302 0.8430332801741559 -1.0729369877459183 0.026783212781811734 -0.029355782218440162 300.0 -24.799999999999983 400.0 2.4186 -2.4185 2.4185 0.0 200.0 0.0 0.0 0.0 0.0 0.0 0.0 0.0 0.0 0.0 0.0 
0.984 0.43175322918927406 -1.5339220406095433 -1.995993260753918 0.3885378429990505 1.1392048383378972 -0.0001325659207481936 0.07963699944992375 -1.011296796787883 0.5714919523865252 0.36833717185360304 -0.04861797848720223 -0.09532036544515678 300.0 -23.19999999999999 400.0 2.4186 -2.4185 2.4185 0.0 200.0 0.0 0.0 0.0 0.0 0.0 0.0 0.0 0.0 0.0 0.0 
0.992 0.43945778319240825 -1.5331282020567938 -1.9967505834029224 0.3885029164323617 1.131500284402705 -0.0001330419404022846 -0.032302042245179144 -0.15980728973891645 -0.8508223538949758 0.9874482316682224 0.024997140453598042 -0.03091832406639376 300.0 -21.599999999999994 400.0 2.4186 -2.4185 2.4185 0.0 200.0 0.0 0.0 0.0 0.0 0.0 0.0 0.0 0.0 0.0 0.0 
1.0 0.447142017988003 -1.5323900949125067 -1.997454041309683 0.38846982664239427 1.123816049675364 -0.00013352804525288846 -0.09303128918598423 0.8814081476431584 -0.49106452924182353 -0.46993264369937887 -0.06099943734248779 -0.10615226026514342 300.0 -20.0 400.0 2.4186 -2.4185 2.4185 0.0 200.0 0.0 0.0 0.0 0.0 0.0 0.0 0.0 0.0 0.0 0.0 
1.008 0.45480496743971144 -1.531707933097796 -1.9981035830376144 0.3884387770015687 1.1161531002922234 -0.0001340242637647501 0.03166006666462031 0.09391806580218524 0.9052239720268236 -1.0234445030718105 0.02328803170630333 -0.03241353447762188 300.0 -18.399999999999977 400.0 2.4186 -2.4185 2.4185 0.0 200.0 0.0 0.0 0.0 0.0 0.0 0.0 0.0 0.0 0.0 0.0 
1.016 0.4624456748368815 -1.531081915182817 -1.9986991609046065 0.38840990504741524 1.1085123929639342 -0.00013453062232896172 0.11230268097019572 -1.0505570447052484 0.4699229569614484 0.4895924751651917 -0.07845955052324306 -0.12142720578889056 300.0 -16.799999999999983 400.0 2.4186 -2.4185 2.4185 0.0 200.0 0.0 0.0 0.0 0.0 0.0 0.0 0.0 0.0 0.0 0.0 
1.024 0.47006319364523375 -1.5305122241299371 -1.9992407310285933 0.3883833334604525 1.1008948742247788 -0.00013504714523493132 -0.03114726739928764 -0.05055538736498782 -0.9067994949571059 0.9319714406528916 0.021640022371092697 -0.03385529218889006 300.0 -15.199999999999989 400.0 2.4186 -2.4185 2.4185 0.0 200.0 0.0 0.0 0.0 0.0 0.0 0.0 0.0 0.0 0.0 0.0 
1.032 0.4776565882447459 -1.5299990270558725 -1.9997282533695402 0.3883592101057032 1.0933014796947793 -0.00013557385464443527 -0.1422561359256559 0.8537172827309626 -0.383792001730777 -0.5784792899686424 -0.1051581833773156 -0.14478445199815257 300.0 -13.599999999999994 400.0 2.4186 -2.4185 2.4185 0.0 200.0 0.0 0.0 0.0 0.0 0.0 0.0 0.0 0.0 0.0 0.0 
1.04 0.48522493465326333 -1.5295424750134092 -2.000161691767794 0.3883376426303715 1.0857331333560911 -0.0001361107705678176 0.030754028297664236 -0.021214817050336367 0.9552378703944757 -0.9604565363780302 0.02003917527665036 -0.03525579010699105 300.0 -11.999999999999972 400.0 2.4186 -2.4185 2.4185 0.0 200.0 0.0 0.0 0.0 0.0 0.0 0.0 0.0 0.0 0.0 0.0 
1.048 0.4927673212343955 -1.5291427027932645 -2.000541013978754 0.38831873277303885 1.078190746845105 -0.00013665791084239575 0.1949064476052788 -1.1119699081322958 0.36358124606531494 0.6094410868905326 -0.15149488380647474 -0.18532202283049568 300.0 -10.399999999999977 400.0 2.4186 -2.4185 2.4185 0.0 200.0 0.0 0.0 0.0 0.0 0.0 0.0 0.0 0.0 0.0 0.0 
1.056 0.5002828493882985 -1.5287998287466031 -2.0008661917038117 0.38830257483695085 1.0706752187616648 -0.00013721529111312644 -0.0304732264348459 0.05944433040691319 -0.9502526722650556 0.8633475408299663 0.018472971237910262 -0.036625980616248256 300.0 -8.799999999999983 400.0 2.4186 -2.4185 2.4185 0.0 200.0 0.0 0.0 0.0 0.0 0.0 0.0 0.0 0.0 0.0 0.0 
1.064 0.5077706342239856 -1.5285139546286848 -2.001137200617528 0.38828924142903487 1.063187433996759 -0.00013778292481557978 -0.31111344906035876 0.7283764589640489 -0.267664688359066 -0.6661299212028656 -0.25283301305328126 -0.2739774850086885 300.0 -7.199999999999989 400.0 2.4186 -2.4185 2.4185 0.0 200.0 0.0 0.0 0.0 0.0 0.0 0.0 0.0 0.0 0.0 0.0 
1.072 0.5152298052118696 -1.5282851654640326 -2.001354020391 0.388278783369834 1.055728263079974 -0.000138360823161265 0.030299907227496436 -0.13605883339814143 0.9923982333495562 -0.8848123493595922 0.01692989412899108 -0.037975938576638876 300.0 -5.599999999999966 400.0 2.4186 -2.4185 2.4185 0.0 200.0 0.0 0.0 0.0 0.0 0.0 0.0 0.0 0.0 0.0 0.0 
1.08 0.5226595068152802 -1.5281135294334955 -2.0015166347114097 0.3882712872485121 1.0482985615479814 -0.00013894899512534455 0.777064505698499 -1.5131808171576344 0.26671701048716173 0.7760368507303428 -0.6568538357563537 -0.627434303607728 300.0 -3.9999999999999716 400.0 2.4186 -2.4185 2.4185 0.0 200.0 0.0 0.0 0.0 0.0 0.0 0.0 0.0 0.0 0.0 0.0 
1.088 0.5300588990997834 -1.527999097783498 -2.0016250312976984 0.3882667649111218 1.0408991693352148 -0.0001395474474367681 -0.030231066818454028 0.16857819785387534 -0.9805850158250904 0.7825297633570663 0.01539907929107166 -0.03931516891346945 300.0 -2.3999999999999773 400.0 2.4186 -2.4185 2.4185 0.0 200.0 0.0 0.0 0.0 0.0 0.0 0.0 0.0 0.0 0.0 0.0 
1.096 0.537427158319173 -1.5279419047577139 -2.0016792019123764 0.388265250571608 1.03353091018788 -0.00014015618457085177 1.5507204706342945 2.024679488978396 -0.20526158528634733 -0.9689293524962709 1.3569561175584974 1.134343355770161 300.0 -0.799999999999983 400.0 2.4186 -2.4185 2.4185 0.0 200.0 0.0 0.0 0.0 0.0 0.0 0.0 0.0 0.0 0.0 0.0 
1.104 0.5447634774770844 -1.5279419675513535 -2.001679142369433 0.38826676179090436 1.026194591102342 -0.00014077520874432043 0.030265523534681017 -0.24915686269722623 1.0162029088657156 -0.7975260665512947 0.013870001589399137 -0.040652879520086144 300.0 0.8000000000000398 400.0 2.4186 -2.4185 2.4185 0.0 200.0 0.0 0.0 0.0 0.0 0.0 0.0 0.0 0.0 0.0 0.0 
1.112 0.5520670668632588 -1.5279992862881788 -2.0016248525383435 0.38827128780576725 1.0188910017888608 -0.00014140451991282785 -0.3884372674072746 -0.6666610676803895 0.1170629366489383 0.7397903924014646 0.350297301453631 0.2536698791543326 300.0 2.400000000000034 400.0 2.4186 -2.4185 2.4185 0.0 200.0 0.0 0.0 0.0 0.0 0.0 0.0 0.0 0.0 0.0 0.0 
1.12 0.5593371545635477 -1.5281138440203146 -2.0015163363441713 0.3882788327721365 1.0116209141615835 -0.00014204411577095895 -0.030403868029385127 0.27525415921850865 -0.9973788889628191 0.69063601062615 0.01233218365768373 -0.041998236499689506 300.0 4.000000000000028 400.0 2.4186 -2.4185 2.4185 0.0 200.0 0.0 0.0 0.0 0.0 0.0 0.0 0.0 0.0 0.0 0.0 
1.128 0.5665729869428395 -1.5282856067508523 -2.0013536017637534 0.38828934358799283 1.0043850818556217 -0.00014269399175471527 0.22245975566080353 1.0542943931773323 -0.04989865021261707 -0.9089267757537215 0.20588631410606678 0.12733221215708168 300.0 5.600000000000023 400.0 2.4186 -2.4185 2.4185 0.0 200.0 0.0 0.0 0.0 0.0 0.0 0.0 0.0 0.0 0.0 0.0 
1.136 0.5737738291001633 -1.528514523479187 -2.001136660817988 0.38830280677201445 0.9971842397719467 -0.00014335414104647734 0.030648488153018863 -0.35907046461361686 1.0263315794041383 -0.6997712962073628 0.010774906956103026 -0.043360616945668805 300.0 7.2000000000000455 400.0 2.4186 -2.4185 2.4185 0.0 200.0 0.0 0.0 0.0 0.0 0.0 0.0 0.0 0.0 0.0 0.0 
1.144 0.5809389652953134 -1.5288005262689657 -2.0008655295602256 0.3883191537363522 0.9900191036507642 -0.00014402455458243117 -0.1562343457697335 -0.7949999771789732 0.005527395984397265 0.8468426502466073 0.1478024019191288 0.07651761632505093 300.0 8.80000000000004 400.0 2.4186 -2.4185 2.4185 0.0 200.0 0.0 0.0 0.0 0.0 0.0 0.0 0.0 0.0 0.0 0.0 
1.152 0.5880676993464218 -1.529143530338471 -2.0005402280607805 0.38833833838582144 0.9828903696739411 -0.00014470522106243918 -0.031003670520934352 0.37791438080131734 -1.0004012155103992 0.5889350397538825 0.009186908556720098 -0.044749874208279625 300.0 10.400000000000034 400.0 2.4186 -2.4185 2.4185 0.0 200.0 0.0 0.0 0.0 0.0 0.0 0.0 0.0 0.0 0.0 0.0 
1.16 0.5951593549979891 -1.5295434341731942 -2.000160780387582 0.38836026281306246 0.9757987140969749 -0.00014539612696233193 0.12071086557705095 0.9380325769761947 0.07140363771813843 -0.9727393274528047 0.11628497398995992 0.048944656763865745 300.0 12.0 400.0 2.4186 -2.4185 2.4185 0.0 200.0 0.0 0.0 0.0 0.0 0.0 0.0 0.0 0.0 0.0 0.0 
1.168 0.6022132762589761 -1.5300001196603028 -1.9997272145829927 0.38838485877233 0.9687447929109075 -0.0001460972565485877 0.03147578692182336 -0.4644082393325855 1.0226504797476983 -0.5928637653232064 0.007556045102653595 -0.04617663187930056 300.0 13.599999999999994 400.0 2.4186 -2.4185 2.4185 0.0 200.0 0.0 0.0 0.0 0.0 0.0 0.0 0.0 0.0 0.0 0.0 
1.176 0.609228827710646 -1.5305134522446486 -1.9992395626368222 0.3884119873695424 0.9617292415344727 -0.00014680859189536468 -0.0986230013213736 -0.7878582304726476 -0.11092681524019093 0.9224319776006311 0.09638958337663413 0.03153921358912258 300.0 15.199999999999989 400.0 2.4186 -2.4185 2.4185 0.0 200.0 0.0 0.0 0.0 0.0 0.0 0.0 0.0 0.0 0.0 0.0 
1.184 0.6162053947839272 -1.5310832811059063 -1.9986978604555694 0.38844158534964235 0.9547526745367426 -0.00014753011290384094 -0.032073580953354115 0.4750475640837552 -0.9896062981356736 0.4788305637155276 0.0058689019309249345 -0.04765262575013769 300.0 16.80000000000001 400.0 2.4186 -2.4185 2.4185 0.0 200.0 0.0 0.0 0.0 0.0 0.0 0.0 0.0 0.0 0.0 0.0 
1.192 0.6231423840061645 -1.5317094393563777 -1.9981021478279335 0.388473483903639 0.947815685390372 -0.00014826179732381535 0.08360920264233995 0.8555973151708638 0.19002570735757385 -1.031015014820574 0.08260923529042903 0.019483503288970427 300.0 18.400000000000006 400.0 2.4186 -2.4185 2.4185 0.0 200.0 0.0 0.0 0.0 0.0 0.0 0.0 0.0 0.0 0.0 0.0 
1.2 0.6300392232172063 -1.5323917442589525 -1.9974524683866406 0.38850755922277336 0.9409188462555101 -0.00014900362077751453 0.03280857960084129 -0.5638543964608521 1.0052146062510612 -0.47824188471456575 0.004110319335829572 -0.049191118259378656 300.0 20.0 400.0 2.4186 -2.4185 2.4185 0.0 200.0 0.0 0.0 0.0 0.0 0.0 0.0 0.0 0.0 0.0 0.0 
1.208 0.6368953617548582 -1.5331299974646582 -1.9967488695666282 0.3885436572321854 0.9340627077943521 -0.00014975555678554785 -0.07277809051053259 -0.7468225479855647 -0.22663325455125347 0.9813936051883507 0.07244013267900168 0.010587083958415525 300.0 21.599999999999994 400.0 2.4186 -2.4185 2.4185 0.0 200.0 0.0 0.0 0.0 0.0 0.0 0.0 0.0 0.0 0.0 0.0 
1.216 0.643710270609825 -1.533923985269193 -1.9959914025596466 0.38858162754079606 0.9272477990161911 -0.0001505175767949458 -0.03369566733863474 0.5651986685040774 -0.9651360040473862 0.36184381879417304 0.0022627983434581416 -0.0508074183497789 300.0 23.19999999999999 400.0 2.4186 -2.4185 2.4185 0.0 200.0 0.0 0.0 0.0 0.0 0.0 0.0 0.0 0.0 0.0 0.0 
1.224 0.6504834425503359 -1.5347734788877925 -1.995180122265328 0.3886212780636158 0.9204746271527982 -0.00015128965020921398 0.06462648969523002 0.7748551424528871 0.3056874188499882 -1.0777605540029889 0.06457983280341492 0.0037105161402734227 300.0 24.80000000000001 400.0 2.4186 -2.4185 2.4185 0.0 200.0 0.0 0.0 0.0 0.0 0.0 0.0 0.0 0.0 0.0 0.0 
1.232 0.6572143922167311 -1.535678234747727 -1.9943150872387903 0.38866242935345374 0.9137436775638322 -0.00015207174442033014 0.03475387894647522 -0.6561995660786152 0.9742674847799961 -0.35744513028257136 0.0003057334018739715 -0.05251955274774386 300.0 26.400000000000006 400.0 2.4186 -2.4185 2.4185 0.0 200.0 0.0 0.0 0.0 0.0 0.0 0.0 0.0 0.0 0.0 0.0 
1.24 0.6639026561863665 -1.5366379947977133 -1.9933963596348336 0.3887049000766645 0.9070554136719348 -0.00015286382484260713 -0.058295809663642256 -0.6871441201857627 -0.3394243155834871 1.0252206113797397 0.058283672211240645 -0.0017976675157311693 300.0 28.0 400.0 2.4186 -2.4185 2.4185 0.0 200.0 0.0 0.0 0.0 0.0 0.0 0.0 0.0 0.0 0.0 0.0 
1.248 0.670547793009258 -1.537652486833464 -1.9924240051488042 0.38874846360687054 0.9004102769270889 -0.00015366585494834222 -0.03600749515490504 0.6469729103288859 -0.9273171949250092 0.23959530509649246 -0.001785603911428858 -0.054349155064852016 300.0 29.600000000000023 400.0 2.4186 -2.4185 2.4185 0.0 200.0 0.0 0.0 0.0 0.0 0.0 0.0 0.0 0.0 0.0 0.0 
1.256 0.6771493832149672 -1.5387214248385839 -1.991398092954192 0.38879291584187126 0.8938086867997337 -0.00015447779630516908 0.05326019041883486 0.6892755455256493 0.41711899801152985 -1.1111458580932196 0.05309486010604489 -0.006337089535468649 300.0 31.200000000000017 400.0 2.4186 -2.4185 2.4185 0.0 200.0 0.0 0.0 0.0 0.0 0.0 0.0 0.0 0.0 0.0 0.0 
1.264 0.6837070292912935 -1.5398445093399866 -1.9903186956370407 0.3888380266740121 0.8872510408020667 -0.0001552996086150253 0.03748756840502169 -0.7403773923451717 0.9302386596813477 -0.23208991601913792 -0.004041442769333588 -0.0563226712332825 300.0 32.80000000000001 400.0 2.4186 -2.4185 2.4185 0.0 200.0 0.0 0.0 0.0 0.0 0.0 0.0 0.0 0.0 0.0 0.0 
1.272 0.6902203556353936 -1.541021427776986 -1.989185889127248 0.3888835572613585 0.8807377145369306 -0.00015613124975464725 -0.04917974599468555 -0.6140412069733259 -0.447585594815339 1.0540042211356089 0.04871745351679009 -0.010166655042515684 300.0 34.400000000000006 400.0 2.4186 -2.4185 2.4185 0.0 200.0 0.0 0.0 0.0 0.0 0.0 0.0 0.0 0.0 0.0 0.0 
1.28 0.6966890084780228 -1.5422518548831845 -1.9879997526268365 0.38892927151707357 0.8742690617735696 -0.00015697267581750028 -0.039234074663793535 0.719028500831817 -0.8766562157549014 0.11378680604354932 -0.006499424081273434 -0.05847303132829339 300.0 36.0 400.0 2.4186 -2.4185 2.4185 0.0 200.0 0.0 0.0 0.0 0.0 0.0 0.0 0.0 0.0 0.0 0.0 
1.288 0.7031126557816324 -1.543535453080283 -1.9867603685352746 0.38897490438216886 0.8678454145495286 -0.00015782384115705145 0.04582520556012269 0.5972822346980637 0.5229118535367437 -1.1302871136624486 0.04495112156800307 -0.013461623107526743 300.0 37.60000000000002 400.0 2.4186 -2.4185 2.4185 0.0 200.0 0.0 0.0 0.0 0.0 0.0 0.0 0.0 0.0 0.0 0.0 
1.296 0.7094909871131196 -1.544871872882894 -1.9854678223719444 0.3890201882327806 0.8614670832979113 -0.000158684698431289 0.04129899958740164 -0.8155142892405444 0.8737392546635689 -0.10384205600828375 -0.00920731294968282 -0.0608420225553895 300.0 39.20000000000002 400.0 2.4186 -2.4185 2.4185 0.0 200.0 0.0 0.0 0.0 0.0 0.0 0.0 0.0 0.0 0.0 0.0 
1.304 0.7158237134920695 -1.5462607533134616 -1.9841222026958345 0.389064849909758 0.8551343569991301 -0.00015955519864839388 -0.04303647036415578 -0.5303197598639039 -0.5495701054929527 1.067634990143754 0.04165526002953614 -0.016345001063483335 300.0 40.80000000000001 400.0 2.4186 -2.4185 2.4185 0.0 200.0 0.0 0.0 0.0 0.0 0.0 0.0 0.0 0.0 0.0 0.0 
1.312 0.7221105672153669 -1.5477017223263536 -1.9827236010225522 0.38910862630851084 0.8488475033562985 -0.00016043529121346516 -0.043750856895656276 0.780046535658823 -0.813830047952017 -0.013814241078016359 -0.012226944720951536 -0.0634837414452043 300.0 42.400000000000034 400.0 2.4186 -2.4185 2.4185 0.0 200.0 0.0 0.0 0.0 0.0 0.0 0.0 0.0 0.0 0.0 0.0 
1.32 0.7283513016591001 -1.5491943972402122 -1.9812721117387473 0.3891512200763416 0.8426067689933259 -0.00016132492397620275 0.04069852430697779 0.49887884284397777 0.621674262827843 -1.1347279743681222 0.03872812202117941 -0.018905801967535968 300.0 44.00000000000003 400.0 2.4186 -2.4185 2.4185 0.0 200.0 0.0 0.0 0.0 0.0 0.0 0.0 0.0 0.0 0.0 0.0 
1.328 0.7345456910587096 -1.5507383851776289 -1.9797678320140424 0.38919232981945084 0.8364123796747726 -0.00016222404327944915 0.04668146769280691 -0.881009539490686 0.8055563839078893 0.025616601108014395 -0.01564012287012844 -0.0664697536062816 300.0 45.60000000000002 400.0 2.4186 -2.4185 2.4185 0.0 200.0 0.0 0.0 0.0 0.0 0.0 0.0 0.0 0.0 0.0 0.0 
1.336 0.7406935302683624 -1.552333283511226 -1.9782108617105618 0.38923165631095413 0.8302645405464675 -0.00016313259400849376 -0.03872677699610263 -0.43801829197008363 -0.6439517140113962 1.0660674128963377 0.036094109056658746 -0.021210163006056784 300.0 47.20000000000002 400.0 2.4186 -2.4185 2.4185 0.0 200.0 0.0 0.0 0.0 0.0 0.0 0.0 0.0 0.0 0.0 0.0 
1.344 0.7467946345005576 -1.5539786803152293 -1.9766013032901553 0.38926889954010324 0.824163436395911 -0.00016405051964104138 -0.050216429445937946 0.8286503216328295 -0.7396731169605357 -0.1413834139067331 -0.019557706018804445 -0.06989704348471906 300.0 48.80000000000001 400.0 2.4186 -2.4185 2.4185 0.0 200.0 0.0 0.0 0.0 0.0 0.0 0.0 0.0 0.0 0.0 0.0 
1.352 0.752848839046995 -1.5556741548216109 -1.9749392617194181 0.38930372543556757 0.8181092319314005 -0.00016497776229775038 0.03705779797909533 0.39474132581946986 0.712086818471239 -1.12430390648838 0.03369572430006855 -0.023308385172352983 300.0 50.400000000000034 400.0 2.4186 -2.4185 2.4185 0.0 200.0 0.0 0.0 0.0 0.0 0.0 0.0 0.0 0.0 0.0 0.0 
1.36 0.7588559989817398 -1.5574192778799198 -1.9732248443725984 0.38933583377196057 0.8121020720788698 -0.00016591426279324368 0.054531839944834626 -0.936690389875986 0.7266483282103287 0.15463406159230714 -0.024134104915260003 -0.07390069701861166 300.0 52.00000000000003 400.0 2.4186 -2.4185 2.4185 0.0 200.0 0.0 0.0 0.0 0.0 0.0 0.0 0.0 0.0 0.0 0.0 
1.368 0.7648159888477534 -1.5592136124199063 -1.9714581609324948 0.38936487688496113 0.8061420822953548 -0.0001668599606875006 -0.03564326624524912 -0.33890225124984924 -0.7294235912811581 1.0494021703889511 0.031488304187461354 -0.025239542297111076 300.0 53.60000000000002 400.0 2.4186 -2.4185 2.4185 0.0 200.0 0.0 0.0 0.0 0.0 0.0 0.0 0.0 0.0 0.0 0.0 
1.376 0.7707287023278351 -1.5610567139160736 -1.9696393232894378 0.3893905353666871 0.8002293688980548 -0.00016781479433753573 -0.05988210715856669 0.8631980909177078 -0.6551568332780137 -0.2670288344106818 -0.029591370836823106 -0.07867497532926757 300.0 55.200000000000045 400.0 2.4186 -2.4185 2.4185 0.0 200.0 0.0 0.0 0.0 0.0 0.0 0.0 0.0 0.0 0.0 0.0 
1.384 0.7765940519010566 -1.562948130853313 -1.9677684454384572 0.38941246371360316 0.7943640194078966 -0.0001687787009492756 0.03444590882354787 0.28589229977307756 0.7929331309909236 -1.0990949619869768 0.029436466353571094 -0.027034588572686334 300.0 56.80000000000004 400.0 2.4186 -2.4185 2.4185 0.0 200.0 0.0 0.0 0.0 0.0 0.0 0.0 0.0 0.0 0.0 0.0 
1.392 0.7824119684857482 -1.5648874051927881 -1.965845643374731 0.38943032625109075 0.7885461029065476 -0.00016975161662954492 0.06664847121138301 -0.9831756892224566 0.6381459944847028 0.28166718187946926 -0.03626120686351743 -0.08451006820096651 300.0 58.400000000000034 400.0 2.4186 -2.4185 2.4185 0.0 200.0 0.0 0.0 0.0 0.0 0.0 0.0 0.0 0.0 0.0 0.0 
1.4 0.7881824010701004 -1.5668740728372734 -1.9638710349874124 0.3894437734033167 0.7827756704058146 -0.0001707334764380757 -0.03343670999804203 -0.23464014664827687 -0.804807978824542 1.0179160528352251 0.027511650986126752 -0.028718509494424123 300.0 60.00000000000003 400.0 2.4186 -2.4185 2.4185 0.0 200.0 0.0 0.0 0.0 0.0 0.0 0.0 0.0 0.0 0.0 0.0 
1.408 0.7939053163314385 -1.5689076640951596 -1.9618447399519288 0.3894524600333842 0.7770527552283724 -0.00017172421443945688 -0.07542877289546253 0.881201323442166 -0.5613520732434492 -0.38872252539017826 -0.044662673858909874 -0.09186007500479572 300.0 61.599999999999994 400.0 2.4186 -2.4185 2.4185 0.0 200.0 0.0 0.0 0.0 0.0 0.0 0.0 0.0 0.0 0.0 0.0 
1.416 0.7995806982452182 -1.5709877041423774 -1.9597668796208556 0.3894560264715665 0.7713773733987607 -0.00017272376375494292 0.03259295572570446 0.17355577182452253 0.8631216870045866 -1.059404156832499 0.025690377453394427 -0.030311847046610926 300.0 63.19999999999999 400.0 2.4186 -2.4185 2.4185 0.0 200.0 0.0 0.0 0.0 0.0 0.0 0.0 0.0 0.0 0.0 0.0 
1.424 0.8052085476847692 -1.5731137134815187 -1.957637576913452 0.3894541164694689 0.7657495240436478 -0.00017373205661404406 0.08721611145596925 -1.0229345639411256 0.5413803915880353 0.4054695200194044 -0.05565682374031037 -0.10147828530960648 300.0 64.79999999999998 400.0 2.4186 -2.4185 2.4185 0.0 200.0 0.0 0.0 0.0 0.0 0.0 0.0 0.0 0.0 0.0 0.0 
1.432 0.8107888820128093 -1.575285208397459 -1.9554569562039503 0.38944637442451113 0.7601691898003158 -0.00017474902440582288 -0.03189684159334189 -0.1268697268812977 -0.8690686678287398 0.9720720876943244 0.023952979444584115 -0.03183180626239053 300.0 66.4 400.0 2.4186 -2.4185 2.4185 0.0 200.0 0.0 0.0 0.0 0.0 0.0 0.0 0.0 0.0 0.0 0.0 
1.44 0.816321734665725 -1.5775017014088153 -1.9532251432087002 0.3894324466074144 0.7546363372323738 -0.00017577459772982586 -0.10378935867575585 0.8773381085397338 -0.45933337075595376 -0.5040121845635335 -0.07078468173897737 -0.11471286199467154 300.0 68.0 400.0 2.4186 -2.4185 2.4185 0.0 200.0 0.0 0.0 0.0 0.0 0.0 0.0 0.0 0.0 0.0 0.0 
1.448 0.8218071547315915 -1.5797627017146183 -1.950942264872243 0.3894119512248486 0.7491509172517465 -0.000176808706446581 0.03133447054275885 0.05907853132014514 0.9217032156871986 -1.0057436602432297 0.02228266616627185 -0.033293076534219763 300.0 69.6 400.0 2.4186 -2.4185 2.4185 0.0 200.0 0.0 0.0 0.0 0.0 0.0 0.0 0.0 0.0 0.0 0.0 
1.456 0.8272452065228921 -1.5820677156355933 -1.948608449252415 0.38938453096961334 0.7437128655459473 -0.00017785127972759615 0.12868079410772434 -1.0644443187503059 0.43803295922786034 0.525763577972301 -0.09310469518510715 -0.1342394816648532 300.0 71.19999999999999 400.0 2.4186 -2.4185 2.4185 0.0 200.0 0.0 0.0 0.0 0.0 0.0 0.0 0.0 0.0 0.0 0.0 
1.464 0.8326359691448566 -1.584416247049485 -1.9462238254045618 0.38934982252747075 0.7383221030097432 -0.00017890224610479652 -0.030895126892522405 -0.017219915340693247 -0.9213233439955079 0.9125201472008118 0.020664808782720766 -0.03470845587014373 300.0 72.80000000000001 400.0 2.4186 -2.4185 2.4185 0.0 200.0 0.0 0.0 0.0 0.0 0.0 0.0 0.0 0.0 0.0 0.0 
1.472 0.8379795360603225 -1.5868077978199064 -1.943788523264941 0.38930745801984235 0.7329785361802968 -0.00017996153351934195 -0.17004105657718777 0.8336433476361199 -0.3497670714426376 -0.608509734356 -0.12967220767023238 -0.16623049772337964 300.0 74.4 400.0 2.4186 -2.4185 2.4185 0.0 200.0 0.0 0.0 0.0 0.0 0.0 0.0 0.0 0.0 0.0 0.0 
1.48 0.8432760146519938 -1.5892418682182061 -1.9413026735334051 0.3892570587600328 0.7276820576749014 -0.0001810290693697707 0.030570751393044358 -0.05612063221915913 0.9678849307450613 -0.9388227448211911 0.019086383648827858 -0.03608933798035261 300.0 76.0 400.0 2.4186 -2.4185 2.4185 0.0 200.0 0.0 0.0 0.0 0.0 0.0 0.0 0.0 0.0 0.0 0.0 
1.488 0.8485255257829285 -1.591717957337897 -1.9387664075554316 0.38919826281799375 0.7224325466304939 -0.00018210478055941622 0.251848492088677 -1.1505255398116647 0.3312561638769108 0.6476921875253147 -0.20124056363719128 -0.2288419325578558 300.0 77.60000000000002 400.0 2.4186 -2.4185 2.4185 0.0 200.0 0.0 0.0 0.0 0.0 0.0 0.0 0.0 0.0 0.0 0.0 
1.496 0.8537282033560705 -1.5942355635012238 -1.9361798572035835 0.38913070687280205 0.7172298691441302 -0.00018318859354304903 -0.030355566960451663 0.09268703784438045 -0.9608546347481813 0.8400918977735711 0.01753552451137785 -0.03744610403303006 300.0 79.19999999999999 400.0 2.4186 -2.4185 2.4185 0.0 200.0 0.0 0.0 0.0 0.0 0.0 0.0 0.0 0.0 0.0 0.0 
1.504 0.8588841938736018 -1.5967941846574725 -1.9335431547584694 0.3890540090377441 0.7120738787136272 -0.00018428043437270156 -0.48856558639138675 0.5985842875986651 -0.2280321030277961 -0.6770090988367773 -0.4068722887269242 -0.4087384410273352 300.0 80.80000000000001 400.0 2.4186 -2.4185 2.4185 0.0 200.0 0.0 0.0 0.0 0.0 0.0 0.0 0.0 0.0 0.0 0.0 
1.512 0.8639936559968534 -1.5993933187726728 -1.9308564327892712 0.3889677995213734 0.70696441667765 -0.00018538022874263092 0.030245821490463985 -0.17058904766469463 1.0010420910541062 -0.8595351831942827 0.016001149120170224 -0.038788449312870905 300.0 82.40000000000003 400.0 2.4186 -2.4185 2.4185 0.0 200.0 0.0 0.0 0.0 0.0 0.0 0.0 0.0 0.0 0.0 0.0 
1.52 0.8690567601074864 -1.6020324642103578 -1.9281198240339124 0.38887172458018404 0.7019013126545354 -0.0001864879020333855 8.621101120347129 -7.049480559901437 0.45439736268314856 1.6715180126202254 -7.445913423528709 -6.566829672189743 300.0 84.0 400.0 2.4186 -2.4185 2.4185 0.0 200.0 0.0 0.0 0.0 0.0 0.0 0.0 0.0 0.0 0.0 0.0 
1.528 0.8740736878706172 -1.6047111201031141 -1.9253334612789208 0.3887654005460657 0.6968843849791642 -0.00018760337935493833 -0.030239625870059503 0.20124275606121642 -0.9871192878089667 0.7557917953021644 0.014472634174797923 -0.04012566759325009 300.0 85.60000000000002 400.0 2.4186 -2.4185 2.4185 0.0 200.0 0.0 0.0 0.0 0.0 0.0 0.0 0.0 0.0 0.0 0.0 
1.536 0.8790446318005212 -1.6074287867146402 -1.922497477239054 0.38864846521496377 0.6919134411372606 -0.00018872658558885828 0.5508990001137531 1.3099469836867998 -0.14138988321842702 -0.8859423976740144 0.49120050945182087 0.3769387723173981 300.0 87.19999999999999 400.0 2.4186 -2.4185 2.4185 0.0 200.0 0.0 0.0 0.0 0.0 0.0 0.0 0.0 0.0 0.0 0.0 
1.544 0.883969794829526 -1.610184965792114 -1.9196120044367415 0.3885205567933194 0.6869882781964927 -0.00018985744542949026 0.030336873941785268 -0.2828722080611196 1.020727008170585 -0.7689451514269571 0.012939517766287947 -0.041466911454565054 300.0 88.80000000000001 400.0 2.4186 -2.4185 2.4185 0.0 200.0 0.0 0.0 0.0 0.0 0.0 0.0 0.0 0.0 0.0 0.0 
1.552 0.8888493898806535 -1.612979160908663 -1.916677175081392 0.3883813111574783 0.6821086832338359 -0.00019099588342411962 -0.2673630010692981 -0.7426915572264962 0.08478922909065256 0.7790597113407097 0.24504974850734812 0.1615942653757158 300.0 90.40000000000003 400.0 2.4186 -2.4185 2.4185 0.0 200.0 0.0 0.0 0.0 0.0 0.0 0.0 0.0 0.0 0.0 0.0 
1.56 0.89368363944455 -1.615810877795782 -1.913693120948625 0.3882303592852747 0.6772744337586444 -0.00019214182401210072 -0.030539238036643938 0.3068641956191762 -0.99975515527617 0.6607850299035027 0.01139121134415963 -0.04282144426928619 300.0 92.0 400.0 2.4186 -2.4185 2.4185 0.0 200.0 0.0 0.0 0.0 0.0 0.0 0.0 0.0 0.0 0.0 0.0 
1.568 0.8984727751612036 -1.6186796246655715 -1.9106599732594616 0.3880673451169663 0.6724852981309246 -0.00019329519156293014 0.17691299678985886 1.0099543435739429 -0.012722325552970634 -0.9279242447379046 0.16600210316445316 0.09243958900603054 300.0 93.60000000000002 400.0 2.4186 -2.4185 2.4185 0.0 200.0 0.0 0.0 0.0 0.0 0.0 0.0 0.0 0.0 0.0 0.0 
1.576 0.9032170374069053 -1.6215849125226875 -1.9075778625595268 0.3878919088259454 0.6677410359743843 -0.00019445591041324887 0.030850239722426415 -0.3915429581388111 1.0266755246972188 -0.6682712605402649 0.009816704215371837 -0.04419889872046889 300.0 95.20000000000005 400.0 2.4186 -2.4185 2.4185 0.0 200.0 0.0 0.0 0.0 0.0 0.0 0.0 0.0 0.0 0.0 0.0 
1.584 0.9079166748868936 -1.6245262554659394 -1.9044469185982944 0.3877036976258772 0.6630413985837825 -0.00019562390490276228 -0.13252965446746234 -0.7984992337295546 -0.029669993862925823 0.8717755730051008 0.1268188314257971 0.058160181131982965 300.0 96.80000000000001 400.0 2.4186 -2.4185 2.4185 0.0 200.0 0.0 0.0 0.0 0.0 0.0 0.0 0.0 0.0 0.0 0.0 
1.592 0.912571944234073 -1.6275031709794858 -1.901267270208411 0.38750235279582745 0.6583861293262143 -0.00019679909940906694 -0.03127540139990075 0.4080063977525413 -0.9985857750510206 0.5563830237982401 0.008204242817326844 -0.045609557389132596 300.0 98.40000000000003 400.0 2.4186 -2.4185 2.4185 0.0 200.0 0.0 0.0 0.0 0.0 0.0 0.0 0.0 0.0 0.0 0.0 
1.6 0.9171831096141703 -1.6305151802136009 -1.8980390451851343 0.3872875269398153 0.6537749640359487 -0.00019798141838137657 0.10623907316255143 0.9119878353160629 0.10761183382099382 -0.9914274406375865 0.10328865247610897 0.03757485056169381 300.0 100.0 400.0 2.4186 -2.4185 2.4185 0.0 200.0 0.0 0.0 0.0 0.0 0.0 0.0 0.0 0.0 0.0 0.0 
1.608 0.9217504423376665 -1.633561808255037 -1.894762370165905 0.3870588742347798 0.6492076314025012 -0.00019917078637314412 0.031822491095443335 -0.4952297419607764 1.0188109682995816 -0.558868571705187 0.006540964381155361 -0.0470646732432123 300.0 101.60000000000002 400.0 2.4186 -2.4185 2.4185 0.0 200.0 0.0 0.0 0.0 0.0 0.0 0.0 0.0 0.0 0.0 0.0 
1.616 0.9262742204787959 -1.6366425843869863 -1.8914373705100807 0.3868160444303139 0.6446838533516367 -0.00020036712807357552 -0.08890562115419097 -0.7779256240078102 -0.14619084899600646 0.9419349451561125 0.08750376883026073 0.023765476287145874 300.0 103.20000000000005 400.0 2.4186 -2.4185 2.4185 0.0 200.0 0.0 0.0 0.0 0.0 0.0 0.0 0.0 0.0 0.0 0.0 
1.624 0.9307547285018928 -1.6397570423387147 -1.8880641701788474 0.38655869630056516 0.6402033454190201 -0.00020157036833803654 -0.03250188116293723 0.5031742769516969 -0.9836224034682595 0.4440270055183444 0.004812459688854491 -0.04857685215861237 300.0 104.80000000000001 400.0 2.4186 -2.4185 2.4185 0.0 200.0 0.0 0.0 0.0 0.0 0.0 0.0 0.0 0.0 0.0 0.0 
1.632 0.9351922568953221 -1.642904720524927 -1.8846428916153288 0.38628648817622513 0.6357658171162808 -0.00020278043221735498 0.07665964842687571 0.831415111904051 0.22544700025485453 -1.0465146701826422 0.0761137633009652 0.013800952450786582 300.0 106.40000000000003 400.0 2.4186 -2.4185 2.4185 0.0 200.0 0.0 0.0 0.0 0.0 0.0 0.0 0.0 0.0 0.0 0.0 
1.64 0.9395871018132054 -1.6460851622749653 -1.8811736556248946 0.3859990941197189 0.6313709722892986 -0.00020399724498601995 0.033327052867599356 -0.5926455952971844 0.9972456106627327 -0.44220851670771577 0.0030022315992468446 -0.05016052662670178 300.0 108.00000000000006 400.0 2.4186 -2.4185 2.4185 0.0 200.0 0.0 0.0 0.0 0.0 0.0 0.0 0.0 0.0 0.0 0.0 
1.648 0.9439395647251333 -1.649297916051942 -1.877656581255685 0.3856961662155869 0.6270185094684759 -0.00020522073216928854 -0.06758138569696663 -0.7303835392812301 -0.2612103647725905 0.996262261115931 0.06745567906767563 0.0062264445633303245 300.0 109.60000000000002 400.0 2.4186 -2.4185 2.4185 0.0 200.0 0.0 0.0 0.0 0.0 0.0 0.0 0.0 0.0 0.0 0.0 
1.656 0.9482499520740204 -1.6525425356619534 -1.8740917856793444 0.38537739461756737 0.6227081222109 -0.00020645081956920263 -0.0343152948395104 0.5909310093798543 -0.9550633799639016 0.32527024006315747 0.001091003436477462 -0.05183256080927122 300.0 111.20000000000005 400.0 2.4186 -2.4185 2.4185 0.0 200.0 0.0 0.0 0.0 0.0 0.0 0.0 0.0 0.0 0.0 0.0 
1.664 0.9525185749422383 -1.6558185804535017 -1.8704793840719742 0.3850424326786648 0.6184394994341955 -0.00020768743328952987 0.060610427951575334 0.7495477914263432 0.3399723422190531 -1.089341906320164 0.06061022384593633 0.00023771158578181202 300.0 112.80000000000001 400.0 2.4186 -2.4185 2.4185 0.0 200.0 0.0 0.0 0.0 0.0 0.0 0.0 0.0 0.0 0.0 0.0 
1.672 0.9567457487261383 -1.659125615507299 -1.8668194894952854 0.38469097789526563 0.6142123257420079 -0.00020893049975963753 0.03548866709382539 -0.6826202224980173 0.9622797214275244 -0.3198565698292984 -0.0009441882223308086 -0.05361304421146048 300.0 114.39999999999998 400.0 2.4186 -2.4185 2.4185 0.0 200.0 0.0 0.0 0.0 0.0 0.0 0.0 0.0 0.0 0.0 0.0 
1.68 0.9609317928190488 -1.6624632118166307 -1.8631122127779518 0.38432270397629376 0.6100262817410085 -0.00021017994575731172 -0.05511348444284026 -0.6662521153387825 -0.3727696841659791 1.0355382685980836 0.05502766755507864 -0.004646176756940658 300.0 116.0 400.0 2.4186 -2.4185 2.4185 0.0 200.0 0.0 0.0 0.0 0.0 0.0 0.0 0.0 0.0 0.0 0.0 
1.688 0.965077030302818 -1.6658309464584575 -1.859357662397147 0.3839372920334272 0.6058810443493444 -0.00021143569843053777 -0.036875338554337035 0.6698993793657338 -0.9132906906524969 0.20175970868173163 -0.00313121245722834 -0.055526358042896344 300.0 117.60000000000002 400.0 2.4186 -2.4185 2.4185 0.0 200.0 0.0 0.0 0.0 0.0 0.0 0.0 0.0 0.0 0.0 0.0 
1.696 0.9691817876479407 -1.6692284027554745 -1.8555559443602427 0.38353443939859333 0.601776287096523 -0.00021269768531825402 0.05068920007742627 0.6620889177937666 0.44984441768007993 -1.1184792370306829 0.05035891133054124 -0.008730628916853753 300.0 119.19999999999999 400.0 2.4186 -2.4185 2.4185 0.0 200.0 0.0 0.0 0.0 0.0 0.0 0.0 0.0 0.0 0.0 0.0 
1.704 0.9732463944223052 -1.6726551704293173 -1.8517071620866559 0.3831138297661896 0.5977116804146473 -0.0002139658343700991 0.038511463017365404 -0.764139520259989 0.9143984229114956 -0.19344722516848833 -0.00550451948275229 -0.057602641005710255 300.0 120.80000000000001 400.0 2.4186 -2.4185 2.4185 0.0 200.0 0.0 0.0 0.0 0.0 0.0 0.0 0.0 0.0 0.0 0.0 
1.712 0.9772711830085532 -1.676110845745163 -1.8478114162898032 0.38267517190319844 0.5936868919210776 -0.00021524007396516546 -0.047071061824611474 -0.5896853512099136 -0.47921640773745944 1.0597403624774364 0.046371442290779025 -0.012219058329048361 300.0 122.39999999999998 400.0 2.4186 -2.4185 2.4185 0.0 200.0 0.0 0.0 0.0 0.0 0.0 0.0 0.0 0.0 0.0 0.0 
1.72 0.9812564883300591 -1.6795950316479422 -1.8438688048591487 0.38221815824567806 0.5897015866924373 -0.00021652033292978245 -0.04044385071103239 0.7387492629812227 -0.8588635042348456 0.07521855142325268 -0.008107496941258794 -0.05987985069310518 300.0 124.0 400.0 2.4186 -2.4185 2.4185 0.0 200.0 0.0 0.0 0.0 0.0 0.0 0.0 0.0 0.0 0.0 0.0 
1.728 0.9852026475854894 -1.6831073378904045 -1.839879422742301 0.3817424944858743 0.5857554275300555 -0.00021780654055434276 0.044075330786076464 0.5681118727737813 0.5536508089747602 -1.1331983063240358 0.042904253685346706 -0.015252321431082901 300.0 125.60000000000002 400.0 2.4186 -2.4185 2.4185 0.0 200.0 0.0 0.0 0.0 0.0 0.0 0.0 0.0 0.0 0.0 0.0 
1.736 0.9891099999919084 -1.6866473811532954 -1.835843361827114 0.3812478906044159 0.5818480752168697 -0.00021909862660919707 0.04273384629059486 -0.8364019796259826 0.854266789211103 -0.0646550618811916 -0.01099586393369277 -0.062406732850469875 300.0 127.19999999999999 400.0 2.4186 -2.4185 2.4185 0.0 200.0 0.0 0.0 0.0 0.0 0.0 0.0 0.0 0.0 0.0 0.0 
1.744 0.992978886536375 -1.6902147851578797 -1.831760710823768 0.3807340580026759 0.5779791887658133 -0.00022039652135963394 -0.041571390920750684 -0.5031659638467164 -0.579041807762295 1.0687636343305047 0.03984216314977952 -0.01793118528696729 300.0 128.8 400.0 2.4186 -2.4185 2.4185 0.0 200.0 0.0 0.0 0.0 0.0 0.0 0.0 0.0 0.0 0.0 0.0 
1.752 0.9968096497359535 -1.693809180771097 -1.8276315551467581 0.3802007207785052 0.5741484256598242 -0.0002217001555799662 -0.04546308867840271 0.7961563598096572 -0.792508163058254 -0.05256813402728612 -0.014242688417621174 -0.065247210836136 300.0 130.40000000000003 400.0 2.4186 -2.4185 2.4185 0.0 200.0 0.0 0.0 0.0 0.0 0.0 0.0 0.0 0.0 0.0 0.0 
1.76 1.0006026334060723 -1.697430206103586 -1.8234559767967626 0.379647587489496 0.5703554420834696 -0.00022300946056674854 0.039464012169890615 0.46787923598766096 0.6500175482746431 -1.1331392964671334 0.037100439468851075 -0.02032977683295511 300.0 132.0 400.0 2.4186 -2.4185 2.4185 0.0 200.0 0.0 0.0 0.0 0.0 0.0 0.0 0.0 0.0 0.0 0.0 
1.768 1.004358182437125 -1.70107750660087 -1.8192340542423104 0.37907439048497715 0.5665998931463545 -0.00022432436815114347 0.0487423004614421 -0.8989146293085295 0.7827241982788147 0.06484137130910264 -0.017946022151375928 -0.06848706503717916 300.0 133.60000000000002 400.0 2.4186 -2.4185 2.4185 0.0 200.0 0.0 0.0 0.0 0.0 0.0 0.0 0.0 0.0 0.0 0.0 
1.776 1.008076642579221 -1.70475073512796 -1.8149658623012113 0.3784808521595009 0.5628814330983691 -0.00022564481071046157 -0.03768229681730345 -0.4086190649832083 -0.6708552704068559 1.0626016901475486 0.0346152100058117 -0.022503974919126694 300.0 135.2 400.0 2.4186 -2.4185 2.4185 0.0 200.0 0.0 0.0 0.0 0.0 0.0 0.0 0.0 0.0 0.0 0.0 
1.784 1.0117583602349696 -1.7084495520476581 -1.8106514720216618 0.3778667044323867 0.5591997155368992 -0.00022697072117889775 -0.05272513335665401 0.8406951191303876 -0.7151032538458517 -0.1797580632278494 -0.022240907753136054 -0.07224443722133664 300.0 136.8 400.0 2.4186 -2.4185 2.4185 0.0 200.0 0.0 0.0 0.0 0.0 0.0 0.0 0.0 0.0 0.0 0.0 
1.792 1.0154036822601797 -1.712173625292835 -1.8062909505629723 0.3772316802850697 0.5555543936061338 -0.00022830203305748426 0.03617254858402404 0.36219446450703463 0.737653759019379 -1.11821504189685 0.03233725906896007 -0.024496835796141505 300.0 138.40000000000003 400.0 2.4186 -2.4185 2.4185 0.0 200.0 0.0 0.0 0.0 0.0 0.0 0.0 0.0 0.0 0.0 0.0 
1.8 1.0190129557723484 -1.7159226304329607 -1.801884361075835 0.37657552714625275 0.5519451201885779 -0.000229638680423286 0.05763081155171826 -0.9516897195887404 0.7007805262949641 0.1934121315937125 -0.027318996813520593 -0.07668699340405409 300.0 140.0 400.0 2.4186 -2.4185 2.4185 0.0 200.0 0.0 0.0 0.0 0.0 0.0 0.0 0.0 0.0 0.0 0.0 
1.808 1.022586527966802 -1.7196962507351699 -1.7974317625820504 0.375897982418385 0.548371548088898 -0.00023098059793785942 -0.03489353520529484 -0.3077692263920454 -0.7533878438872492 1.0414066583637356 0.03022789292293496 -0.026342210601940787 300.0 141.60000000000002 400.0 2.4186 -2.4185 2.4185 0.0 200.0 0.0 0.0 0.0 0.0 0.0 0.0 0.0 0.0 0.0 0.0 
1.816 1.026124745940351 -1.7234941772201358 -1.7929332098536375 0.37519878442248533 0.5448333302102861 -0.0002323277208549983 -0.06378285604470582 0.8705592834914738 -0.6276556192838831 -0.30443015153403286 -0.033462082717733724 -0.0820612599716947 300.0 143.20000000000005 400.0 2.4186 -2.4185 2.4185 0.0 200.0 0.0 0.0 0.0 0.0 0.0 0.0 0.0 0.0 0.0 0.0 
1.824 1.0296279565223123 -1.7273161087130422 -1.7883887532912306 0.37447770365512545 0.5413301197234192 -0.000233679985027789 0.033813261475820346 0.25215230692481594 0.8153788421940209 -1.0885749122675519 0.02825610625498391 -0.028067224273135113 300.0 144.8 400.0 2.4186 -2.4185 2.4185 0.0 200.0 0.0 0.0 0.0 0.0 0.0 0.0 0.0 0.0 0.0 0.0 
1.832 1.033096506112749 -1.7311617518899247 -1.7837984388016757 0.3737344689799802 0.5378615702282372 -0.00023503732691499893 0.07167899022812536 -0.9957349945866167 0.6096220950677786 0.3195747673392142 -0.04110261705418049 -0.08874556634206696 300.0 146.40000000000003 400.0 2.4186 -2.4185 2.4185 0.0 200.0 0.0 0.0 0.0 0.0 0.0 0.0 0.0 0.0 0.0 0.0 
1.84 1.036530740527774 -1.7350308213196617 -1.7791623076747254 0.3729688463071372 0.5344273359086172 -0.00023639968358681965 -0.03290672438030793 -0.20227140203917127 -0.8255033275644275 1.0055112576375926 0.02639659159023921 -0.0296940170041176 300.0 148.0 400.0 2.4186 -2.4185 2.4185 0.0 200.0 0.0 0.0 0.0 0.0 0.0 0.0 0.0 0.0 0.0 0.0 
1.848 1.0399310048517538 -1.738923039501901 -1.7744803964587268 0.3721805963073552 0.5310270716802006 -0.00023776699272998742 -0.0821260451164649 0.8827398896613751 -0.5312526065324545 -0.42447834947994084 -0.050940477986421 -0.09735219954395291 300.0 149.60000000000002 400.0 2.4186 -2.4185 2.4185 0.0 200.0 0.0 0.0 0.0 0.0 0.0 0.0 0.0 0.0 0.0 0.0 
1.856 1.0432976432962642 -1.7428381369011894 -1.7697527368352015 0.3713694796068714 0.5276604333314011 -0.00023913919265230497 0.03215432423073029 0.13902056485701503 0.8821427206917183 -1.0445866253023046 0.02462830793961257 -0.031240996462625667 300.0 151.20000000000005 400.0 2.4186 -2.4185 2.4185 0.0 200.0 0.0 0.0 0.0 0.0 0.0 0.0 0.0 0.0 0.0 0.0 
1.864 1.0466309990656186 -1.7467758519775824 -1.7649793554921938 0.3705352642426665 0.5243270776579085 -0.0002405162222865832 0.09652328959523336 -1.0345965474898948 0.5106580661829038 0.4422578612697049 -0.06418819111321218 -0.10894193520208162 300.0 152.8 400.0 2.4186 -2.4185 2.4185 0.0 200.0 0.0 0.0 0.0 0.0 0.0 0.0 0.0 0.0 0.0 0.0 
1.872 1.04993141422882 -1.7507359312140145 -1.7601602739962798 0.36967770786860843 0.5210266625907151 -0.0002418980211940292 -0.03154072516675567 -0.09375955175096372 -0.8862108975744788 0.9554353893442805 0.022933427951053017 -0.032723758872383206 300.0 154.40000000000003 400.0 2.4186 -2.4185 2.4185 0.0 200.0 0.0 0.0 0.0 0.0 0.0 0.0 0.0 0.0 0.0 0.0 
1.88 1.0531992295977575 -1.7547181291406933 -1.7552955086630966 0.36879659018069444 0.517758847317935 -0.0002432845295670971 -0.11752745999521082 0.8699615423605266 -0.4269224580375327 -0.5371549941857138 -0.0831464895717649 -0.12552756515644634 300.0 156.00000000000006 400.0 2.4186 -2.4185 2.4185 0.0 200.0 0.0 0.0 0.0 0.0 0.0 0.0 0.0 0.0 0.0 0.0 
1.888 1.0564347846114903 -1.7587222083567902 -1.750385070426282 0.36789168255463145 0.5145232924004992 -0.0002446756882318271 0.031054031102363717 0.024172446700600078 0.9370421763867429 -0.986823361192697 0.021296545287874558 -0.034155782436604804 300.0 157.60000000000002 400.0 2.4186 -2.4185 2.4185 0.0 200.0 0.0 0.0 0.0 0.0 0.0 0.0 0.0 0.0 0.0 0.0 
1.896 1.0596384172264446 -1.7627479395497 -1.7454289647046648 0.3669627652747014 0.5113196598819884 -0.00024607143864969 0.150873086739793 -1.0812298547192984 0.4057793433852558 0.561897317802968 -0.11277972130027168 -0.15145213939370994 300.0 159.20000000000005 400.0 2.4186 -2.4185 2.4185 0.0 200.0 0.0 0.0 0.0 0.0 0.0 0.0 0.0 0.0 0.0 0.0 
1.904 1.0628104638123617 -1.7667951015121293 -1.7404271912675813 0.3660096077533479 0.5081476133926525 -0.0002474717229189612 -0.030685188778544755 0.016139086210538042 -0.9346771431207234 0.8918847640029351 0.01970406276686711 -0.035548962624160484 300.0 160.8 400.0 2.4186 -2.4185 2.4185 0.0 200.0 0.0 0.0 0.0 0.0 0.0 0.0 0.0 0.0 0.0 0.0 
1.912 1.0659512590538256 -1.7708634811572734 -1.7353797440981593 0.3650319999778857 0.5050068182479096 -0.0002488764837756404 -0.2116437873165786 0.8025995093109676 -0.31488950626075973 -0.6362659128050893 -0.1661433300578041 -0.19813718709547987 300.0 162.40000000000003 400.0 2.4186 -2.4185 2.4185 0.0 200.0 0.0 0.0 0.0 0.0 0.0 0.0 0.0 0.0 0.0 0.0 
1.92 1.0690611358572077 -1.7749528735323588 -1.7302866112544162 0.3640297230410978 0.5018969415413834 -0.00025028566459393955 0.030427558958750444 -0.09095932734757596 0.9793342535043138 -0.9160517014169092 0.0181437063790278 -0.036914037327579204 300.0 164.0 400.0 2.4186 -2.4185 2.4185 0.0 200.0 0.0 0.0 0.0 0.0 0.0 0.0 0.0 0.0 0.0 0.0 
1.928 1.0721404252628597 -1.7790630818307895 -1.7251477747280064 0.36300255643294577 0.49881765223272484 -0.00025169920938635654 0.3564250575083548 -1.2215297204825202 0.2998933496000896 0.6903894695623285 -0.2922103956376334 -0.30842671037262764 300.0 165.60000000000002 400.0 2.4186 -2.4185 2.4185 0.0 200.0 0.0 0.0 0.0 0.0 0.0 0.0 0.0 0.0 0.0 0.0 
1.936 1.0751894563623936 -1.7831939174031715 -1.7199632103004512 0.36195029665293 0.49576862123031906 -0.00025311706280335493 -0.03027661631108576 0.12580543866040342 -0.9702365925580942 0.8157445239247387 0.016604126094737843 -0.03826093609785086 300.0 167.2 400.0 2.4186 -2.4185 2.4185 0.0 200.0 0.0 0.0 0.0 0.0 0.0 0.0 0.0 0.0 0.0 0.0 
1.944 1.078208556220886 -1.7873451997674596 -1.7147328873966676 0.3608727215706422 0.4927495214690828 -0.0002545391701326658 -1.1405251196769484 0.13234800280313652 -0.17460587409698136 -0.6346016995352308 -0.9715719629237398 -0.9027648354347612 300.0 168.8 400.0 2.4186 -2.4185 2.4185 0.0 200.0 0.0 0.0 0.0 0.0 0.0 0.0 0.0 0.0 0.0 0.0 
1.952 1.0811980498038412 -1.7915167566184844 -1.7094567689356168 0.3597696301512263 0.48976002798351587 -0.00025596547729823135 0.030229751938419057 -0.20491832188384262 1.008447039101973 -0.83321863692269 0.015074554493333352 -0.03959907879167241 300.0 170.39999999999998 400.0 2.4186 -2.4185 2.4185 0.0 200.0 0.0 0.0 0.0 0.0 0.0 0.0 0.0 0.0 0.0 0.0 
1.96 1.0841582599087634 -1.7957084238371113 -1.704134811177874 0.3586408140171147 0.4867998179761065 -0.00025739593085880844 -0.9478215565444233 -0.2820660709208844 0.14735662877446384 0.6428431402600233 0.8350168966332996 0.6777258594341756 300.0 172.0 400.0 2.4186 -2.4185 2.4185 0.0 200.0 0.0 0.0 0.0 0.0 0.0 0.0 0.0 0.0 0.0 0.0 
1.968 1.0870895071011706 -1.7999200454992788 -1.6987669635699143 0.35748606208505707 0.4838685708813413 -0.00025883047800624465 -0.030286162183628177 0.23363749030782918 -0.9924002543215676 0.7280692382517359 0.013544500635409603 -0.04093764338665705 300.0 173.60000000000002 400.0 2.4186 -2.4185 2.4185 0.0 200.0 0.0 0.0 0.0 0.0 0.0 0.0 0.0 0.0 0.0 0.0 
1.976 1.0899921096549063 -1.8041514738851667 -1.6933531685849108 0.3563051694829087 0.4809659684253754 -0.00026026906656344967 0.3352000918959618 1.1480386513473986 -0.09961124914389388 -0.8885629756673593 0.3040608121997828 0.21321997787074315 300.0 175.2 400.0 2.4186 -2.4185 2.4185 0.0 200.0 0.0 0.0 0.0 0.0 0.0 0.0 0.0 0.0 0.0 0.0 
1.984 1.0928663834965904 -1.8084025694887444 -1.6878933615598142 0.35509793712936544 0.47809169468158164 -0.0002617116449820734 0.03044681477009077 -0.3162553123845756 1.0239879034577062 -0.7394369292227205 0.01200346032203488 -0.042285819460489295 300.0 176.8 400.0 2.4186 -2.4185 2.4185 0.0 200.0 0.0 0.0 0.0 0.0 0.0 0.0 0.0 0.0 0.0 0.0 
1.992 1.0957126421540602 -1.8126732010279372 -1.6823874705284894 0.3538641579583959 0.475245436122125 -0.00026315816233990675 -0.20402499714768912 -0.7767805849260564 0.05077622237196046 0.8109014741461265 0.18976892585870175 0.11323194688875897 300.0 178.40000000000003 400.0 2.4186 -2.4185 2.4185 0.0 200.0 0.0 0.0 0.0 0.0 0.0 0.0 0.0 0.0 0.0 0.0 
2.0 1.0985311967086604 -1.816963245455671 -1.676835416050658 0.35260363245929294 0.4724268816656584 -0.0002646085683380222 -0.030714489596434604 0.33806239595539483 -1.0008618911437737 0.6300700490579796 0.010440625573087366 -0.043653062353227495 300.0 180.0 400.0 2.4186 -2.4185 2.4185 0.0 200.0 0.0 0.0 0.0 0.0 -0.0 -1000.0 -0.0 0.0 0.0 0.0 
2.008 1.1012667990625937 -1.8211862127031664 -1.6713495309927964 0.3513421665656269 0.46969127940801014 -0.00026603369109499833 0.16656640881200477 0.966065537555685 -0.00880504382157992 -0.8926096200347948 0.15648885768449952 0.08622842591171653 300.0 181.56799999999998 400.0 2.4186 -2.4185 2.4185 0.0 192.0 0.0 0.0 0.0 0.0 -0.0 -1000.0 -0.0 0.0 0.0 0.0 
2.016 1.1038662895019788 -1.825254135430478 -1.6660457404890565 0.35010769628465055 0.46709178906108756 -0.0002674040670448294 0.027975245144306254 -0.2812874710268552 0.9412469377366806 -0.6889485544250238 0.011315931760836883 -0.03866434062320956 300.0 183.0719999999999 400.0 2.4186 -2.4185 2.4185 0.0 184.0 0.0 0.0 0.0 0.0 -0.0 -1000.0 -0.0 0.0 0.0 0.0 
2.024 1.1063329612162762 -1.8291647715194892 -1.66092919225705 0.34890312900113973 0.4646251174354139 -0.0002687192307621136 1.1839196540199233 -1.6827573158041649 0.23461271211222062 0.7501506614488614 -1.0110331210840453 -0.930952908934576 300.0 184.51200000000017 400.0 2.4186 -2.4185 2.4185 0.0 176.0 0.0 0.0 0.0 0.0 -0.0 -1000.0 -0.0 0.0 0.0 0.0 
2.032 1.1086699153429957 -1.8329159958249899 -1.6560048267869767 0.3477312693878749 0.4622881633934647 -0.00026997874503919205 -0.02600425764443626 -0.021851514477406807 -0.7707895899541475 0.7709225318554339 0.017573160341730388 -0.028967254719532088 300.0 185.88799999999992 400.0 2.4186 -2.4185 2.4185 0.0 168.0 0.0 0.0 0.0 0.0 -0.0 -1000.0 -0.0 0.0 0.0 0.0 
2.04 1.1108800682202307 -1.8365057957896775 -1.651277377268274 0.3465948407717121 0.4600780105971367 -0.0002711821996707084 -0.05277009588558218 0.6989170244967284 -0.4908756976233631 -0.2583813780804678 -0.0284754331991623 -0.0671412948894143 300.0 187.2000000000001 400.0 2.4186 -2.4185 2.4185 0.0 160.0 0.0 0.0 0.0 0.0 -0.0 -1000.0 -0.0 0.0 0.0 0.0 
2.048 1.1129661582168322 -1.839932267600679 -1.6467513692278184 0.34549647010770657 0.45799192067756495 -0.00027232921031911984 0.032937268720673096 0.42150783773792444 0.43125787734449833 -0.8618969574205425 0.03193617245556168 -0.012178840105031508 300.0 188.4480000000002 400.0 2.4186 -2.4185 2.4185 0.0 152.0 0.0 0.0 0.0 0.0 -0.0 -1000.0 -0.0 0.0 0.0 0.0 
2.056 1.1149307521511798 -1.843193612840915 -1.6424311199092416 0.3444386760966145 0.45602732681636043 -0.0002734194174573132 0.02348576919571255 -0.39764528788377906 0.7257773091186611 -0.35448421192018986 0.0032683282771719013 -0.03514736603078155 300.0 189.6320000000002 400.0 2.4186 -2.4185 2.4185 0.0 144.0 0.0 0.0 0.0 0.0 -0.0 -1000.0 -0.0 0.0 0.0 0.0 
2.064 1.11677625130983 -1.8462881355907252 -1.6383207374236752 0.34342386228723143 0.454181827726952 -0.00027445248538467067 0.31331049043183956 -0.8793525461327864 0.19314194040080948 0.48857876063214306 -0.26027067457654113 -0.26359246113589213 300.0 190.75200000000018 400.0 2.4186 -2.4185 2.4185 0.0 136.0 0.0 0.0 0.0 0.0 -0.0 -1000.0 -0.0 0.0 0.0 0.0 
2.072 1.1185048970774805 -1.8492142399373195 -1.63442411970264 0.34245433789570145 0.4524531820246381 -0.0002754281013131449 -0.02313637913563331 -0.22917027313801736 -0.45696605641331317 0.674367030361474 0.020673685719673804 -0.015697361615643727 300.0 191.8080000000001 400.0 2.4186 -2.4185 2.4185 0.0 128.0 0.0 0.0 0.0 0.0 -0.0 -1000.0 -0.0 0.0 0.0 0.0 
2.08 1.1201187761896612 -1.8519704278517342 -1.630744953284076 0.3415322905934959 0.4508393029738757 -0.00027634597452011483 -0.019790206392797306 0.31837184204993024 -0.5858329565670389 0.24518087392576993 0.0022356243707500677 -0.029716382241961443 300.0 192.79999999999993 400.0 2.4186 -2.4185 2.4185 0.0 120.0 0.0 0.0 0.0 0.0 -0.0 -1000.0 -0.0 0.0 0.0 0.0 
2.088 1.1216198256193806 -1.8545552973950734 -1.6272867119625387 0.3406597893969392 0.44933825360164964 -0.00027720583556499576 -0.07386150776842969 0.4820584474596278 -0.22398604456139856 -0.31548579397102716 -0.0537403789964106 -0.07657539728676571 300.0 193.72800000000012 400.0 2.4186 -2.4185 2.4185 0.0 112.0 0.0 0.0 0.0 0.0 -0.0 -1000.0 -0.0 0.0 0.0 0.0 
2.096 1.1230098371086572 -1.856967541217904 -1.6240526553344203 0.3398387857292626 0.4479482421659342 -0.00027800743556678146 0.02658157077525698 0.346794062946923 0.23094819899810848 -0.5809886581955592 0.02642670966132263 -0.004329897224137761 300.0 194.59199999999984 400.0 2.4186 -2.4185 2.4185 0.0 104.0 0.0 0.0 0.0 0.0 -0.0 -1000.0 -0.0 0.0 0.0 0.0 
2.104 1.1242904613554954 -1.859205945318763 -1.6210458272686428 0.3390711168496303 0.4466676179687173 -0.00027875054553990776 0.014649592471203215 -0.03236413581113084 0.4664298902389262 -0.44715034620330507 0.009014287223312706 -0.01745163967539124 300.0 195.39199999999994 400.0 2.4186 -2.4185 2.4185 0.0 96.0 0.0 0.0 0.0 0.0 -0.0 -1000.0 -0.0 0.0 0.0 0.0 
2.112 1.125463211866356 -1.8612693880297708 -1.6182690543327223 0.33835847676028896 0.44549486750353107 -0.0002794349557860049 0.01609343026583614 -0.3151270357021664 0.41566695375220153 -0.11872614270816592 -0.001176979173939517 -0.02425596802977457 300.0 196.12799999999996 400.0 2.4186 -2.4185 2.4185 0.0 88.0 0.0 0.0 0.0 0.0 -0.0 -1000.0 -0.0 0.0 0.0 0.0 
2.12 1.1265294684836797 -1.8631568391995001 -1.6157249442031731 0.33770245130273535 0.4444286109279298 -0.000280060475339321 0.04080613229880996 -0.41622773787512396 0.19803415606895722 0.18421202533502126 -0.027671390796939803 -0.04532307077805601 300.0 196.79999999999993 400.0 2.4186 -2.4185 2.4185 0.0 80.0 0.0 0.0 0.0 0.0 -0.0 -1000.0 -0.0 0.0 0.0 0.0 
2.128 1.1274904805974038 -1.864867359545252 -1.613415884088268 0.3371044836786872 0.44346759885197046 -0.0002806269314637708 -0.03599351706812035 -0.2840042218378388 -0.03836285086769128 0.33117153272648686 0.03514475655081722 0.011742992556306934 300.0 197.40799999999984 400.0 2.4186 -2.4185 2.4185 0.0 72.0 0.0 0.0 0.0 0.0 -0.0 -1000.0 -0.0 0.0 0.0 0.0 
2.136 1.1283473700487952 -1.866400100149065 -1.6113440391898208 0.3365658916434493 0.44261070943438097 -0.00028113416919975387 -0.012862922196155794 -0.15169093893768942 -0.19488702085062287 0.34190477064449853 0.012183782426616361 -0.00623288937645218 300.0 197.9520000000001 400.0 2.4186 -2.4185 2.4185 0.0 64.0 0.0 0.0 0.0 0.0 -0.0 -1000.0 -0.0 0.0 0.0 0.0 
2.144 1.1291011337342702 -1.8677543020738454 -1.6095113512292343 0.3360878583806972 0.44185694577873824 -0.0002815820509590635 -0.00871329186409404 -0.013180883392389797 -0.2543439667191988 0.2603986319563066 0.006030461537083131 -0.009504629080364983 300.0 198.4319999999999 400.0 2.4186 -2.4185 2.4185 0.0 56.0 0.0 0.0 0.0 0.0 -0.0 -1000.0 -0.0 0.0 0.0 0.0 
2.152 1.1297526459161862 -1.8689292960781958 -1.6079195370613049 0.3356714298666945 0.4412054336226885 -0.0002819704561663896 -0.007369424575604442 0.08080814541889848 -0.2402015881585356 0.15154498912214986 0.0025158327196844153 -0.01046791423770454 300.0 198.84800000000007 400.0 2.4186 -2.4185 2.4185 0.0 48.0 0.0 0.0 0.0 0.0 -0.0 -1000.0 -0.0 0.0 0.0 0.0 
2.16 1.130302660246876 -1.8699245024106337 -1.606570087397457 0.3353175186357509 0.44065541931388885 -0.00028229928094607236 -0.007000566685597888 0.12317113080433756 -0.18875512876458267 0.057651885688983155 -2.5249852079037036e-05 -0.010579494385289743 300.0 199.20000000000016 400.0 2.4186 -2.4185 2.4185 0.0 40.0 0.0 0.0 0.0 0.0 -0.0 -1000.0 -0.0 0.0 0.0 0.0 
2.168 1.1307518115115012 -1.870739430666128 -1.6054642656579432 0.3350268977250881 0.44020626806717716 -0.00028256843785295064 -0.0070622080688745965 0.12543327678383995 -0.12942146954766756 -0.003675995886476241 -0.0020303254798396692 -0.01022214991679528 300.0 199.4880000000001 400.0 2.4186 -2.4185 2.4185 0.0 32.0 0.0 0.0 0.0 0.0 -0.0 -1000.0 -0.0 0.0 0.0 0.0 
2.176 1.1311006170945523 -1.871373679690065 -1.604603106970342 0.33480019897906854 0.4398574624980625 -0.0002827778556462939 -0.0071703842277115945 0.1035488899316259 -0.07873458791917845 -0.03188263503792843 -0.0035354503311685313 -0.00942742449919176 300.0 199.71200000000005 400.0 2.4186 -2.4185 2.4185 0.0 24.0 0.0 0.0 0.0 0.0 -0.0 -1000.0 -0.0 0.0 0.0 0.0 
2.184 1.1313494781741071 -1.8718269375169982 -1.6039874173293045 0.33463791571307944 0.43960860142846414 -0.00028292747910598116 -0.0066802029319198925 0.07062339977810925 -0.04205056387566246 -0.03447926646009284 -0.00417760494682208 -0.007877731275704559 300.0 199.87199999999996 400.0 2.4186 -2.4185 2.4185 0.0 16.0 0.0 0.0 0.0 0.0 -0.0 -1000.0 -0.0 0.0 0.0 0.0 
2.192 1.1314986806472014 -1.872098981333819 -1.6036177729299264 0.33454040768376303 0.4394593989613413 -0.00028301726889023326 -0.004461893740518768 0.03493562859547261 -0.017603666162730312 -0.020955813567841507 -0.00311122453986639 -0.004833329562896943 300.0 199.9679999999998 400.0 2.4186 -2.4185 2.4185 0.0 8.0 0.0 0.0 0.0 0.0 -0.0 -1000.0 -0.0 0.0 0.0 0.0 
2.2 1.131548395788938 -1.8721896774592426 -1.6034945196845334 0.33450787815528416 0.4394096838215963 -0.00028304720143437355 0.0 0.0 0.0 0.0 0.0 0.0 300.0 200.0 400.0 2.4186 -2.4185 2.4185 0.0 0.0 0.0 0.0 0.0 0.0 -0.0 -1000.0 -0.0 0.0 0.0 0.0 
