Fleaurent/UniversalRobot/csv/robolib_movej_Synchron.csv
timestamp target_q_0 target_q_1 target_q_2 target_q_3 target_q_4 target_q_5 target_qd_0 target_qd_1 target_qd_2 target_qd_3 target_qd_4 target_qd_5 target_qdd_0 target_qdd_1 target_qdd_2 target_qdd_3 target_qdd_4 target_qdd_5 target_TCP_pose_0 target_TCP_pose_1 target_TCP_pose_2 target_TCP_pose_3 target_TCP_pose_4 target_TCP_pose_5 target_TCP_speed_0 target_TCP_speed_1 target_TCP_speed_2 target_TCP_speed_3 target_TCP_speed_4 target_TCP_speed_5
0.0 0.0 -1.5707963267948966 -1.5707963267948966 0.0 1.5707963267948966 0.0 0.0 0.0 0.0 0.0 0.0 0.0 1.0 0.6666666666666664 0.3333333333333332 0.0 0.0 0.0 0.29514999999999997 -0.11234999999999999 0.4809 -1.2091995761561454 1.2091995761561456 -1.2091995761561458 0.0 0.0 0.0 0.0 0.0 0.0 
0.008 3.2e-05 -1.5707749934615631 -1.57078566012823 0.0 1.5707963267948966 0.0 0.008 0.005333333333333331 0.0026666666666666657 0.0 0.0 0.0 1.0 0.6666666666666664 0.3333333333333332 0.0 0.0 0.0 0.295145665831104 -0.11234055539621338 0.4809094447008553 -1.2091911404039255 1.2091524469065253 -1.2091911404039257 -0.0010836177802366924 0.0023611018916976615 0.002361150427235515 2.559999999563092e-07 -0.007999999995903997 0.008 
0.016 0.000128 -1.5707109934615633 -1.57075366012823 0.0 1.5707963267948966 0.0 0.016 0.010666666666666663 0.005333333333333331 0.0 0.0 0.0 1.0 0.6666666666666664 0.3333333333333332 0.0 0.0 0.0 0.29513265969787134 -0.11231222393972357 0.48093777761360706 -1.209165826575134 1.2090110632539737 -1.2091658265751342 -0.002168142164364273 0.0047216150175315025 0.004722003388870399 2.047999994407594e-06 -0.015999999868927993 0.016 
0.024 0.000288 -1.5706043267948966 -1.5707003267948965 0.0 1.5707963267948966 0.0 0.024 0.015999999999999993 0.007999999999999997 0.0 0.0 0.0 1.0 0.6666666666666664 0.3333333333333332 0.0 0.0 0.0 0.29511097072221854 -0.11226501269746149 0.48098499516823306 -1.2091236149552054 1.2087754374892468 -1.2091236149552056 -0.003254479368515882 0.00708095003145998 0.007082261274241694 6.91199990444851e-06 -0.023999999004672 0.024 
0.032 0.000512 -1.5704549934615633 -1.5706256601282298 0.0 1.5707963267948966 0.0 0.032 0.021333333333333326 0.010666666666666663 0.0 0.0 0.0 1.0 0.6666666666666664 0.3333333333333332 0.0 0.0 0.0 0.29508058077917787 -0.11219893345538018 0.48105109141276164 -1.2090644726926643 1.2084455901030688 -1.2090644726926645 -0.004343534832789362 0.009438516427418615 0.009441626182591189 1.6383999284172122e-05 -0.03199999580569608 0.032 
0.04 0.0008 -1.5702629934615633 -1.57052966012823 0.0 1.5707963267948966 0.0 0.04 0.026666666666666658 0.013333333333333329 0.0 0.0 0.0 1.0 0.6666666666666664 0.3333333333333332 0.0 0.0 0.0 0.29504146450466257 -0.11211400273005209 0.4811360580103717 -1.2089883538083168 1.2080215497953124 -1.2089883538083168 -0.005436212831930507 0.011793721960140452 0.011799799778091358 3.1999996586666764e-05 -0.03999998720000067 0.04 
0.048 0.001152 -1.5700283267948965 -1.5704123267948966 0.0 1.5707963267948966 0.0 0.048 0.03199999999999999 0.015999999999999993 0.0 0.0 0.0 1.0 0.6666666666666664 0.3333333333333332 0.0 0.0 0.0 0.29499358930635133 -0.11201024178489635 0.4812398842353325 -1.2088951992081247 1.2075033534878448 -1.2088951992081247 -0.0065334160844583745 0.014145972066976445 0.014156483144959656 5.5295987769410324e-05 -0.047999968149507494 0.048 
0.056 0.0015680000000000002 -1.5697509934615632 -1.5702736601282299 0.0 1.5707963267948966 0.0 0.056 0.03733333333333332 0.01866666666666666 0.0 0.0 0.0 1.0 0.6666666666666664 0.3333333333333332 0.0 0.0 0.0 0.2949369153777089 -0.11188767665102609 0.48136255696778407 -1.208784936699754 1.2068910463410198 -1.2087849366997543 -0.007636045359714992 0.016494669291051953 0.016511376642690843 8.780796401886171e-05 -0.055999931158542085 0.056 
0.064 0.002048 -1.5694309934615631 -1.57011366012823 0.0 1.5707963267948966 0.0 0.064 0.04266666666666665 0.021333333333333326 0.0 0.0 0.0 1.0 0.6666666666666664 0.3333333333333332 0.0 0.0 0.0 0.29487139571515913 -0.11174633815270424 0.4815040606873617 -1.208657481012803 1.2061846817738038 -1.2086574810128035 -0.008744999082323334 0.018839212706097768 0.01886417976143706 0.00013107190837405015 -0.0639998657823189 0.064 
0.072 0.0025920000000000006 -1.5690683267948966 -1.5699323267948966 0.0 1.5707963267948966 0.0 0.07200000000000001 0.04799999999999999 0.023999999999999994 0.0 0.0 0.0 1.0 0.6666666666666664 0.3333333333333332 0.0 0.0 0.0 0.2947969761384359 -0.11158626193739268 0.4816643774656629 -1.2085127338227057 1.205384321487513 -1.208512733822706 -0.00986117293353912 0.021178997343297295 0.0212145909775657 0.00018662379102896593 -0.07199975813543139 0.07200000000000001 
0.08 0.0032 -1.5686629934615632 -1.5697296601282298 0.0 1.5707963267948966 0.0 0.08 0.053333333333333316 0.026666666666666658 0.0 0.0 0.0 1.0 0.6666666666666664 0.3333333333333332 0.0 0.0 0.0 0.2947135953141356 -0.11140748851037754 0.4818434869575604 -1.208350583778309 1.2044900354931398 -1.2083505837783097 -0.010985459448984288 0.023513413620494694 0.023562307609425175 0.00025599956309355694 -0.07999959040034951 0.08 
0.088 0.0038719999999999996 -1.5682149934615632 -1.5695056601282298 0.0 1.5707963267948966 0.0 0.088 0.05866666666666664 0.02933333333333332 0.0 0.0 0.0 1.0 0.6666666666666664 0.3333333333333332 0.0 0.0 0.0 0.29462118478250576 -0.11121006327395015 0.48204136639136114 -1.208170906533132 1.2035019021422428 -1.2081709065331323 -0.012118747612252316 0.02584184677411362 0.025907025673349182 0.0003407351485931456 -0.08799934033592813 0.088 
0.096 0.004608 -1.5677243267948966 -1.5692603267948966 0.0 1.5707963267948966 0.0 0.096 0.06399999999999997 0.03199999999999999 0.0 0.0 0.0 1.0 0.6666666666666664 0.3333333333333332 0.0 0.0 0.0 0.2945196689875015 -0.11099403657112056 0.4822579905578157 -1.2079735647802876 1.2024200081613639 -1.2079735647802878 -0.013261922443878941 0.028163676294140065 0.028248439739929996 0.0004423664344860825 -0.09599898078593144 0.096 
0.104 0.005408000000000001 -1.5671909934615633 -1.56899366012823 0.0 1.5707963267948966 0.0 0.10400000000000001 0.06933333333333332 0.03466666666666666 0.0 0.0 0.0 1.0 0.6666666666666664 0.3333333333333332 0.0 0.0 0.0 0.29440896531015115 -0.11075946373383792 0.48249333179797815 -1.207758408291092 1.2012444486899503 -1.207758408291092 -0.014415864585174638 0.03047827536252896 0.030586242790592105 0.0005624292584794689 -0.1039984791875785 0.10400000000000001 
0.112 0.006272000000000001 -1.5666149934615632 -1.5687056601282299 0.0 1.5707963267948966 0.0 0.112 0.07466666666666665 0.03733333333333332 0.0 0.0 0.0 1.0 0.6666666666666664 0.3333333333333332 0.0 0.0 0.0 0.294288984105274 -0.11050640513568859 0.48274735998992047 -1.2075252739573312 1.1999753273217304 -1.2075252739573314 -0.01558144987641929 0.03278501029539968 0.032920126074497534 0.0007024593944227933 -0.11199779708011752 0.112 
0.12 0.0072 -1.5659963267948966 -1.5683963267948966 0.0 1.5707963267948966 0.0 0.12 0.07999999999999996 0.03999999999999998 0.0 0.0 0.0 1.0 0.6666666666666664 0.3333333333333332 0.0 0.0 0.0 0.2941596287415951 -0.11023492624904017 0.48302004253430253 -1.207273985837213 1.1986127561495161 -1.207273985837213 -0.016759548928923403 0.03508323998939195 0.0352497789658147 0.0008639925350593487 -0.11999688961343684 0.12 
0.128 0.008192 -1.5653349934615632 -1.56806566012823 0.0 1.5707963267948966 0.0 0.128 0.0853333333333333 0.04266666666666665 0.0 0.0 0.0 1.0 0.6666666666666664 0.3333333333333332 0.0 0.0 0.0 0.2940207956453112 -0.10994509770659708 0.4833113443388034 -1.207004355204973 1.1971568558133723 -1.2070043552049732 -0.017951026690465072 0.03737231537256131 0.03757488882138323 0.001048564271915323 -0.12799570505672309 0.128 
0.136 0.009248000000000001 -1.5646309934615632 -1.56771366012823 0.0 1.5707963267948966 0.0 0.136 0.09066666666666663 0.045333333333333316 0.0 0.0 0.0 1.0 0.6666666666666664 0.3333333333333332 0.0 0.0 0.0 0.29387237434716085 -0.10963699536732929 0.4836212278014142 -1.206716180604162 1.195607755552125 -1.2067161806041622 -0.01915674200361619 0.039651578860199946 0.039895140838807436 0.001257710072106482 -0.1359941843071773 0.136 
0.144 0.010368000000000002 -1.5638843267948965 -1.5673403267948967 0.0 1.5707963267948966 0.0 0.14400000000000002 0.09599999999999997 0.04799999999999999 0.0 0.0 0.0 1.0 0.6666666666666664 0.3333333333333332 0.0 0.0 0.0 0.2937142475330576 -0.10931070038673346 0.4839496527925981 -1.2064092479045825 1.1939655932581346 -1.2064092479045831 -0.020377547156477778 0.041920363815978 0.04221021791501178 0.0014929652518424208 -0.1439922603988033 0.14400000000000002 
0.152 0.011552 -1.5630949934615632 -1.56694566012823 0.0 1.5707963267948966 0.0 0.152 0.10133333333333329 0.050666666666666645 0.0 0.0 0.0 1.0 0.6666666666666664 0.3333333333333332 0.0 0.0 0.0 0.2935462910983499 -0.10896629929138263 0.4842965766363214 -1.2060833303629055 1.192230515535306 -1.2060833303629057 -0.021614287425349155 0.044177994018808155 0.044519800505292306 0.001755864946408391 -0.15198985801128295 0.152 
0.16 0.0128 -1.5622629934615633 -1.56652966012823 0.0 1.5707963267948966 0.0 0.16 0.10666666666666663 0.053333333333333316 0.0 0.0 0.0 1.0 0.6666666666666664 0.3333333333333332 0.0 0.0 0.0 0.2933683742057729 -0.10860388405771618 0.48466195408995766 -1.20573818868693 1.1904026777602537 -1.20573818868693 -0.02286780060886269 0.04642378313584611 0.046823566482898385 0.0020479440764047943 -0.15998689297895594 0.16 
0.168 0.014112000000000001 -1.5613883267948965 -1.5660923267948965 0.0 1.5707963267948966 0.0 0.168 0.11199999999999996 0.05599999999999998 0.0 0.0 0.0 1.0 0.6666666666666664 0.3333333333333332 0.0 0.0 0.0 0.2931803593471629 -0.1082235521950205 0.485045737323072 -1.20537357110351 1.1884822441465774 -1.2053735711035105 -0.024138916553122114 0.048657034202049254 0.049121190999179894 0.002370737310024471 -0.16798327179992312 0.168 
0.176 0.015487999999999998 -1.5604709934615633 -1.56563366012823 0.0 1.5707963267948966 0.0 0.176 0.11733333333333328 0.05866666666666664 0.0 0.0 0.0 1.0 0.6666666666666664 0.3333333333333332 0.0 0.0 0.0 0.2929821024090091 -0.107825406832545 0.48544787589508814 -1.2049892134301303 1.1864693878121801 -1.2049892134301305 -0.025428456667390135 0.05087703910672617 0.05141234634433568 0.0027257790211480566 -0.17597889114529572 0.176 
0.184 0.016928 -1.5595109934615632 -1.5651536601282299 0.0 1.5707963267948966 0.0 0.184 0.12266666666666662 0.06133333333333331 0.0 0.0 0.0 1.0 0.6666666666666664 0.3333333333333332 0.0 0.0 0.0 0.29277345274191746 -0.10740955681069649 0.48586831673184505 -1.2045848391501284 1.1843642908495564 -1.2045848391501286 -0.0267372334298785 0.05308307808752002 0.05369670180879965 0.00311460324303772 -0.18397363736861438 0.184 
0.192 0.018432 -1.5585083267948965 -1.5646523267948966 0.0 1.5707963267948966 0.0 0.192 0.12799999999999995 0.06399999999999997 0.0 0.0 0.0 1.0 0.6666666666666664 0.3333333333333332 0.0 0.0 0.0 0.2925542532340711 -0.10697611677625049 0.4863070041010455 -1.2041601594915656 1.1821671443989943 -1.2041601594915663 -0.028066049883201685 0.05527441923228097 0.0559739235453018 0.003538743617409752 -0.19196738601546415 0.192 
0.2 0.020000000000000004 -1.5574629934615631 -1.56412966012823 0.0 1.5707963267948966 0.0 0.2 0.13333333333333328 0.06666666666666664 0.0 0.0 0.0 1.0 0.6666666666666664 0.3333333333333332 0.0 0.0 0.0 0.29232434038876826 -0.10652520728151431 0.486763879586606 -1.2037148735097367 1.1798781487246035 -1.2037148735097374 -0.02941569911906507 0.057450317989293745 0.0582436744316419 0.003999733338666615 -0.19996000133331548 0.2 
0.208 0.021632000000000005 -1.5563749934615632 -1.5635856601282299 0.0 1.5707963267948966 0.0 0.20800000000000002 0.13866666666666663 0.06933333333333332 0.0 0.0 0.0 1.0 0.6666666666666664 0.3333333333333332 0.0 0.0 0.0 0.29208354440612877 -0.1060569548873734 0.48723888206191046 -1.203248668173308 1.1774975132931034 -1.2032486681733086 -0.030786963751766764 0.05961001668633942 0.06050561393421518 0.0044991050930692006 -0.20795133578162345 0.20800000000000002 
0.216 0.023327999999999998 -1.5552443267948965 -1.5630203267948966 0.0 1.5707963267948966 0.0 0.216 0.14399999999999993 0.07199999999999997 0.0 0.0 0.0 1.0 0.6666666666666664 0.3333333333333332 0.0 0.0 0.0 0.29183168926905706 -0.10557149227014834 0.48773194766197553 -1.20276121845409 1.1750254568552914 -1.2027612184540901 -0.03218061538010257 0.06175274405908266 0.06275939797232868 0.005038390992630237 -0.21594122954221906 0.216 
0.224 0.025088000000000003 -1.5540709934615633 -1.5624336601282298 0.0 1.5707963267948966 0.0 0.224 0.1493333333333333 0.07466666666666665 0.0 0.0 0.0 1.0 0.6666666666666664 0.3333333333333332 0.0 0.0 0.0 0.29156859283355907 -0.10506895833218537 0.48824300975453466 -1.2022521874204275 1.1724622075301077 -1.2022521874204277 -0.03359741403727465 0.06387771478928955 0.06500467878335003 0.005619122503510012 -0.2239295100300327 0.224 
0.232 0.026912000000000002 -1.5528549934615632 -1.5618256601282299 0.0 1.5707963267948966 0.0 0.232 0.15466666666666662 0.07733333333333331 0.0 0.0 0.0 1.0 0.6666666666666664 0.3333333333333332 0.0 0.0 0.0 0.2912940669235077 -0.10454949831610066 0.4887719989100451 -1.2017212263342034 1.1698080028912137 -1.2017212263342039 -0.03503810762841402 0.06598412905339386 0.06724110478872847 0.006242830368695748 -0.23191599140418853 0.232 
0.24 0.0288 -1.5515963267948967 -1.5611963267948965 0.0 1.5707963267948966 0.0 0.24 0.15999999999999992 0.07999999999999996 0.0 0.0 0.0 1.0 0.6666666666666664 0.3333333333333332 0.0 0.0 0.0 0.2910079174299609 -0.10401326392259243 0.4893188428706285 -1.2011679747514505 1.1670630900560046 -1.2011679747514508 -0.036503431355340836 0.06807117208194496 0.06946832046093229 0.006911044524746327 -0.2399004740795168 0.24 
0.248 0.030751999999999998 -1.5502949934615633 -1.56054566012823 0.0 1.5707963267948966 0.0 0.248 0.16533333333333328 0.08266666666666664 0.0 0.0 0.0 1.0 0.6666666666666664 0.3333333333333332 0.0 0.0 0.0 0.29070994441513165 -0.10346041343173236 0.4898834665179496 -1.2005920606265559 1.1642277257769518 -1.200592060626556 -0.03799410712819638 0.07013801373048326 0.0716859661913442 0.007625294012384267 -0.24788274423853038 0.248 
0.256 0.032768 -1.5489509934615633 -1.55987366012823 0.0 1.5707963267948966 0.0 0.256 0.1706666666666666 0.0853333333333333 0.0 0.0 0.0 1.0 0.6666666666666664 0.3333333333333332 0.0 0.0 0.0 0.2903999422211201 -0.10289111182764249 0.49046579184004246 -1.1999931004200586 1.1613021765352016 -1.1999931004200586 -0.039510842963595666 0.07218380806240587 0.07389367815916023 0.0083871068807172 -0.25586257334391715 0.256 
0.264 0.034848000000000004 -1.5475643267948966 -1.5591803267948965 0.0 1.5707963267948966 0.0 0.264 0.17599999999999993 0.08799999999999997 0.0 0.0 0.0 1.0 0.6666666666666664 0.3333333333333332 0.0 0.0 0.0 0.29007769958351537 -0.10230553092645904 0.49106573789709207 -1.199370699210018 1.1582867186363235 -1.199370699210018 -0.041054332368962373 0.07420769294439937 0.07609108820133714 0.009198010084871547 -0.2638397176516048 0.264 
0.272 0.036992000000000004 -1.5461349934615631 -1.5584656601282298 0.0 1.5707963267948966 0.0 0.272 0.18133333333333326 0.09066666666666663 0.0 0.0 0.0 1.0 0.6666666666666664 0.3333333333333332 0.0 0.0 0.0 0.2897429997499782 -0.10170384950748083 0.4916832207861797 -1.1987244508069534 1.1551816383081204 -1.198724450806954 -0.04262525371272167 0.07620878965503118 0.07827782368363444 0.010059529376821308 -0.27181391772445507 0.272 
0.28 0.0391840016747206 -1.5446736590117496 -1.557734992903323 0.0 1.5707963267948966 0.0 0.2743434418098265 0.1828956278732176 0.0914478139366088 0.0 0.0 0.0 0.0 0.0 0.0 0.0 0.0 0.0 0.289398147369169 -0.10109072081756042 0.4923135567166799 -1.1980588142801853 1.152010364956628 -1.1980588142801856 -0.04332840379628735 0.07660856509001406 0.07882908633223216 0.010747123226878461 -0.274132857217824 0.2743434418098265 
0.288 0.04137874920919921 -1.5432104939887639 -1.5570034103918302 0.0 1.5707963267948966 0.0 0.2743434418098265 0.1828956278732176 0.0914478139366088 0.0 0.0 0.0 0.0 0.0 0.0 0.0 0.0 0.0 0.2890501786890447 -0.10047888574036509 0.49294369492553397 -1.197387370517708 1.1488384973147914 -1.197387370517708 -0.043663572137624576 0.0763499584019649 0.07870540211170844 0.01134874927237021 -0.2741086097772459 0.2743434418098265 
0.296 0.04357349674367781 -1.5417473289657782 -1.5562718278803374 0.0 1.5707963267948966 0.0 0.2743434418098265 0.1828956278732176 0.0914478139366088 0.0 0.0 0.0 0.0 0.0 0.0 0.0 0.0 0.0 0.28869953332917625 -0.09986912540947343 0.49357284213071656 -1.1967109600796229 1.145670019101077 -1.1967109600796229 -0.04399757265119614 0.07608987933570117 0.07858133548471602 0.01195032065190355 -0.27408304197884675 0.2743434418098265 
0.304 0.04576824427815643 -1.5402841639427922 -1.5555402453688445 0.0 1.5707963267948966 0.0 0.2743434418098265 0.1828956278732176 0.0914478139366088 0.0 0.0 0.0 0.0 0.0 0.0 0.0 0.0 0.0 0.28834622065810556 -0.0992614515841547 0.4942009952746673 -1.1960295928159124 1.142504939312167 -1.1960295928159126 -0.04433039886042164 0.07582833283508525 0.07845688687445765 0.012551834467760405 -0.27405615394578453 0.2743434418098265 
0.312 0.04796299181263504 -1.5388209989198065 -1.5548086628573516 0.0 1.5707963267948966 0.0 0.2743434418098265 0.1828956278732176 0.0914478139366088 0.0 0.0 0.0 0.0 0.0 0.0 0.0 0.0 0.0 0.28799025009610574 -0.09865587598401325 0.49482815130321905 -1.195343278573598 1.139343266900195 -1.1953432785735987 -0.04466204430922551 0.07556532387247686 0.07833205670598359 0.013153287822499964 -0.27402794580757645 0.2743434418098265 
0.32 0.05015773934711366 -1.5373578338968208 -1.5540770803458588 0.0 1.5707963267948966 0.0 0.2743434418098265 0.1828956278732176 0.0914478139366088 0.0 0.0 0.0 0.0 0.0 0.0 0.0 0.0 0.0 0.28763163111501555 -0.09805241028876083 0.4954543071656126 -1.1946520271966505 1.136185010772895 -1.1946520271966508 -0.04499250256216242 0.07530085744864837 0.07820684540618973 0.013754677818972655 -0.2739984177000989 0.2743434418098265 
0.328 0.05235248688159227 -1.535894668873835 -1.553345497834366 0.0 1.5707963267948966 0.0 0.2743434418098265 0.1828956278732176 0.0914478139366088 0.0 0.0 0.0 0.0 0.0 0.0 0.0 0.0 0.0 0.2872703732380745 -0.0974510661379897 0.49607945981451107 -1.193955848525899 1.133030179793751 -1.1939558485258992 -0.04532176720454212 0.07503493859269969 0.07808125340381603 0.014356001560334095 -0.2739675697655861 0.2743434418098265 
0.336 0.054547234416070886 -1.5344315038508494 -1.5526139153228729 0.0 1.5707963267948966 0.0 0.2743434418098265 0.1828956278732176 0.0914478139366088 0.0 0.0 0.0 0.0 0.0 0.0 0.0 0.0 0.0 0.2869064860397563 -0.09685185513094623 0.49670360620601495 -1.1932547523989454 1.1298787827821506 -1.1932547523989456 -0.045649831842554354 0.07476757236197278 0.07795528112944478 0.014957256150059063 -0.27393540215263 0.2743434418098265 
0.344 0.0567419819505495 -1.5329683388278637 -1.55188233281138 0.0 1.5707963267948966 0.0 0.2743434418098265 0.1828956278732176 0.0914478139366088 0.0 0.0 0.0 0.0 0.0 0.0 0.0 0.0 0.0 0.28653997914560125 -0.09625478882630538 0.4973267432996766 -1.192548748650076 1.1267308285135338 -1.1925487486500768 -0.045976690103392955 0.07449876384196509 0.07782892901549898 0.015558438691955414 -0.2739019150161792 0.2743434418098265 
0.352 0.058936729485028094 -1.531505173804878 -1.5511507502998871 0.0 1.5707963267948966 0.0 0.2743434418098265 0.1828956278732176 0.0914478139366088 0.0 0.0 0.0 0.0 0.0 0.0 0.0 0.0 0.0 0.2861708622320476 -0.09565987874194584 0.49794886805851524 -1.191837847110179 1.123586325719545 -1.191837847110179 -0.046302335635379915 0.07422851814624308 0.07770219749624054 0.01615954629017806 -0.2738671085175384 0.2743434418098265 
0.36 0.061131477019506705 -1.5300420087818922 -1.5504191677883943 0.0 1.5707963267948966 0.0 0.2743434418098265 0.1828956278732176 0.0914478139366088 0.0 0.0 0.0 0.0 0.0 0.0 0.0 0.0 0.0 0.2857991450262619 -0.09506713635472575 0.49856997744903164 -1.191122057606652 1.120445283088184 -1.1911220576066521 -0.04662676210808907 0.07395684041635461 0.07757508700776852 0.016760576049242915 -0.2738309828243677 0.2743434418098265 
0.368 0.06332622455398532 -1.5285788437589063 -1.5496875852769014 0.0 1.5707963267948966 0.0 0.2743434418098265 0.1828956278732176 0.0914478139366088 0.0 0.0 0.0 0.0 0.0 0.0 0.0 0.0 0.0 0.28542483730596885 -0.09447657310025924 0.49919006844122266 -1.190401389963323 1.117307709263953 -1.1904013899633235 -0.046949963212469234 0.07368373582174129 0.0774475979880175 0.017361525074040835 -0.27379353811068124 0.2743434418098265 
0.376 0.06552097208846394 -1.5271156787359206 -1.5489560027654086 0.0 1.5707963267948966 0.0 0.2743434418098265 0.1828956278732176 0.0914478139366088 0.0 0.0 0.0 0.0 0.0 0.0 0.0 0.0 0.0 0.28504794889928 -0.09388820037269362 0.49980913800859583 -1.1896758540003636 1.1141736128480129 -1.1896758540003638 -0.04727193266096703 0.07340920955965004 0.07731973087675592 0.017962390469851562 -0.2737547745568471 0.2743434418098265 
0.384 0.06771571962294255 -1.5256525137129349 -1.5482244202539157 0.0 1.5707963267948966 0.0 0.2743434418098265 0.1828956278732176 0.0914478139366088 0.0 0.0 0.0 0.0 0.0 0.0 0.0 0.0 0.0 0.28466848968452024 -0.09330202952448734 0.5004271831281841 -1.1889454595342053 1.1110430023983289 -1.188945459534206 -0.04759266418764954 0.07313326685504398 0.07719148611558407 0.018563169342357674 -0.27371469234958606 0.2743434418098265 
0.392 0.06991046715742116 -1.5241893486899492 -1.5474928377424229 0.0 1.5707963267948966 0.0 0.2743434418098265 0.1828956278732176 0.0914478139366088 0.0 0.0 0.0 0.0 0.0 0.0 0.0 0.0 0.0 0.28428646959005555 -0.0927180718661885 0.501044200780561 -1.1882102163774586 1.1079158864298215 -1.1882102163774586 -0.047912151548326426 0.0728559129605131 0.0770628641479326 0.01916385879765852 -0.2736732916819707 0.2743434418098265 
0.4 0.07210521469189979 -1.5227261836669634 -1.54676125523093 0.0 1.5707963267948966 0.0 0.2743434418098265 0.1828956278732176 0.0914478139366088 0.0 0.0 0.0 0.0 0.0 0.0 0.0 0.0 0.0 0.28390189859411785 -0.09213633866621436 0.5016601879498542 -1.1874701343388276 1.1047922734145195 -1.1874701343388279 -0.048230388520671554 0.07257715315618413 0.07693386541906064 0.01976445594228418 -0.27363057275342445 0.2743434418098265 
0.408 0.07429996222637839 -1.5212630186439777 -1.5460296727194371 0.0 1.5707963267948966 0.0 0.2743434418098265 0.1828956278732176 0.0914478139366088 0.0 0.0 0.0 0.0 0.0 0.0 0.0 0.0 0.0 0.2835147867246299 -0.09155684115063127 0.5022751416237614 -1.1867252232230312 1.101672171781706 -1.1867252232230314 -0.048547368904344655 0.07229699274963003 0.076804490376054 0.02036495788320936 -0.27358653576972075 0.2743434418098265 
0.416 0.07649470976085701 -1.519799853620992 -1.5452980902079443 0.0 1.5707963267948966 0.0 0.2743434418098265 0.1828956278732176 0.0914478139366088 0.0 0.0 0.0 0.0 0.0 0.0 0.0 0.0 0.0 0.2831251440590288 -0.09097959050293548 0.5028890587935636 -1.1859754928307218 1.0985555899180708 -1.1859754928307218 -0.04886308652111204 0.07201543707577888 0.07667473946782348 0.02096536172786739 -0.2735411809429821 0.2743434418098265 
0.424 0.07868945729533561 -1.5183366885980063 -1.5445665076964514 0.0 1.5707963267948966 0.0 0.2743434418098265 0.1828956278732176 0.0914478139366088 0.0 0.0 0.0 0.0 0.0 0.0 0.0 0.0 0.0 0.28273298072408853 -0.09040459786383483 0.5035019364541411 -1.185220952958403 1.0954425361678581 -1.185220952958403 -0.049177535214967594 0.07173249149682216 0.07654461314510297 0.021565664584164077 -0.2734945084916787 0.2743434418098265 
0.432 0.08088420482981422 -1.5168735235750204 -1.5438349251849586 0.0 1.5707963267948966 0.0 0.2743434418098265 0.1828956278732176 0.0914478139366088 0.0 0.0 0.0 0.0 0.0 0.0 0.0 0.0 0.0 0.2823383068957421 -0.08983187433103072 0.5041137716039867 -1.1844616133983525 1.092333018833018 -1.1844616133983528 -0.04949070885225268 0.07144816140212269 0.07641411186044778 0.022165863560491716 -0.27344651864062786 0.2743434418098265 
0.44 0.08307895236429283 -1.5154103585520347 -1.5431033426734657 0.0 1.5707963267948966 0.0 0.2743434418098265 0.1828956278732176 0.0914478139366088 0.0 0.0 0.0 0.0 0.0 0.0 0.0 0.0 0.0 0.2819411327989019 -0.08926143095900141 0.5047245612452212 -1.1836974839385448 1.0892270461733566 -1.1836974839385448 -0.04980260132177626 0.07116245220812192 0.07628323606823276 0.022765955765742977 -0.2733972116209926 0.2743434418098265 
0.448 0.08527369989877145 -1.513947193529049 -1.5423717601619729 0.0 1.5707963267948966 0.0 0.2743434418098265 0.1828956278732176 0.0914478139366088 0.0 0.0 0.0 0.0 0.0 0.0 0.0 0.0 0.0 0.2815414687072793 -0.0886932787587855 0.5053343023836079 -1.182928574362568 1.0861246264066813 -1.1829285743625682 -0.05011320653493441 0.07087536935824655 0.0761519862246504 0.023365938309324822 -0.27334658767028064 0.2743434418098265 
0.456 0.08746844743325007 -1.5124840285060632 -1.5416401776504798 0.0 1.5707963267948966 0.0 0.2743434418098265 0.1828956278732176 0.0914478139366088 0.0 0.0 0.0 0.0 0.0 0.0 0.0 0.0 0.0 0.28113932494320426 -0.08812742869776666 0.5059429920285665 -1.1821548944495506 1.0830257677089539 -1.1821548944495508 -0.05042251842582925 0.070586918322815 0.07602036278770923 0.02396580830117246 -0.2732946470323432 0.2743434418098265 
0.464 0.08966319496772868 -1.5110208634830775 -1.540908595138987 0.0 1.5707963267948966 0.0 0.2743434418098265 0.1828956278732176 0.0914478139366088 0.0 0.0 0.0 0.0 0.0 0.0 0.0 0.0 0.0 0.28073471187744226 -0.08756389169945866 0.5065506271931884 -1.181376453974083 1.0799304782144377 -1.1813764539740836 -0.05073053095138789 0.07029710459894295 0.07588836621723175 0.024565562851763235 -0.2732413899573739 0.2743434418098265 
0.472 0.09185794250220729 -1.5095576984600918 -1.540177012627494 0.0 1.5707963267948966 0.0 0.2743434418098265 0.1828956278732176 0.0914478139366088 0.0 0.0 0.0 0.0 0.0 0.0 0.0 0.0 0.0 0.28032763992901205 -0.08700267864329159 0.5071572048942504 -1.180593262706143 1.0768387660158474 -1.1805932627061435 -0.05103723809148045 0.07000593371044869 0.07575599697485277 0.025165199072130575 -0.2731868167019076 0.2743434418098265 
0.48 0.0940526900366859 -1.508094533437106 -1.5394454301160012 0.0 1.5707963267948966 0.0 0.2743434418098265 0.1828956278732176 0.0914478139366088 0.0 0.0 0.0 0.0 0.0 0.0 0.0 0.0 0.0 0.2799181195650008 -0.08644380036439836 0.50776272215223 -1.1798053304110172 1.0737506391644962 -1.1798053304110174 -0.051342633849038366 0.06971341120775758 0.0756232555240174 0.025764714073877905 -0.2731309275288189 0.2743434418098265 
0.488 0.0962474375711645 -1.5066313684141204 -1.5387138476045084 0.0 1.5707963267948966 0.0 0.2743434418098265 0.1828956278732176 0.0914478139366088 0.0 0.0 0.0 0.0 0.0 0.0 0.0 0.0 0.0 0.27950616130038 -0.08588726765340252 0.5083671759913193 -1.1790126668492291 1.0706661056704463 -1.1790126668492291 -0.051646712250171714 0.06941954266780644 0.07549014232997933 0.026364104969192517 -0.2730737227073213 0.2743434418098265 
0.496 0.09844218510564312 -1.5051682033911344 -1.5379822650930155 0.0 1.5707963267948966 0.0 0.2743434418098265 0.1828956278732176 0.0914478139366088 0.0 0.0 0.0 0.0 0.0 0.0 0.0 0.0 0.0 0.2790917756978188 -0.08533309125620622 0.5089705634394398 -1.1782152817764624 1.0675851735026545 -1.1782152817764626 -0.05194946734428635 0.069124333693947 0.07535665785979885 0.02696336887085955 -0.2730152025129655 0.2743434418098265 
0.504 0.10063693264012173 -1.5037050383681487 -1.5372506825815226 0.0 1.5707963267948966 0.0 0.2743434418098265 0.1828956278732176 0.0914478139366088 0.0 0.0 0.0 0.0 0.0 0.0 0.0 0.0 0.0 0.27867497336749797 -0.08478128187377965 0.5095728815282565 -1.1774131849434917 1.0645078505891248 -1.1774131849434921 -0.05225089320420066 0.06882778991584917 0.07522280258234111 0.02756250289227583 -0.2729553672276383 0.2743434418098265 
0.512 0.10283168017460034 -1.502241873345163 -1.5365191000700298 0.0 1.5707963267948966 0.0 0.2743434418098265 0.1828956278732176 0.0914478139366088 0.0 0.0 0.0 0.0 0.0 0.0 0.0 0.0 0.0 0.27825576496692134 -0.08423185016195056 0.5101741272931929 -1.176606386096105 1.0614341448170521 -1.1766063860961051 -0.05255098392626203 0.06852991698940347 0.07508857696827409 0.028161504147463823 -0.2728942171395612 0.2743434418098265 
0.52 0.10502642770907895 -1.5007787083221773 -1.535787517558537 0.0 1.5707963267948966 0.0 0.2743434418098265 0.1828956278732176 0.0914478139366088 0.0 0.0 0.0 0.0 0.0 0.0 0.0 0.0 0.0 0.27783416120072757 -0.08368480673119506 0.5107742977734443 -1.1757948949750328 1.0583640640329712 -1.175794894975033 -0.05284973363046245 0.0682307205966233 0.07495398149006677 0.02876036975108551 -0.27283175254328895 0.2743434418098265 
0.528 0.10722117524355758 -1.4993155432991916 -1.535055935047044 0.0 1.5707963267948966 0.0 0.2743434418098265 0.1828956278732176 0.0914478139366088 0.0 0.0 0.0 0.0 0.0 0.0 0.0 0.0 0.0 0.27741017282050034 -0.083140162146429 0.5113733900119941 -1.1749787213158787 1.0552976160429064 -1.1749787213158789 -0.05314713646055458 0.06793020644554636 0.07481901662198717 0.02935909681845631 -0.2727679737397081 0.2743434418098265 
0.536 0.10941592277803619 -1.4978523782762059 -1.5343243525355512 0.0 1.5707963267948966 0.0 0.2743434418098265 0.1828956278732176 0.0914478139366088 0.0 0.0 0.0 0.0 0.0 0.0 0.0 0.0 0.0 0.2769838106245781 -0.08259792692680017 0.5119714010556259 -1.174157874849046 1.052234808612518 -1.1741578748490462 -0.05344318658416618 0.06762838027013582 0.07468368284010063 0.029957682465558938 -0.27270288103603585 0.2743434418098265 
0.544 0.1116106703125148 -1.4963892132532202 -1.5335927700240584 0.0 1.5707963267948966 0.0 0.2743434418098265 0.1828956278732176 0.0914478139366088 0.0 0.0 0.0 0.0 0.0 0.0 0.0 0.0 0.0 0.2765550854578621 -0.08205811154548123 0.5125683279549397 -1.173332365299668 1.0491756494672477 -1.173332365299668 -0.053737878192915395 0.06732524783018079 0.07454798062226761 0.030556123809057322 -0.27263647474581815 0.2743434418098265 
0.552 0.11380541784699341 -1.4949260482302342 -1.5328611875125655 0.0 1.5707963267948966 0.0 0.2743434418098265 0.1828956278732176 0.0914478139366088 0.0 0.0 0.0 0.0 0.0 0.0 0.0 0.0 0.0 0.2761240082116245 -0.08152072642946365 0.5131641677643651 -1.172502202387538 1.0461201462924683 -1.1725022023875382 -0.054031205502524667 0.06702081491119648 0.074411910448142 0.0311544179663105 -0.2725687551889284 0.2743434418098265 
0.56 0.11600016538147202 -1.4934628832072485 -1.5321296050010726 0.0 1.5707963267948966 0.0 0.2743434418098265 0.1828956278732176 0.0914478139366088 0.0 0.0 0.0 0.0 0.0 0.0 0.0 0.0 0.0 0.27569058982331507 -0.08098578195935209 0.5137589175421768 -1.1716673958270423 1.0430683067336306 -1.1716673958270425 -0.05432316275293493 0.06671508732432366 0.07427547279916905 0.031752562055386485 -0.27249972269156614 0.2743434418098265 
0.568 0.11819491291595065 -1.4919997181842628 -1.5313980224895798 0.0 1.5707963267948966 0.0 0.2743434418098265 0.1828956278732176 0.0914478139366088 0.0 0.0 0.0 0.0 0.0 0.0 0.0 0.0 0.0 0.2752548412763663 -0.08045328846915997 0.5143525743505075 -1.1708279553270882 1.0400201383964076 -1.1708279553270884 -0.05461374420841864 0.06640807090622769 0.07413866815858339 0.03235055319507617 -0.27242937758625474 0.2743434418098265 
0.576 0.12038966045042926 -1.490536553161277 -1.530666439978087 0.0 1.5707963267948966 0.0 0.2743434418098265 0.1828956278732176 0.0914478139366088 0.0 0.0 0.0 0.0 0.0 0.0 0.0 0.0 0.0 0.2748167735999991 -0.07992325624610572 0.5149451352553631 -1.1699838905910398 1.0369756488468445 -1.16998389059104 -0.05490294415769309 0.06609977151899712 0.07400149701140724 0.03294838850490716 -0.2723577202118407 0.2743434418098265 
0.584 0.12258440798490784 -1.4890733881382914 -1.529934857466594 0.0 1.5707963267948966 0.0 0.2743434418098265 0.1828956278732176 0.0914478139366088 0.0 0.0 0.0 0.0 0.0 0.0 0.0 0.0 0.0 0.27437639786902657 -0.07939569553040952 0.5155365973266371 -1.1691352113166482 1.0339348456115027 -1.1691352113166482 -0.055190756914033086 0.06579019505004172 0.0738639598444483 0.0335460651051577 -0.2722847509134915 0.2743434418098265 
0.592 0.12477915551938645 -1.4876102231153057 -1.529203274955101 0.0 1.5707963267948966 0.0 0.2743434418098265 0.1828956278732176 0.0914478139366088 0.0 0.0 0.0 0.0 0.0 0.0 0.0 0.0 0.0 0.2739337252036568 -0.07887061651509153 0.5161269576381242 -1.1682819271959861 1.0308977361776077 -1.1682819271959863 -0.055477176815382764 0.06547934741198995 0.0737260571462978 0.034143580116870555 -0.27221047004269405 0.2743434418098265 
0.6 0.12697390305386508 -1.48614705809232 -1.5284716924436081 0.0 1.5707963267948966 0.0 0.2743434418098265 0.1828956278732176 0.0914478139366088 0.0 0.0 0.0 0.0 0.0 0.0 0.0 0.0 0.0 0.27348876676929534 -0.07834802934577018 0.5167162132675356 -1.1674240479153815 1.027864327993193 -1.1674240479153817 -0.05576219822446782 0.06516723454258609 0.07358778940732863 0.03474093066186679 -0.27213487795725294 0.2743434418098265 
0.608 0.1291686505883437 -1.4846838930693342 -1.5277401099321153 0.0 1.5707963267948966 0.0 0.2743434418098265 0.1828956278732176 0.0914478139366088 0.0 0.0 0.0 0.0 0.0 0.0 0.0 0.0 0.0 0.2730415337763466 -0.07782794412046196 0.5173043612965117 -1.1665615831553533 1.0248346284672483 -1.1665615831553533 -0.05604581552890627 0.06485386240458677 0.07344915711969316 0.03533811386275972 -0.27205797502128887 0.2743434418098265 
0.616 0.1313633981228223 -1.4832207280463483 -1.5270085274206224 0.0 1.5707963267948966 0.0 0.2743434418098265 0.1828956278732176 0.0914478139366088 0.0 0.0 0.0 0.0 0.0 0.0 0.0 0.0 0.0 0.27259203748001376 -0.07731037088938152 0.5178913988106378 -1.1656945425905434 1.0218086449698633 -1.1656945425905436 -0.05632802314131988 0.06453923698565697 0.07331016077732139 0.035935126842968755 -0.2719797616052366 0.2743434418098265 
0.624 0.1335581456573009 -1.4817575630233626 -1.5262769449091296 0.0 1.5707963267948966 0.0 0.2743434418098265 0.1828956278732176 0.0914478139366088 0.0 0.0 0.0 0.0 0.0 0.0 0.0 0.0 0.0 0.27214028918009914 -0.07679531965474287 0.5184773228994578 -1.1648229358896576 1.0187863848323753 -1.164822935889658 -0.05660881549944428 0.06422336429826572 0.07317080087591894 0.036531966726733214 -0.2719002380858436 0.2743434418098265 
0.632 0.13575289319177952 -1.4802943980003769 -1.5255453623976367 0.0 1.5707963267948966 0.0 0.2743434418098265 0.1828956278732176 0.0914478139366088 0.0 0.0 0.0 0.0 0.0 0.0 0.0 0.0 0.0 0.2716863002208018 -0.07628280037056155 0.5190621306564883 -1.1639467727153976 1.0157678553475114 -1.1639467727153978 -0.05688818706623908 0.06390625037958095 0.07303107791296491 0.037128630639126255 -0.2718194048461679 0.2743434418098265 
0.64 0.13794764072625815 -1.4788312329773912 -1.5248137798861439 0.0 1.5707963267948966 0.0 0.2743434418098265 0.1828956278732176 0.0914478139366088 0.0 0.0 0.0 0.0 0.0 0.0 0.0 0.0 0.0 0.27123008199051635 -0.07577282294245717 0.5196458191792324 -1.1630660627244 1.0127530637695357 -1.1630660627244003 -0.05716613232999736 0.06358790129136435 0.07289099238771003 0.03772511570606861 -0.27173726227557626 0.2743434418098265 
0.648 0.14014238826073677 -1.4773680679544055 -1.524082197374651 0.0 1.5707963267948966 0.0 0.2743434418098265 0.1828956278732176 0.0914478139366088 0.0 0.0 0.0 0.0 0.0 0.0 0.0 0.0 0.0 0.27077164592162895 -0.07526539722745729 0.5202283855691946 -1.1621808155671742 1.0097420173143936 -1.1621808155671745 -0.057442645804454975 0.06326832311986526 0.07275054480117442 0.038321419054342554 -0.2716538107697425 0.2743434418098265 
0.656 0.14233713579521537 -1.4759049029314197 -1.5233506148631581 0.0 1.5707963267948966 0.0 0.2743434418098265 0.1828956278732176 0.0914478139366088 0.0 0.0 0.0 0.0 0.0 0.0 0.0 0.0 0.0 0.270311003490314 -0.07476053303380191 0.5208098269318949 -1.1612910408880397 1.0067347231598573 -1.1612910408880397 -0.05771772202889914 0.06294752197571442 0.07260973565614579 0.038917537811605625 -0.27156905073064536 0.2743434418098265 
0.664 0.14453188332969397 -1.474441737908434 -1.5226190323516653 0.0 1.5707963267948966 0.0 0.2743434418098265 0.1828956278732176 0.0914478139366088 0.0 0.0 0.0 0.0 0.0 0.0 0.0 0.0 0.0 0.269848166216329 -0.07425824012074868 0.5213901403768824 -1.1603967483250648 1.0037311884456668 -1.1603967483250648 -0.05799135556827667 0.06262550399381703 0.07246856545717717 0.03951346910640459 -0.2714829825665668 0.2743434418098265 
0.672 0.1467266308641726 -1.4729785728854483 -1.5218874498401724 0.0 1.5707963267948966 0.0 0.2743434418098265 0.1828956278732176 0.0914478139366088 0.0 0.0 0.0 0.0 0.0 0.0 0.0 0.0 0.0 0.2693831456628089 -0.07375852819837941 0.5219693230177493 -1.159497947510007 1.0007314202736788 -1.159497947510007 -0.05826354101330172 0.06230227533324553 0.07232703471058502 0.04010921006818917 -0.27139560669208973 0.2743434418098265 
0.68 0.14892137839865122 -1.4715154078624624 -1.5211558673286796 0.0 1.5707963267948966 0.0 0.2743434418098265 0.1828956278732176 0.0914478139366088 0.0 0.0 0.0 0.0 0.0 0.0 0.0 0.0 0.0 0.26891595343605923 -0.07326140692740699 0.5225473719721462 -1.1585946480682534 0.9977354257080072 -1.1585946480682536 -0.058534272980563296 0.061977842177131516 0.072185143924447 0.040704757827325876 -0.2713069235280964 0.2743434418098265 
0.688 0.15111612593312984 -1.4700522428394767 -1.5204242848171867 0.0 1.5707963267948966 0.0 0.2743434418098265 0.1828956278732176 0.0914478139366088 0.0 0.0 0.0 0.0 0.0 0.0 0.0 0.0 0.0 0.2684466011853493 -0.07276688591898334 0.5231242843617944 -1.157686859618759 0.9947432117751682 -1.1576868596187593 -0.05880354611263197 0.06165221073255782 0.07204289360860003 0.04130010951511191 -0.271216933501766 0.2743434418098265 
0.696 0.15331087346760844 -1.468589077816491 -1.5196927023056939 0.0 1.5707963267948966 0.0 0.2743434418098265 0.1828956278732176 0.0914478139366088 0.0 0.0 0.0 0.0 0.0 0.0 0.0 0.0 0.0 0.2679751006027035 -0.07227497473450825 0.5237000573125019 -1.1567745917739907 0.9917547854642236 -1.1567745917739907 -0.05907135507816655 0.06132538723044943 0.0719002842746382 0.041895262263788924 -0.27112563704657283 0.2743434418098265 
0.704 0.15550562100208704 -1.4671259127935052 -1.518961119794201 0.0 1.5707963267948966 0.0 0.2743434418098265 0.1828956278732176 0.0914478139366088 0.0 0.0 0.0 0.0 0.0 0.0 0.0 0.0 0.0 0.2675014634226921 -0.07178568288543924 0.5242746879541758 -1.1558578541398665 0.9887701537269236 -1.1558578541398667 -0.059337694572019775 0.06099737792546439 0.07175731643591055 0.0424902132065568 -0.2710330346022841 0.2743434418098265 
0.712 0.15770036853656563 -1.4656627477705195 -1.5182295372827082 0.0 1.5707963267948966 0.0 0.2743434418098265 0.1828956278732176 0.0914478139366088 0.0 0.0 0.0 0.0 0.0 0.0 0.0 0.0 0.0 0.26702570142222165 -0.07129901983310186 0.5248481734208371 -1.1549366563156989 0.9857893234778504 -1.154936656315699 -0.05960255931534407 0.060668189095884104 0.07161399060751918 0.04308495947758754 -0.270939126614958 0.2743434418098265 
0.72 0.15989511607104423 -1.4641995827475338 -1.517497954771215 0.0 1.5707963267948966 0.0 0.2743434418098265 0.1828956278732176 0.0914478139366088 0.0 0.0 0.0 0.0 0.0 0.0 0.0 0.0 0.0 0.26654782642032354 -0.07081499498850133 0.5254205108506351 -1.154011007894139 0.9828123015945609 -1.1540110078941392 -0.05986594405569655 0.06033782704350302 0.07147030730631683 0.04367949821203904 -0.27084391353694115 0.2743434418098265 
0.728 0.16208986360552285 -1.462736417724548 -1.5167663722597222 0.0 1.5707963267948966 0.0 0.2743434418098265 0.1828956278732176 0.0914478139366088 0.0 0.0 0.0 0.0 0.0 0.0 0.0 0.0 0.0 0.2660678502779433 -0.07033361771213482 0.5259916973858603 -1.153080918461117 0.9798390949177287 -1.1530809184611173 -0.06012784356714358 0.0600062980935182 0.07132626705090515 0.04427382654606887 -0.270747395826867 0.2743434418098265 
0.736 0.16428461114000148 -1.4612732527015624 -1.5160347897482294 0.0 1.5707963267948966 0.0 0.2743434418098265 0.1828956278732176 0.0914478139366088 0.0 0.0 0.0 0.0 0.0 0.0 0.0 0.0 0.0 0.265585784897727 -0.06985489731380472 0.526561730172959 -1.15214639759579 0.9768697102512877 -1.1521463975957904 -0.060388252650364904 0.059673608594418004 0.07118187036163225 0.04486794161684807 -0.27064957394965306 0.2743434418098265 
0.744 0.1664793586744801 -1.4598100876785765 -1.5153032072367365 0.0 1.5707963267948966 0.0 0.2743434418098265 0.1828956278732176 0.0914478139366088 0.0 0.0 0.0 0.0 0.0 0.0 0.0 0.0 0.0 0.2651016422238086 -0.06937884305243269 0.5271306063625483 -1.1512074548704827 0.9739041543625724 -1.1512074548704831 -0.06064716613275756 0.05933976491787056 0.07103711776059063 0.045461840562574955 -0.2705504483764989 0.2743434418098265 
0.752 0.16867410620895873 -1.4583469226555907 -1.5145716247252436 0.0 1.5707963267948966 0.0 0.2743434418098265 0.1828956278732176 0.0914478139366088 0.0 0.0 0.0 0.0 0.0 0.0 0.0 0.0 0.0 0.26461543424159617 -0.06890546413587471 0.5276983231094274 -1.1502640998506357 0.9709424339824625 -1.150264099850636 -0.060904578868538624 0.059004773458611964 0.0708920097716153 0.04605552052248889 -0.2704500195848841 0.2743434418098265 
0.76 0.1708688537434373 -1.456883757632605 -1.5138400422137508 0.0 1.5707963267948966 0.0 0.2743434418098265 0.1828956278732176 0.0914478139366088 0.0 0.0 0.0 0.0 0.0 0.0 0.0 0.0 0.0 0.2641271729775557 -0.06843476972073702 0.5282648775725941 -1.1493163420947479 0.96798455580552 -1.1493163420947483 -0.06116048573884827 0.058668640634333365 0.07074654692028123 0.046648978636884095 -0.27034828805856553 0.2743434418098265 
0.768 0.17306360127791592 -1.4554205926096193 -1.513108459702258 0.0 1.5707963267948966 0.0 0.2743434418098265 0.1828956278732176 0.0914478139366088 0.0 0.0 0.0 0.0 0.0 0.0 0.0 0.0 0.0 0.26363687049899653 -0.06796676891219272 0.5288302669152581 -1.1483641911543272 0.965030526490136 -1.1483641911543274 -0.06141488165185226 0.058331372885568375 0.07060072973390144 0.04724221204712341 -0.2702452542875753 0.2743434418098265 
0.776 0.17525834881239455 -1.4539574275866336 -1.512376877190765 0.0 1.5707963267948966 0.0 0.2743434418098265 0.1828956278732176 0.0914478139366088 0.0 0.0 0.0 0.0 0.0 0.0 0.0 0.0 0.0 0.2631445389138539 -0.06750147076379984 0.5293944883048537 -1.1474076565738327 0.9620803526586673 -1.147407656573833 -0.06166776154284309 0.05799297667557952 0.07045455874152477 0.04783521789565201 -0.2701409187682182 0.2743434418098265 
0.784 0.17745309634687317 -1.4524942625636479 -1.5116452946792722 0.0 1.5707963267948966 0.0 0.2743434418098265 0.1828956278732176 0.0914478139366088 0.0 0.0 0.0 0.0 0.0 0.0 0.0 0.0 0.0 0.2626501903704721 -0.06703888427731969 0.5299575389130551 -1.146446747890625 0.9591340408975801 -1.146446747890625 -0.061919120374341864 0.05765345849024435 0.07030803447393372 0.04842799332601126 -0.27003528200306975 0.2743434418098265 
0.792 0.1796478438813518 -1.4510310975406622 -1.5109137121677794 0.0 1.5707963267948966 0.0 0.2743434418098265 0.1828956278732176 0.0914478139366088 0.0 0.0 0.0 0.0 0.0 0.0 0.0 0.0 0.0 0.26215383705738593 -0.0665790184025365 0.5305194159157893 -1.1454814746349133 0.9561915977575898 -1.1454814746349133 -0.06216895313619883 0.057312824837941236 0.07016115746364227 0.049020535482852415 -0.2699283445009731 0.2743434418098265 
0.8 0.18184259141583037 -1.4495679325176765 -1.5101821296562865 0.0 1.5707963267948966 0.0 0.2743434418098265 0.1828956278732176 0.0914478139366088 0.0 0.0 0.0 0.0 0.0 0.0 0.0 0.0 0.0 0.26165549120310166 -0.06612188203707783 0.5310801164932508 -1.1445118463297024 0.9532530297538001 -1.1445118463297024 -0.062417254845693916 0.05697108224943452 0.07001392824489355 0.049612841511950355 -0.26982010677703705 0.2743434418098265 
0.808 0.184037338950309 -1.4481047674946905 -1.5094505471447937 0.0 1.5707963267948966 0.0 0.2743434418098265 0.1828956278732176 0.0914478139366088 0.0 0.0 0.0 0.0 0.0 0.0 0.0 0.0 0.0 0.2611551650758774 -0.06566748402623598 0.5316396378299143 -1.1435378724907441 0.9503183433658452 -1.1435378724907441 -0.0626640205476364 0.056628237277759404 0.06986634735365789 0.050204908560217434 -0.26971056935263366 0.2743434418098265 
0.816 0.18623208648478762 -1.4466416024717048 -1.5087189646333008 0.0 1.5707963267948966 0.0 0.2743434418098265 0.1828956278732176 0.0914478139366088 0.0 0.0 0.0 0.0 0.0 0.0 0.0 0.0 0.0 0.2606528709835022 -0.06521583316279025 0.5321979771145496 -1.1425595626264853 0.9473875450380287 -1.1425595626264853 -0.06290924531446444 0.056284296498106165 0.06971841532763039 0.05079673377571711 -0.26959973275539517 0.2743434418098265 
0.824 0.18842683401926624 -1.445178437448719 -1.507987382121808 0.0 1.5707963267948966 0.0 0.2743434418098265 0.1828956278732176 0.0914478139366088 0.0 0.0 0.0 0.0 0.0 0.0 0.0 0.0 0.0 0.2601486212730749 -0.06476693818683021 0.5327551315402351 -1.1415769262380173 0.9444606411794625 -1.1415769262380173 -0.06315292424634407 0.05593926650770421 0.0695701327062288 0.051388314307677735 -0.2694875975192122 0.2743434418098265 
0.832 0.19062158155374487 -1.4437152724257334 -1.507255799610315 0.0 1.5707963267948966 0.0 0.2743434418098265 0.1828956278732176 0.0914478139366088 0.0 0.0 0.0 0.0 0.0 0.0 0.0 0.0 0.0 0.2596424283307818 -0.06432080778557982 0.5333110983043712 -1.1405899728190285 0.9415376381642075 -1.1405899728190285 -0.06339505247126734 0.05559315392570551 0.06942150003059133 0.051979647306506296 -0.26937416418423055 0.2743434418098265 
0.84 0.19281632908822344 -1.4422521074027477 -1.5065242170988222 0.0 1.5707963267948966 0.0 0.2743434418098265 0.1828956278732176 0.0914478139366088 0.0 0.0 0.0 0.0 0.0 0.0 0.0 0.0 0.0 0.2591343045816733 -0.06387745059322257 0.5338658746086942 -1.139598711855754 0.9386185423314124 -1.139598711855754 -0.06363562514515039 0.05524596539306751 0.06927251784357422 0.052570729923802094 -0.2692594332968489 0.2743434418098265 
0.848 0.19501107662270206 -1.440788942379762 -1.5057926345873291 0.0 1.5707963267948966 0.0 0.2743434418098265 0.1828956278732176 0.0914478139366088 0.0 0.0 0.0 0.0 0.0 0.0 0.0 0.0 0.0 0.2586242624894408 -0.06343687519072733 0.53441945765929 -1.1386031528269256 0.9357033599854506 -1.1386031528269258 -0.0638746374519309 0.05489770757243591 0.06912318668974975 0.053161559312370536 -0.2691434054097163 0.2743434418098265 
0.856 0.19720582415718063 -1.4393257773567762 -1.5050610520758363 0.0 1.5707963267948966 0.0 0.2743434418098265 0.1828956278732176 0.0914478139366088 0.0 0.0 0.0 0.0 0.0 0.0 0.0 0.0 0.0 0.25811231455619177 -0.06299909010567556 0.5349718446666086 -1.1376033052037289 0.9327920973960624 -1.1376033052037289 -0.06411208460366505 0.05454838714802671 0.06897350711540387 0.05375213262623678 -0.26902608108172904 0.2743434418098265 
0.864 0.19940057169165926 -1.4378626123337905 -1.5043294695643434 0.0 1.5707963267948966 0.0 0.2743434418098265 0.1828956278732176 0.0914478139366088 0.0 0.0 0.0 0.0 0.0 0.0 0.0 0.0 0.0 0.2575984733222241 -0.0625641038120891 0.5355230328454763 -1.1365991784497496 0.9298847607984897 -1.1365991784497498 -0.06434796184062373 0.05419801082550793 0.06882347966853382 0.054342447020659504 -0.26890746087802847 0.2743434418098265 
0.872 0.20159531922613788 -1.4363994473108046 -1.5035978870528506 0.0 1.5707963267948966 0.0 0.2743434418098265 0.1828956278732176 0.0914478139366088 0.0 0.0 0.0 0.0 0.0 0.0 0.0 0.0 0.0 0.2570827513658007 -0.062131924730258956 0.5360730194151108 -1.135590782020932 0.9269813563936162 -1.1355907820209323 -0.06458226443138879 0.05384658533188098 0.06867310489884615 0.054932499652144556 -0.268787545369998 0.2743434418098265 
0.88 0.2037900667606165 -1.4349362822878189 -1.5028663045413577 0.0 1.5707963267948966 0.0 0.2743434418098265 0.1828956278732176 0.0914478139366088 0.0 0.0 0.0 0.0 0.0 0.0 0.0 0.0 0.0 0.2565651613029223 -0.061702561226575275 0.536621801599134 -1.1345781253655303 0.924081890348105 -1.1345781253655305 -0.06481498767294831 0.05349411741536156 0.0685223833577542 0.05552228767845867 -0.2686663351352604 0.2743434418098265 
0.888 0.20598481429509513 -1.4334731172648332 -1.5021347220298649 0.0 1.5707963267948966 0.0 0.2743434418098265 0.1828956278732176 0.0914478139366088 0.0 0.0 0.0 0.0 0.0 0.0 0.0 0.0 0.0 0.25604571578709934 -0.06127602161335792 0.537169376625586 -1.1335612179240613 0.9211863687945343 -1.1335612179240615 -0.06504612689079153 0.05314061384525991 0.06837131559837578 0.05611180825864316 -0.26854383075767513 0.2743434418098265 
0.896 0.2081795618295737 -1.4320099522418475 -1.501403139518372 0.0 1.5707963267948966 0.0 0.2743434418098265 0.1828956278732176 0.0914478139366088 0.0 0.0 0.0 0.0 0.0 0.0 0.0 0.0 0.0 0.25552442750912446 -0.06085231414868841 0.5377157417269386 -1.1325400691292622 0.9182947978315368 -1.1325400691292624 -0.06527567743900334 0.05278608141186102 0.06821990217553117 0.05670105855302763 -0.26842003282733523 0.2743434418098265 
0.904 0.21037430936405233 -1.4305467872188617 -1.5006715570068792 0.0 1.5707963267948966 0.0 0.2743434418098265 0.1828956278732176 0.0914478139366088 0.0 0.0 0.0 0.0 0.0 0.0 0.0 0.0 0.0 0.25500130919684283 -0.06043144703624241 0.538260894140109 -1.1315146884060447 0.915407183523936 -1.131514688406045 -0.06550363470035811 0.052430526926304205 0.06806814364574051 0.05729003572324362 -0.26829494194056486 0.2743434418098265 
0.912 0.21256905689853095 -1.429083622195876 -1.4999399744953863 0.0 1.5707963267948966 0.0 0.2743434418098265 0.1828956278732176 0.0914478139366088 0.0 0.0 0.0 0.0 0.0 0.0 0.0 0.0 0.0 0.25447637361492215 -0.06001342842512347 0.5388048311064737 -1.1304850851714496 0.9125235319028825 -1.1304850851714496 -0.06572999408641335 0.052073957220462166 0.06791604056722164 0.05787873693223826 -0.2681685586999161 0.2743434418098265 
0.92 0.21476380443300958 -1.4276204571728903 -1.4992083919838934 0.0 1.5707963267948966 0.0 0.2743434418098265 0.1828956278732176 0.0914478139366088 0.0 0.0 0.0 0.0 0.0 0.0 0.0 0.0 0.0 0.25394963356462247 -0.05959826640969763 0.5393475498718809 -1.1294512688346032 0.90964384896599 -1.1294512688346032 -0.06595475103760225 0.051716379146819966 0.06776359349988774 0.058467159344288006 -0.26804088371416634 0.2743434418098265 
0.928 0.2169585519674882 -1.4261572921499046 -1.4984768094724006 0.0 1.5707963267948966 0.0 0.2743434418098265 0.1828956278732176 0.0914478139366088 0.0 0.0 0.0 0.0 0.0 0.0 0.0 0.0 0.0 0.25342110188356437 -0.05918596902942899 0.5398890476866658 -1.128413248796676 0.9067681406774724 -1.1284132487966758 -0.06617790102332642 0.051357799578353104 0.06761080300534501 0.059055300125012186 -0.267911917598315 0.2743434418098265 
0.936 0.21915329950196677 -1.4246941271269187 -1.4977452269609077 0.0 1.5707963267948966 0.0 0.2743434418098265 0.1828956278732176 0.0914478139366088 0.0 0.0 0.0 0.0 0.0 0.0 0.0 0.0 0.0 0.2528907914454971 -0.0587765442687164 0.5404293218056626 -1.127371034450837 0.903896412968279 -1.1273710344508372 -0.0663994395420476 0.05099822540840565 0.06745766964689036 0.05964315644138679 -0.26778166097358097 0.2743434418098265 
0.944 0.2213480470364454 -1.423230962103933 -1.4970136444494149 0.0 1.5707963267948966 0.0 0.2743434418098265 0.1828956278732176 0.0914478139366088 0.0 0.0 0.0 0.0 0.0 0.0 0.0 0.0 0.0 0.25235871516006586 -0.058370000056730695 0.5409683694882188 -1.1263246351822143 0.9010286717362312 -1.1263246351822143 -0.06661936212137902 0.0506376635505678 0.06730419398950907 0.06023072546175803 -0.2676501144673993 0.2743434418098265 
0.952 0.22354279457092402 -1.4217677970809472 -1.496282061937922 0.0 1.5707963267948966 0.0 0.2743434418098265 0.1828956278732176 0.0914478139366088 0.0 0.0 0.0 0.0 0.0 0.0 0.0 0.0 0.0 0.25182488597257774 -0.05796634426725358 0.5415061879982086 -1.1252740603678504 0.8981649228461556 -1.1252740603678506 -0.06683766431817637 0.050276120938552764 0.06715037659987233 0.06081800435585598 -0.2675172787134182 0.2743434418098265 
0.96 0.2257375421054026 -1.4203046320579615 -1.4955504794264292 0.0 1.5707963267948966 0.0 0.2743434418098265 0.1828956278732176 0.0914478139366088 0.0 0.0 0.0 0.0 0.0 0.0 0.0 0.0 0.0 0.2512893168637679 -0.05756558471851686 0.5420427746040462 -1.124219319376663 0.8953051721300205 -1.124219319376663 -0.06705434171862798 0.049913604526073685 0.06699621804633502 0.06140499029480824 -0.2673831543514963 0.2743434418098265 
0.968 0.2279322896398812 -1.4188414670349758 -1.494818896914936 0.0 1.5707963267948966 0.0 0.2743434418098265 0.1828956278732176 0.0914478139366088 0.0 0.0 0.0 0.0 0.0 0.0 0.0 0.0 0.0 0.25075202084956427 -0.057167729173043136 0.5425781265786995 -1.1231604215694029 0.8924494253870704 -1.1231604215694029 -0.06726938993834489 0.049550121286719914 0.06684171889893328 0.06199168045115356 -0.2672477420276992 0.2743434418098265 
0.976 0.23012703717435984 -1.41737830201199 -1.4940873144034432 0.0 1.5707963267948966 0.0 0.2743434418098265 0.1828956278732176 0.0914478139366088 0.0 0.0 0.0 0.0 0.0 0.0 0.0 0.0 0.0 0.250213010980852 -0.05677278533748717 0.5431122411997032 -1.122097376298615 0.8895976883839611 -1.122097376298615 -0.06748280462244972 0.04918567821383278 0.06668687972938217 0.06257807199885543 -0.26711104239429645 0.2743434418098265 
0.984 0.23232178470883846 -1.4159151369890044 -1.4933557318919504 0.0 1.5707963267948966 0.0 0.2743434418098265 0.1828956278732176 0.0914478139366088 0.0 0.0 0.0 0.0 0.0 0.0 0.0 0.0 0.0 0.24967230034323673 -0.05638076086247838 0.5436451157491727 -1.1210301929085966 0.886749966854892 -1.1210301929085968 -0.0676945814456659 0.048820282320381214 0.06653170111107311 0.06316416211331574 -0.26697305610975874 0.2743434418098265 
0.992 0.2345165322433171 -1.4144519719660187 -1.4926241493804575 0.0 1.5707963267948966 0.0 0.2743434418098265 0.1828956278732176 0.0914478139366088 0.0 0.0 0.0 0.0 0.0 0.0 0.0 0.0 0.0 0.249129902056808 -0.05599166334246437 0.5441767475138172 -1.1199588807353587 0.8839062665017416 -1.1199588807353589 -0.06790471611240563 0.04845394063883691 0.06637618361907185 0.0637499479713883 -0.266833783838754 0.2743434418098265 
1.0 0.23671127977779566 -1.4129888069430327 -1.4918925668689647 0.0 1.5707963267948966 0.0 0.2743434418098265 0.1828956278732176 0.0914478139366088 0.0 0.0 0.0 0.0 0.0 0.0 0.0 0.0 0.0 0.24858582927590028 -0.05560550031555536 0.5447071337849526 -1.118883449106588 0.8810665929942 -1.1188834491065882 -0.06811320435685758 0.04808666022104875 0.06622032783011561 0.06433542675139256 -0.266693226252145 0.2743434418098265 
1.008 0.23890602731227428 -1.411525641920047 -1.4911609843574718 0.0 1.5707963267948966 0.0 0.2743434418098265 0.1828956278732176 0.0914478139366088 0.0 0.0 0.0 0.0 0.0 0.0 0.0 0.0 0.0 0.2480400951888561 -0.05522227926336967 0.5452362718585161 -1.1178039073416073 0.8782309519699029 -1.1178039073416075 -0.0683200419430743 0.0477184481381176 0.06606413432261116 0.06492059563312713 -0.26655138402698564 0.2743434418098265 
1.016 0.2411007748467529 -1.4100624768970613 -1.490429401845979 0.0 1.5707963267948966 0.0 0.2743434418098265 0.1828956278732176 0.0914478139366088 0.0 0.0 0.0 0.0 0.0 0.0 0.0 0.0 0.0 0.24749271301778508 -0.05484200761088029 0.5457641590350782 -1.116720264751338 0.8753993490345648 -1.1167202647513381 -0.06852522466505863 0.04734931148026966 0.06590760367663193 0.06550545179788336 -0.26640825784651795 0.2743434418098265 
1.024 0.24329552238123153 -1.4085993118740756 -1.489697819334486 0.0 1.5707963267948966 0.0 0.2743434418098265 0.1828956278732176 0.0914478139366088 0.0 0.0 0.0 0.0 0.0 0.0 0.0 0.0 0.0 0.2469436960183251 -0.054464692726262205 0.5462907926198575 -1.1156325306382613 0.87257178976211 -1.1156325306382615 -0.06872874834685 0.04697925735673055 0.06575073647391597 0.0660899924284589 -0.26626384840016837 0.2743434418098265 
1.032 0.24549026991571016 -1.40713614685109 -1.4889662368229932 0.0 1.5707963267948966 0.0 0.2743434418098265 0.1828956278732176 0.0914478139366088 0.0 0.0 0.0 0.0 0.0 0.0 0.0 0.0 0.0 0.246393057479401 -0.054090341920741164 0.5468161699227319 -1.114540714296384 0.8697482796948077 -1.1145407142963841 -0.06893060884260982 0.046608292895598036 0.0655935332978632 0.06667421470917134 -0.266118156383545 0.2743434418098265 
1.04 0.24768501745018873 -1.4056729818281042 -1.4882346543115004 0.0 1.5707963267948966 0.0 0.2743434418098265 0.1828956278732176 0.0914478139366088 0.0 0.0 0.0 0.0 0.0 0.0 0.0 0.0 0.0 0.24584081072298386 -0.05371896244844297 0.5473402882582543 -1.1134448250111981 0.8669288243434009 -1.1134448250111983 -0.06913080203670682 0.046236425243715 0.06543599473353331 0.06725811582587173 -0.2659711824984339 0.2743434418098265 
1.048 0.24987976498466735 -1.4042098168051185 -1.4875030718000075 0.0 1.5707963267948966 0.0 0.2743434418098265 0.1828956278732176 0.0914478139366088 0.0 0.0 0.0 0.0 0.0 0.0 0.0 0.0 0.0 0.24528696910384842 -0.053350561506244135 0.5478631449456641 -1.1123448720596485 0.8641134291872405 -1.1123448720596485 -0.06932932384380122 0.04586366156654183 0.06527812136764294 0.06784169296595816 -0.2658229274527957 0.2743434418098265 
1.056 0.252074512519146 -1.4027466517821328 -1.4867714892885147 0.0 1.5707963267948966 0.0 0.2743434418098265 0.1828956278732176 0.0914478139366088 0.0 0.0 0.0 0.0 0.0 0.0 0.0 0.0 0.0 0.24473154600933095 -0.052985146233623506 0.5483847373089012 -1.111240864710093 0.8613020996744162 -1.1112408647100933 -0.06952617020892897 0.045490009048028364 0.06511991378856352 0.0684249433183892 -0.2656733919607623 0.2743434418098265 
1.064 0.2542692600536246 -1.401283486759147 -1.4860399067770218 0.0 1.5707963267948966 0.0 0.2743434418098265 0.1828956278732176 0.0914478139366088 0.0 0.0 0.0 0.0 0.0 0.0 0.0 0.0 0.0 0.24417455485908557 -0.052622723712514696 0.5489050626766191 -1.1101328122222724 0.8584948412218879 -1.1101328122222724 -0.06972133710758503 0.04511547489048558 0.06496137258631869 0.06900786407369768 -0.2655225767426334 0.2743434418098265 
1.072 0.2564640075881032 -1.399820321736161 -1.485308324265529 0.0 1.5707963267948966 0.0 0.2743434418098265 0.1828956278732176 0.0914478139366088 0.0 0.0 0.0 0.0 0.0 0.0 0.0 0.0 0.0 0.24361600910484008 -0.05226330096715997 0.5494241183821982 -1.1090207238472698 0.8556916592156152 -1.1090207238472698 -0.06991482054580635 0.04474006631445665 0.06480249835258171 0.06959045242400391 -0.26537048252487316 0.2743434418098265 
1.08 0.2586587551225818 -1.3983571567131754 -1.484576741754036 0.0 1.5707963267948966 0.0 0.2743434418098265 0.1828956278732176 0.0914478139366088 0.0 0.0 0.0 0.0 0.0 0.0 0.0 0.0 0.0 0.243055922230152 -0.05190688496396461 0.5499419017637585 -1.107904608827481 0.8528925590106905 -1.1079046088274813 -0.0701066165602541 0.044363790558588245 0.06464329168067326 0.07017270556302946 -0.2652171100401065 0.2743434418098265 
1.088 0.2608535026570604 -1.3968939916901897 -1.4838451592425432 0.0 1.5707963267948966 0.0 0.2743434418098265 0.1828956278732176 0.0914478139366088 0.0 0.0 0.0 0.0 0.0 0.0 0.0 0.0 0.0 0.24249430775016256 -0.05155348261135272 0.5504584101641736 -1.106784476396578 0.8500975459314665 -1.106784476396578 -0.07029672121829567 0.043986654879500584 0.06448375316555871 0.07075462068611058 -0.2650624600271155 0.2743434418098265 
1.096 0.26304825019153905 -1.395430826667204 -1.4831135767310504 0.0 1.5707963267948966 0.0 0.2743434418098265 0.1828956278732176 0.0914478139366088 0.0 0.0 0.0 0.0 0.0 0.0 0.0 0.0 0.0 0.2419311792113507 -0.05120310075962416 0.550973640931083 -1.1056603357794756 0.847306625271688 -1.1056603357794756 -0.07048513061808555 0.043608666551657765 0.0643238834038456 0.07133619499021168 -0.2649065332308361 0.2743434418098265 
1.104 0.26524299772601767 -1.3939676616442183 -1.4823819942195573 0.0 1.5707963267948966 0.0 0.2743434418098265 0.1828956278732176 0.0914478139366088 0.0 0.0 0.0 0.0 0.0 0.0 0.0 0.0 0.0 0.24136655019128722 -0.05085574620081197 0.5514875914169061 -1.1045321961923 0.8445198022946213 -1.1045321961923005 -0.07067184088864648 0.043229832867237666 0.06416368299378142 0.07191742567393891 -0.2647493304023545 0.2743434418098265 
1.112 0.2674377452604963 -1.3925044966212325 -1.4816504117080644 0.0 1.5707963267948966 0.0 0.2743434418098265 0.1828956278732176 0.0914478139366088 0.0 0.0 0.0 0.0 0.0 0.0 0.0 0.0 0.0 0.24080043429838655 -0.050511425668541415 0.5520002589788542 -1.1034000668423556 0.8417370822331831 -1.1034000668423556 -0.07085684818994921 0.042850161136001125 0.06400315253525073 0.07249830993755353 -0.2645908522989032 0.2743434418098265 
1.12 0.26963249279497487 -1.3910413315982466 -1.4809188291965716 0.0 1.5707963267948966 0.0 0.2743434418098265 0.1828956278732176 0.0914478139366088 0.0 0.0 0.0 0.0 0.0 0.0 0.0 0.0 0.0 0.24023284517165935 -0.05017014583788981 0.5525116409789447 -1.10226395692809 0.8389584702900698 -1.1022639569280905 -0.07104014871299236 0.04246965868516113 0.06384229262977287 0.07307884498298559 -0.2644310996838578 0.2743434418098265 
1.128 0.2718272403294535 -1.389578166575261 -1.4801872466850787 0.0 1.5707963267948966 0.0 0.2743434418098265 0.1828956278732176 0.0914478139366088 0.0 0.0 0.0 0.0 0.0 0.0 0.0 0.0 0.0 0.23966379648046449 -0.04983191332524724 0.5530217347840136 -1.101123875639068 0.8361839716378863 -1.1011238756390682 -0.07122173867988128 0.04208833285925159 0.06368110388049954 0.07365902801384719 -0.2642700733267331 0.2743434418098265 
1.136 0.2740219878639321 -1.3881150015522752 -1.4794556641735859 0.0 1.5707963267948966 0.0 0.2743434418098265 0.1828956278732176 0.0914478139366088 0.0 0.0 0.0 0.0 0.0 0.0 0.0 0.0 0.0 0.23909330192425837 -0.049496734688178876 0.5535305377657286 -1.0999798321559342 0.8334135914192743 -1.0999798321559344 -0.07140161434390666 0.04170619101999537 0.0635195868922118 0.07423885623544613 -0.2641077740031792 0.2743434418098265 
1.144 0.27621673539841074 -1.3866518365292895 -1.478724081662093 0.0 1.5707963267948966 0.0 0.2743434418098265 0.1828956278732176 0.0914478139366088 0.0 0.0 0.0 0.0 0.0 0.0 0.0 0.0 0.0 0.23852137523234687 -0.04916461642528764 0.5540380473006019 -1.0988318356503861 0.8306473347470406 -1.0988318356503861 -0.0715797719896223 0.041323240546172674 0.06335774227131805 0.07481832685479922 -0.2639442024949781 0.2743434418098265 
1.152 0.27841148293288936 -1.3851886715063038 -1.4779924991506002 0.0 1.5707963267948966 0.0 0.2743434418098265 0.1828956278732176 0.0914478139366088 0.0 0.0 0.0 0.0 0.0 0.0 0.0 0.0 0.0 0.2379480301636337 -0.04883556497607856 0.554544260770004 -1.0976798952851423 0.8278852067042853 -1.0976798952851423 -0.07175620793292264 0.04093948883348834 0.06319557062585116 0.0753974370806459 -0.26377935959004 0.2743434418098265 
1.16 0.2806062304673679 -1.383725506483318 -1.4772609166391073 0.0 1.5707963267948966 0.0 0.2743434418098265 0.1828956278732176 0.0914478139366088 0.0 0.0 0.0 0.0 0.0 0.0 0.0 0.0 0.0 0.23737328050636985 -0.04850958672082363 0.5550491755601756 -1.0965240202139126 0.825127212344528 -1.0965240202139126 -0.07193091852111948 0.04055494329443929 0.063033072565466 0.07597618412346152 -0.263613246082399 0.2743434418098265 
1.168 0.2828009780018465 -1.3822623414603323 -1.4765293341276144 0.0 1.5707963267948966 0.0 0.2743434418098265 0.1828956278732176 0.0914478139366088 0.0 0.0 0.0 0.0 0.0 0.0 0.0 0.0 0.0 0.23679714007790204 -0.04818668798042823 0.5555527890622416 -1.0953642195813682 0.8223733566918363 -1.0953642195813684 -0.07210390013301823 0.04016961135818145 0.0628702487014369 0.0765545651954709 -0.26344586277220977 0.2743434418098265 
1.176 0.28499572553632513 -1.3807991764373466 -1.4757977516161216 0.0 1.5707963267948966 0.0 0.2743434418098265 0.1828956278732176 0.0914478139366088 0.0 0.0 0.0 0.0 0.0 0.0 0.0 0.0 0.0 0.23621962272442026 -0.047866875016298216 0.556055098672223 -1.094200502523113 0.8196236447409525 -1.094200502523113 -0.07227514917899348 0.03978350047039633 0.06270709964665502 0.07713257751066167 -0.2632772104657434 0.2743434418098265 
1.184 0.28719047307080375 -1.379336011414361 -1.4750661691046287 0.0 1.5707963267948966 0.0 0.2743434418098265 0.1828956278732176 0.0914478139366088 0.0 0.0 0.0 0.0 0.0 0.0 0.0 0.0 0.0 0.23564074232070475 -0.04755015403020853 0.5565561017910512 -1.0930328781656544 0.8168780814574197 -1.0930328781656544 -0.07244466210106443 0.03939661809315719 0.06254362601562573 0.07771021828479778 -0.2631072899753838 0.2743434418098265 
1.192 0.2893852206052824 -1.3778728463913752 -1.4743345865931359 0.0 1.5707963267948966 0.0 0.2743434418098265 0.1828956278732176 0.0914478139366088 0.0 0.0 0.0 0.0 0.0 0.0 0.0 0.0 0.0 0.23506051276987316 -0.04723653116417213 0.5570557958245793 -1.0918613556263743 0.8141366717777077 -1.091861355626374 -0.07261243537296899 0.039008971704795135 0.06237982842446618 0.07828748473543282 -0.26293610211962326 0.2743434418098265 
1.2 0.291579968139761 -1.3764096813683893 -1.473603004081643 0.0 1.5707963267948966 0.0 0.2743434418098265 0.1828956278732176 0.0914478139366088 0.0 0.0 0.0 0.0 0.0 0.0 0.0 0.0 0.0 0.23447894800312577 -0.04692601250031102 0.5575541781835961 -1.090685944013503 0.8113994206093409 -1.0906859440135033 -0.07277846550023805 0.03862056879976447 0.062215707490902494 0.07886437408192347 -0.2627636477230593 0.2743434418098265 
1.208 0.2937747156742396 -1.3749465163454035 -1.4728714215701502 0.0 1.5707963267948966 0.0 0.2743434418098265 0.1828956278732176 0.0914478139366088 0.0 0.0 0.0 0.0 0.0 0.0 0.0 0.0 0.0 0.23389606197949142 -0.04661860406072727 0.5580512462838387 -1.08950665242609 0.8086663328310211 -1.08950665242609 -0.07294274902026886 0.03823141688850812 0.06205126383426732 0.07944088354544288 -0.26258992761639005 0.2743434418098265 
1.216 0.2959694632087182 -1.3734833513224178 -1.4721398390586573 0.0 1.5707963267948966 0.0 0.2743434418098265 0.1828956278732176 0.0914478139366088 0.0 0.0 0.0 0.0 0.0 0.0 0.0 0.0 0.0 0.23331186868557202 -0.04631431180737609 0.5585469975460052 -1.0883234899539778 0.8059374132927557 -1.0883234899539778 -0.07310528250239771 0.037841523497322414 0.06188649807549713 0.0800170103489941 -0.2624149426364104 0.2743434418098265 
1.224 0.2981642107431968 -1.3720201862994321 -1.4714082565471642 0.0 1.5707963267948966 0.0 0.2743434418098265 0.1828956278732176 0.0914478139366088 0.0 0.0 0.0 0.0 0.0 0.0 0.0 0.0 0.0 0.23272638213528668 -0.04601314164193929 0.5590414293957675 -1.0871364656777736 0.8032126668159798 -1.087136465677774 -0.07326606254797238 0.037450896168221726 0.06172141083712958 0.08059275171742339 -0.2622386936260081 0.2743434418098265 
1.232 0.30035895827767545 -1.3705570212764464 -1.4706766740356714 0.0 1.5707963267948966 0.0 0.2743434418098265 0.1828956278732176 0.0914478139366088 0.0 0.0 0.0 0.0 0.0 0.0 0.0 0.0 0.0 0.23213961636961566 -0.045715099405700066 0.5595345392637846 -1.085945588668826 0.8004920981936835 -1.085945588668826 -0.07342508579042376 0.03705954245880269 0.061556002743301017 0.08116810487743364 -0.2620611814341596 0.2743434418098265 
1.24 0.3025537058121541 -1.3690938562534607 -1.4699450915241785 0.0 1.5707963267948966 0.0 0.2743434418098265 0.1828956278732176 0.0914478139366088 0.0 0.0 0.0 0.0 0.0 0.0 0.0 0.0 0.0 0.23155158545634294 -0.04542019087941919 0.5600263245857143 -1.084750867989195 0.7977757121905346 -1.084750867989195 -0.07358234889533671 0.036667469942108136 0.06139027441974358 0.0817430670575977 -0.26188240691592607 0.2743434418098265 
1.248 0.30474845334663264 -1.367630691230475 -1.4692135090126857 0.0 1.5707963267948966 0.0 0.2743434418098265 0.1828956278732176 0.0914478139366088 0.0 0.0 0.0 0.0 0.0 0.0 0.0 0.0 0.0 0.23096230348979913 -0.0451284217832115 0.5605167828022273 -1.08355231269163 0.7950635135430034 -1.0835523126916302 -0.07373784856052103 0.03627468620649067 0.06122422649378287 0.08231763548837169 -0.2617023709324491 0.2743434418098265 
1.256 0.30694320088111127 -1.366167526207489 -1.4684819265011928 0.0 1.5707963267948966 0.0 0.2743434418098265 0.1828956278732176 0.0914478139366088 0.0 0.0 0.0 0.0 0.0 0.0 0.0 0.0 0.0 0.2303717845906031 -0.04483979777642442 0.5610059113590188 -1.082349931819543 0.7923555069594852 -1.0823499318195433 -0.07389158151608101 0.03588119885547595 0.061057859594334976 0.08289180740210847 -0.2615210743509466 0.2743434418098265 
1.264 0.3091379484155899 -1.3647043611845033 -1.4677503439897 0.0 1.5707963267948966 0.0 0.2743434418098265 0.1828956278732176 0.0914478139366088 0.0 0.0 0.0 0.0 0.0 0.0 0.0 0.0 0.0 0.22978004290540377 -0.0445543244575168 0.5614937077068218 -1.081143734406984 0.7896516971204267 -1.0811437344069843 -0.0740435445244851 0.035487015507625785 0.06089117435190413 0.08346558003307084 -0.26133851804470887 0.2743434418098265 
1.272 0.3113326959500685 -1.3632411961615176 -1.467018761478207 0.0 1.5707963267948966 0.0 0.2743434418098265 0.1828956278732176 0.0914478139366088 0.0 0.0 0.0 0.0 0.0 0.0 0.0 0.0 0.0 0.22918709260662024 -0.04427200736393936 0.5619801693014201 -1.0799337294786169 0.786952088678445 -1.079933729478617 -0.07419373438063452 0.03509214379640049 0.06072417139857973 0.08403895061744489 -0.26115470289309406 0.2743434418098265 
1.28 0.31352744348454714 -1.361778031138532 -1.4662871789667142 0.0 1.5707963267948966 0.0 0.2743434418098265 0.1828956278732176 0.0914478139366088 0.0 0.0 0.0 0.0 0.0 0.0 0.0 0.0 0.0 0.2285929478921827 -0.043992851972016085 0.5624652936036598 -1.0787199260496942 0.7842566862584531 -1.0787199260496945 -0.0743421479119314 0.03469659137002157 0.060556851368033876 0.08461191639335341 -0.2609696297815241 0.2743434418098265 
1.288 0.3157221910190257 -1.3603148661155462 -1.4655555964552214 0.0 1.5707963267948966 0.0 0.2743434418098265 0.1828956278732176 0.0914478139366088 0.0 0.0 0.0 0.0 0.0 0.0 0.0 0.0 0.0 0.22799762298527199 -0.04371686369682648 0.5629490780794633 -1.0775023331260367 0.7815654944577823 -1.0775023331260367 -0.07448878197834666 0.034300365891333465 0.060389214895518656 0.08518447460086903 -0.2607832996014804 0.2743434418098265 
1.296 0.31791693855350434 -1.3588517010925605 -1.4648240139437285 0.0 1.5707963267948966 0.0 0.2743434418098265 0.1828956278732176 0.0914478139366088 0.0 0.0 0.0 0.0 0.0 0.0 0.0 0.0 0.0 0.22740113213405824 -0.04344404789208929 0.5634315201998409 -1.0762809597040062 0.7788785178463029 -1.0762809597040062 -0.07463363347248676 0.03390347503766536 0.060221262617863286 0.08575662248202766 -0.2605957132504995 0.2743434418098265 
1.304 0.32011168608798296 -1.3573885360695748 -1.4640924314322357 0.0 1.5707963267948966 0.0 0.2743434418098265 0.1828956278732176 0.0914478139366088 0.0 0.0 0.0 0.0 0.0 0.0 0.0 0.0 0.0 0.2268034896114403 -0.04317440985004721 0.5639126174409043 -1.0750558147704845 0.7761957609665463 -1.0750558147704845 -0.07477669931966034 0.03350592650069263 0.06005299517347157 0.0863283572808417 -0.260406871632169 0.2743434418098265 
1.312 0.3223064336224616 -1.355925371046589 -1.4633608489207428 0.0 1.5707963267948966 0.0 0.2743434418098265 0.1828956278732176 0.0914478139366088 0.0 0.0 0.0 0.0 0.0 0.0 0.0 0.0 0.0 0.22620470971478362 -0.042907954801352594 0.5643923672838782 -1.0738269073028528 0.7735172283338283 -1.0738269073028526 -0.07491797647794392 0.03310772798629799 0.05988441320231925 0.08689967624331334 -0.2602167756561227 0.2743434418098265 
1.32 0.3245011811569402 -1.3544622060236033 -1.46262926640925 0.0 1.5707963267948966 0.0 0.2743434418098265 0.1828956278732176 0.0914478139366088 0.0 0.0 0.0 0.0 0.0 0.0 0.0 0.0 0.0 0.2256048067656575 -0.04264468791495428 0.564870767215114 -1.0725942462689655 0.7708429244363674 -1.0725942462689653 -0.07505746193824737 0.03270888721443216 0.05971551734595108 0.08747057661744778 -0.2600254262380369 0.2743434418098265 
1.328 0.3266959286914188 -1.3529990410006174 -1.461897683897757 0.0 1.5707963267948966 0.0 0.2743434418098265 0.1828956278732176 0.0914478139366088 0.0 0.0 0.0 0.0 0.0 0.0 0.0 0.0 0.0 0.22500379510957233 -0.0423846142979858 0.5653478147261012 -1.0713578406271327 0.7681728537354081 -1.0713578406271327 -0.07519515272437832 0.03230941191897443 0.05954630824747818 0.08804105565326659 -0.2598328242996254 0.2743434418098265 
1.336 0.3288906762258974 -1.3515358759776317 -1.4611661013862642 0.0 1.5707963267948966 0.0 0.2743434418098265 0.1828956278732176 0.0914478139366088 0.0 0.0 0.0 0.0 0.0 0.0 0.0 0.0 0.0 0.22440168911571676 -0.042127738995654355 0.5658235073134803 -1.070117699326096 0.7655070206653396 -1.0701176993260957 -0.07533104589310634 0.03190930984759306 0.05937678655157551 0.08861111060282083 -0.2596389707686353 0.2743434418098265 
1.344 0.33108542376037603 -1.350072710954646 -1.4604345188747714 0.0 1.5707963267948966 0.0 0.2743434418098265 0.1828956278732176 0.0914478139366088 0.0 0.0 0.0 0.0 0.0 0.0 0.0 0.0 0.0 0.22379850317669253 -0.04187406699113115 0.5662978424790562 -1.068873831305008 0.7628454296338171 -1.0688738313050077 -0.07546513853422658 0.03150858876160485 0.05920695290447868 0.08918073872020439 -0.2594438665788425 0.2743434418098265 
1.352 0.33328017129485465 -1.3486095459316603 -1.4597029363632783 0.0 1.5707963267948966 0.0 0.2743434418098265 0.1828956278732176 0.0914478139366088 0.0 0.0 0.0 0.0 0.0 0.0 0.0 0.0 0.0 0.2231942517082513 -0.04162360320544262 0.5667708177298095 -1.0676262454934125 0.7601880850218812 -1.0676262454934125 -0.07559742777062253 0.031107256435835087 0.05903680795398175 0.08974993726156714 -0.2592475126700473 0.2743434418098265 
1.36 0.3354749188293333 -1.3471463809086746 -1.4589713538517854 0.0 1.5707963267948966 0.0 0.2743434418098265 0.1828956278732176 0.0914478139366088 0.0 0.0 0.0 0.0 0.0 0.0 0.0 0.0 0.0 0.22258894914902877 -0.04137635249736318 0.5672424305779091 -1.0663749508112244 0.7575349911840771 -1.0663749508112244 -0.07572791075832816 0.03070532065847674 0.05886635234943402 0.09031870348512823 -0.2590499099880698 0.2743434418098265 
1.368 0.33766966636381185 -1.3456832158856888 -1.4582397713402926 0.0 1.5707963267948966 0.0 0.2743434418098265 0.1828956278732176 0.0914478139366088 0.0 0.0 0.0 0.0 0.0 0.0 0.0 0.0 0.0 0.22198260996027958 -0.04113231966330862 0.5677126785407252 -1.065119956168709 0.7548861524485747 -1.065119956168709 -0.07585658468658983 0.030302789230949548 0.05869558674173748 0.09088703465118916 -0.25885105948474524 0.2743434418098265 
1.376 0.3398644138982905 -1.344220050862703 -1.4575081888287997 0.0 1.5707963267948966 0.0 0.2743434418098265 0.1828956278732176 0.0914478139366088 0.0 0.0 0.0 0.0 0.0 0.0 0.0 0.0 0.0 0.22137524862561136 -0.04089150943723095 0.5681815591408416 -1.0638612704664618 0.7522415731172862 -1.0638612704664623 -0.07598344677792741 0.029899669967758738 0.05852451178334399 0.09145492802214718 -0.2586509621179196 0.2743434418098265 
1.384 0.3420591614327691 -1.3427568858397172 -1.4567766063173069 0.0 1.5707963267948966 0.0 0.2743434418098265 0.1828956278732176 0.0914478139366088 0.0 0.0 0.0 0.0 0.0 0.0 0.0 0.0 0.0 0.22076687965071848 -0.0406539264905142 0.5686490699060675 -1.0625989025953917 0.7496012574659858 -1.062598902595392 -0.07610849428819455 0.029495970696353707 0.05835312812825258 0.09202238086250827 -0.25844961885144474 0.2743434418098265 
1.392 0.3442539089672477 -1.3412937208167315 -1.456045023805814 0.0 1.5707963267948966 0.0 0.2743434418098265 0.1828956278732176 0.0914478139366088 0.0 0.0 0.0 0.0 0.0 0.0 0.0 0.0 0.0 0.22015751756311475 -0.04041957543187159 0.5691152083694504 -1.0613328614366997 0.7469652097444274 -1.0613328614366997 -0.07623172450663868 0.029091699256986073 0.058181436432006545 0.09258939043890047 -0.25824703065517407 0.2743434418098265 
1.4 0.34644865650172635 -1.3398305557937458 -1.4553134412943212 0.0 1.5707963267948966 0.0 0.2743434418098265 0.1828956278732176 0.0914478139366088 0.0 0.0 0.0 0.0 0.0 0.0 0.0 0.0 0.0 0.21954717691186626 -0.040188460807243656 0.5695799720692885 -1.0600631558618616 0.7443334341764622 -1.0600631558618618 -0.07635313475596034 0.02868686350256765 0.058009437351690715 0.09315595402008692 -0.2580431985049578 0.2743434418098265 
1.408 0.34864340403620486 -1.33836739077076 -1.4545818587828283 0.0 1.5707963267948966 0.0 0.2743434418098265 0.1828956278732176 0.0914478139366088 0.0 0.0 0.0 0.0 0.0 0.0 0.0 0.0 0.0 0.21893587226732347 -0.03996058709969731 0.5700433585491428 -1.05878979473261 0.7417059349601564 -1.05878979473261 -0.0764727223923719 0.028281471298528114 0.05783713154592862 0.09372206887697909 -0.25783812338263784 0.2743434418098265 
1.416 0.3508381515706835 -1.3369042257477743 -1.4538502762713355 0.0 1.5707963267948966 0.0 0.2743434418098265 0.1828956278732176 0.0914478139366088 0.0 0.0 0.0 0.0 0.0 0.0 0.0 0.0 0.0 0.218323618220853 -0.03973595872932647 0.5705053653578491 -1.057512786900916 0.7390827162679089 -1.057512786900916 -0.07659048480565543 0.027875530522672512 0.057664519674879754 0.09428773228265006 -0.2576318062760437 0.2743434418098265 
1.424 0.3530328991051621 -1.3354410607247886 -1.4531186937598426 0.0 1.5707963267948966 0.0 0.2743434418098265 0.1828956278732176 0.0914478139366088 0.0 0.0 0.0 0.0 0.0 0.0 0.0 0.0 0.0 0.21771042938456855 -0.03951458005315368 0.5709659900495311 -1.0562321412089724 0.7364637822465677 -1.0562321412089724 -0.07670641941922034 0.027469049065038238 0.057491602400236624 0.09485294151234729 -0.25742424817898724 0.2743434418098265 
1.432 0.35522764663964074 -1.333977895701803 -1.4523871112483497 0.0 1.5707963267948966 0.0 0.2743434418098265 0.1828956278732176 0.0914478139366088 0.0 0.0 0.0 0.0 0.0 0.0 0.0 0.0 0.0 0.2170963203910622 -0.03929645536503265 0.5714252301836117 -1.0549478664891758 0.7338491370175463 -1.0549478664891756 -0.07682052369016015 0.0270620348277521 0.05731838038522212 0.0954176938435061 -0.2572154500912582 0.2743434418098265 
1.44 0.35742239417411936 -1.3325147306788172 -1.4516555287368569 0.0 1.5707963267948966 0.0 0.2743434418098265 0.1828956278732176 0.0914478139366088 0.0 0.0 0.0 0.0 0.0 0.0 0.0 0.0 0.0 0.21648130589313386 -0.039081588895552216 0.5718830833248261 -1.0536599715641097 0.7312387846769399 -1.0536599715641097 -0.07693279510930887 0.026654495724886693 0.05714485429458647 0.09598198655576264 -0.2570054130186191 0.2743434418098265 
1.448 0.35961714170859793 -1.3310515656558315 -1.450923946225364 0.0 1.5707963267948966 0.0 0.2743434418098265 0.1828956278732176 0.0914478139366088 0.0 0.0 0.0 0.0 0.0 0.0 0.0 0.0 0.0 0.215865400563522 -0.038869984811941365 0.5723395470432334 -1.0523684652465313 0.7286327292956432 -1.0523684652465308 -0.07704323120129648 0.026246439682316935 0.056971024794604565 0.09654581693096698 -0.2567941379728007 0.2743434418098265 
1.456 0.36181188924307656 -1.3295884006328456 -1.4501923637138712 0.0 1.5707963267948966 0.0 0.2743434418098265 0.1828956278732176 0.0914478139366088 0.0 0.0 0.0 0.0 0.0 0.0 0.0 0.0 0.0 0.21524861909463255 -0.038661647217975326 0.5727946189142289 -1.051073356339349 0.7260309749194618 -1.051073356339349 -0.07715182952460393 0.02583787463757617 0.05679689255307305 0.09710918225319622 -0.25658162597149686 0.2743434418098265 
1.464 0.3640066367775552 -1.3281252356098598 -1.4494607812023783 0.0 1.5707963267948966 0.0 0.2743434418098265 0.1828956278732176 0.0914478139366088 0.0 0.0 0.0 0.0 0.0 0.0 0.0 0.0 0.0 0.21463097619826807 -0.03845658015388284 0.5732482965185565 -1.0497746536356136 0.7234335255692321 -1.0497746536356136 -0.07725858767161779 0.025428808539711873 0.05662245823930745 0.09767207980876762 -0.2563678780383598 0.2743434418098265 
1.472 0.3662013843120338 -1.3266620705868741 -1.4487291986908855 0.0 1.5707963267948966 0.0 0.2743434418098265 0.1828956278732176 0.0914478139366088 0.0 0.0 0.0 0.0 0.0 0.0 0.0 0.0 0.0 0.2140124866053562 -0.03825478759625482 0.5737005774423207 -1.0484723659184985 0.7208403852409332 -1.0484723659184985 -0.07736350326868381 0.025019249349141334 0.05644772252413935 0.09823450688625161 -0.25615289520299506 0.2743434418098265 
1.48 0.36839613184651243 -1.3251989055638884 -1.4479976161793924 0.0 1.5707963267948966 0.0 0.2743434418098265 0.1828956278732176 0.0914478139366088 0.0 0.0 0.0 0.0 0.0 0.0 0.0 0.0 0.0 0.21339316506567776 -0.038056273457953746 0.5741514592769985 -1.0471665019612861 0.7182515579058018 -1.0471665019612864 -0.07746657397616015 0.02460920503750699 0.0562726860799135 0.09879646077648488 -0.2559366785009567 0.2743434418098265 
1.488 0.370590879380991 -1.3237357405409027 -1.4472660336678995 0.0 1.5707963267948966 0.0 0.2743434418098265 0.1828956278732176 0.0914478139366088 0.0 0.0 0.0 0.0 0.0 0.0 0.0 0.0 0.0 0.21277302634759446 -0.03786104158802458 0.574600939619452 -1.0458570705273524 0.7156670475104475 -1.0458570705273524 -0.07756779748847002 0.024198683587531477 0.05609734958048493 0.09935793877258337 -0.25571922897374216 0.2743434418098265 
1.496 0.3727856269154696 -1.322272575517917 -1.4465344511564067 0.0 1.5707963267948966 0.0 0.2743434418098265 0.1828956278732176 0.0914478139366088 0.0 0.0 0.0 0.0 0.0 0.0 0.0 0.0 0.0 0.21215208523777626 -0.037669095771606695 0.5750490160719398 -1.0445440803701544 0.7130868579769665 -1.0445440803701544 -0.07766717153415352 0.023787692992872575 0.055921713701216125 0.09991893816995545 -0.25550054766878727 0.2743434418098265 
1.504 0.37498037444994825 -1.3208094104949313 -1.4458028686449138 0.0 1.5707963267948966 0.0 0.2743434418098265 0.1828956278732176 0.0914478139366088 0.0 0.0 0.0 0.0 0.0 0.0 0.0 0.0 0.0 0.21153035654092817 -0.03748043972984687 0.5754956862421299 -1.0432275402332134 0.7105109932030542 -1.0432275402332134 -0.07776469387591914 0.023376241257977708 0.05574577911897405 0.10047945626631483 -0.25528063563946113 0.2743434418098265 
1.512 0.3771751219844269 -1.3193462454719453 -1.445071286133421 0.0 1.5707963267948966 0.0 0.2743434418098265 0.1828956278732176 0.0914478139366088 0.0 0.0 0.0 0.0 0.0 0.0 0.0 0.0 0.0 0.2109078550795165 -0.037295077119813724 0.575940947743111 -1.041907458850102 0.7079394570621188 -1.0419074588501023 -0.07786036231069432 0.022964336397938344 0.05556954651212731 0.10103949036169353 -0.25505949394506144 0.2743434418098265 
1.52 0.3793698695189055 -1.3178830804489596 -1.444339703621928 0.0 1.5707963267948966 0.0 0.2743434418098265 0.1828956278732176 0.0914478139366088 0.0 0.0 0.0 0.0 0.0 0.0 0.0 0.0 0.0 0.2102845956934955 -0.03711301153441292 0.5763847981934046 -1.040583844944434 0.7053722534033957 -1.040583844944434 -0.07795417466967547 0.022551986438344267 0.05539301656054326 0.10159903775845508 -0.2548371236508088 0.2743434418098265 
1.528 0.38156461705338407 -1.316419915425974 -1.4436081211104352 0.0 1.5707963267948966 0.0 0.2743434418098265 0.1828956278732176 0.0914478139366088 0.0 0.0 0.0 0.0 0.0 0.0 0.0 0.0 0.0 0.20966059324003228 -0.036934246502304056 0.5768272352169772 -1.039256707229845 0.7028093860520577 -1.039256707229845 -0.0780461288183776 0.022139199415137305 0.05521618994558501 0.1021580957613073 -0.25461352582784197 0.2743434418098265 
1.536 0.3837593645878627 -1.3149567504029882 -1.4428765385989424 0.0 1.5707963267948966 0.0 0.2743434418098265 0.1828956278732176 0.0914478139366088 0.0 0.0 0.0 0.0 0.0 0.0 0.0 0.0 0.0 0.20903586259323226 -0.03675878548781819 0.5772682564432525 -1.0379260544099853 0.7002508588093284 -1.0379260544099853 -0.07813622265668312 0.021725983374464984 0.05503906735010855 0.10271666167731548 -0.2543887015532127 0.2743434418098265 
1.544 0.3859541121223413 -1.3134935853800025 -1.4421449560874495 0.0 1.5707963267948966 0.0 0.2743434418098265 0.1828956278732176 0.0914478139366088 0.0 0.0 0.0 0.0 0.0 0.0 0.0 0.0 0.0 0.20841041864386461 -0.03658663189087686 0.5777078595071223 -1.0365918951785038 0.6976966754525945 -1.0365918951785038 -0.0782244541188899 0.02131234637253426 0.05486164945845988 0.10327473281591512 -0.2541626519098802 0.2743434418098265 
1.552 0.38814885965681994 -1.3120304203570168 -1.4414133735759567 0.0 1.5707963267948966 0.0 0.2743434418098265 0.1828956278732176 0.0914478139366088 0.0 0.0 0.0 0.0 0.0 0.0 0.0 0.0 0.0 0.20778427629908608 -0.03641778904691219 0.57814604204896 -1.0352542382190382 0.6951468397355169 -1.0352542382190382 -0.07831082117375919 0.020898296475464394 0.05468393695647202 0.10383230648892511 -0.2539353779867065 0.2743434418098265 
1.56 0.39034360719129857 -1.310567255334031 -1.4406817910644638 0.0 1.5707963267948966 0.0 0.2743434418098265 0.1828956278732176 0.0914478139366088 0.0 0.0 0.0 0.0 0.0 0.0 0.0 0.0 0.0 0.2071574504821651 -0.03625226022678826 0.5785828017146311 -1.0339130922052013 0.6926013553881417 -1.0339130922052011 -0.07839532182456217 0.020483841759140097 0.05450593053146198 0.1043893800105606 -0.25370688087845067 0.2743434418098265 
1.568 0.39253835472577714 -1.3091040903110454 -1.439950208552971 0.0 1.5707963267948966 0.0 0.2743434418098265 0.1828956278732176 0.0914478139366088 0.0 0.0 0.0 0.0 0.0 0.0 0.0 0.0 0.0 0.20652995613220612 -0.036090048636723465 0.5790181361555055 -1.0325684658005705 0.6900602261170117 -1.0325684658005705 -0.07847795410912665 0.02006899030906442 0.054327630872228014 0.10494595069744586 -0.25347716168576384 0.2743434418098265 
1.576 0.39473310226025576 -1.3076409252880596 -1.439218626041478 0.0 1.5707963267948966 0.0 0.2743434418098265 0.1828956278732176 0.0914478139366088 0.0 0.0 0.0 0.0 0.0 0.0 0.0 0.0 0.0 0.20590180820387238 -0.03593115741821412 0.5794520430284693 -1.0312203676586766 0.6875234556052767 -1.0312203676586762 -0.07855871609988246 0.019653750220211173 0.054149038669046495 0.10550201586862731 -0.2532462215151837 0.2743434418098265 
1.584 0.3969278497947344 -1.3061777602650737 -1.4384870435299852 0.0 1.5707963267948966 0.0 0.2743434418098265 0.1828956278732176 0.0914478139366088 0.0 0.0 0.0 0.0 0.0 0.0 0.0 0.0 0.0 0.20527302166710892 -0.03577558964795956 0.5798845199959375 -1.0298688064229908 0.684991047512803 -1.029868806422991 -0.0786376059039069 0.01923812959687717 0.053970154613668955 0.1060575728455864 -0.2530140614791295 0.2743434418098265 
1.592 0.399122597329213 -1.304714595242088 -1.4377554610184924 0.0 1.5707963267948966 0.0 0.2743434418098265 0.1828956278732176 0.0914478139366088 0.0 0.0 0.0 0.0 0.0 0.0 0.0 0.0 0.0 0.20464361150686608 -0.0356233483377876 0.580315564725864 -1.0285137907269186 0.6824630054762851 -1.0285137907269184 -0.07871462166296869 0.018822136552534837 0.05379097939931933 0.10661261895225252 -0.25278068269589626 0.2743434418098265 
1.6 0.40131734486369164 -1.3032514302191023 -1.4370238785069995 0.0 1.5707963267948966 0.0 0.2743434418098265 0.1828956278732176 0.0914478139366088 0.0 0.0 0.0 0.0 0.0 0.0 0.0 0.0 0.0 0.2040135927228205 -0.03547443643458244 0.580745174891755 -1.027155329193784 0.6799393331093536 -1.027155329193784 -0.07878976155357235 0.018405779209683497 0.053611513720690646 0.10716715151501585 -0.2525460862896498 0.2743434418098265 
1.608 0.4035120923981702 -1.3017882651961166 -1.4362922959955065 0.0 1.5707963267948966 0.0 0.2743434418098265 0.1828956278732176 0.0914478139366088 0.0 0.0 0.0 0.0 0.0 0.0 0.0 0.0 0.0 0.2033829803290978 -0.03532885682021247 0.5811733481726801 -1.025793430436823 0.6774200340026846 -1.025793430436823 -0.07886302378700093 0.017989065699701552 0.05343175827394224 0.10772116786274025 -0.2523102733904209 0.2743434418098265 
1.616 0.40570683993264883 -1.3003251001731309 -1.4355607134840136 0.0 1.5707963267948966 0.0 0.2743434418098265 0.1828956278732176 0.0914478139366088 0.0 0.0 0.0 0.0 0.0 0.0 0.0 0.0 0.0 0.20275178935399438 -0.035186612311460065 0.5816000822532834 -1.0244281030591729 0.6749051117241098 -1.024428103059173 -0.07893440660935871 0.017572004162697896 0.053251713756696795 0.10827466532677621 -0.25207324513410023 0.2743434418098265 
1.624 0.40790158746712746 -1.2988619351501451 -1.4348291309725207 0.0 1.5707963267948966 0.0 0.2743434418098265 0.1828956278732176 0.0914478139366088 0.0 0.0 0.0 0.0 0.0 0.0 0.0 0.0 0.0 0.20212003483969815 -0.035047705659952286 0.5820253748237966 -1.0230593556538625 0.6723945698187243 -1.0230593556538625 -0.07900390830161326 0.017154602747363173 0.053071380868037234 0.10882764124097358 -0.25183500266243286 0.2743434418098265 
1.632 0.4100963350016061 -1.2973987701271592 -1.4340975484610279 0.0 1.5707963267948966 0.0 0.2743434418098265 0.1828956278732176 0.0914478139366088 0.0 0.0 0.0 0.0 0.0 0.0 0.0 0.0 0.0 0.20148773184200958 -0.03491213955209288 0.5824492235800496 -1.0216871968038035 0.6698884118089938 -1.0216871968038035 -0.0790715271796365 0.016736869610820833 0.052890760308503704 0.10938009294169451 -0.25159554712301224 0.2743434418098265 
1.64 0.4122910825360847 -1.2959356051041735 -1.433365965949535 0.0 1.5707963267948966 0.0 0.2743434418098265 0.1828956278732176 0.0914478139366088 0.0 0.0 0.0 0.0 0.0 0.0 0.0 0.0 0.0 0.2008548954300628 -0.034779916608995334 0.5828716262234821 -1.0203116350817807 0.667386641194865 -1.0203116350817807 -0.07913726159424542 0.01631881291847837 0.05270985278009073 0.10993201776782618 -0.25135487966927544 0.2743434418098265 
1.648 0.4144858300705633 -1.2944724400811878 -1.4326343834380422 0.0 1.5707963267948966 0.0 0.2743434418098265 0.1828956278732176 0.0914478139366088 0.0 0.0 0.0 0.0 0.0 0.0 0.0 0.0 0.0 0.20022154068604509 -0.034651039386417296 0.5832925804611563 -1.018932679050445 0.664889261453871 -1.018932679050445 -0.07920110993124217 0.015900440843877643 0.052528658986243947 0.11048341306079373 -0.2511130014604971 0.2743434418098265 
1.656 0.4166805776050419 -1.293009275058202 -1.4319028009265493 0.0 1.5707963267948966 0.0 0.2743434418098265 0.1828956278732176 0.0914478139366088 0.0 0.0 0.0 0.0 0.0 0.0 0.0 0.0 0.0 0.1995876827049175 -0.03452551037469595 0.5837120840057671 -1.0175503372623027 0.6623962760412389 -1.017550337262303 -0.07926307061145332 0.015481761568545714 0.0523471796318573 0.11103427616457309 -0.2508699136617839 0.2743434418098265 
1.664 0.4188753251395205 -1.2915461100352164 -1.4311712184150565 0.0 1.5707963267948966 0.0 0.2743434418098265 0.1828956278732176 0.0914478139366088 0.0 0.0 0.0 0.0 0.0 0.0 0.0 0.0 0.0 0.19895333659413408 -0.034403331998684894 0.5841301345756547 -1.0161646182597102 0.6599076883899976 -1.0161646182597102 -0.0793231420907686 0.015062783281845092 0.05216541542326984 0.11158460442570353 -0.2506256174440691 0.2743434418098265 
1.672 0.4210700726739991 -1.2900829450122306 -1.4304396359035636 0.0 1.5707963267948966 0.0 0.2743434418098265 0.1828956278732176 0.0914478139366088 0.0 0.0 0.0 0.0 0.0 0.0 0.0 0.0 0.0 0.19831851747336143 -0.03428450661769192 0.5845467298948156 -1.0147755305748645 0.657423501911084 -1.0147755305748645 -0.0793813228601791 0.014643514180823915 0.051983367068262745 0.1121343951933007 -0.25038011398410664 0.2743434418098265 
1.68 0.4232648202084777 -1.288619779989245 -1.4297080533920707 0.0 1.5707963267948966 0.0 0.2743434418098265 0.1828956278732176 0.0914478139366088 0.0 0.0 0.0 0.0 0.0 0.0 0.0 0.0 0.0 0.19768324047419777 -0.034169036525418306 0.5849618676929143 -1.013383082729796 0.6549437199934488 -1.013383082729796 -0.07943761144581446 0.014223962470065986 0.05180103527605634 0.1126836458190694 -0.25013340446446597 0.2743434418098265 
1.688 0.4254595677429563 -1.2871566149662592 -1.4289764708805779 0.0 1.5707963267948966 0.0 0.2743434418098265 0.1828956278732176 0.0914478139366088 0.0 0.0 0.0 0.0 0.0 0.0 0.0 0.0 0.0 0.19704752073989146 -0.0340569239498989 0.5853755457052949 -1.0119872832363612 0.6524683460041624 -1.011987283236361 -0.07949200640898005 0.013804136361540528 0.051618420757306875 0.11323235365731606 -0.24988549007352567 0.2743434418098265 
1.696 0.4276543152774349 -1.2856934499432735 -1.428244888369085 0.0 1.5707963267948966 0.0 0.2743434418098265 0.1828956278732176 0.0914478139366088 0.0 0.0 0.0 0.0 0.0 0.0 0.0 0.0 0.0 0.19641137342505974 -0.033948171053443776 0.5857877616729925 -1.0105881405962365 0.6499973832885212 -1.0105881405962363 -0.07954450634619276 0.013384044074451866 0.05143552422410365 0.11378051606496181 -0.2496363720054683 0.2743434418098265 
1.704 0.42984906281191354 -1.2842302849202878 -1.4275133058575922 0.0 1.5707963267948966 0.0 0.2743434418098265 0.1828956278732176 0.0914478139366088 0.0 0.0 0.0 0.0 0.0 0.0 0.0 0.0 0.0 0.19577481369540667 -0.033842779932581016 0.5861985133427446 -1.009185663300911 0.6475308351701526 -1.0091856633009109 -0.07959510988921684 0.01296369383508885 0.05125234638996579 0.11432813040155507 -0.24938605146027434 0.2743434418098265 
1.712 0.43204381034639217 -1.282767119897302 -1.4267817233460993 0.0 1.5707963267948966 0.0 0.2743434418098265 0.1828956278732176 0.0914478139366088 0.0 0.0 0.0 0.0 0.0 0.0 0.0 0.0 0.0 0.19513785672744122 -0.03374075261800043 0.5866077984670025 -1.0077798598316807 0.6450687049511195 -1.0077798598316803 -0.0796438157050985 0.012543093876674231 0.0510688879698393 0.11487519402928417 -0.24913452964371663 0.2743434418098265 
1.72 0.4342385578808708 -1.2813039548743161 -1.4260501408346065 0.0 1.5707963267948966 0.0 0.2743434418098265 0.1828956278732176 0.0914478139366088 0.0 0.0 0.0 0.0 0.0 0.0 0.0 0.0 0.0 0.19450051770819432 -0.03364209107449895 0.5870156148039429 -1.0063707386596403 0.6426109959120243 -1.00637073865964 -0.07969062249620038 0.012122252439213575 0.05088514968009375 0.11542170431299023 -0.2488818077673542 0.2743434418098265 
1.728 0.43643330541534936 -1.2798407898513304 -1.4253185583231136 0.0 1.5707963267948966 0.0 0.2743434418098265 0.1828956278732176 0.0914478139366088 0.0 0.0 0.0 0.0 0.0 0.0 0.0 0.0 0.0 0.19386281183493728 -0.03354679720092671 0.587421960117479 -1.0049583082456819 0.6401577113121157 -1.0049583082456819 -0.07973552900023494 0.011701177769344602 0.05070113223851955 0.11596765862017978 -0.2486278870485269 0.2743434418098265 
1.736 0.438628052949828 -1.2783776248283447 -1.4245869758116205 0.0 1.5707963267948966 0.0 0.2743434418098265 0.1828956278732176 0.0914478139366088 0.0 0.0 0.0 0.0 0.0 0.0 0.0 0.0 0.0 0.1932247543148976 -0.033454872830134784 0.587826832177272 -1.0035425770404842 0.6377088543893891 -1.0035425770404842 -0.0797785339902975 0.011279878120185556 0.05051683636432447 0.11651305432103745 -0.24837276871034913 0.2743434418098265 
1.744 0.4408228004843066 -1.276914459805359 -1.4238553933001277 0.0 1.5707963267948966 0.0 0.2743434418098265 0.1828956278732176 0.0914478139366088 0.0 0.0 0.0 0.0 0.0 0.0 0.0 0.0 0.0 0.19258636036497678 -0.033366319728923885 0.5882302287587428 -1.0021235534845105 0.6352644283606931 -1.0021235534845105 -0.0798196362748986 0.01085836175118416 0.05033226277813077 0.11705788878843865 -0.24811645398170418 0.2743434418098265 
1.752 0.44301754801878523 -1.2754512947823733 -1.4231238107886348 0.0 1.5707963267948966 0.0 0.2743434418098265 0.1828956278732176 0.0914478139366088 0.0 0.0 0.0 0.0 0.0 0.0 0.0 0.0 0.0 0.1919476452114664 -0.03328113959799426 0.5886321476430821 -1.0007012460080036 0.632824436421831 -1.0007012460080036 -0.07985883469799548 0.010436636927966002 0.050147412201972094 0.11760215939796209 -0.2478589440972383 0.2743434418098265 
1.76 0.44521229555326386 -1.2739881297593876 -1.422392228277142 0.0 1.5707963267948966 0.0 0.2743434418098265 0.1828956278732176 0.0914478139366088 0.0 0.0 0.0 0.0 0.0 0.0 0.0 0.0 0.0 0.19130862408976435 -0.03319933407189709 0.5890325866172634 -0.9992756630309784 0.6303888817476648 -0.9992756630309781 -0.07989612813902319 0.010014711922182777 0.04996228535929016 0.11814586352790263 -0.24760024029735472 0.2743434418098265 
1.768 0.44740704308774243 -1.2725249647364016 -1.421660645765649 0.0 1.5707963267948966 0.0 0.2743434418098265 0.1828956278732176 0.0914478139366088 0.0 0.0 0.0 0.0 0.0 0.0 0.0 0.0 0.0 0.19066931224409078 -0.033120904718986655 0.5894315434740528 -0.9978468129632202 0.6279577674922161 -0.9978468129632202 -0.07993151551292486 0.009592595011360498 0.049776882974931706 0.1186889985592838 -0.2473403438282075 0.2743434418098265 
1.776 0.44960179062222105 -1.271061799713416 -1.4209290632541562 0.0 1.5707963267948966 0.0 0.2743434418098265 0.1828956278732176 0.0914478139366088 0.0 0.0 0.0 0.0 0.0 0.0 0.0 0.0 0.0 0.19002972492720496 -0.03304585304137396 0.5898290160120212 -0.9964147042042806 0.6255310967887713 -0.9964147042042807 -0.07996499577018158 0.00917029447874771 0.04959120577514563 0.11923156187587049 -0.2470792559416959 0.2743434418098265 
1.784 0.4517965381566997 -1.2695986346904302 -1.4201974807426634 0.0 1.5707963267948966 0.0 0.2743434418098265 0.1828956278732176 0.0914478139366088 0.0 0.0 0.0 0.0 0.0 0.0 0.0 0.0 0.0 0.1893898774001193 -0.032974180474881765 0.5902250020355543 -0.9949793451434706 0.6231088727499802 -0.9949793451434706 -0.07999656789684106 0.008747818613163177 0.04940525448757936 0.11977355086418133 -0.2468169778954579 0.2743434418098265 
1.792 0.4539912856911783 -1.2681354696674445 -1.4194658982311705 0.0 1.5707963267948966 0.0 0.2743434418098265 0.1828956278732176 0.0914478139366088 0.0 0.0 0.0 0.0 0.0 0.0 0.0 0.0 0.0 0.18874978493181588 -0.03290588838900042 0.5906194993548656 -0.9935407441598599 0.6206910984679601 -0.9935407441598599 -0.08002623091454657 0.008325175708843578 0.04921902984127613 0.1203149629135016 -0.2465535109528646 0.2743434418098265 
1.8 0.45618603322565693 -1.2666723046444588 -1.4187343157196777 0.0 1.5707963267948966 0.0 0.2743434418098265 0.1828956278732176 0.0914478139366088 0.0 0.0 0.0 0.0 0.0 0.0 0.0 0.0 0.0 0.188109462798961 -0.03284097808684533 0.5910125057860058 -0.992098909622272 0.6182777770143961 -0.992098909622272 -0.08005398388056416 0.007902374065291345 0.049032532566671616 0.12085579541589557 -0.2462888563830138 0.2743434418098265 
1.808 0.4583807807601355 -1.265209139621473 -1.4180027332081848 0.0 1.5707963267948966 0.0 0.2743434418098265 0.1828956278732176 0.0914478139366088 0.0 0.0 0.0 0.0 0.0 0.0 0.0 0.0 0.0 0.18746892628562017 -0.03277945080511518 0.5914040191508749 -0.9906538498892805 0.6158689114406409 -0.9906538498892805 -0.08007982588781004 0.00747942198712187 0.048845763395590734 0.1213960457662191 -0.24602301546072397 0.2743434418098265 
1.816 0.4605755282946141 -1.2637459745984874 -1.417271150696692 0.0 1.5707963267948966 0.0 0.2743434418098265 0.1828956278732176 0.0914478139366088 0.0 0.0 0.0 0.0 0.0 0.0 0.0 0.0 0.0 0.18682819068297304 -0.032721307714051885 0.591794037277233 -0.989205573309208 0.6134645047778179 -0.9892055733092078 -0.08010375606487699 0.0070563277839110344 0.04865872306124468 0.12193571136213237 -0.24575598946652824 0.2743434418098265 
1.824 0.46277027582909275 -1.2622828095755017 -1.416539568185199 0.0 1.5707963267948966 0.0 0.2743434418098265 0.1828956278732176 0.0914478139366088 0.0 0.0 0.0 0.0 0.0 0.0 0.0 0.0 0.0 0.18618727128902768 -0.0326665499174014 0.5921825579987117 -0.987754088220121 0.6110645600369192 -0.9877540882201209 -0.08012577357606011 0.006633099770042256 0.048471412298227545 0.12247478960411212 -0.24548777968666802 0.2743434418098265 
1.832 0.4649650233635714 -1.260819644552516 -1.4158079856737062 0.0 1.5707963267948966 0.0 0.2743434418098265 0.1828956278732176 0.0914478139366088 0.0 0.0 0.0 0.0 0.0 0.0 0.0 0.0 0.0 0.1855461834083349 -0.03261517845237593 0.592569579154824 -0.9862994029498297 0.6086690802089069 -0.9862994029498294 -0.08014587762138177 0.006209746264553763 0.04828383184251325 0.1230132778954644 -0.24521838741308705 0.2743434418098265 
1.84 0.46715977089805 -1.25935647952953 -1.4150764031622134 0.0 1.5707963267948966 0.0 0.2743434418098265 0.1828956278732176 0.0914478139366088 0.0 0.0 0.0 0.0 0.0 0.0 0.0 0.0 0.0 0.18490494235170224 -0.03256719428961717 0.5929550985909775 -0.984841525815884 0.606278068264812 -0.984841525815884 -0.0801640674366165 0.0057862755909852195 0.04809598243145229 0.12355117364233699 -0.24494781394342485 0.2743434418098265 
1.848 0.46935451843252857 -1.2578933145065443 -1.4143448206507205 0.0 1.5707963267948966 0.0 0.2743434418098265 0.1828956278732176 0.0914478139366088 0.0 0.0 0.0 0.0 0.0 0.0 0.0 0.0 0.0 0.18426356343590822 -0.032522598333161075 0.5933391141584828 -0.9833804651255723 0.6038915271558339 -0.9833804651255723 -0.0801803422933143 0.005362696077224935 0.04790786480376866 0.12408847425373187 -0.24467606058101093 0.2743434418098265 
1.856 0.4715492659670072 -1.2564301494835586 -1.4136132381392277 0.0 1.5707963267948966 0.0 0.2743434418098265 0.1828956278732176 0.0914478139366088 0.0 0.0 0.0 0.0 0.0 0.0 0.0 0.0 0.0 0.1836220619834156 -0.03248139142040354 0.5937216237145668 -0.9819162291759209 0.60150945981344 -0.9819162291759206 -0.08019470149882427 0.004939016055356224 0.04771947969955646 0.12462517714151783 -0.24440312863485786 0.2743434418098265 
1.864 0.4737440135014858 -1.2549669844605729 -1.4128816556277348 0.0 1.5707963267948966 0.0 0.2743434418098265 0.1828956278732176 0.0914478139366088 0.0 0.0 0.0 0.0 0.0 0.0 0.0 0.0 0.0 0.182980453322085 -0.03244357432206765 0.5941026251223822 -0.9804488262536886 0.5991318691494621 -0.9804488262536885 -0.08020714439631677 0.004515243861504141 0.047530827860276834 0.1251612797204427 -0.2441290194196558 0.2743434418098265 
