Fleaurent/UniversalRobot/csv/robolib_movel_x400.csv
timestamp target_q_0 target_q_1 target_q_2 target_q_3 target_q_4 target_q_5 target_qd_0 target_qd_1 target_qd_2 target_qd_3 target_qd_4 target_qd_5 target_TCP_pose_0 target_TCP_pose_1 target_TCP_pose_2 target_TCP_pose_3 target_TCP_pose_4 target_TCP_pose_5 target_TCP_speed_0 target_TCP_speed_1 target_TCP_speed_2 target_TCP_speed_3 target_TCP_speed_4 target_TCP_speed_5 target_TCP_acc_0 target_TCP_acc_1 target_TCP_acc_2 target_TCP_acc_3 target_TCP_acc_4 target_TCP_acc_5
0.0 -2.2367245847893766 -1.8294151808293977 -1.3382096970389243 4.674885638157367 1.5708545548968207 1.5707893370021333 0.0 0.0 0.0 0.0 0.0 0.0 -300.0 -200.0 300.0 2.2214 2.2214 0.0 0.0 0.0 0.0 0.0 0.0 0.0 0.0 1000.0 0.0 0.0 0.0 0.0 
0.008 -2.2367822912617217 -1.8293492537087463 -1.3382948924323925 4.6748938338752275 1.570854555300081 1.5707893403622835 -0.013704829597839563 0.020030491217124396 -0.025883681590128996 0.005852393971975939 -0.0008703098398153211 -0.013677167679121085 -300.0 -199.968 300.0 2.2214 2.2214 0.0 0.0 8.0 0.0 0.0 0.0 0.0 0.0 1000.0 0.0 0.0 0.0 0.0 
0.016 -2.236955454992269 -1.8291515458867027 -1.338550354840742 4.674918356424146 1.5708545565090046 1.5707893504454533 -0.02741927820403173 0.04004672627184373 -0.0517402095724648 0.011691889909883192 -0.0017421398823188646 -0.02736387707177872 -300.0 -199.872 300.0 2.2214 2.2214 0.0 0.0 16.0 0.0 0.0 0.0 0.0 0.0 1000.0 0.0 0.0 0.0 0.0 
0.024 -2.2372442089709588 -1.828822278017083 -1.3389757130590796 4.674959012103183 1.570854558521025 1.5707893672598054 -0.04115297234152224 0.06003445113300826 -0.07754246852149399 0.017505625830302154 -0.002617014897318774 -0.04106967702927375 -300.0 -199.712 300.0 2.2214 2.2214 0.0 0.0 24.0 0.0 0.0 0.0 0.0 0.0 1000.0 0.0 0.0 0.0 0.0 
0.032 -2.2376487750122926 -1.8283618179706254 -1.3395703487822845 4.675015478453742 1.5708545613318534 1.5707893908189534 -0.05491555352810136 0.07997941584927122 -0.10326341908600702 0.02328081174356637 -0.0034964688059333318 -0.05480413064151761 -300.0 -199.488 300.0 2.2214 2.2214 0.0 0.0 32.0 0.0 0.0 0.0 0.0 0.0 1000.0 0.0 0.0 0.0 0.0 
0.04 -2.2381694640020133 -1.827770681009322 -1.3403333971553348 4.675087304822275 1.5708545649354428 1.5707894211419744 -0.06871668568751152 0.09986737613390836 -0.12887613530381983 0.0290047653833005 -0.004382049298963738 -0.06857682226356096 -300.0 -199.2 300.0 2.2214 2.2214 0.0 0.0 40.0 0.0 0.0 0.0 0.0 0.0 1000.0 0.0 0.0 0.0 0.0 
0.048 -2.238806676242014 -1.8270495300359846 -1.3412637475353342 4.675173913144619 1.570854569323989 1.5707894582534299 -0.08256606245568743 0.11968409440823757 -0.15435384105850064 0.034664947619370876 -0.005275322506638742 -0.08239736442944114 -300.0 -198.848 300.0 2.2214 2.2214 0.0 0.0 48.0 0.0 0.0 0.0 0.0 0.0 1000.0 0.0 0.0 0.0 0.0 
0.056 -2.2395609018929865 -1.8261991759244682 -1.342360044456958 4.675274598948496 1.5708545744878504 1.5707895021833889 -0.09647341434501185 0.13941534013094303 -0.17966994540681144 0.04024899745566465 -0.006177877737043383 -0.09627540461352595 -300.0 -198.432 300.0 2.2214 2.2214 0.0 0.0 56.0 0.0 0.0 0.0 0.0 0.0 1000.0 0.0 0.0 0.0 0.0 
0.064 -2.2404327215142272 -1.8252205779374964 -1.3436206887907218 4.675388532569902 1.5708545804155443 1.5707895529674576 -0.11044851572760161 0.15904688924713506 -0.20479807651782966 0.04574476651982597 -0.007091332300693583 -0.11022063179757882 -300.0 -197.952 300.0 2.2214 2.2214 0.0 0.0 64.0 0.0 0.0 0.0 0.0 0.0 1000.0 0.0 0.0 0.0 0.0 
0.072 -2.2414228066997675 -1.8241148442403623 -1.345043839081456 4.675514760578094 1.5708545870936559 1.5707896106468153 -0.1245011915962789 0.17856452259899158 -0.22971211397964295 0.05114035295901086 -0.008017336438912741 -0.12424278279929736 -300.0 -197.408 300.0 2.2214 2.2214 0.0 0.0 72.00000000000001 0.0 0.0 0.0 0.0 0.0 1000.0 0.0 0.0 0.0 0.0 
0.08 -2.242531920809884 -1.8228832325202 -1.3466274130522655 4.6756522074032185 1.5708545945067973 1.5707896752682524 -0.13864132405901913 0.19795402314921384 -0.25438621924681215 0.05642413466361787 -0.008957578373877515 -0.13835164831508337 -300.0 -196.8 300.0 2.2214 2.2214 0.0 0.0 80.0 0.0 0.0 0.0 0.0 0.0 1000.0 0.0 0.0 0.0 0.0 
0.088 -2.2437609197967667 -1.821527150721703 -1.3483690892574656 4.675799677159733 1.5708546026375083 1.5707897468842167 -0.15287885851928004 0.21720117187920276 -0.2787948640212158 0.0615848017497147 -0.009913789498449828 -0.15255707862625564 -300.0 -196.12800000000001 300.0 2.2214 2.2214 0.0 0.0 88.0 0.0 0.0 0.0 0.0 0.0 1000.0 0.0 0.0 0.0 0.0 
0.096 -2.245110753122927 -1.8200481579113656 -1.3502663088662277 4.675955855658159 1.5708546114661974 1.5707898255528618 -0.1672238094906911 0.23629174223567603 -0.3029128563800386 0.06661138824019897 -0.01088774972416639 -0.16686898891380655 -300.0 -195.392 300.0 2.2214 2.2214 0.0 0.0 96.0 0.0 0.0 0.0 0.0 0.0 1000.0 0.0 0.0 0.0 0.0 
0.104 -2.2465824647706105 -1.8184479652833225 -1.3523162775571884 4.676119312597013 1.5708546209710266 1.5707899113381012 -0.18168626599008864 0.2552114930123126 -0.32671536448725474 0.07149330289447209 -0.01188129300603934 -0.18129736412209854 -300.0 -194.59199999999998 300.0 2.2214 2.2214 0.0 0.0 104.00000000000001 0.0 0.0 0.0 0.0 0.0 1000.0 0.0 0.0 0.0 0.0 
0.112 -2.248177194340199 -1.8167284373208386 -1.3545159675028515 4.676288503926253 1.5708546311278146 1.570790004309666 -0.19627639644780465 0.2739461595667721 -0.3501779377485569 0.07622035914622872 -0.012896313063088881 -0.19585226330657748 -300.0 -193.728 300.0 2.2214 2.2214 0.0 0.0 112.0 0.0 0.0 0.0 0.0 0.0 1000.0 0.0 0.0 0.0 0.0 
0.12 -2.249896178235208 -1.814891593128262 -1.356862119421502 4.67646177437299 1.5708546419099185 1.5707901045431674 -0.21100445306842133 0.2924814432879893 -0.37327652529393085 0.08078280411867016 -0.013934769313811192 -0.2105438233946107 -300.0 -192.8 300.0 2.2214 2.2214 0.0 0.0 120.0 0.0 0.0 0.0 0.0 0.0 1000.0 0.0 0.0 0.0 0.0 
0.128 -2.251740750931081 -1.812939607948927 -1.3593512446733262 4.676637360119856 1.5708546532881014 1.5707902121201607 -0.22588077556887026 0.3108029992438726 -0.3959874916965995 0.08517134669574494 -0.014998693046023328 -0.22538226228192057 -300.0 -191.808 300.0 2.2214 2.2214 0.0 0.0 128.0 0.0 0.0 0.0 0.0 0.0 1000.0 0.0 0.0 0.0 0.0 
0.136 -2.253712346324532 -1.810874814885035 -1.3619796273766642 4.676813391625976 1.5708546652303936 1.5707903271282162 -0.24091579421374917 0.328896421955311 -0.4182876298614548 0.08937718463663571 -0.016090193840756817 -0.24037788117973857 -300.0 -190.752 300.0 2.2214 2.2214 0.0 0.0 136.0 0.0 0.0 0.0 0.0 0.0 1000.0 0.0 0.0 0.0 0.0 
0.144 -2.255812499159647 -1.8086997068358777 -1.3647433265197078 4.676987896580169 1.5708546777019485 1.5707904496609881 -0.25612003206002987 0.34674722925865314 -0.4401541710399966 0.09339203072835486 -0.017211466270033407 -0.25554106611972516 -300.0 -189.632 300.0 2.2214 2.2214 0.0 0.0 144.00000000000003 0.0 0.0 0.0 0.0 0.0 1000.0 0.0 0.0 0.0 0.0 
0.152 -2.2580428465263727 -1.8064169386710027 -1.367638178042542 4.677158802975685 1.5708546906648555 1.57079057981829 -0.2715041063148989 0.36434084423546076 -0.4615647919518816 0.09720813797776884 -0.018364796888461262 -0.2708822885148553 -300.0 -188.448 300.0 2.2214 2.2214 0.0 0.0 152.0 0.0 0.0 0.0 0.0 0.0 1000.0 0.0 0.0 0.0 0.0 
0.16 -2.260405129426356 -1.8040293296549514 -1.3706597968641954 4.677323942295546 1.5708547040779803 1.570790717706169 -0.2870787287013082 0.38166257520529046 -0.4824976190150334 0.1008183238492398 -0.01955257153859068 -0.28641210466484246 -300.0 -187.2 300.0 2.2214 2.2214 0.0 0.0 160.0 0.0 0.0 0.0 0.0 0.0 1000.0 0.0 0.0 0.0 0.0 
0.168 -2.2629011944003317 -1.8015398661400674 -1.3738035788292815 4.677481052797228 1.5708547178967613 1.5707908634369827 -0.3028547047158496 0.39869759379451586 -0.5029312297067018 0.10421599355729025 -0.020777282989864983 -0.30214115408420644 -300.0 -185.888 300.0 2.2214 2.2214 0.0 0.0 168.0 0.0 0.0 0.0 0.0 0.0 1000.0 0.0 0.0 0.0 0.0 
0.176 -2.265532995210421 -1.7989517045435601 -1.3770647025489293 4.677627782885226 1.570854732072994 1.5707910171294754 -0.3188429316528405 0.4154309111116955 -0.5228446510964693 0.10739516242478553 -0.022041538930737854 -0.31808015651981253 -300.0 -184.512 300.0 2.2214 2.2214 0.0 0.0 176.0 0.0 0.0 0.0 0.0 0.0 1000.0 0.0 0.0 0.0 0.0 
0.184 -2.2683025945697577 -1.7962681746244924 -1.3804381311109055 4.677761694559687 1.5708547465546183 1.570791178908854 -0.3350543952569602 0.4318473520777548 -0.5422173556088185 0.11035047731598853 -0.023348070333079982 -0.33423990751255594 -300.0 -183.072 300.0 2.2214 2.2214 0.0 0.0 184.0 0.0 0.0 0.0 0.0 0.0 1000.0 0.0 0.0 0.0 0.0 
0.192 -2.27121216591078 -1.7934927830756489 -1.3839186136342412 4.677880266928987 1.5708547612854613 1.5707913489068628 -0.3515001648544285 0.4479315279772944 -0.5610292540872776 0.1130772371502192 -0.024699740207342634 -0.35063127234486313 -300.0 -181.56799999999998 300.0 2.2214 2.2214 0.0 0.0 192.0 0.0 0.0 0.0 0.0 0.0 1000.0 0.0 0.0 0.0 0.0 
0.2 -2.2742639951823715 -1.790629217444312 -1.387500686644131 4.677980899773745 1.5708547762049803 1.5707915272618562 -0.3681913867995682 0.46366780731569546 -0.5792606862441004 0.11557141249540705 -0.02609955276598149 -0.3672651782018174 -300.0 -180.0 300.0 2.2214 2.2214 0.0 0.0 200.0 0.0 0.0 0.0 0.0 0.0 0.0 0.0 0.0 0.0 0.0 
0.208 -2.27739760882284 -1.7877388314191718 -1.3911070499840823 4.678059589274163 1.570854790957867 1.5707917104429898 -0.37028431007868157 0.46067555825865836 -0.5740391529792419 0.11334200179850598 -0.026483290089340153 -0.3693360341244046 -300.0 -178.4 300.0 2.2214 2.2214 0.0 0.0 200.0 0.0 0.0 0.0 0.0 0.0 0.0 0.0 0.0 0.0 0.0 
0.216 -2.2805510145354058 -1.7848805195092383 -1.3946642393777249 4.678114232578926 1.5708548052243894 1.5707918948268624 -0.37238289803443675 0.4576778044566774 -0.5688454129663741 0.1111458889185229 -0.02687266612493884 -0.37141201250848616 -300.0 -176.8 300.0 2.2214 2.2214 0.0 0.0 200.0 0.0 0.0 0.0 0.0 0.0 0.0 0.0 0.0 0.0 0.0 
0.224 -2.283724304866288 -1.7820544217433372 -1.3981723817044007 4.678145021539427 1.570854818993855 1.5707920804179005 -0.3744869508706313 0.45467406992588033 -0.5636787393934055 0.10898282304648974 -0.027267748252625616 -0.3734929005414697 -300.0 -175.2 300.0 2.2214 2.2214 0.0 0.0 200.0 0.0 0.0 0.0 0.0 0.0 0.0 0.0 0.0 0.0 0.0 
0.232 -2.2869175712897083 -1.7792606821713837 -1.4016315976353264 4.6781521453108805 1.5708548322554245 1.5707922672204084 -0.3765962631648915 0.45166389122468337 -0.5585384241930783 0.1068525595764996 -0.027668603945311714 -0.3755784795063579 -300.0 -173.6 300.0 2.2214 2.2214 0.0 0.0 200.0 0.0 0.0 0.0 0.0 0.0 0.0 0.0 0.0 0.0 0.0 
0.24 -2.290130904159512 -1.7764994487452066 -1.4050420017782446 4.678135790386486 1.5708548449981186 1.570792455238563 -0.37871062382264037 0.4486468172508867 -0.5534237773130903 0.1047548595787355 -0.028075300737976046 -0.37766852473172413 -300.0 -172.0 300.0 2.2214 2.2214 0.0 0.0 200.0 0.0 0.0 0.0 0.0 0.0 0.0 0.0 0.0 0.0 0.0 
0.248 -2.2933643926599596 -1.773770873199957 -1.408403702816924 4.678096140627508 1.5708548572108112 1.57079264447641 -0.38082981603376276 0.44562240905199524 -0.5483341260131771 0.10268948928623717 -0.028487906195495395 -0.3797628055444289 -300.0 -170.4 300.0 2.2214 2.2214 0.0 0.0 200.0 0.0 0.0 0.0 0.0 0.0 0.0 0.0 0.0 0.0 0.0 
0.256 -2.2966181247557005 -1.7710751109359986 -1.4117168036457073 4.678033377289416 1.5708548688822457 1.570792834937859 -0.3829536172321099 0.4425902396480214 -0.5432688141878131 0.10065621959479806 -0.02890648787927038 -0.381861085225225 -300.0 -168.8 300.0 2.2214 2.2214 0.0 0.0 200.0 0.0 0.0 0.0 0.0 0.0 0.0 0.0 0.0 0.0 0.0 
0.264 -2.299892187140931 -1.7684123209011684 -1.4149814014993232 4.677947679044161 1.5708548800010125 1.5707930266266783 -0.3850817990579798 0.43954989386606974 -0.5382272017132956 0.09865482557547595 -0.029331113312649558 -0.3839631209673963 -300.0 -167.2 300.0 2.2214 2.2214 0.0 0.0 200.0 0.0 0.0 0.0 0.0 0.0 0.0 0.0 0.0 0.0 0.0 
0.272 -2.303186665187755 -1.765782665473313 -1.4181975880781497 4.677839221998744 1.5708548905555666 1.570793219546491 -0.3872141273237268 0.43650096818601564 -0.5332086638180029 0.09668508599916904 -0.029761849945117456 -0.38606866383859106 -300.0 -165.6 300.0 2.2214 2.2214 0.0 0.0 200.0 0.0 0.0 0.0 0.0 0.0 0.0 0.0 0.0 0.0 0.0 
0.28 -2.306501642893747 -1.763186310343003 -1.4213654496691173 4.677708179710122 1.5708549005342272 1.5707934137007695 -0.38935036198263917 0.4334430705966389 -0.5282125904747378 0.09474678287282932 -0.030198765115256338 -0.38817745874599313 -300.0 -164.0 300.0 2.2214 2.2214 0.0 0.0 200.0 0.0 0.0 0.0 0.0 0.0 0.0 0.0 0.0 0.0 0.0 
0.288 -2.3098372028287333 -1.7606234243963326 -1.424485067262443 4.677554723196602 1.5708549099251659 1.5707936090928312 -0.3914902571012345 0.4303758204615906 -0.5232383858141086 0.0928397009868835 -0.030641926012454978 -0.39028924440498886 -300.0 -162.4 300.0 2.2214 2.2214 0.0 0.0 200.0 0.0 0.0 0.0 0.0 0.0 0.0 0.0 0.0 0.0 0.0 
0.296 -2.313193426080802 -1.7580941795977272 -1.4275565166643474 4.67737902094579 1.5708549187164178 1.5707938057258326 -0.39363356083512147 0.427298848394588 -0.5182854675579484 0.09096362747345488 -0.031091399637362266 -0.3924037533114902 -300.0 -160.8 300.0 2.2214 2.2214 0.0 0.0 200.0 0.0 0.0 0.0 0.0 0.0 0.0 0.0 0.0 0.0 0.0 
0.304 -2.316570392201557 -1.75559875087268 -1.4305798686059323 4.677181238919217 1.570854926895878 1.5707940036027657 -0.39578001540857843 0.4242117961432741 -0.5133532664718675 0.0891183513750608 -0.0315472527610739 -0.3945207117180662 -300.0 -159.2 300.0 2.2214 2.2214 0.0 0.0 200.0 0.0 0.0 0.0 0.0 0.0 0.0 0.0 0.0 0.0 0.0 
0.312 -2.3199681791506306 -1.7531373159903372 -1.4335551888483755 4.67696154055371 1.5708549344513072 1.5707942027264516 -0.3979293570979934 0.42111431648118347 -0.5084412258360526 0.0873036632234436 -0.03200955188304813 -0.3966398396140399 -300.0 -157.6 300.0 2.2214 2.2214 0.0 0.0 200.0 0.0 0.0 0.0 0.0 0.0 0.0 0.0 0.0 0.0 0.0 
0.32 -2.323386863239463 -1.7507100554458734 -1.436482538284587 4.6767200867596195 1.5708549413703259 1.5707944030995364 -0.4000813162193222 0.4180060731072895 -0.503548800933508 0.08551935462826968 -0.032478363187745635 -0.3987608507097163 -300.0 -156.0 300.0 2.2214 2.2214 0.0 0.0 200.0 0.0 0.0 0.0 0.0 0.0 0.0 0.0 0.0 0.0 0.0 
0.328 -2.3268265190743795 -1.7483171523425853 -1.4393619730374803 4.676457035916002 1.5708549476404239 1.5707946047244854 -0.40223561711971056 0.4148867405526112 -0.49867545855495043 0.0837652178754136 -0.03295375249998237 -0.4008834524248916 -300.0 -154.4 300.0 2.2214 2.2214 0.0 0.0 200.0 0.0 0.0 0.0 0.0 0.0 0.0 0.0 0.0 0.0 0.0 
0.336 -2.330287219498967 -1.7459587922736524 -1.442193544554993 4.676172543862815 1.5708549532489462 1.5707948076035778 -0.4043919781734304 0.4117560040933991 -0.4938206765196584 0.08204104553462789 -0.033435785239008295 -0.40300734588181053 -300.0 -152.8 300.0 2.2214 2.2214 0.0 0.0 200.0 0.0 0.0 0.0 0.0 0.0 0.0 0.0 0.0 0.0 0.0 
0.344 -2.3337690355357896 -1.7436351632035074 -1.4449772997019903 4.675866763890266 1.5708549581831146 1.570795011738902 -0.40655011178228295 0.40861355967040625 -0.4889839432115637 0.08034663007635458 -0.03392452637129262 -0.405132225902726 -300.0 -151.2 300.0 2.2214 2.2214 0.0 0.0 200.0 0.0 0.0 0.0 0.0 0.0 0.0 0.0 0.0 0.0 0.0 
0.352 -2.337272036327443 -1.7413464553487634 -1.4477132808491866 4.675539846725354 1.5708549624300143 1.5707952171323503 -0.4087097243806143 0.4054591138137987 -0.4841647571299708 0.07868176349753955 -0.03442004036203439 -0.40725778101222254 -300.0 -149.6 300.0 2.2214 2.2214 0.0 0.0 200.0 0.0 0.0 0.0 0.0 0.0 0.0 0.0 0.0 0.0 0.0 
0.36 -2.340796289076987 -1.7390928610586665 -1.4504015259592002 4.67519194051573 1.5708549659765998 1.570795423785612 -0.41087051644509215 0.40229238357324837 -0.47936262645429495 0.07704623695627424 -0.03492239112539249 -0.4093836934444585 -300.0 -148.0 300.0 2.2214 2.2214 0.0 0.0 200.0 0.0 0.0 0.0 0.0 0.0 0.0 0.0 0.0 0.0 0.0 
0.368 -2.3443418589877734 -1.7368745746950158 -1.4530420686698733 4.674823190810942 1.5708549688096984 1.5707956317001708 -0.4130321825093915 0.3991130964527774 -0.4745770686222413 0.07543984041512725 -0.035431641973442396 -0.41150963915548655 -300.0 -146.4 300.0 2.2214 2.2214 0.0 0.0 200.0 0.0 0.0 0.0 0.0 0.0 0.0 0.0 0.0 0.0 0.0 
0.376 -2.3479088092026923 -1.734691792511533 -1.4556349383749616 4.674433740541174 1.5708549709160056 1.5707958408772968 -0.41519441118393047 0.3959209903499408 -0.4698076099209159 0.0738623622930739 -0.03594785556386904 -0.4136352878408049 -300.0 -144.8 300.0 2.2214 2.2214 0.0 0.0 200.0 0.0 0.0 0.0 0.0 0.0 0.0 0.0 0.0 0.0 0.0 
0.384 -2.3514972007428723 -1.732544712532639 -1.4581801603023088 4.67402372999355 1.5708549722820997 1.570796051318042 -0.41735688518080355 0.39271581349892837 -0.4650537850903449 0.07231358912590381 -0.03647109384640204 -0.41576030295829597 -300.0 -143.2 300.0 2.2214 2.2214 0.0 0.0 200.0 0.0 0.0 0.0 0.0 0.0 0.0 0.0 0.0 0.0 0.0 
0.392 -2.3551070924458495 -1.7304335344316155 -1.460677755589623 4.673593296786097 1.5708549728944237 1.570796263023235 -0.41951928134404787 0.3894973244172076 -0.4603151369389633 0.07079330523507231 -0.03700141800801563 -0.417884341756699 -300.0 -141.6 300.0 2.2214 2.2214 0.0 0.0 200.0 0.0 0.0 0.0 0.0 0.0 0.0 0.0 0.0 0.0 0.0 
0.4 -2.358738540903257 -1.7283584594081358 -1.4631277413579395 4.673142575839477 1.5708549727393122 1.5707964759934752 -0.42168127068538164 0.38626529185530345 -0.4555912159706009 0.06930129240489179 -0.03753888841688884 -0.42000705530976956 -300.0 -140.0 300.0 2.2214 2.2214 0.0 0.0 200.0 0.0 0.0 0.0 0.0 0.0 0.0 0.0 0.0 0.0 0.0 
0.408 -2.36239160039804 -1.7263196900651316 -1.4655301307828954 4.672671699346537 1.5708549718029734 1.5707966902291275 -0.4238425184255501 0.38301949474936403 -0.4508815800225864 0.06783732956807381 -0.038083564565165776 -0.42212808855626816 -300.0 -138.4 300.0 2.2214 2.2214 0.0 0.0 200.0 0.0 0.0 0.0 0.0 0.0 0.0 0.0 0.0 0.0 0.0 
0.416 -2.3660663228412497 -1.724317430285 -1.4678849331638961 4.672180796739815 1.5708549700714982 1.5707969057303164 -0.4260026840414047 0.37975972217613224 -0.4461857939145591 0.06640119249956106 -0.03863550501051936 -0.42424708034592234 -300.0 -136.8 300.0 2.2214 2.2214 0.0 0.0 200.0 0.0 0.0 0.0 0.0 0.0 0.0 0.0 0.0 0.0 0.0 
0.424 -2.3697627577084486 -1.722351885105133 -1.470192153991273 4.671669994657058 1.5708549675308658 1.5707971224969202 -0.4281614213188501 0.3764857733099771 -0.4415034291076386 0.06499265351865814 -0.03919476731654519 -0.4263636634915009 -300.0 -135.2 300.0 2.2214 2.2214 0.0 0.0 200.0 0.0 0.0 0.0 0.0 0.0 0.0 0.0 0.0 0.0 0.0 
0.432 -2.3734809519757514 -1.7204232605927658 -1.4724517950115277 4.671139416904868 1.570854964166944 1.570797340528566 -0.43031837841177023 0.37319745738164556 -0.4368340633736133 0.06361148119946321 -0.03976140799201334 -0.4284774648271286 -300.0 -133.6 300.0 2.2214 2.2214 0.0 0.0 200.0 0.0 0.0 0.0 0.0 0.0 0.0 0.0 0.0 0.0 0.0 
0.44 -2.3772209500555563 -1.718531763719147 -1.4746638542907495 4.670589184420552 1.570854959965495 1.570797559824624 -0.4324731979070611 0.3698945936383919 -0.4321772804738262 0.0622574400896147 -0.040335482429005164 -0.4305881052729832 -300.0 -132.0 300.0 2.2214 2.2214 0.0 0.0 200.0 0.0 0.0 0.0 0.0 0.0 0.0 0.0 0.0 0.0 0.0 
0.448 -2.3809827937319903 -1.7166776022330308 -1.4768283262762956 4.670019415232289 1.5708549549121686 1.5707977803842015 -0.43462551689587303 0.36657701130516945 -0.42753266984747107 0.06093029043739305 -0.040917044839960275 -0.43269519990648186 -300.0 -130.4 300.0 2.2214 2.2214 0.0 0.0 200.0 0.0 0.0 0.0 0.0 0.0 0.0 0.0 0.0 0.0 0.0 
0.456 -2.3847665220961267 -1.7148609845335026 -1.4789452018568094 4.669430224417693 1.570854948992516 1.5707980022061374 -0.4367749670511771 0.3632445495465556 -0.4228998263090037 0.05962978792719304 -0.04150614819367427 -0.4347983580400946 -300.0 -128.8 300.0 2.2214 2.2214 0.0 0.0 200.0 0.0 0.0 0.0 0.0 0.0 0.0 0.0 0.0 0.0 0.0 
0.464 -2.3885721714810053 -1.7130821195421553 -1.481014468420668 4.66882172406088 1.5708549421919942 1.5707982252889972 -0.43892117471174735 0.35989705742911304 -0.41827834975443196 0.058355683423443355 -0.04210284415027958 -0.4368971833058817 -300.0 -127.19999999999999 300.0 2.2214 2.2214 0.0 0.0 200.0 0.0 0.0 0.0 0.0 0.0 0.0 0.0 0.0 0.0 0.0 
0.472 -2.392399775396501 -1.7113412165746227 -1.4830361099129392 4.668194023208138 1.5708549344959544 1.570798449631066 -0.44106376097265787 0.3565343938838821 -0.41366784487622926 0.05710772272302322 -0.042707182995252425 -0.4389912737468705 -300.0 -125.6 300.0 2.2214 2.2214 0.0 0.0 200.0 0.0 0.0 0.0 0.0 0.0 0.0 0.0 0.0 0.0 0.0 
0.48 -2.396249364464099 -1.7096384852114996 -1.4850101068909105 4.667547227822293 1.5708549258896651 1.5707986752303449 -0.4432023417823817 0.3531564276687074 -0.40906792088663746 0.05588564631622035 -0.04331921357247985 -0.4410802219153693 -300.0 -124.0 300.0 2.2214 2.2214 0.0 0.0 200.0 0.0 0.0 0.0 0.0 0.0 0.0 0.0 0.0 0.0 0.0 
0.488 -2.4001209663516088 -1.7079741351686772 -1.486936436578285 4.666881440735875 1.570854916358302 1.5707989020845434 -0.4453365280465642 0.34976303733012143 -0.40447819124917356 0.05468918915634823 -0.043938983216446854 -0.44316361497830803 -300.0 -122.4 300.0 2.2214 2.2214 0.0 0.0 200.0 0.0 0.0 0.0 0.0 0.0 0.0 0.0 0.0 0.0 0.0 
0.496 -2.4040146057078777 -1.706348376167114 -1.4888150729181007 4.6661967616031905 1.5708549058869568 1.570799130191076 -0.4474659257385477 0.3463541111645041 -0.39989827341811557 0.05351808043805819 -0.04456653768357833 -0.4452410348296918 -300.0 -120.80000000000001 300.0 2.2214 2.2214 0.0 0.0 200.0 0.0 0.0 0.0 0.0 0.0 0.0 0.0 0.0 0.0 0.0 
0.504 -2.4079303040975537 -1.7047614178020833 -1.4906459866244544 4.665493286851399 1.5708548944606437 1.5707993595470549 -0.44959013601671166 0.34292954717824514 -0.39532778858579526 0.05237204338445518 -0.04520192108279615 -0.4473120582102458 -300.0 -119.2 300.0 2.2214 2.2214 0.0 0.0 200.0 0.0 0.0 0.0 0.0 0.0 0.0 0.0 0.0 0.0 0.0 
0.512 -2.4118680799359438 -1.7032134694119392 -1.4924291452330913 4.66477110963071 1.5708548820642998 1.570799590149285 -0.4517087553486729 0.3394892530466562 -0.3907663614375346 0.05125079504311108 -0.045845175805344536 -0.4493762568343108 -300.0 -117.6 300.0 2.2214 2.2214 0.0 0.0 200.0 0.0 0.0 0.0 0.0 0.0 0.0 0.0 0.0 0.0 0.0 
0.52 -2.4158279484240324 -1.7017047399464316 -1.494164513150933 4.664030319763781 1.570854868682789 1.57079982199426 -0.4538213756424025 0.33603314607136875 -0.38621361991404435 0.05015404609105034 -0.04649634245394343 -0.451433197524057 -300.0 -116.0 300.0 2.2214 2.2214 0.0 0.0 200.0 0.0 0.0 0.0 0.0 0.0 0.0 0.0 0.0 0.0 0.0 
0.528 -2.4198099214837105 -1.7002354378346323 -1.495852051704606 4.663271003694471 1.570854854300915 1.5708000550781545 -0.4559275843842857 0.3325611531359725 -0.38166919498114915 0.04908150064881788 -0.04715545977132597 -0.4534824423510573 -300.0 -114.39999999999999 300.0 2.2214 2.2214 0.0 0.0 200.0 0.0 0.0 0.0 0.0 0.0 0.0 0.0 0.0 0.0 0.0 
0.536 -2.4238140076932693 -1.698805770852512 -1.4974917191880337 4.662493244435996 1.5708548389034085 1.5708002893968211 -0.4580269647841537 0.3290732106596614 -0.3771327204067014 0.04803285610373904 -0.047822564568239294 -0.4555235487852606 -300.0 -112.8 300.0 2.2214 2.2214 0.0 0.0 200.0 0.0 0.0 0.0 0.0 0.0 0.0 0.0 0.0 0.0 0.0 
0.544 -2.427840212223231 -1.6974159459902296 -1.4990834709091523 4.6616971215186656 1.5708548224749568 1.5708005249457837 -0.4601190959273012 0.32556926454864094 -0.3726038325445285 0.04700780294243125 -0.04849769165095485 -0.4575560698513944 -300.0 -111.19999999999999 300.0 2.2214 2.2214 0.0 0.0 200.0 0.0 0.0 0.0 0.0 0.0 0.0 0.0 0.0 0.0 0.0 
0.552 -2.4318885367725596 -1.6960661693191899 -1.5006272592358123 4.660882710937243 1.5708548050001852 1.5708007617202333 -0.462203552933493 0.3220492701450864 -0.3680821701253232 0.04600602459272987 -0.0491808737483878 -0.45957955429280783 -300.0 -109.6 300.0 2.2214 2.2214 0.0 0.0 200.0 0.0 0.0 0.0 0.0 0.0 0.0 0.0 0.0 0.0 0.0 
0.56 -2.435958979505328 -1.6947566458589378 -1.5021230336409208 4.660050085098118 1.5708547864636784 1.570800999715022 -0.4642799071229524 0.31851319217342067 -0.36356737405432854 0.045027197275068966 -0.049872141438869984 -0.4615935467427677 -300.0 -107.99999999999999 300.0 2.2214 2.2214 0.0 0.0 200.0 0.0 0.0 0.0 0.0 0.0 0.0 0.0 0.0 0.0 0.0 
0.568 -2.440051534987899 -1.6934875794439472 -1.5035707407468784 4.659199312766315 1.5708547668499775 1.570801238924659 -0.46634772618931386 0.3149610046837118 -0.35905908721572555 0.04407098986345678 -0.05057152307668544 -0.4635975879031945 -300.0 -106.39999999999999 300.0 2.2214 2.2214 0.0 0.0 200.0 0.0 0.0 0.0 0.0 0.0 0.0 0.0 0.0 0.0 0.0 
0.576 -2.4441661941266855 -1.6922591725903902 -1.5049703243693688 4.6583304590125465 1.570854746143588 1.5708014793433054 -0.4684065743795042 0.31139269099197864 -0.3545569542836129 0.04313706375612871 -0.05127904471842362 -0.46559121473082227 -300.0 -104.79999999999998 300.0 2.2214 2.2214 0.0 0.0 200.0 0.0 0.0 0.0 0.0 0.0 0.0 0.0 0.0 0.0 0.0 
0.584 -2.4483029441065582 -1.6910716263629502 -1.5063217255605477 4.6574435851603555 1.5708547243289912 1.5708017209647689 -0.47045601268051523 0.307808243617215 -0.35006062153947665 0.04222507275596959 -0.051994730049250676 -0.46757396063075074 -300.0 -103.2 300.0 2.2214 2.2214 0.0 0.0 200.0 0.0 0.0 0.0 0.0 0.0 0.0 0.0 0.0 0.0 0.0 
0.592 -2.452461768329959 -1.6899251402417594 -1.5076248826516858 4.656538748733491 1.5708547013906313 1.5708019637825004 -0.472495599013006 0.30420766421494433 -0.34556973669606367 0.04133466296081931 -0.05271860030918575 -0.4695453556573439 -300.0 -101.60000000000001 300.0 2.2214 2.2214 0.0 0.0 200.0 0.0 0.0 0.0 0.0 0.0 0.0 0.0 0.0 0.0 0.0 
0.6 -2.456642646356812 -1.6888199119895586 -1.5088797312953035 4.655616003403652 1.570854677312957 1.5708022077895878 -0.47452488843167107 0.30059096350711345 -0.34108394872754344 0.04046547266370336 -0.05345067421945874 -0.4715049267224213 -300.0 -100.0 300.0 2.2214 2.2214 0.0 0.0 200.0 0.0 0.0 0.0 0.0 0.0 0.0 0.0 0.0 0.0 0.0 
0.608 -2.4608455538452647 -1.6877561375191386 -1.5100862045068582 4.65467539893867 1.570854652080391 1.5708024529787532 -0.4765434333322867 0.2969581612081765 -0.33660290770591034 0.03961713226314428 -0.054190967909067196 -0.47345219781066394 -300.0 -98.4 300.0 2.2214 2.2214 0.0 0.0 200.0 0.0 0.0 0.0 0.0 0.0 0.0 0.0 0.0 0.0 0.0 
0.616 -2.465070462493367 -1.6867340107611803 -1.5112442327060156 4.653716981151296 1.5708546256773548 1.5708026993423478 -0.478550783665347 0.29330928594717737 -0.33212626464349504 0.03878926418355911 -0.05493949484160613 -0.4753866902021565 -300.0 -96.8 300.0 2.2214 2.2214 0.0 0.0 200.0 0.0 0.0 0.0 0.0 0.0 0.0 0.0 0.0 0.0 0.0 
0.624 -2.4693173399817363 -1.6857537235325775 -1.512353743757549 4.652740791848685 1.5708545980882678 1.570802946872348 -0.48054648715617254 0.28964437518569347 -0.3276536713415325 0.037981482805862686 -0.05569626574248483 -0.4773079227019626 -300.0 -95.2 300.0 2.2214 2.2214 0.0 0.0 200.0 0.0 0.0 0.0 0.0 0.0 0.0 0.0 0.0 0.0 0.0 
0.632 -2.4735861499172955 -1.684815465405338 -1.5134146630119027 4.651746868782699 1.5708545692975728 1.5708031955603508 -0.48253008953137644 0.28596347513147885 -0.3231847802446792 0.03719339440830741 -0.05646128852662197 -0.4792154118766206 -300.0 -93.6 300.0 2.2214 2.2214 0.0 0.0 200.0 0.0 0.0 0.0 0.0 0.0 0.0 0.0 0.0 0.0 0.0 
0.64 -2.477876851778136 -1.6839194235761608 -1.514426913345474 4.650735245601151 1.5708545392897142 1.5708034453975717 -0.48450113475154616 0.282266640647682 -0.3187192443014277 0.03642459711766874 -0.05723456822673789 -0.48110867229743515 -300.0 -92.0 300.0 2.2214 2.2214 0.0 0.0 200.0 0.0 0.0 0.0 0.0 0.0 0.0 0.0 0.0 0.0 0.0 
0.648 -2.4821894008596086 -1.6830657827368076 -1.5153904152006208 4.649705951800103 1.5708545080491625 1.5708036963748389 -0.4864591652499918 0.2785539351574873 -0.3142567168302974 0.0356746808707587 -0.05801610692233587 -0.4829872167904135 -300.0 -90.39999999999999 300.0 2.2214 2.2214 0.0 0.0 200.0 0.0 0.0 0.0 0.0 0.0 0.0 0.0 0.0 0.0 0.0 
0.656 -2.486523748221697 -1.682254724945368 -1.5163050866254442 4.648659012677353 1.5708544755604337 1.5708039484825909 -0.48840372217739575 0.27482543054406566 -0.30979685139174024 0.03494322738634885 -0.05880590366948589 -0.48485055669270033 -300.0 -88.8 300.0 2.2214 2.2214 0.0 0.0 200.0 0.0 0.0 0.0 0.0 0.0 0.0 0.0 0.0 0.0 0.0 
0.664 -2.490879840637744 -1.6814864294985177 -1.5171708433133841 4.647594449287185 1.5708544418080614 1.570804201710874 -0.49033434565218437 0.27108120704572697 -0.305339301665689 0.03422981014755469 -0.05960395443153765 -0.4866982021153256 -300.0 -87.19999999999999 300.0 2.2214 2.2214 0.0 0.0 200.0 0.0 0.0 0.0 0.0 0.0 0.0 0.0 0.0 0.0 0.0 
0.672 -2.4952576205446304 -1.6807610728049065 -1.5179875986426297 4.646512278396557 1.5708544067766361 1.5708044560493375 -0.49225057501642966 0.26732135314614597 -0.30088372133462005 0.03353399439462959 -0.06041025201084755 -0.4885296622120951 -300.0 -85.6 300.0 2.2214 2.2214 0.0 0.0 200.0 0.0 0.0 0.0 0.0 0.0 0.0 0.0 0.0 0.0 0.0 
0.68 -2.499657025994459 -1.6800788282597785 -1.5187552637153912 4.645412512442797 1.5708543704508053 1.5708047114872319 -0.49415194909707105 0.2635459654595798 -0.29642976397208076 0.03285533712824824 -0.06122478598165804 -0.49034444545440187 -300.0 -83.99999999999999 300.0 2.2214 2.2214 0.0 0.0 200.0 0.0 0.0 0.0 0.0 0.0 0.0 0.0 0.0 0.0 0.0 
0.688 -2.504077990607824 -1.679439866120938 -1.5194737473970519 4.644295159492923 1.570854332815267 1.5708049680134062 -0.4960380064722378 0.2597551486109854 -0.29197708293657865 0.032193387123256846 -0.06204754262424451 -0.4921420599117566 -300.0 -82.39999999999999 300.0 2.2214 2.2214 0.0 0.0 200.0 0.0 0.0 0.0 0.0 0.0 0.0 0.0 0.0 0.0 0.0 
0.696 -2.508520443528756 -1.6788443533862016 -1.520142956355208 4.643160223204749 1.5708542938548036 1.5708052256163045 -0.49790828574243584 0.2559490151109408 -0.2875253312707161 0.03154768495284324 -0.06287850486042457 -0.4939220135378001 -300.0 -80.79999999999998 300.0 2.2214 2.2214 0.0 0.0 200.0 0.0 0.0 0.0 0.0 0.0 0.0 0.0 0.0 0.0 0.0 
0.704 -2.5129843093813937 -1.6782924536724404 -1.520762795098629 4.642007702789798 1.5708542535542633 1.5708054842839656 -0.4997623258063475 0.2521276852253206 -0.28307416160551235 0.030917763023165526 -0.06371765219058687 -0.4956838144615436 -300.0 -79.2 300.0 2.2214 2.2214 0.0 0.0 200.0 0.0 0.0 0.0 0.0 0.0 0.0 0.0 0.0 0.0 0.0 
0.712 -2.5174695082284844 -1.6777843270963504 -1.5213331660161435 4.640837592978231 1.5708542118985866 1.5708057440040186 -0.5015996661409865 0.24829128683963703 -0.27862322606976514 0.030303145618333274 -0.06456496063232287 -0.4974269712835925 -300.0 -77.6 300.0 2.2214 2.2214 0.0 0.0 200.0 0.0 0.0 0.0 0.0 0.0 0.0 0.0 0.0 0.0 0.0 
0.72 -2.521975955531766 -1.6773201301570784 -1.521853969415456 4.639649883985813 1.5708541688728066 1.570806004763683 -0.5034198470859259 0.24443995531800825 -0.2741721762043777 0.02970334895573784 -0.06542040266080715 -0.4991509933770575 -300.0 -76.0 300.0 2.2214 2.2214 0.0 0.0 200.0 0.0 0.0 0.0 0.0 0.0 0.0 0.0 0.0 0.0 0.0 
0.728 -2.5265035621143213 -1.6769000156208271 -1.522325103561922 4.63844456148308 1.5708541244620653 1.570806266549766 -0.5052224101313124 0.24057383335669788 -0.26972066288151675 0.0291178812516352 -0.06628394715103468 -0.5008553911928807 -300.0 -74.39999999999999 300.0 2.2214 2.2214 0.0 0.0 200.0 0.0 0.0 0.0 0.0 0.0 0.0 0.0 0.0 0.0 0.0 
0.736 -2.5310522341249637 -1.676524132407576 -1.5227464647172626 4.637221606566764 1.5708540786516065 1.570806529348662 -0.507006898209365 0.23669307083219537 -0.2652683362285016 0.028546242796930105 -0.06715555932204677 -0.5025396765692592 -300.0 -72.8 300.0 2.2214 2.2214 0.0 0.0 200.0 0.0 0.0 0.0 0.0 0.0 0.0 0.0 0.0 0.0 0.0 
0.744 -2.5356218730047484 -1.6761926254800534 -1.5231179471782372 4.63598099573362 1.5708540314268076 1.5708067931463507 -0.5087728559890414 0.232797824643795 -0.2608148455562732 0.02798792604302162 -0.0680352006832506 -0.5042033630448602 -300.0 -71.19999999999999 300.0 2.2214 2.2214 0.0 0.0 200.0 0.0 0.0 0.0 0.0 0.0 0.0 0.0 0.0 0.0 0.0 
0.752 -2.5402123754556563 -1.6759056357350852 -1.5234394433152636 4.63472270085669 1.5708539827731691 1.570807057928398 -0.5105198301735494 0.2288882585506683 -0.25635983929234196 0.02744241569765482 -0.0689228289829781 -0.5058459661754877 -300.0 -69.6 300.0 2.2214 2.2214 0.0 0.0 200.0 0.0 0.0 0.0 0.0 0.0 0.0 0.0 0.0 0.0 0.0 
0.76 -2.544823633411541 -1.6756632998974608 -1.5237108436109903 4.633446689164157 1.5708539326763302 1.570807323679953 -0.5122473698003602 0.2249645430034067 -0.251902964918053 0.026909188830606945 -0.06981839815938176 -0.5074670038538646 -300.0 -67.99999999999999 300.0 2.2214 2.2214 0.0 0.0 200.0 0.0 0.0 0.0 0.0 0.0 0.0 0.0 0.0 0.0 0.0 
0.768 -2.549455534011406 -1.6754657504164578 -1.5239320366987947 4.632152923220836 1.5708538811220851 1.5708075903857497 -0.5139550265433777 0.2210268549700343 -0.24744386891003178 0.026387714989082992 -0.07072185829379814 -0.5090659966321701 -300.0 -66.39999999999999 300.0 2.2214 2.2214 0.0 0.0 200.0 0.0 0.0 0.0 0.0 0.0 0.0 0.0 0.0 0.0 0.0 
0.776 -2.5541079595750658 -1.6753131153651477 -1.524102909401219 4.630841360912394 1.5708538280963715 1.5708078580301068 -0.5156423550169039 0.2170753777565006 -0.24298219668566828 0.02587745632268285 -0.0716331555667008 -0.5106424680469676 -300.0 -64.79999999999998 300.0 2.2214 2.2214 0.0 0.0 200.0 0.0 0.0 0.0 0.0 0.0 0.0 0.0 0.0 0.0 0.0 
0.784 -2.5587807875812896 -1.6752055183426353 -1.5242233467683042 4.629511955432392 1.57085377358531 1.5708081265969274 -0.5173089130810308 0.2131103008216533 -0.2385175925524476 0.02537786771771062 -0.07255223221634831 -0.5121959449461455 -300.0 -63.19999999999999 300.0 2.2214 2.2214 0.0 0.0 200.0 0.0 0.0 0.0 0.0 0.0 0.0 0.0 0.0 0.0 0.0 
0.792 -2.5634738906484538 -1.6751430783793548 -1.524293232115823 4.628164655272203 1.5708537175751873 1.5708083960697 -0.5189542621480785 0.2091318195867344 -0.2340496996610039 0.024888396940710985 -0.07347902650025383 -0.5137259578174795 -300.0 -61.59999999999998 300.0 2.2214 2.2214 0.0 0.0 200.0 0.0 0.0 0.0 0.0 0.0 0.0 0.0 0.0 0.0 0.0 
0.8 -2.5681871365178024 -1.67512590984557 -1.5243124470633767 4.626799404213889 1.5708536600524807 1.5708086664314995 -0.5205779674896972 0.20514013523940838 -0.22957815996167766 0.024408484790956454 -0.07441347265958674 -0.5152320411184195 -300.0 -59.999999999999986 300.0 2.2214 2.2214 0.0 0.0 200.0 0.0 0.0 0.0 0.0 0.0 0.0 0.0 0.0 0.0 0.0 
0.808 -2.572920388039355 -1.6751541223632067 -1.524280871572333 4.625416141326101 1.5708536010038596 1.5708089376649887 -0.5221795985442307 0.20113545453237613 -0.22510261416442048 0.023937565261707875 -0.07535550088661161 -0.5167137336066933 -300.0 -58.39999999999998 300.0 2.2214 2.2214 0.0 0.0 200.0 0.0 0.0 0.0 0.0 0.0 0.0 0.0 0.0 0.0 0.0 
0.816 -2.5776735031605345 -1.675227820721161 -1.5241983839835738 4.624014800963044 1.5708535404161983 1.57080920975242 -0.5237587292239473 0.19711798957661367 -0.22062270170183723 0.023475065709981993 -0.07630503729528292 -0.5181705786713094 -300.0 -56.79999999999998 300.0 2.2214 2.2214 0.0 0.0 200.0 0.0 0.0 0.0 0.0 0.0 0.0 0.0 0.0 0.0 0.0 
0.824 -2.582446334917563 -1.6753471047942066 -1.524064861055021 4.622595312766595 1.5708534782765828 1.570809482675636 -0.5253149382217243 0.19308795762929054 -0.21613806069516683 0.02302040703458063 -0.07726200389508947 -0.5196021246635384 -300.0 -55.199999999999974 300.0 2.2214 2.2214 0.0 0.0 200.0 0.0 0.0 0.0 0.0 0.0 0.0 0.0 0.0 0.0 0.0 
0.832 -2.5872387314296947 -1.6755120694656505 -1.5238801779988953 4.621157601671584 1.570853414572325 1.5708097564160737 -0.5268478093167754 0.18904558087643497 -0.21164832792299254 0.02257300386209994 -0.07822631856825978 -0.5210079252274378 -300.0 -53.59999999999998 300.0 2.2214 2.2214 0.0 0.0 200.0 0.0 0.0 0.0 0.0 0.0 0.0 0.0 0.0 0.0 0.0 
0.84 -2.5920505358963233 -1.6757228045538533 -1.523644208518672 4.619701587914296 1.5708533492909742 1.5708100309547655 -0.5283569316790024 0.1849910862104054 -0.20715313879245004 0.022132264740631315 -0.07919789505042403 -0.5223875396294857 -300.0 -52.000000000000014 300.0 2.2214 2.2214 0.0 0.0 200.0 0.0 0.0 0.0 0.0 0.0 0.0 0.0 0.0 0.0 0.0 
0.848 -2.5968815865970223 -1.675979394742753 -1.5233568248456886 4.618227187044237 1.5708532824203172 1.570810306272343 -0.5298419001715465 0.18092470500225877 -0.2026521273127204 0.021697592340857722 -0.08017664291482615 -0.5237405330868814 -300.0 -50.400000000000006 300.0 2.2214 2.2214 0.0 0.0 200.0 0.0 0.0 0.0 0.0 0.0 0.0 0.0 0.0 0.0 0.0 
0.856 -2.601731716894567 -1.676281919516519 -1.5230178977753448 4.616734309939178 1.570853213948393 1.5708105823490401 -0.5313023156511197 0.17684667286908531 -0.19814492607054304 0.021268383664195648 -0.08116246756017555 -0.5250664770940674 -300.0 -48.80000000000001 300.0 2.2214 2.2214 0.0 0.0 200.0 0.0 0.0 0.0 0.0 0.0 0.0 0.0 0.0 0.0 0.0 
0.864 -2.6066007552409793 -1.6766304530984626 -1.5226272967028498 4.615222862823501 1.5708531438635007 1.570810859164696 -0.5327377852656866 0.17275722943640806 -0.1936311662075166 0.020844030257664143 -0.08215527020223141 -0.5263649497470235 -300.0 -47.20000000000002 300.0 2.2214 2.2214 0.0 0.0 200.0 0.0 0.0 0.0 0.0 0.0 0.0 0.0 0.0 0.0 0.0 
0.872 -2.611488525186642 -1.677025064394329 -1.5221848896584473 4.613692747289874 1.5708530721542169 1.57081113669876 -0.5341479227490672 0.168656618095741 -0.18911047739891476 0.020423918435105756 -0.08315494786918491 -0.5276355360648789 -300.0 -45.60000000000002 300.0 2.2214 2.2214 0.0 0.0 200.0 0.0 0.0 0.0 0.0 0.0 0.0 0.0 0.0 0.0 0.0 
0.88 -2.6163948453925094 -1.6774658169400825 -1.521690543342074 4.61214386032424 1.5708529988093953 1.570811414930295 -0.5355323487120409 0.1645450857574116 -0.18458248783375816 0.02000742950440869 -0.08416139340094007 -0.5288778283083932 -300.0 -44.0 300.0 2.2214 2.2214 0.0 0.0 200.0 0.0 0.0 0.0 0.0 0.0 0.0 0.0 0.0 0.0 0.0 
0.888 -2.621319529645459 -1.6779527688543179 -1.5211441231573593 4.610576094334142 1.570852923818172 1.5708116938379821 -0.5368906909295149 0.16042288259875437 -0.18004682419585594 0.019593940000325463 -0.08517449545233773 -0.5300914262948491 -300.0 -42.400000000000006 300.0 2.2214 2.2214 0.0 0.0 200.0 0.0 0.0 0.0 0.0 0.0 0.0 0.0 0.0 0.0 0.0 
0.896 -2.6262623868768236 -1.6784859727954013 -1.5205454932449138 4.608989337180365 1.5708528471699978 1.570811973400127 -0.5382225846233462 0.15629026180778186 -0.17550311164551138 0.01918282192246402 -0.08619413850040554 -0.531275937708912 -300.0 -40.80000000000001 300.0 2.2214 2.2214 0.0 0.0 200.0 0.0 0.0 0.0 0.0 0.0 0.0 0.0 0.0 0.0 0.0 
0.904 -2.631223221184106 -1.6790654759234538 -1.519894516514828 4.607383472211872 1.5708527688546243 1.570812253594663 -0.5395276727403815 0.15214747932247152 -0.17095097380162905 0.01877344297808927 -0.08722020285568874 -0.5324309784089929 -300.0 -39.20000000000002 300.0 2.2214 2.2214 0.0 0.0 200.0 0.0 0.0 0.0 0.0 0.0 0.0 0.0 0.0 0.0 0.0 
0.912 -2.6362018318559244 -1.679691319867283 -1.5191910546782963 4.605758378304031 1.5708526888621166 1.5708125343991581 -0.5408056062253134 0.14799479356577286 -0.16639003272387537 0.018365166829245543 -0.08825256467771175 -0.5335561727286827 -300.0 -37.599999999999994 300.0 2.2214 2.2214 0.0 0.0 200.0 0.0 0.0 0.0 0.0 0.0 0.0 0.0 0.0 0.0 0.0 
0.92 -2.641198013400201 -1.6803635406963748 -1.5184349682782818 4.604113929900079 1.5708526071828668 1.5708128157908217 -0.542056044287929 0.14383246517647083 -0.16181990889458897 0.017957353343771045 -0.08929109599462064 -0.5346511537728009 -300.0 -36.0 300.0 2.2214 2.2214 0.0 0.0 200.0 0.0 0.0 0.0 0.0 0.0 0.0 0.0 0.0 0.0 0.0 
0.928 -2.646211555575614 -1.6810821688980369 -1.5176261167191387 4.602449997055809 1.570852523807619 1.5708130977465087 -0.5432786546643531 0.13966075673603462 -0.1572402212001024 0.017549358849734433 -0.09033566472704091 -0.5357155637076277 -300.0 -34.400000000000006 300.0 2.2214 2.2214 0.0 0.0 200.0 0.0 0.0 0.0 0.0 0.0 0.0 0.0 0.0 0.0 0.0 
0.936 -2.6512422434263057 -1.6818472293597813 -1.5167643582951067 4.600766445487386 1.5708524387274418 1.570813380242728 -0.5444731138718865 0.1354799324916009 -0.1526505869111645 0.017140536392865165 -0.09138613471620514 -0.5367490540448817 -300.0 -32.80000000000001 300.0 2.2214 2.2214 0.0 0.0 200.0 0.0 0.0 0.0 0.0 0.0 0.0 0.0 0.0 0.0 0.0 
0.944 -2.6562898573198908 -1.682658741357053 -1.5158495502175628 4.599063136622311 1.5708523519337692 1.5708136632556489 -0.5456391074570464 0.1312902580752027 -0.14805062166205973 0.01673023599640033 -0.09244236575633583 -0.5377512859190258 -300.0 -31.19999999999999 300.0 2.2214 2.2214 0.0 0.0 200.0 0.0 0.0 0.0 0.0 0.0 0.0 0.0 0.0 0.0 0.0 
0.952 -2.6613541729887356 -1.6835167185463775 -1.5148815486409462 4.597339927653375 1.570852263418389 1.5708139467611089 -0.5467763302364332 0.1270920002194136 -0.14343993942812025 0.016317804922936937 -0.09350421363135451 -0.5387219303574696 -300.0 -29.599999999999994 300.0 2.2214 2.2214 0.0 0.0 200.0 0.0 0.0 0.0 0.0 0.0 0.0 0.0 0.0 0.0 0.0 
0.96 -2.666434961574531 -1.6844211689640103 -1.5138602086872466 4.595596671595619 1.570852173173465 1.5708142307346205 -0.5478844865300491 0.12288542646952764 -0.13881815250122054 0.01590258793771466 -0.09457153015588385 -0.5396606685432755 -300.0 -28.0 300.0 2.2214 2.2214 0.0 0.0 200.0 0.0 0.0 0.0 0.0 0.0 0.0 0.0 0.0 0.0 0.0 
0.968 -2.671531989676141 -1.685372095030162 -1.5127853844689472 4.59383321734615 1.570852081191544 1.5708145151513802 -0.5489632903867123 0.11867080489243303 -0.1341848714628994 0.015483927572840776 -0.09564416322057469 -0.5405671920699598 -300.0 -26.400000000000006 300.0 2.2214 2.2214 0.0 0.0 200.0 0.0 0.0 0.0 0.0 0.0 0.0 0.0 0.0 0.0 0.0 
0.976 -2.6766450194007216 -1.6863694935588693 -1.5116569291103172 4.592049409746763 1.5708519874655478 1.5708147999862763 -0.5500124658012162 0.11444840378232303 -0.1295397051547214 0.015061164391926339 -0.09672195684175125 -0.5414412031880044 -300.0 -24.799999999999983 300.0 2.2214 2.2214 0.0 0.0 200.0 0.0 0.0 0.0 0.0 0.0 0.0 0.0 0.0 0.0 0.0 
0.984 -2.6817738084181073 -1.6874133557735789 -1.5104746947669216 4.5902450896492555 1.5708518919888015 1.570815085213898 -0.5510317469229021 0.11021849136337855 -0.12488226064545549 0.014633637254549444 -0.09780475121534966 -0.5422824150427042 -300.0 -23.19999999999999 300.0 2.2214 2.2214 0.0 0.0 200.0 0.0 0.0 0.0 0.0 0.0 0.0 0.0 0.0 0.0 0.0 
0.992 -2.6869181100184303 -1.6885036673284906 -1.5092385326432547 4.5884200939833235 1.5708517947550278 1.5708153708085442 -0.5520208782553273 0.10598133548958297 -0.1202121431946968 0.014200683580048758 -0.09889238277515482 -0.5430905519029935 -300.0 -21.599999999999994 300.0 2.2214 2.2214 0.0 0.0 200.0 0.0 0.0 0.0 0.0 0.0 0.0 0.0 0.0 0.0 0.0 
1.0 -2.6920776731729674 -1.6896404083357313 -1.507948293008344 4.5865742558269424 1.5708516957583645 1.5708156567442324 -0.5529796148467132 0.10173720334180236 -0.11552895621249049 0.013761639610042228 -0.0999846842552843 -0.5438653493808911 -300.0 -20.0 300.0 2.2214 2.2214 0.0 0.0 200.0 0.0 0.0 0.0 0.0 0.0 0.0 0.0 0.0 0.0 0.0 
1.008 -2.697252242598176 -1.6908235533983877 -1.5066038252092246 4.584707404479075 1.570851594993365 1.570815942994709 -0.5539077224708927 0.09748636112228079 -0.11083230121454869 0.013315840669134164 -0.1010814847569134 -0.5446065546412425 -300.0 -18.399999999999977 300.0 2.2214 2.2214 0.0 0.0 200.0 0.0 0.0 0.0 0.0 0.0 0.0 0.0 0.0 0.0 0.0 
1.016 -2.7024415588228923 -1.6920530716494422 -1.5052049776821421 4.582819365534616 1.570851492455002 1.5708162295334593 -0.5548049777984828 0.09322907374668937 -0.1061217777726178 0.012862621423218056 -0.10218260981917271 -0.5453139266014401 -300.0 -16.799999999999983 300.0 2.2214 2.2214 0.0 0.0 200.0 0.0 0.0 0.0 0.0 0.0 0.0 0.0 0.0 0.0 0.0 
1.024 -2.707645358258663 -1.6933289267966583 -1.5037515979613414 4.580909960961392 1.5708513881386805 1.570816516333717 -0.5556711685580146 0.08896560453386419 -0.1013969834595513 0.012401316134792626 -0.10328788149418959 -0.5459872361208118 -300.0 -15.199999999999989 300.0 2.2214 2.2214 0.0 0.0 200.0 0.0 0.0 0.0 0.0 0.0 0.0 0.0 0.0 0.0 0.0 
1.032 -2.712863373273164 -1.6946510771734302 -1.5022435326853225 4.578979009179113 1.570851282040248 1.5708168033684755 -0.5565060936867926 0.08469621489337181 -0.09665751378863874 0.011931258914708651 -0.10439711842620165 -0.5466262661794065 -300.0 -13.599999999999994 300.0 2.2214 2.2214 0.0 0.0 200.0 0.0 0.0 0.0 0.0 0.0 0.0 0.0 0.0 0.0 0.0 
1.04 -2.718095332266657 -1.6960194757956193 -1.5006806276004137 4.57702632514006 1.5708511741559883 1.5708170906104981 -0.5573095634712573 0.08042116401103525 -0.09190296214673721 0.011451783969768252 -0.10551013593469372 -0.5472308120459007 -300.0 -11.999999999999972 300.0 2.2214 2.2214 0.0 0.0 200.0 0.0 0.0 0.0 0.0 0.0 0.0 0.0 0.0 0.0 0.0 
1.048 -2.72334095975145 -1.6974340704244062 -1.4990627275615116 4.575051720411413 1.57085106448264 1.5708173780323293 -0.5580813996766442 0.0761407085325404 -0.08713291972071832 0.010962225845547029 -0.1066267461014652 -0.5478006814343851 -300.0 -10.399999999999977 300.0 2.2214 2.2214 0.0 0.0 200.0 0.0 0.0 0.0 0.0 0.0 0.0 0.0 0.0 0.0 0.0 
1.056 -2.7285999764342996 -1.6988948036351474 -1.4973896765298593 4.573055003258992 1.5708509530173975 1.5708176656063066 -0.5588214356657657 0.07185510224524579 -0.08234697541676202 0.010461919663870022 -0.10774675786156826 -0.5483356946498018 -300.0 -8.799999999999983 300.0 2.2214 2.2214 0.0 0.0 200.0 0.0 0.0 0.0 0.0 0.0 0.0 0.0 0.0 0.0 0.0 
1.064 -2.7338720993016903 -1.7004016128922605 -1.495661317567696 4.571035978732256 1.5708508397579077 1.5708179533045712 -0.5595295165067398 0.06756459575831643 -0.07754471577201427 0.009950201354332288 -0.10886997709801671 -0.5488356847218203 -300.0 -7.199999999999989 300.0 2.2214 2.2214 0.0 0.0 200.0 0.0 0.0 0.0 0.0 0.0 0.0 0.0 0.0 0.0 0.0 
1.072 -2.739157041707954 -1.7019544306301277 -1.4938774928296288 4.5689944487503835 1.5708507247022934 1.57081824109908 -0.5602054990695298 0.06326943618127452 -0.07272572485808552 0.009426407879228327 -0.10999620674017165 -0.5493004975269697 -300.0 -5.599999999999966 300.0 2.2214 2.2214 0.0 0.0 200.0 0.0 0.0 0.0 0.0 0.0 0.0 0.0 0.0 0.0 0.0 
1.08 -2.744454513466134 -1.7035531843399982 -1.4920380435505831 4.566930212189213 1.5708506078491415 1.5708185289616183 -0.560849252111172 0.058969866801084875 -0.06788958417591674 0.008889877451336235 -0.11112524686570911 -0.5497299918988569 -300.0 -3.9999999999999716 300.0 2.2214 2.2214 0.0 0.0 200.0 0.0 0.0 0.0 0.0 0.0 0.0 0.0 0.0 0.0 0.0 
1.088 -2.749764220941546 -1.7051977966628962 -1.4901428100301544 4.564843064968869 1.570850489197515 1.5708188168638118 -0.561460656349582 0.05466612675785091 -0.06303587254146595 0.00833994974389992 -0.11225689480605472 -0.5501240397263236 -300.0 -2.3999999999999773 300.0 2.2214 2.2214 0.0 0.0 200.0 0.0 0.0 0.0 0.0 0.0 0.0 0.0 0.0 0.0 0.0 
1.096 -2.7550858671479546 -1.706888185488499 -1.4881916316132155 4.562732800141859 1.5708503687469555 1.5708191047771383 -0.562039604525864 0.05035845071921143 -0.058164165961703485 0.007775966092225093 -0.11339094525517025 -0.5504825260394199 -300.0 -0.799999999999983 300.0 2.2214 2.2214 0.0 0.0 200.0 0.0 0.0 0.0 0.0 0.0 0.0 0.0 0.0 0.0 0.0 
1.104 3.5227661553333007 -1.7086242640599627 -1.4861843466666065 4.560599207981418 1.5708502464974845 1.5708193926729412 -0.56258600145506 0.046047068553508215 -0.0532740375003744 0.0071972696862742285 -0.11452719038157334 -0.5508053490830874 -300.0 0.8000000000000398 300.0 2.2214 2.2214 0.0 0.0 200.0 0.0 0.0 0.0 0.0 0.0 0.0 0.0 0.0 0.0 0.0 
1.112 3.517421535533786 -1.7104059410846721 -1.4841207925517406 4.558442076069913 1.5708501224496176 1.5708196805224424 -0.5630997640652973 0.041732205001780244 -0.04836505713297175 0.006603205753639777 -0.11566541994345134 -0.5510924203784754 -300.0 2.400000000000034 300.0 2.2214 2.2214 0.0 0.0 200.0 0.0 0.0 0.0 0.0 0.0 0.0 0.0 0.0 0.0 0.0 
1.12 3.512065887071951 -1.7122331208508652 -1.4820008055929639 4.556261189387033 1.570849996604352 1.5708199682967543 -0.5635808214253194 0.03741407934864442 -0.04343679159037992 0.005993121732316956 -0.11680542140675901 -0.5513436647718241 -300.0 4.000000000000028 300.0 2.2214 2.2214 0.0 0.0 200.0 0.0 0.0 0.0 0.0 0.0 0.0 0.0 0.0 0.0 0.0 
1.128 3.5066995193289543 -1.7141057033501057 -1.4798242210414856 4.5540563303975885 1.5708498689631811 1.5708202559668945 -0.5640291147603992 0.03309290509208477 -0.03848880419059049 0.005366367432626963 -0.11794698006612701 -0.5515590204708827 -300.0 5.600000000000023 300.0 2.2214 2.2214 0.0 0.0 200.0 0.0 0.0 0.0 0.0 0.0 0.0 0.0 0.0 0.0 0.0 
1.136 3.5013227445202277 -1.7160235844055445 -1.4775908730347143 4.551827279138646 1.5708497395280903 1.5708205435037972 -0.5644445974566603 0.028768889612183286 -0.03352065465792659 0.004722295187718683 -0.1190898791684635 -0.5517384390688442 -300.0 7.2000000000000455 300.0 2.2214 2.2214 0.0 0.0 200.0 0.0 0.0 0.0 0.0 0.0 0.0 0.0 0.0 0.0 0.0 
1.144 3.495935877585362 -1.7179866558059302 -1.4753005945508124 4.549573813305786 1.5708496083015597 1.570820830878329 -0.5648272350538496 0.024442233838795895 -0.028531898929169158 0.00406025999202473 -0.12023390003907895 -0.5518818855558036 -300.0 8.80000000000004 300.0 2.2214 2.2214 0.0 0.0 200.0 0.0 0.0 0.0 0.0 0.0 0.0 0.0 0.0 0.0 0.0 
1.152 3.4905392360759846 -1.7199948054453102 -1.472953217358296 4.547295708338219 1.5708494752865723 1.5708211180612994 -0.5651770052266237 0.020113131918162077 -0.02352208894596853 0.0033796196270676673 -0.12137882221019133 -0.5519893383177659 -300.0 10.400000000000034 300.0 2.2214 2.2214 0.0 0.0 200.0 0.0 0.0 0.0 0.0 0.0 0.0 0.0 0.0 0.0 0.0 
1.16 3.4851331400417487 -1.7220479174683572 -1.4705485719604934 4.544992737502521 1.5708493404866037 1.570821405023478 -0.5654938977544418 0.015781770878433254 -0.018490772432930798 0.0026797347740331323 -0.12252442355164415 -0.5520607891232567 -300.0 12.0 300.0 2.2214 2.2214 0.0 0.0 200.0 0.0 0.0 0.0 0.0 0.0 0.0 0.0 0.0 0.0 0.0 
1.168 3.479717911914517 -1.7241458724212755 -1.4680864875346746 4.542664671974742 1.5708492039056352 1.5708216917356046 -0.5657779144801581 0.011448330294066625 -0.013437492660714586 0.001959969112476986 -0.12367048040367247 -0.5520962430976035 -300.0 13.599999999999994 300.0 2.2214 2.2214 0.0 0.0 200.0 0.0 0.0 0.0 0.0 0.0 0.0 0.0 0.0 0.0 0.0 
1.176 3.4742938763908646 -1.726288547408203 -1.465566791865663 4.540311280920615 1.5708490655481475 1.570821978168406 -0.566029069257452 0.007112981949030544 -0.008361788193494158 0.001219689404598543 -0.12481676771155545 -0.5520957186849824 -300.0 15.199999999999989 300.0 2.2214 2.2214 0.0 0.0 200.0 0.0 0.0 0.0 0.0 0.0 0.0 0.0 0.0 0.0 0.0 
1.184 3.4688613603129985 -1.7284758162530522 -1.4629893112737455 4.537932331573621 1.570848925419115 1.5708222642926082 -0.5662473878872286 0.002775889498742432 -0.003263192620108417 0.0004582655644687329 -0.12596305916198003 -0.5520592475983397 -300.0 16.80000000000001 300.0 2.2214 2.2214 0.0 0.0 200.0 0.0 0.0 0.0 0.0 0.0 0.0 0.0 0.0 0.0 0.0 
1.192 3.463420692548203 -1.7307075496667252 -1.4603538705366614 4.535527589310648 1.5708487835240246 1.5708225500789506 -0.5664329080431572 -0.0015627918693732045 0.0018587657318221036 -0.0003249292884069182 -0.12710912732093227 -0.551986874757322 -300.0 18.400000000000006 300.0 2.2214 2.2214 0.0 0.0 200.0 0.0 0.0 0.0 0.0 0.0 0.0 0.0 0.0 0.0 0.0 
1.2 3.4579722038669374 -1.7329836154196099 -1.4576602928055034 4.533096817724967 1.5708486398688513 1.5708228354982 -0.5665856791865298 -0.005902915776812166 0.007004564099494551 -0.00113051879173033 -0.1282547437729579 -0.5518786582143742 -300.0 20.0 300.0 2.2214 2.2214 0.0 0.0 200.0 0.0 0.0 0.0 0.0 0.0 0.0 0.0 0.0 0.0 0.0 
1.208 3.4525162268196814 -1.7353038785193085 -1.4549083995142982 4.5306397786962584 1.570848494460074 1.5708231205211645 -0.5667057624706329 -0.010244344996569782 0.012174685607025268 -0.001959123319925155 -0.129399679261598 -0.5517346690691655 -300.0 21.599999999999994 300.0 2.2214 2.2214 0.0 0.0 200.0 0.0 0.0 0.0 0.0 0.0 0.0 0.0 0.0 0.0 0.0 
1.216 3.4470530956126595 -1.7376682013935068 -1.4520980102830774 4.528156232457434 1.570848347304668 1.5708234051187073 -0.5667932306348507 -0.014586951797527408 0.017369619606790114 -0.002811359981067825 -0.13054370383082092 -0.5515549913715427 -300.0 23.19999999999999 300.0 2.2214 2.2214 0.0 0.0 200.0 0.0 0.0 0.0 0.0 0.0 0.0 0.0 0.0 0.0 0.0 
1.224 3.441583145982553 -1.7400764440779173 -1.4492289428142204 4.525645937657966 1.5708481984101055 1.5708236892617613 -0.5668481678887285 -0.018930618290852984 0.02258986204081953 -0.003687842631863308 -0.13168658696727228 -0.5513397220132203 -300.0 24.80000000000001 300.0 2.2214 2.2214 0.0 0.0 200.0 0.0 0.0 0.0 0.0 0.0 0.0 0.0 0.0 0.0 0.0 
1.232 3.4361067150703257 -1.7425284644092138 -1.4463010127818574 4.523108651423459 1.5708480477843487 1.5708239729213416 -0.5668706697862477 -0.023275236778633294 0.027835915823063374 -0.004589181911253329 -0.13282809774315396 -0.5510889706084288 -300.0 26.400000000000006 300.0 2.2214 2.2214 0.0 0.0 200.0 0.0 0.0 0.0 0.0 0.0 0.0 0.0 0.0 0.0 0.0 
1.24 3.4306241412942713 -1.7450241182228934 -1.4433140337141035 4.5205441294111655 1.570847895435852 1.5708242560685606 -0.566860843090565 -0.027620710104997753 0.03310829124339713 -0.005515985293278465 -0.13396800495955474 -0.5508028593637643 -300.0 28.0 300.0 2.2214 2.2214 0.0 0.0 200.0 0.0 0.0 0.0 0.0 0.0 0.0 0.0 0.0 0.0 0.0 
1.248 3.4251357642224165 -1.7475632595559842 -1.440267816867912 4.517952125861209 1.5708477413735549 1.5708245386746407 -0.5668188056294988 -0.03196695201000982 0.03840750639425147 -0.0064688571597901244 -0.13510607729004015 -0.5504815229375064 -300.0 29.600000000000023 300.0 2.2214 2.2214 0.0 0.0 200.0 0.0 0.0 0.0 0.0 0.0 0.0 0.0 0.0 0.0 0.0 
1.256 3.4196419244443894 -1.7501457408545307 -1.437162171096296 4.515332393643195 1.5708475856068849 1.570824820710929 -0.5667446861420453 -0.0363138874866469 0.043734087620809076 -0.00744839889364557 -0.13624208342431632 -0.5501251082886666 -300.0 31.200000000000017 300.0 2.2214 2.2214 0.0 0.0 200.0 0.0 0.0 0.0 0.0 0.0 0.0 0.0 0.0 0.0 0.0 
1.264 3.414142963442881 -1.7527714131857866 -1.4339969027077029 4.512684684297947 1.5708474281457467 1.5708251021489101 -0.5666386241162292 -0.040661453141211654 0.049088569995731905 -0.008455208992993693 -0.13737579221179896 -0.5497337745160672 -300.0 32.80000000000001 300.0 2.2214 2.2214 0.0 0.0 200.0 0.0 0.0 0.0 0.0 0.0 0.0 0.0 0.0 0.0 0.0 
1.272 3.4086392234648177 -1.7554401264550497 -1.4307718153172737 4.510008748074079 1.570847269000523 1.5708253829602197 -0.5665007696185961 -0.045009597557562515 0.054471497819447906 -0.009489883207306331 -0.13850697280488386 -0.549307692687745 -300.0 34.400000000000006 300.0 2.2214 2.2214 0.0 0.0 200.0 0.0 0.0 0.0 0.0 0.0 0.0 0.0 0.0 0.0 0.0 
1.28 3.403131047392368 -1.758151729627077 -1.4274867096897557 4.50730433395913 1.570847108182066 1.5708256631166582 -0.566331283115672 -0.04935828166558057 0.059883425147057516 -0.010553014695787441 -0.1396353948017513 -0.5488470456609994 -300.0 36.0 300.0 2.2214 2.2214 0.0 0.0 200.0 0.0 0.0 0.0 0.0 0.0 0.0 0.0 0.0 0.0 0.0 
1.288 3.3976187786139005 -1.7609060709520237 -1.4241413835737882 4.5045711897049605 1.570846945701697 1.5708259425902031 -0.5661303352877196 -0.053707479114335745 0.0653249163429889 -0.011645194208834963 -0.14076082838852044 -0.5483520278934082 -300.0 37.60000000000002 300.0 2.2214 2.2214 0.0 0.0 200.0 0.0 0.0 0.0 0.0 0.0 0.0 0.0 0.0 0.0 0.0 
1.296 3.3921027608950203 -1.7637029981958432 -1.4207356315273145 4.501809061847133 1.570846781571199 1.5708262213530235 -0.5658981068351342 -0.05805717665044914 0.07079654666457187 -0.012767010293221177 -0.141883044480576 -0.5478228452451549 -300.0 39.20000000000002 300.0 2.2214 2.2214 0.0 0.0 200.0 0.0 0.0 0.0 0.0 0.0 0.0 0.0 0.0 0.0 0.0 
1.304 3.3865833382497947 -1.7665423588751195 -1.4172692447338167 4.499017695717984 1.5708466158028116 1.5708264993774914 -0.5656347882778249 -0.06240737450219899 0.07629890287577845 -0.013919049521695585 -0.14300181486289293 -0.5472597147730063 -300.0 40.80000000000001 300.0 2.2214 2.2214 0.0 0.0 200.0 0.0 0.0 0.0 0.0 0.0 0.0 0.0 0.0 0.0 0.0 
1.312 3.381060854812296 -1.7694240004962718 -1.4137420108091083 4.4961968354531 1.570846448409219 1.5708267766361954 -0.5653405797479358 -0.06675808676995616 0.08183258389243306 -0.01510189674772509 -0.14411691232918392 -0.5466628645163067 -300.0 42.400000000000034 300.0 2.2214 2.2214 0.0 0.0 200.0 0.0 0.0 0.0 0.0 0.0 0.0 0.0 0.0 0.0 0.0 
1.32 3.3755356547085666 -1.7723477707991122 -1.4101537135983642 4.493346223990898 1.570846279403558 1.5708270531019524 -0.5650156907762733 -0.07110934182359613 0.08739820146028879 -0.016316135386132396 -0.1452281108197063 -0.546032533275349 -300.0 44.00000000000003 300.0 2.2214 2.2214 0.0 0.0 200.0 0.0 0.0 0.0 0.0 0.0 0.0 0.0 0.0 0.0 0.0 
1.328 3.3700080819291394 -1.7753135180047261 -1.406504132963088 4.490465603065024 1.5708461087993988 1.5708273287478207 -0.5646603400727975 -0.07546118270756409 0.0929963808674095 -0.017562347720373073 -0.14633518555755595 -0.545368970382494 -300.0 45.60000000000002 300.0 2.2214 2.2214 0.0 0.0 200.0 0.0 0.0 0.0 0.0 0.0 0.0 0.0 0.0 0.0 0.0 
1.336 3.3644784802022114 -1.7783210910676566 -1.402793044557686 4.487554713189262 1.5708459366107428 1.5708276035471118 -0.5642747553015539 -0.0798136675543474 0.09862776169242612 -0.018841115237287563 -0.1474379131832928 -0.5446724354664224 -300.0 47.20000000000002 300.0 2.2214 2.2214 0.0 0.0 200.0 0.0 0.0 0.0 0.0 0.0 0.0 0.0 0.0 0.0 0.0 
1.344 3.3589471928675945 -1.7813703399323928 -1.399020219595306 4.484613293634657 1.5708457628520147 1.5708278774734017 -0.5638591728504171 -0.08416687000715274 0.10429299859030232 -0.02015301899015427 -0.14853607188773524 -0.5439431982098978 -300.0 48.80000000000001 300.0 2.2214 2.2214 0.0 0.0 200.0 0.0 0.0 0.0 0.0 0.0 0.0 0.0 0.0 0.0 0.0 
1.352 3.3534145627515497 -1.7844611157941657 -1.3951854246025857 4.4816410823985455 1.5708455875380527 1.570828150500543 -0.5634138375960213 -0.0885208796526484 0.10999276211735305 -0.02149863999092933 -0.1496294415427786 -0.5431815381014319 -300.0 50.400000000000034 300.0 2.2214 2.2214 0.0 0.0 200.0 0.0 0.0 0.0 0.0 0.0 0.0 0.0 0.0 0.0 0.0 
1.36 3.347880932042613 -1.7875932713640619 -1.3912884211629357 4.478637816165204 1.5708454106841119 1.5708284226026763 -0.5629390026642528 -0.09287580246470228 0.1157277395973779 -0.022878559632611976 -0.15071780383006483 -0.5423877441812482 -300.0 52.00000000000003 300.0 2.2214 2.2214 0.0 0.0 200.0 0.0 0.0 0.0 0.0 0.0 0.0 0.0 0.0 0.0 0.0 
1.368 3.3423466421685273 -1.7907666611384898 -1.3873289656479686 4.475603230257747 1.5708452323058366 1.5708286937542408 -0.5624349291866885 -0.09723176126010108 0.12149863603086379 -0.024293360142681266 -0.15180094236740693 -0.541562114781931 -300.0 53.60000000000002 300.0 2.2214 2.2214 0.0 0.0 200.0 0.0 0.0 0.0 0.0 0.0 0.0 0.0 0.0 0.0 0.0 
1.376 3.336812033674372 -1.7939811416730451 -1.3833068089366487 4.47253705858103 1.5708450524192699 1.570828963929986 -0.5619018860533476 -0.10158889616733265 0.12730617504939182 -0.025743625068693127 -0.15287864283277358 -0.5407049572641627 -300.0 55.200000000000045 300.0 2.2214 2.2214 0.0 0.0 200.0 0.0 0.0 0.0 0.0 0.0 0.0 0.0 0.0 0.0 0.0 
1.384 3.3312774461020034 -1.797236571860822 -1.3792216961217458 4.469439033555176 1.570844871040838 1.570829233104981 -0.5613401496621435 -0.10594736510956225 0.1331510999174619 -0.02722993979708819 -0.1539506930857453 -0.5398165877479478 -300.0 56.80000000000004 300.0 2.2214 2.2214 0.0 0.0 200.0 0.0 0.0 0.0 0.0 0.0 0.0 0.0 0.0 0.0 0.0 
1.392 3.3257432178709005 -1.8005328132152534 -1.3750733662031176 4.466308886039419 1.5708446881873424 1.5708295012546252 -0.5607500036654003 -0.1103073443030397 0.1390341745841472 -0.02875289210640203 -0.15501688328628885 -0.5388973308397159 -300.0 58.400000000000034 300.0 2.2214 2.2214 0.0 0.0 200.0 0.0 0.0 0.0 0.0 0.0 0.0 0.0 0.0 0.0 0.0 
1.4 3.3202096861605153 -1.803869730157564 -1.3708615517673428 4.463146345245906 1.5708445038759418 1.570829768354659 -0.5601317387138123 -0.11466902877224584 0.14495618478712813 -0.030313072756110265 -0.15607700601074678 -0.5379475193557055 -300.0 60.00000000000003 300.0 2.2214 2.2214 0.0 0.0 200.0 0.0 0.0 0.0 0.0 0.0 0.0 0.0 0.0 0.0 0.0 
1.408 3.3146771867942095 -1.8072471903089555 -1.366585978653187 4.459951138643142 1.5708443181241647 1.570830034381172 -0.5594856521982099 -0.11903263288320327 0.15091793921187016 -0.03191107611246979 -0.1571308563649032 -0.5369674940420232 -300.0 61.599999999999994 300.0 2.2214 2.2214 0.0 0.0 200.0 0.0 0.0 0.0 0.0 0.0 0.0 0.0 0.0 0.0 0.0 
1.416 3.3091460541248923 -1.8106650647876343 -1.3622463656023747 4.4567229918486815 1.570844130949876 1.570830299310614 -0.5588120479894992 -0.12339839089643762 0.15692027070883038 -0.03354750081271311 -0.15817823209404486 -0.5359576032917683 -300.0 63.19999999999999 300.0 2.2214 2.2214 0.0 0.0 200.0 0.0 0.0 0.0 0.0 0.0 0.0 0.0 0.0 0.0 0.0 
1.424 3.303616620922418 -1.8141232285108508 -1.3578424238950544 4.453461628510711 1.5708439423712832 1.5708305631198014 -0.5581112361771318 -0.12776655754123475 0.16296403757188774 -0.03522295046919214 -0.15921893368989182 -0.5349182028596177 -300.0 64.79999999999998 300.0 2.2214 2.2214 0.0 0.0 200.0 0.0 0.0 0.0 0.0 0.0 0.0 0.0 0.0 0.0 0.0 
1.432 3.2980892182628505 -1.8176215605021064 -1.35337385696939 4.450166770178149 1.5708437524069148 1.5708308257859291 -0.5573835328064572 -0.13213740861290843 0.16905012488132554 -0.03693803441504885 -0.1602527644943105 -0.5338496555742513 -300.0 66.4 300.0 2.2214 2.2214 0.0 0.0 200.0 0.0 0.0 0.0 0.0 0.0 0.0 0.0 0.0 0.0 0.0 
1.44 3.292564175419659 -1.8211599442037347 -1.3488403600245862 4.446838136158852 1.5708435610756248 1.5708310872865758 -0.5566292596153106 -0.13651124159495256 0.17517944591501475 -0.03869336849321615 -0.1612795307997157 -0.5327523310490047 -300.0 68.0 300.0 2.2214 2.2214 0.0 0.0 200.0 0.0 0.0 0.0 0.0 0.0 0.0 0.0 0.0 0.0 0.0 
1.448 3.2870418197569355 -1.824738267795066 -1.3442416196066904 4.443475443365512 1.5708433683965641 1.570831347599714 -0.5558487437701682 -0.14088837630805376 0.18135294363164628 -0.04048957589058994 -0.16229904194608571 -0.5316266053911196 -300.0 69.6 300.0 2.2214 2.2214 0.0 0.0 200.0 0.0 0.0 0.0 0.0 0.0 0.0 0.0 0.0 0.0 0.0 
1.456 3.2815224766246933 -1.828356424516436 -1.3395773131763968 4.440078406148829 1.5708431743891924 1.5708316067037162 -0.5550423176022099 -0.14526915558812342 0.18757159223023548 -0.042327288019475794 -0.1633111104144951 -0.5304728609099696 -300.0 71.19999999999999 300.0 2.2214 2.2214 0.0 0.0 200.0 0.0 0.0 0.0 0.0 0.0 0.0 0.0 0.0 0.0 0.0 
1.464 3.276006469256335 -1.8320143129992998 -1.3348471086581064 4.436646736117481 1.5708429790732419 1.5708318645773631 -0.5542103183436142 -0.14965394599561274 0.19383639879033118 -0.04420714544843189 -0.16431555191712227 -0.5292914858246153 -300.0 72.80000000000001 300.0 2.2214 2.2214 0.0 0.0 200.0 0.0 0.0 0.0 0.0 0.0 0.0 0.0 0.0 0.0 0.0 
1.472 3.270494118668333 -1.835711837602776 -1.3300506639693643 4.4331801419444545 1.5708427824687323 1.5708321211998506 -0.5533530878643963 -0.1540431385585983 0.20014840499782624 -0.04612979888497049 -0.16531218548363444 -0.5280828739710536 -300.0 74.4 300.0 2.2214 2.2214 0.0 0.0 200.0 0.0 0.0 0.0 0.0 0.0 0.0 0.0 0.0 0.0 0.0 
1.48 3.2649857435622116 -1.8394489087569412 -1.3251876265298068 4.429678329159188 1.5708425845959397 1.5708323765507948 -0.5524709724101071 -0.15843714955225313 0.2065086889615196 -0.048095910212600776 -0.16630083354392566 -0.5268474245095073 -300.0 76.0 300.0 2.2214 2.2214 0.0 0.0 200.0 0.0 0.0 0.0 0.0 0.0 0.0 0.0 0.0 0.0 0.0 
1.488 3.2594816602288645 -1.843225443313274 -1.3202576327486462 4.426140999925059 1.570842385475395 1.5708326306102398 -0.5515643223406832 -0.16283642131755383 0.21291836712608528 -0.05010615358505946 -0.167281322007134 -0.5255855416320916 -300.0 77.60000000000002 300.0 2.2214 2.2214 0.0 0.0 200.0 0.0 0.0 0.0 0.0 0.0 0.0 0.0 0.0 0.0 0.0 
1.496 3.253982182455282 -1.8470413649026303 -1.3152603074896672 4.422567852801615 1.5708421851278709 1.5708328833586631 -0.5506334918707447 -0.16724142312226348 0.2193785962874792 -0.052161216580697216 -0.1682534803369018 -0.5242976342711982 -300.0 79.19999999999999 300.0 2.2214 2.2214 0.0 0.0 200.0 0.0 0.0 0.0 0.0 0.0 0.0 0.0 0.0 0.0 0.0 
1.504 3.2484876214337257 -1.8508966043012371 -1.3101952635126408 4.418958582490985 1.5708419835743765 1.5708331347769806 -0.5496788388116162 -0.17165265206746994 0.22589057571733342 -0.05426180142030216 -0.16921714162284276 -0.5229841158089119 -300.0 80.80000000000001 300.0 2.2214 2.2214 0.0 0.0 200.0 0.0 0.0 0.0 0.0 0.0 0.0 0.0 0.0 0.0 0.0 
1.512 3.2429982856734108 -1.8547910998051698 -1.3050621008899863 4.415312879567844 1.570841780836138 1.5708333848465517 -0.548700724315342 -0.17607063404319526 0.2324555494033773 -0.056408626251870944 -0.17017214264818512 -0.5216454037877771 -300.0 82.40000000000003 300.0 2.2214 2.2214 0.0 0.0 200.0 0.0 0.0 0.0 0.0 0.0 0.0 0.0 0.0 0.0 0.0 
1.52 3.2375144809147285 -1.8587247976138683 -1.2998604063974069 4.4116304301922495 1.570841576934587 1.5708336335491844 -0.547699512620959 -0.18049592473688536 0.2390748084135386 -0.05860242650618646 -0.17111832395356716 -0.5202819196232201 -300.0 84.0 300.0 2.2214 2.2214 0.0 0.0 200.0 0.0 0.0 0.0 0.0 0.0 0.0 0.0 0.0 0.0 0.0 
1.528 3.2320365100460515 -1.8626976522232894 -1.2945897528771515 4.407910915804688 1.570841371891361 1.5708338808671396 -0.5466755708032645 -0.18492911069886236 0.24574969339197233 -0.060843956327365084 -0.17205552989695622 -0.5188940883179141 -300.0 85.60000000000002 300.0 2.2214 2.2214 0.0 0.0 200.0 0.0 0.0 0.0 0.0 0.0 0.0 0.0 0.0 0.0 0.0 
1.536 3.2265646730231663 -1.8667096268293135 -1.2892496985724633 4.404154012802521 1.5708411657282797 1.5708341267831343 -0.5456292685243319 -0.18937081046914594 0.2524815971959335 -0.06313399008286828 -0.17298360870969923 -0.5174823381783799 -300.0 87.19999999999999 300.0 2.2214 2.2214 0.0 0.0 200.0 0.0 0.0 0.0 0.0 0.0 0.0 0.0 0.0 0.0 0.0 
1.544 3.2210992667913536 -1.8707606937421284 -1.283839786431638 4.400359392197068 1.5708409584673326 1.570834371280346 -0.5445609777879915 -0.19382167577041395 0.25927196768319716 -0.06547332395792807 -0.17390241254867994 -0.5160471005340861 -300.0 88.80000000000001 300.0 2.2214 2.2214 0.0 0.0 200.0 0.0 0.0 0.0 0.0 0.0 0.0 0.0 0.0 0.0 0.0 
1.552 3.2156405852101475 -1.874850834812341 -1.2783595433800208 4.3965267192504465 1.5708407501306858 1.5708346143424163 -0.54347107269749 -0.198282392772243 0.26612231066051417 -0.06786277763973961 -0.17481179754459417 -0.5145888094593163 -300.0 90.40000000000003 300.0 2.2214 2.2214 0.0 0.0 200.0 0.0 0.0 0.0 0.0 0.0 0.0 0.0 0.0 0.0 0.0 
1.56 3.2101889189808106 -1.8789800418696267 -1.2728084795581527 4.392655653091236 1.570840540740645 1.5708348559534517 -0.5423599292165459 -0.20275368343217742 0.2730341930044574 -0.07030319609719246 -0.1757116238463494 -0.5131079014980516 -300.0 92.0 300.0 2.2214 2.2214 0.0 0.0 200.0 0.0 0.0 0.0 0.0 0.0 0.0 0.0 0.0 0.0 0.0 
1.568 3.2047445555765224 -1.883148317174841 -1.2671860875240994 4.388745846307991 1.5708403303196676 1.570835096098029 -0.5412279249339785 -0.20723630691966513 0.28000924596706894 -0.0727954514625636 -0.1766017556615899 -0.5116048153921083 -300.0 93.60000000000002 300.0 2.2214 2.2214 0.0 0.0 200.0 0.0 0.0 0.0 0.0 0.0 0.0 0.0 0.0 0.0 0.0 
1.576 3.1993077791753253 -1.8873556738865254 -1.2614918414179048 4.384796944519512 1.5708401188903358 1.570835334761195 -0.5400754388321065 -0.2117310611293534 0.28704916867968 -0.07534044502200249 -0.17748206129338187 -0.510079991812762 -300.0 95.20000000000005 300.0 2.2214 2.2214 0.0 0.0 200.0 0.0 0.0 0.0 0.0 0.0 0.0 0.0 0.0 0.0 0.0 
1.584 3.19387887059582 -1.8916021365428903 -1.2557251960858844 4.380808585920739 1.5708399064753513 1.5708355719284692 -0.5389028510590768 -0.2162387842908316 0.29415573186955707 -0.07793910932240836 -0.17835241317306413 -0.5085338730960692 -300.0 96.80000000000001 300.0 2.2214 2.2214 0.0 0.0 200.0 0.0 0.0 0.0 0.0 0.0 0.0 0.0 0.0 0.0 0.0 
1.592 3.188458107235632 -1.8958877415603925 -1.2498855861623606 4.376780400803013 1.5708396930975246 1.570835807585846 -0.53771054270529 -0.22076035668247918 0.3013307818052423 -0.08059241040289322 -0.1792126878893079 -0.5069669029820976 -300.0 98.40000000000003 300.0 2.2214 2.2214 0.0 0.0 200.0 0.0 0.0 0.0 0.0 0.0 0.0 0.0 0.0 0.0 0.0 
1.6 3.183045763012654 -1.9002125377501495 -1.2439724251061897 4.372712011047378 1.5708394787797635 1.5708360417197942 -0.5364988955840664 -0.2252967024577536 0.3085762444879152 -0.08330135015982815 -0.180062766213405 -0.505379526358255 -300.0 100.0 300.0 2.2214 2.2214 0.0 0.0 200.0 0.0 0.0 0.0 0.0 0.0 0.0 0.0 0.0 0.0 0.0 
1.608 3.177642108309063 -1.904576586853523 -1.2379851041892769 4.36860302958946 1.5708392635450616 1.5708362743172593 -0.5352682920166958 -0.22984879159298321 0.31589413010765505 -0.08606696885528466 -0.18090253312083535 -0.5037721890069036 -300.0 101.60000000000002 300.0 2.2214 2.2214 0.0 0.0 200.0 0.0 0.0 0.0 0.0 0.0 0.0 0.0 0.0 0.0 0.0 
1.616 3.172247409918124 -1.9089799640983174 -1.231922991434004 4.364453059854368 1.5708390474164833 1.5708365053656623 -0.5340191146219914 -0.23441764196652404 0.32328653778520455 -0.08889034777961269 -0.18173187780914796 -0.502145337357426 -300.0 103.20000000000005 300.0 2.2214 2.2214 0.0 0.0 200.0 0.0 0.0 0.0 0.0 0.0 0.0 0.0 0.0 0.0 0.0 
1.624 3.166861930993755 -1.913422758777175 -1.225785430496256 4.36026169515992 1.5708388304171639 1.5708367348529015 -0.5327517461104659 -0.23900432158004856 0.33075566062176376 -0.09177261207992668 -0.18255069371220137 -0.5004994182429052 -300.0 104.80000000000001 300.0 2.2214 2.2214 0.0 0.0 200.0 0.0 0.0 0.0 0.0 0.0 0.0 0.0 0.0 0.0 0.0 
1.632 3.1614859310028733 -1.9179050748498425 -1.2195717394904895 4.356028518086343 1.5708386125702865 1.5708369627673509 -0.5314665690832382 -0.2436099509336826 0.3383037910813932 -0.09471493376733998 -0.18335887851082733 -0.49883487866156756 -300.0 106.40000000000003 300.0 2.2214 2.2214 0.0 0.0 200.0 0.0 0.0 0.0 0.0 0.0 0.0 0.0 0.0 0.0 0.0 
1.64 3.156119665680495 -1.922427031571181 -1.213281209752939 4.351753099810465 1.5708383938990758 1.57083718909786 -0.53016396583576 -0.24823570556781996 0.34593332673299154 -0.0977185349171061 -0.1841563341399597 -0.49715216554312375 -300.0 108.00000000000006 300.0 2.2214 2.2214 0.0 0.0 200.0 0.0 0.0 0.0 0.0 0.0 0.0 0.0 0.0 0.0 0.0 
1.648 3.1507633869875766 -1.9269887641469006 -1.2069131045387707 4.3474349994022425 1.5708381744267967 1.5708374138337537 -0.5288443181664483 -0.25288281878563845 0.3536467763813572 -0.1007846910771465 -0.1849429667922888 -0.4954517255201349 -300.0 109.60000000000002 300.0 2.2214 2.2214 0.0 0.0 200.0 0.0 0.0 0.0 0.0 0.0 0.0 0.0 0.0 0.0 0.0 
1.656 3.145417343071597 -1.9315904244191957 -1.2004666576486207 4.343073763081229 1.5708379541767215 1.5708376369648298 -0.5275080071903033 -0.25755258457164987 0.36144676661968184 -0.10391473490195975 -0.1857186869185247 -0.49373400470452117 -300.0 111.20000000000005 300.0 2.2214 2.2214 0.0 0.0 200.0 0.0 0.0 0.0 0.0 0.0 0.0 0.0 0.0 0.0 0.0 
1.664 3.140081778229839 -1.9362321815846446 -1.1939410719795558 4.3386689234305 1.5708377331721508 1.570837858481358 -0.5261554131575639 -0.2622463607231419 0.3693360488390635 -0.10711006003068795 -0.18648340922429207 -0.4919994484693119 -300.0 112.80000000000001 300.0 2.2214 2.2214 0.0 0.0 200.0 0.0 0.0 0.0 0.0 0.0 0.0 0.0 0.0 0.0 0.0 
1.672 3.134756932875376 -1.9409142229469243 -1.1873355179950864 4.334219998565146 1.570837511436372 1.5708380783740787 -0.5247869152774712 -0.2669655722129582 0.37731750673405146 -0.11037212522984484 -0.18723705266378882 -0.4902485012357366 -300.0 114.39999999999998 300.0 2.2214 2.2214 0.0 0.0 200.0 0.0 0.0 0.0 0.0 0.0 0.0 0.0 0.0 0.0 0.0 
1.68 3.1294430435057112 -1.9456367547071447 -1.1806491321083536 4.329726491252394 1.570837288992672 1.5708382966342003 -0.5234028915471701 -0.27171171480394873 0.3853941643472791 -0.11370245882349024 -0.18797954043021725 -0.48848160626573667 -300.0 116.0 300.0 2.2214 2.2214 0.0 0.0 200.0 0.0 0.0 0.0 0.0 0.0 0.0 0.0 0.0 0.0 0.0 
1.688 3.124140342674073 -1.9504000027948105 -1.173881014972146 4.325187887979986 1.5708370658643114 1.5708385132533964 -0.5220037185857984 -0.2764863589374177 0.3935691947005021 -0.11710266343579424 -0.18871079994310852 -0.486699205459974 -300.0 117.60000000000002 300.0 2.2214 2.2214 0.0 0.0 200.0 0.0 0.0 0.0 0.0 0.0 0.0 0.0 0.0 0.0 0.0 
1.696 3.118849058963306 -1.9552042137427486 -1.1670302296687471 4.320603657969215 1.5708368420745347 1.5708387282238048 -0.5205897714737788 -0.28129115392021736 0.4018459290643598 -0.12057442107369612 -0.18943076283259316 -0.4849017391613951 -300.0 119.19999999999999 300.0 2.2214 2.2214 0.0 0.0 200.0 0.0 0.0 0.0 0.0 0.0 0.0 0.0 0.0 0.0 0.0 
1.704 3.1135694169623624 -1.9600496556095712 -1.1600957997920773 4.315973252128654 1.5708366176465383 1.5708389415380226 -0.5191614235973441 -0.2861278324376432 0.41022786692452246 -0.12411949858012895 -0.19013936492071903 -0.4830896459644085 -300.0 120.80000000000001 300.0 2.2214 2.2214 0.0 0.0 200.0 0.0 0.0 0.0 0.0 0.0 0.0 0.0 0.0 0.0 0.0 
1.712 3.1083016372453267 -1.9649366189536273 -1.1530767074138144 4.311296101944278 1.5708363926034716 1.5708391531891044 -0.5177190464982989 -0.29099821542218324 0.41871868670811974 -0.12773975349168856 -0.19083654619987256 -0.48126336252972274 -300.0 122.39999999999998 300.0 2.2214 2.2214 0.0 0.0 200.0 0.0 0.0 0.0 0.0 0.0 0.0 0.0 0.0 0.0 0.0 
1.72 3.103045936352959 -1.9698654178627462 -1.1459718909244299 4.306571618301214 1.5708361669684345 1.5708393631705584 -0.51626300972902 -0.2959042173113516 0.4273222573411432 -0.13143714033818915 -0.19152225080841356 -0.47942332340486643 -300.0 124.0 300.0 2.2214 2.2214 0.0 0.0 200.0 0.0 0.0 0.0 0.0 0.0 0.0 0.0 0.0 0.0 0.0 
1.728 3.097802526776719 -1.974836391044448 -1.1387802427392533 4.301799190231934 1.5708359407644548 1.5708395714763428 -0.5147936807126974 -0.3008478517314295 0.4360426507152066 -0.13521371742566304 -0.1921964270035942 -0.47756996085043496 -300.0 125.60000000000002 300.0 2.2214 2.2214 0.0 0.0 200.0 0.0 0.0 0.0 0.0 0.0 0.0 0.0 0.0 0.0 0.0 
1.736 3.092571616945219 -1.9798499029817986 -1.131500606858658 4.296978183585205 1.5708357140144917 1.5708397781008625 -0.5133114246087968 -0.30583123764801845 0.44488415515080365 -0.13907165414905848 -0.1928590271318536 -0.47570370467206713 -300.0 127.19999999999999 300.0 2.2214 2.2214 0.0 0.0 200.0 0.0 0.0 0.0 0.0 0.0 0.0 0.0 0.0 0.0 0.0 
1.744 3.0873534112130803 -1.9849063451605309 -1.1241317762704695 4.292107939609505 1.5708354867414185 1.5708399830389637 -0.5118166041837281 -0.3108566060288294 0.4538512899538739 -0.14301323888599787 -0.19351000759658038 -0.47382498205816564 -300.0 128.8 300.0 2.2214 2.2214 0.0 0.0 200.0 0.0 0.0 0.0 0.0 0.0 0.0 0.0 0.0 0.0 0.0 
1.752 3.0821481098521413 -1.9900061373736435 -1.1166724901814726 4.287187773444048 1.5708352589680161 1.5708401862859307 -0.5103095796866929 -0.31592630706932356 0.4629488211736051 -0.14704088752893055 -0.19414932882342675 -0.47193421742336594 -300.0 130.40000000000003 300.0 2.2214 2.2214 0.0 0.0 200.0 0.0 0.0 0.0 0.0 0.0 0.0 0.0 0.0 0.0 0.0 
1.76 3.0769559090449734 -1.995149729110284 -1.1091214310636008 4.282216972509787 1.5708350307169707 1.5708403878374815 -0.5087907087306778 -0.321042818037627 0.47218177868183747 -0.15115715271961389 -0.19477695522327154 -0.4700318322577406 -300.0 132.0 300.0 2.2214 2.2214 0.0 0.0 200.0 0.0 0.0 0.0 0.0 0.0 0.0 0.0 0.0 0.0 0.0 
1.768 3.071777000880666 -2.000337601036411 -1.1014772214989377 4.277194794792082 1.5708348020108576 1.5708405876897622 -0.507260346178558 -0.3262087518017482 0.48155547470857646 -0.15536473385739474 -0.19539285515291727 -0.4681182449817311 -300.0 133.60000000000002 300.0 2.2214 2.2214 0.0 0.0 200.0 0.0 0.0 0.0 0.0 0.0 0.0 0.0 0.0 0.0 0.0 
1.776 3.0666115733528283 -2.005570266575504 -1.0937384208059866 4.272120467005709 1.5708345728721407 1.5708407858393427 -0.505718844034263 -0.33142686610962824 0.4910755239841851 -0.15966648796134597 -0.1959970008736227 -0.4661938708067797 -300.0 135.2 300.0 2.2214 2.2214 0.0 0.0 200.0 0.0 0.0 0.0 0.0 0.0 0.0 0.0 0.0 0.0 0.0 
1.784 3.0614598103597603 -2.0108482735984508 -1.0859035214278652 4.266993182632075 1.5708343433231575 1.5708409822832115 -0.5041665513389613 -0.33670007370108374 0.5007478656570785 -0.16406544147600713 -0.19658936850755376 -0.4642591216016418 -300.0 136.8 300.0 2.2214 2.2214 0.0 0.0 200.0 0.0 0.0 0.0 0.0 0.0 0.0 0.0 0.0 0.0 0.0 
1.792 3.056321891706748 -2.0161722062326923 -1.077970945060993 4.261812099817251 1.5708341133861181 1.5708411770187705 -0.5026038140721998 -0.34203145334041063 0.5105787871765355 -0.16856480312158714 -0.19716993799225105 -0.4623144057643349 -300.0 138.40000000000003 300.0 2.2214 2.2214 0.0 0.0 200.0 0.0 0.0 0.0 0.0 0.0 0.0 0.0 0.0 0.0 0.0 
1.8 3.051197993110429 -2.0215426868018005 -1.0699390385005454 4.256576339118304 1.5708338830830937 1.5708413700438297 -0.5010309750579511 -0.34742426186952585 0.5205749503540075 -0.17316797790212288 -0.19773869303320543 -0.46036012809969235 -300.0 140.0 300.0 2.2214 2.2214 0.0 0.0 200.0 0.0 0.0 0.0 0.0 0.0 0.0 0.0 0.0 0.0 0.0 
1.808 3.0460882862051775 -2.026960377907896 -1.0618060691763032 4.251284981083963 1.5708336524360162 1.5708415613566016 -0.49944837387549107 -0.35288194739422846 0.5307434198435088 -0.17787858239960663 -0.19829562105463358 -0.458396689702467 -300.0 141.60000000000002 300.0 2.2214 2.2214 0.0 0.0 200.0 0.0 0.0 0.0 0.0 0.0 0.0 0.0 0.0 0.0 0.0 
1.816 3.0409929385514634 -2.032425984670645 -1.0535702203496489 4.245937063654118 1.5708334214666604 1.570841750955695 -0.49785634677505225 -0.35840816373070866 0.5410916943127962 -0.18270046149864522 -0.1988407131485514 -0.45642448784594425 -300.0 143.20000000000005 300.0 2.2214 2.2214 0.0 0.0 200.0 0.0 0.0 0.0 0.0 0.0 0.0 0.0 0.0 0.0 0.0 
1.824 3.0359121136461225 -2.03794025713821 -1.0452295859390184 4.240531579360849 1.5708331901966532 1.57084193884011 -0.49625522659816884 -0.364006786256224 0.5516277406129884 -0.18763770670540725 -0.19937396402222618 -0.4544439158759915 -300.0 144.8 300.0 2.2214 2.2214 0.0 0.0 200.0 0.0 0.0 0.0 0.0 0.0 0.0 0.0 0.0 0.0 0.0 
1.832 3.0308459709344984 -2.043503992887196 -1.0367821649374809 4.23506747231168 1.5708329586474483 1.5708421250092315 -0.49464534270264937 -0.36968192932710203 0.5623600312954486 -0.19269467624649053 -0.1998953719441134 -0.4524553631104982 -300.0 146.40000000000003 300.0 2.2214 2.2214 0.0 0.0 200.0 0.0 0.0 0.0 0.0 0.0 0.0 0.0 0.0 0.0 0.0 
1.84 3.0257946658243884 -2.049118039830733 -1.0282258553816952 4.229543634933483 1.5708327268403341 1.5708423094628234 -0.49302702089208705 -0.3754379654495775 0.5732975858725812 -0.1978760171588844 -0.20040493868835646 -0.4504592147441269 -300.0 148.0 300.0 2.2214 2.2214 0.0 0.0 200.0 0.0 0.0 0.0 0.0 0.0 0.0 0.0 0.0 0.0 0.0 
1.848 3.0207583497017483 -2.05478329925605 -1.0195584478267148 4.223958904452841 1.5708324947964296 1.570842492201022 -0.4914005833498333 -0.38127954641473677 0.584450016274327 -0.20318668961152056 -0.20090266947794022 -0.4484558517583134 -300.0 149.60000000000002 300.0 2.2214 2.2214 0.0 0.0 200.0 0.0 0.0 0.0 0.0 0.0 0.0 0.0 0.0 0.0 0.0 
1.856 3.0157371699481064 -2.060500729115521 -1.0107776182754968 4.218312059085686 1.5708322625366642 1.5708426732243301 -0.4897663485773509 -0.38721162663880554 0.5958275770162784 -0.20863199373309113 -0.2013885729266069 -0.4464456508364316 -300.0 151.20000000000005 300.0 2.2214 2.2214 0.0 0.0 200.0 0.0 0.0 0.0 0.0 0.0 0.0 0.0 0.0 0.0 0.0 
1.864 3.010731269959618 -2.066271347598146 -1.0018809205056056 4.212601813905721 1.5708320300817844 1.570842852533611 -0.488124631336852 -0.39323948898492816 0.6074412206700236 -0.21421759926061917 -0.20186266097958852 -0.44442898428405564 -300.0 152.8 300.0 2.2214 2.2214 0.0 0.0 200.0 0.0 0.0 0.0 0.0 0.0 0.0 0.0 0.0 0.0 0.0 
1.872 3.0057407891677173 -2.0720962370118325 -0.9928657777283205 4.206826816357143 1.57083179745235 1.5708430301300804 -0.48647574259813786 -0.3993687733832421 0.6193026593133566 -0.21994957836959433 -0.20232494885327174 -0.44240621995422197 -300.0 154.40000000000003 300.0 2.2214 2.2214 0.0 0.0 200.0 0.0 0.0 0.0 0.0 0.0 0.0 0.0 0.0 0.0 0.0 
1.88 3.0007658630613117 -2.077976548010749 -0.9837294735069694 4.200985641372778 1.5708315646687219 1.5708432060153021 -0.48481998948954996 -0.40560550861372957 0.6314244327400018 -0.22583444210084327 -0.2027754549738707 -0.44037772117762103 -300.0 156.00000000000006 300.0 2.2214 2.2214 0.0 0.0 200.0 0.0 0.0 0.0 0.0 0.0 0.0 0.0 0.0 0.0 0.0 
1.888 2.99580662321046 -2.08391350420656 -0.9744691418516395 4.195076786053596 1.5708313317510565 1.5708433801911799 -0.48315767525293407 -0.41195614767227473 0.6438199843282421 -0.23187918086310078 -0.20321420091518705 -0.4383438466976197 -300.0 157.60000000000002 300.0 2.2214 2.2214 0.0 0.0 200.0 0.0 0.0 0.0 0.0 0.0 0.0 0.0 0.0 0.0 0.0 
1.896 2.9908631972914774 -2.089908407207566 -0.9650817563962429 4.189098663859582 1.5708310987193106 1.570843552659951 -0.4814890992025255 -0.41842760720624383 0.6565037456088335 -0.23809130956535068 -0.20364121133554605 -0.43630495061002356 -300.0 159.20000000000005 300.0 2.2214 2.2214 0.0 0.0 200.0 0.0 0.0 0.0 0.0 0.0 0.0 0.0 0.0 0.0 0.0 
1.904 2.9859357091134235 -2.095962642135788 -0.9555641185510119 4.183049598255087 1.5708308655932268 1.5708437234241799 -0.47981455668766315 -0.4250273115837486 0.6694912307391848 -0.24447891802173932 -0.2040565139139899 -0.4342613823074928 -300.0 160.8 300.0 2.2214 2.2214 0.0 0.0 200.0 0.0 0.0 0.0 0.0 0.0 0.0 0.0 0.0 0.0 0.0 
1.912 2.981024278645906 -2.1020776836791106 -0.9459128445084196 4.176927815743749 1.5708306323923404 1.570843892486751 -0.478134339059227 -0.4317632422530819 0.6827991422883677 -0.25105072737715817 -0.2044601392858033 -0.4322134864285053 -300.0 162.40000000000003 300.0 2.2214 2.2214 0.0 0.0 200.0 0.0 0.0 0.0 0.0 0.0 0.0 0.0 0.0 0.0 0.0 
1.92 2.976129022048161 -2.1082551027437413 -0.9361243509630373 4.170731438218745 1.5708303991359613 1.5708440598508624 -0.4764487336397119 -0.4386439931585941 0.6964454899724657 -0.25781615342671266 -0.20485212097746103 -0.43016160281077753 -300.0 164.0 300.0 2.2214 2.2214 0.0 0.0 200.0 0.0 0.0 0.0 0.0 0.0 0.0 0.0 0.0 0.0 0.0 
1.928 2.9712500516993376 -2.114496573781863 -0.9261948393852938 4.164458474543225 1.570830165843187 1.5708442255200183 -0.4747580236968275 -0.44567883311042933 0.710449724260451 -0.2647853778518749 -0.2052324953410521 -0.4281060664490367 -300.0 165.60000000000002 300.0 2.2214 2.2214 0.0 0.0 200.0 0.0 0.0 0.0 0.0 0.0 0.0 0.0 0.0 0.0 0.0 
1.936 2.966387476229957 -2.120803882880547 -0.9161202786651075 4.158106811262933 1.5708299325328834 1.570844389498023 -0.47306248842053833 -0.4528777761626653 0.7248328871070521 -0.27196942857520784 -0.20560130148828065 -0.4260472074570513 -300.0 167.2 300.0 2.2214 2.2214 0.0 0.0 200.0 0.0 0.0 0.0 0.0 0.0 0.0 0.0 0.0 0.0 0.0 
1.944 2.9615414005544682 -2.127178936711304 -0.9058963859129614 4.151674202337965 1.5708296992236943 1.5708445517889729 -0.4713624029034313 -0.46025166124355266 0.7396177824739117 -0.279380270651295 -0.20595858122409583 -0.4239853510338067 -300.0 168.8 300.0 2.2214 2.2214 0.0 0.0 200.0 0.0 0.0 0.0 0.0 0.0 0.0 0.0 0.0 0.0 0.0 
1.952 2.956711925904873 -2.133623772455196 -0.8955186051725971 4.145158257762737 1.570829465934027 1.5708447123972507 -0.4696580381243236 -0.46781224251002507 0.7548291697893202 -0.2870309093719635 -0.20630437898003878 -0.4219208174337312 -300.0 170.39999999999998 300.0 2.2214 2.2214 0.0 0.0 200.0 0.0 0.0 0.0 0.0 0.0 0.0 0.0 0.0 0.0 0.0 
1.96 2.9518991498653455 -2.1401405688370962 -0.8849820837596907 4.138556430922143 1.5708292326820619 1.5708448713275172 -0.4679496609350029 -0.4755722921760365 0.7704939840905184 -0.29493550758026055 -0.20663874174735175 -0.41985392194086757 -300.0 172.0 300.0 2.2214 2.2214 0.0 0.0 200.0 0.0 0.0 0.0 0.0 0.0 0.0 0.0 0.0 0.0 0.0 
1.968 2.9471031664078158 -2.146731658424702 -0.8742816458936671 4.13186600450658 1.570828999485738 1.5708450285847062 -0.4662375340500046 -0.4835457179023162 0.7866415873160618 -0.30310951957306453 -0.20696171900994684 -0.41778497484687493 -300.0 173.60000000000002 300.0 2.2214 2.2214 0.0 0.0 200.0 0.0 0.0 0.0 0.0 0.0 0.0 0.0 0.0 0.0 0.0 
1.976 2.942324065928452 -2.153399541374405 -0.8634117632330993 4.125084074778451 1.5708287663627585 1.5708451841740156 -0.4645219160393275 -0.49174769724936496 0.80330405610238 -0.3115698444446564 -0.20727336267727225 -0.41571428143277095 -300.0 175.2 300.0 2.2214 2.2214 0.0 0.0 200.0 0.0 0.0 0.0 0.0 0.0 0.0 0.0 0.0 0.0 0.0 
1.984 2.9375619352849993 -2.1601469008378755 -0.8523665218572412 4.118207533946482 1.5708285333305867 1.5708453381009018 -0.4628030613239878 -0.5001948322053082 0.82051651252984 -0.3203350023049373 -0.2075737270171572 -0.4136421419542946 -300.0 176.8 300.0 2.2214 2.2214 0.0 0.0 200.0 0.0 0.0 0.0 0.0 0.0 0.0 0.0 0.0 0.0 0.0 
1.992 2.9328168578349265 -2.166976620281548 -0.8411395851541055 4.111233050360471 1.5708283004064396 1.570845490371072 -0.46108122017431785 -0.5089053274312347 0.8383175056143213 -0.3294253375256696 -0.2078628685886847 -0.41156885163079243 -300.0 178.40000000000003 300.0 2.2214 2.2214 0.0 0.0 200.0 0.0 0.0 0.0 0.0 0.0 0.0 0.0 0.0 0.0 0.0 
2.0 2.928088913474327 -2.173891803017758 -0.829724151975957 4.104157046186058 1.5708280676072932 1.570845640990478 -0.45935663871090493 -0.51789919665184 0.8567494530210495 -0.33886325406367757 -0.2081408461751583 -0.40949470063751736 -300.0 180.0 300.0 2.2214 2.2214 0.0 0.0 200.0 0.0 0.0 0.0 0.0 -0.0 -1000.0 -0.0 0.0 0.0 0.0 
2.008 2.923472224241443 -2.1807548212564036 -0.8183471030569314 4.097120358572123 1.570827839601528 1.5708457870018881 -0.4393575585050259 -0.5059289947996863 0.8404511928056584 -0.33453452465037753 -0.20006639196663045 -0.39116301355432115 -300.0 181.56799999999998 300.0 2.2214 2.2214 0.0 0.0 192.0 0.0 0.0 0.0 0.0 -0.0 -1000.0 -0.0 0.0 0.0 0.0 
2.016 2.91905956504295 -2.1874210023270804 -0.8072508647720292 4.090272183984583 1.5708276210443977 1.5708459255751799 -0.4195555520022888 -0.4931609859077448 0.8225564442215856 -0.32940713326205273 -0.19195201377781537 -0.3730700815649667 -300.0 183.0719999999999 300.0 2.2214 2.2214 0.0 0.0 184.0 0.0 0.0 0.0 0.0 -0.0 -1000.0 -0.0 0.0 0.0 0.0 
2.024 2.9148490411315224 -2.193882959825007 -0.7964517985996902 4.0836213906960035 1.5708274119307641 1.5708460569003206 -0.39994296039576194 -0.47958990297354187 0.8030449290631412 -0.32346606772251857 -0.18380132942295777 -0.3552061978547068 -300.0 184.51200000000017 300.0 2.2214 2.2214 0.0 0.0 176.0 0.0 0.0 0.0 0.0 -0.0 -1000.0 -0.0 0.0 0.0 0.0 
2.032 2.910838824727536 -2.200133181242106 -0.7859665395568978 4.077176978861904 1.5708272122528624 1.570846181158233 -0.3805120044254016 -0.46521149343145624 0.7818991845815276 -0.31669811689362615 -0.1756176950198188 -0.33756156596457915 -300.0 185.88799999999992 300.0 2.2214 2.2214 0.0 0.0 168.0 0.0 0.0 0.0 0.0 -0.0 -1000.0 -0.0 0.0 0.0 0.0 
2.04 2.907027157450585 -2.206164040778651 -0.7758119641058949 4.070948064149044 1.5708270220007114 1.5708462985208755 -0.36125480131870247 -0.4500228732939028 0.7591052755725805 -0.30909222862187913 -0.16740421859236618 -0.3201263175214613 -300.0 187.2000000000001 300.0 2.2214 2.2214 0.0 0.0 160.0 0.0 0.0 0.0 0.0 -0.0 -1000.0 -0.0 0.0 0.0 0.0 
2.048 2.9034123524908395 -2.2119678164322942 -0.7660051493723401 4.0649438567607845 1.5708268411625201 1.5708464091513308 -0.3421633799034972 -0.43402290719005365 0.7346535640757589 -0.3006398993986187 -0.15916377352268965 -0.3028905277991159 -300.0 188.4480000000002 300.0 2.2214 2.2214 0.0 0.0 152.0 0.0 0.0 0.0 0.0 -0.0 -1000.0 -0.0 0.0 0.0 0.0 
2.056 2.8999927965433314 -2.217536711636943 -0.7565633230539298 4.0591736355187855 1.5708266697250257 1.5708465132038993 -0.3232296940371407 -0.417212610829963 0.7085395291946147 -0.2913355917161273 -0.15089901182083879 -0.2858442292824274 -300.0 189.6320000000002 300.0 2.2214 2.2214 0.0 0.0 144.0 0.0 0.0 0.0 0.0 -0.0 -1000.0 -0.0 0.0 0.0 0.0 
2.064 2.8967669515266845 -2.222862881676962 -0.7475038035014916 4.053646716716284 1.5708265076738541 1.5708466108241979 -0.30444563448784173 -0.39959557085544906 0.6807646261905398 -0.28117717331014747 -0.14261237718822045 -0.26897742339707764 -300.0 190.75200000000018 300.0 2.2214 2.2214 0.0 0.0 136.0 0.0 0.0 0.0 0.0 -0.0 -1000.0 -0.0 0.0 0.0 0.0 
2.072 2.8937333561063054 -2.2279384650360794 -0.7388439295984277 4.048372417535651 1.5708263549938142 1.5708467021492591 -0.285803039395726 -0.3811783753020473 0.6513371702791493 -0.2701663704938431 -0.13430611785648716 -0.25228009055718753 -300.0 191.8080000000001 300.0 2.2214 2.2214 0.0 0.0 128.0 0.0 0.0 0.0 0.0 -0.0 -1000.0 -0.0 0.0 0.0 0.0 
2.08 2.890890627040545 -2.2327556197533847 -0.7306009802527695 4.043360013924154 1.5708262116691927 1.5708467873076337 -0.26729370343338926 -0.36197104604474123 0.6202732265916404 -0.2583092256728718 -0.1259822991893993 -0.23574219867415155 -300.0 192.79999999999993 300.0 2.2214 2.2214 0.0 0.0 120.0 0.0 0.0 0.0 0.0 -0.0 -1000.0 -0.0 0.0 0.0 0.0 
2.088 2.888237460366959 -2.237306564749959 -0.7227920835511826 4.038618692947767 1.5708260776840135 1.5708468664194901 -0.24890938577828192 -0.3419874627157127 0.5875974837265 -0.24561654697869761 -0.11764281604011709 -0.219353710260987 -300.0 193.72800000000012 300.0 2.2214 2.2214 0.0 0.0 112.0 0.0 0.0 0.0 0.0 -0.0 -1000.0 -0.0 0.0 0.0 0.0 
2.096 2.8857726324444437 -2.2415836259592843 -0.7154341159053701 4.034157499793302 1.570825953022288 1.5708469395967146 -0.23064181700223776 -0.32124576577477687 0.5533440844445966 -0.2321043358925347 -0.10928940486076541 -0.20310458825807062 -300.0 194.59199999999984 300.0 2.2214 2.2214 0.0 0.0 104.0 0.0 0.0 0.0 0.0 -0.0 -1000.0 -0.0 0.0 0.0 0.0 
2.104 2.8834950008657136 -2.245579286944168 -0.7085435918451151 4.029985279762133 1.5708258376682291 1.5708470069430076 -0.21248270497688154 -0.29976872481777184 0.5175573836424263 -0.21779417690942218 -0.10092365556501083 -0.18698480069817652 -300.0 195.39199999999994 300.0 2.2214 2.2214 0.0 0.0 96.0 0.0 0.0 0.0 0.0 -0.0 -1000.0 -0.0 0.0 0.0 0.0 
2.112 2.8814035052533993 -2.249286243515784 -0.7021365454717955 4.0261106157909365 1.570825731606454 1.5708470685539782 -0.19442373988749895 -0.27758405698161837 0.4802926011092717 -0.2027135718894885 -0.09254702314779817 -0.17098432432126975 -300.0 196.12799999999996 300.0 2.2214 2.2214 0.0 0.0 88.0 0.0 0.0 0.0 0.0 -0.0 -1000.0 -0.0 0.0 0.0 0.0 
2.12 2.879497167951812 -2.2526974616919384 -0.6962284049699757 4.022541762239758 1.570825634822174 1.5708471245172324 -0.17645659844223752 -0.25472467961592865 0.4416163350956381 -0.18689620095389867 -0.08416083906939549 -0.15509314724255774 -300.0 196.79999999999993 300.0 2.2214 2.2214 0.0 0.0 80.0 0.0 0.0 0.0 0.0 -0.0 -1000.0 -0.0 0.0 0.0 0.0 
2.128 2.8777750946253553 -2.255806238148728 -0.6908338619679473 4.019286575897624 1.5708255473013573 1.5708471749124582 -0.15857294735825445 -0.2312288814068337 0.4016069027498698 -0.17038209179671804 -0.07576632241352677 -0.13930127077087937 -300.0 197.40799999999984 300.0 2.2214 2.2214 0.0 0.0 72.0 0.0 0.0 0.0 0.0 -0.0 -1000.0 -0.0 0.0 0.0 0.0 
2.136 2.876236474773452 -2.2586062621416616 -0.6859667379209357 4.016352445360321 1.5708254690308763 1.5708472198115042 -0.14076444620159403 -0.20714039700764214 0.36035447533526044 -0.15321768027040497 -0.06736459083163648 -0.12359871046860338 -300.0 197.9520000000001 300.0 2.2214 2.2214 0.0 0.0 64.0 0.0 0.0 0.0 0.0 -0.0 -1000.0 -0.0 0.0 0.0 0.0 
2.144 2.8748805821708636 -2.2610916777093766 -0.6816398500410453 4.01374622012195 1.5708253999986468 1.5708472592784521 -0.12302274965319442 -0.18250837206167864 0.31796098005390383 -0.1354557471858356 -0.05895667128731725 -0.10797549653882726 -300.0 198.4319999999999 300.0 2.2214 2.2214 0.0 0.0 56.0 0.0 0.0 0.0 0.0 -0.0 -1000.0 -0.0 0.0 0.0 0.0 
2.152 2.873706775241261 -2.2632571448370276 -0.6778648795909047 4.011474140878242 1.5708253401937284 1.5708472933696844 -0.1053395092694617 -0.15738720834391254 0.2745397463804794 -0.11715521950344392 -0.050543510616627235 -0.09242167362079182 -300.0 198.84800000000007 300.0 2.2214 2.2214 0.0 0.0 48.0 0.0 0.0 0.0 0.0 -0.0 -1000.0 -0.0 0.0 0.0 0.0 
2.16 2.872714497371015 -2.265097898158478 -0.6746522455690598 4.009541772652479 1.57082528960645 1.570847322133942 -0.08770637480232107 -0.1318362825692091 0.23021488298381193 -0.09838082844549778 -0.04212598592146995 -0.07692730007008862 -300.0 199.20000000000016 300.0 2.2214 2.2214 0.0 0.0 40.0 0.0 0.0 0.0 0.0 -0.0 -1000.0 -0.0 0.0 0.0 0.0 
2.168 2.8719032771692286 -2.2666098017278884 -0.6720109869207812 4.007953942411345 1.5708252482284757 1.5708473456123777 -0.07011499514052875 -0.10591953709401465 0.18512038132502454 -0.07920262239151092 -0.03370491481445396 -0.06148244679637131 -300.0 199.4880000000001 300.0 2.2214 2.2214 0.0 0.0 32.0 0.0 0.0 0.0 0.0 -0.0 -1000.0 -0.0 0.0 0.0 0.0 
2.176 2.8712727286791835 -2.267789398400346 -0.6699486563900001 4.006714682828867 1.5708252160528877 1.5708473638386005 -0.05255701893132453 -0.07970494605655133 0.13939895340088726 -0.05969533848033063 -0.025281065534666074 -0.04607719572794603 -300.0 199.71200000000005 300.0 2.2214 2.2214 0.0 0.0 24.0 0.0 0.0 0.0 0.0 -0.0 -1000.0 -0.0 0.0 0.0 0.0 
2.184 2.8708225515455283 -2.268633952434038 -0.6684712289738131 4.005827183774704 1.5708251930742518 1.570847376838712 -0.03502409493919371 -0.05326386615172229 0.09320062319376302 -0.039937643284098885 -0.016855166954648986 -0.0307016379697564 -300.0 199.87199999999996 300.0 2.2214 2.2214 0.0 0.0 16.0 0.0 0.0 0.0 0.0 -0.0 -1000.0 -0.0 0.0 0.0 0.0 
2.192 2.8705525311407203 -2.269141484064595 -0.6675830276467903 4.005293752946495 1.5708251792886454 1.570847384631335 -0.01750787219659686 -0.026670286846535635 0.046681103394075246 -0.020011259314207393 -0.008427918499558549 -0.015345871718908983 -300.0 199.9679999999998 300.0 2.2214 2.2214 0.0 0.0 8.0 0.0 0.0 0.0 0.0 -0.0 -1000.0 -0.0 0.0 0.0 0.0 
2.2 2.87046253865341 -2.269310795003058 -0.6672866685941197 4.005115786838309 1.5708251746937083 1.570847387227636 0.0 0.0 0.0 0.0 0.0 0.0 -300.0 200.0 300.0 2.2214 2.2214 0.0 0.0 0.0 0.0 0.0 0.0 0.0 -0.0 -1000.0 -0.0 0.0 0.0 0.0 
