Fleaurent/UniversalRobot/csv/robolib_movej_Dreieck_Zeit.csv
timestamp target_q_0 target_q_1 target_q_2 target_q_3 target_q_4 target_q_5 target_qd_0 target_qd_1 target_qd_2 target_qd_3 target_qd_4 target_qd_5 target_qdd_0 target_qdd_1 target_qdd_2 target_qdd_3 target_qdd_4 target_qdd_5 target_TCP_pose_0 target_TCP_pose_1 target_TCP_pose_2 target_TCP_pose_3 target_TCP_pose_4 target_TCP_pose_5 target_TCP_speed_0 target_TCP_speed_1 target_TCP_speed_2 target_TCP_speed_3 target_TCP_speed_4 target_TCP_speed_5
0.0 0.0 -1.5707963267948966 -1.5707963267948966 0.0 1.5707963267948966 0.0 0.0 0.0 0.0 0.0 0.0 0.0 0.23271056693257725 0.0 0.0 0.0 0.0 0.0 295.15 -112.34999999999998 480.9 -1.2091995761561454 1.2091995761561456 -1.2091995761561458 0.0 0.0 0.0 0.0 0.0 0.0 
0.008 7.446738141842471e-06 -1.5707963267948966 -1.5707963267948966 0.0 1.5707963267948966 0.0 0.001861684535460618 0.0 0.0 0.0 0.0 0.0 0.23271056693257725 0.0 0.0 0.0 0.0 0.0 295.15083663284656 -112.34780209212231 480.9 -1.2092030969625922 1.2091940923772966 -1.2091940923772968 -0.6124942121495607 -4.561084011322553e-06 0.5494761906412012 1.3863477238164737e-08 -0.0018616845354089992 1.1399530036869866e-19 
0.016 2.9786952567369885e-05 -1.5707963267948966 -1.5707963267948966 0.0 1.5707963267948966 0.0 0.003723369070921236 0.0 0.0 0.0 0.0 0.0 0.23271056693257725 0.0 0.0 0.0 0.0 0.0 295.15334643318266 -112.34120833110906 480.9 -1.2092136592710256 1.2091776410175474 -1.2091776410175479 -1.2249884237896436 -3.64886720857237e-05 1.0989523812824027 1.1090781788994221e-07 -0.0037233690692694333 2.279906007373973e-19 
0.024 6.702064327658225e-05 -1.5707963267948966 -1.5707963267948966 0.0 1.5707963267948966 0.0 0.005585053606381854 0.0 0.0 0.0 0.0 0.0 0.23271056693257725 0.0 0.0 0.0 0.0 0.0 295.157529106394 -112.33021860482673 480.9 -1.2092312627487243 1.2091502220072958 -1.209150222007296 -1.8374826323728584 -0.00012314926821546166 1.648428571923604 3.743138851536857e-07 -0.005585053593838475 3.4198590110609595e-19 
0.032 0.00011914781026947954 -1.5707963267948966 -1.5707963267948966 0.0 1.5707963267948966 0.0 0.007446738141842472 0.0 0.0 0.0 0.0 0.0 0.23271056693257725 0.0 0.0 0.0 0.0 0.0 295.16338416144777 -112.31483272641059 480.9 -1.2092559068411588 1.209111835230541 -1.2091118352305417 -2.449976831275992 -0.00029190937603869267 2.1979047625648054 8.872625411514507e-07 -0.0074467380889847775 4.559812014747946e-19 
0.04 0.0001861684535460618 -1.5707963267948966 -1.5707963267948966 0.0 1.5707963267948966 0.0 0.00930842267730309 0.0 0.0 0.0 0.0 0.0 0.23271056693257725 0.0 0.0 0.0 0.0 0.0 295.17091091087843 -112.29505043430117 480.9 -1.2092875907719982 1.209062480524895 -1.2090624805248953 -3.0624710077620945 -0.0005701354981312674 2.747380953206007 1.7329346447764004e-06 -0.009308422515994208 5.699765018434933e-19 
0.048 0.000268082573106329 -1.5707963267948966 -1.5707963267948966 0.0 1.5707963267948966 0.0 0.011170107212763708 0.0 0.0 0.0 0.0 0.0 0.23271056693257725 0.0 0.0 0.0 0.0 0.0 295.1801084707684 -112.2708713922956 480.9 -1.209326313543123 1.2090021576815906 -1.2090021576815908 -3.67496514094257 -0.0009851941346611433 3.296857143847208 2.994511047602873e-06 -0.011170106811375593 6.839718022121919e-19 
0.056 0.00036489016895028116 -1.5707963267948966 -1.5707963267948966 0.0 1.5707963267948966 0.0 0.013031791748224325 0.0 0.0 0.0 0.0 0.0 0.23271056693257725 0.0 0.0 0.0 0.0 0.0 295.19097576072295 -112.24229518961316 480.9 -1.2093720739346374 1.2089308664454979 -1.2089308664454983 -4.287459199739263 -0.0015644517811929535 3.8463333344884103 4.75517258721334e-06 -0.013031790880666453 7.979671025808905e-19 
0.064 0.00047659124107791816 -1.5707963267948966 -1.5707963267948966 0.0 1.5707963267948966 0.0 0.014893476283684945 0.0 0.0 0.0 0.0 0.0 0.23271056693257725 0.0 0.0 0.0 0.0 0.0 295.2035115038396 -112.20932134097602 480.9 -1.2094248705048907 1.2088486065151436 -1.2088486065151438 -4.899953140846549 -0.002335274925430268 4.395809525129611 7.098100077296466e-06 -0.01489347459223875 9.119624029495893e-19 
0.072 0.0006031857894892404 -1.5707963267948966 -1.5707963267948966 0.0 1.5707963267948966 0.0 0.016755160819145562 0.0 0.0 0.0 0.0 0.0 0.23271056693257725 0.0 0.0 0.0 0.0 0.0 295.2177142266721 -112.17194928670419 480.9 -1.2094847015904922 1.2087553775427262 -1.2087553775427264 -5.512446906693424 -0.0033250300426830933 4.9452857157708126 1.0106474293870505e-05 -0.01675515777110463 1.025957703318288e-18 
0.08 0.0007446738141842472 -1.5707963267948966 -1.5707963267948966 0.0 1.5707963267948966 0.0 0.01861684535460618 0.0 0.0 0.0 0.0 0.0 0.23271056693257725 0.0 0.0 0.0 0.0 0.0 295.23358225918867 -112.13017839282531 480.9 -1.2095515653063402 1.2086511791341452 -1.2086511791341454 -6.124940423405598 -0.004561083589848133 5.494761906412012 1.386347595698623e-05 -0.01861684019272218 1.1399530036869865e-18 
0.088 0.000901055315162939 -1.5707963267948966 -1.5707963267948966 0.0 1.5707963267948966 0.0 0.020478529890066797 0.0 0.0 0.0 0.0 0.0 0.23271056693257725 0.0 0.0 0.0 0.0 0.0 295.25111373472504 -112.084007951199 480.9 -1.2096254595456475 1.2085360108490264 -1.2085360108490266 -6.737433598767588 -0.00607080199768938 6.044238097053214 1.845228570726368e-05 -0.02047852157680118 1.2539483040556852e-18 
0.096 0.001072330292425316 -1.5707963267948966 -1.5707963267948966 0.0 1.5707963267948966 0.0 0.022340214425527416 0.0 0.0 0.0 0.0 0.0 0.23271056693257725 0.0 0.0 0.0 0.0 0.0 295.2703065899314 -112.03343717965583 480.9 -1.2097063819799718 1.2084098722007524 -1.2084098722007526 -7.3499263201848155 -0.007881551661206545 6.593714287694416 2.3956084076616863e-05 -0.022340201581108863 1.3679436044243838e-18 
0.104 0.001258498745971378 -1.5707963267948966 -1.5707963267948966 0.0 1.5707963267948966 0.0 0.024201898960988035 0.0 0.0 0.0 0.0 0.0 0.23271056693257725 0.0 0.0 0.0 0.0 0.0 295.29115856471464 -111.97846522215121 480.9 -1.209794330059249 1.2082727626564966 -1.2082727626564969 -7.962418452645715 -0.010020698927878876 7.143190478335618 3.045805145252071e-05 -0.024201879795275726 1.4819389047930824e-18 
0.112 0.0014595606758011246 -1.5707963267948966 -1.5707963267948966 0.0 1.5707963267948966 0.0 0.02606358349644865 0.0 0.0 0.0 0.0 0.0 0.23271056693257725 0.0 0.0 0.0 0.0 0.0 295.31366720217454 -111.91909114893346 480.9 -1.2098893010118317 1.208124681637259 -1.2081246816372593 -8.574909836683828 -0.012515610083571922 7.692666668976819 3.804136803517445e-05 -0.026063555734601302 1.595934205161781e-18 
0.12 0.001675516081914556 -1.5707963267948966 -1.5707963267948966 0.0 1.5707963267948966 0.0 0.02792526803190927 0.0 0.0 0.0 0.0 0.0 0.23271056693257725 0.0 0.0 0.0 0.0 0.0 295.3378298485347 -111.85531395672706 480.9 -1.2099912918445241 1.2079656285179061 -1.2079656285179066 -9.187400286339946 -0.015393651335894775 8.242142859618022 4.6789213786915744e-05 -0.027925228833860023 1.7099295055304797e-18 
0.128 0.0019063649643116726 -1.5707963267948966 -1.5707963267948966 0.0 1.5707963267948966 0.0 0.02978695256736989 0.0 0.0 0.0 0.0 0.0 0.23271056693257725 0.0 0.0 0.0 0.0 0.0 295.3636436530678 -111.78713256893016 480.9 -1.2101002993426329 1.207795602627216 -1.2077956026272163 -9.799889587124213 -0.01868218879479532 8.791619050259222 5.67847683732397e-05 -0.02978689844110703 1.8239248058991785e-18 
0.136 0.0021521073229924747 -1.5707963267948966 -1.5707963267948966 0.0 1.5707963267948966 0.0 0.03164863710283051 0.0 0.0 0.0 0.0 0.0 0.23271056693257725 0.0 0.0 0.0 0.0 0.0 295.39110556801614 -111.71454583582714 480.9 -1.210216320070007 1.2076146032479231 -1.2076146032479236 -10.41237749397828 -0.022408588450181066 9.341095240900424 6.811121109477702e-05 -0.031648563811484134 1.937920106267877e-18 
0.144 0.0024127431579569615 -1.5707963267948966 -1.5707963267948966 0.0 1.5707963267948966 0.0 0.033510321638291124 0.0 0.0 0.0 0.0 0.0 0.23271056693257725 0.0 0.0 0.0 0.0 0.0 295.42021234850586 -111.63755253481547 480.9 -1.2103393503690887 1.2074226296167663 -1.2074226296167667 -11.02486372923746 -0.026600216146353037 9.890571431541625 8.085172080958554e-05 -0.033510224101025714 2.051915406636576e-18 
0.152 0.0026882724692051324 -1.5707963267948966 -1.5707963267948966 0.0 1.5707963267948966 0.0 0.03537200617375174 0.0 0.0 0.0 0.0 0.0 0.23271056693257725 0.0 0.0 0.0 0.0 0.0 295.4509605524564 -111.5561513706476 480.9 -1.2104693863609695 1.2072196809245452 -1.2072196809245455 -11.637347980592905 -0.03128443755304044 10.440047622182828 9.508947584510966e-05 -0.03537187836046476 2.165910707005274e-18 
0.16 0.002978695256736989 -1.5707963267948966 -1.5707963267948966 0.0 1.5707963267948966 0.0 0.03723369070921236 0.0 0.0 0.0 0.0 0.0 0.23271056693257725 0.0 0.0 0.0 0.0 0.0 295.4833465404844 -111.47034097568738 480.9 -1.2106064239454422 1.2070057563161734 -1.2070057563161736 -12.249829899053807 -0.036488618132823426 10.989523812824029 0.00011090765389916141 -0.03723352552903893 2.279906007373973e-18 
0.168 0.00328401152055253 -1.5707963267948966 -1.5707963267948966 0.0 1.5707963267948966 0.0 0.03909537524467298 0.0 0.0 0.0 0.0 0.0 0.23271056693257725 0.0 0.0 0.0 0.0 0.0 295.51736647580225 -111.3801199101813 480.9 -1.2107504588010605 1.206780854890737 -1.2067808548907373 -12.862309096909621 -0.04224012310473171 11.539000003465228 0.00012838943192927785 -0.039095164428296726 2.3939013077426717e-18 
0.176 0.003604221260651756 -1.5707963267948966 -1.5707963267948966 0.0 1.5707963267948966 0.0 0.040957059780133594 0.0 0.0 0.0 0.0 0.0 0.23271056693257725 0.0 0.0 0.0 0.0 0.0 295.5530163241117 -111.28548666254437 480.9 -1.2109014863852028 1.2065449757015596 -1.2065449757015598 -13.474785145692339 -0.04856631740380643 12.088476194106429 0.00014761798602980905 -0.04095679375590376 2.5078966081113704e-18 
0.184 0.003939324477034667 -1.5707963267948966 -1.5707963267948966 0.0 1.5707963267948966 0.0 0.04281874431559421 0.0 0.0 0.0 0.0 0.0 0.23271056693257725 0.0 0.0 0.0 0.0 0.0 295.59029185349164 -111.18643964966071 480.9 -1.2110595019341353 1.206298117756264 -1.2062981177562642 -14.087257574138766 -0.0554945656364131 12.637952384747633 0.00016867649129609081 -0.042818412079449135 2.6218919084800686e-18 
0.192 0.004289321169701264 -1.5707963267948966 -1.5707963267948966 0.0 1.5707963267948966 0.0 0.04468042885105483 0.0 0.0 0.0 0.0 0.0 0.23271056693257725 0.0 0.0 0.0 0.0 0.0 295.6291886342808 -111.08297721719917 480.9 -1.211224500463082 1.2060402800168437 -1.206040280016844 -14.699725866152889 -0.0630522320310928 13.18742857538883 0.00019164812167505655 -0.044680017830251946 2.7358872088487676e-18 
0.2 0.004654211338651546 -1.5707963267948966 -1.5707963267948966 0.0 1.5707963267948966 0.0 0.046542113386515455 0.0 0.0 0.0 0.0 0.0 0.23271056693257725 0.0 0.0 0.0 0.0 0.0 295.669702038956 -110.97509763994326 480.9 -1.211396476766297 1.205771461399733 -1.2057714613997332 -15.312189458768252 -0.07126668038473953 13.736904766030033 0.0002166160498016425 -0.04654160929716794 2.8498825092174666e-18 
0.208 0.005033994983885512 -1.5707963267948966 -1.5707963267948966 0.0 1.5707963267948966 0.0 0.04840379792197607 0.0 0.0 0.0 0.0 0.0 0.23271056693257725 0.0 0.0 0.0 0.0 0.0 295.71182724200406 -110.8627991221363 480.9 -1.2115754254171358 1.2054916607758817 -1.2054916607758819 -15.924647740110418 -0.0801652740038913 14.286380956671236 0.00024366344682034098 -0.0484031846203964 2.963877809586165e-18 
0.216 0.005428672105403162 -1.5707963267948966 -1.5707963267948966 0.0 1.5707963267948966 0.0 0.050265482457436686 0.0 0.0 0.0 0.0 0.0 0.23271056693257725 0.0 0.0 0.0 0.0 0.0 295.7555592197892 -110.74607979784103 480.9 -1.2117613407681371 1.205200876970834 -1.2052008769708344 -16.537100047359473 -0.08977537564092233 14.83585714731244 0.0002728734821912561 -0.05026474178528715 3.0778731099548635e-18 
0.224 0.0058382427032044985 -1.5707963267948966 -1.5707963267948966 0.0 1.5707963267948966 0.0 0.0521271669928973 0.0 0.0 0.0 0.0 0.0 0.23271056693257725 0.0 0.0 0.0 0.0 0.0 295.8008927504155 -110.62493773131423 480.9 -1.2119542169511006 1.2048991087648082 -1.2048991087648087 -17.14954566471264 -0.10012434742492422 15.385333337953638 0.0003043293234800157 -0.052126278616147846 3.191868410323562e-18 
0.232 0.006262706777289519 -1.5707963267948966 -1.5707963267948966 0.0 1.5707963267948966 0.0 0.053988851528357924 0.0 0.0 0.0 0.0 0.0 0.23271056693257725 0.0 0.0 0.0 0.0 0.0 295.84782241358425 -110.4993709173961 480.9 -1.2121540478771735 1.2045863548927824 -1.2045863548927827 -17.76198382134694 -0.11123955078706338 15.93480952859484 0.00033811413613089473 -0.05398779277005149 3.305863710692261e-18 
0.24 0.006702064327658224 -1.5707963267948966 -1.5707963267948966 0.0 1.5707963267948966 0.0 0.05585053606381854 0.0 0.0 0.0 0.0 0.0 0.23271056693257725 0.0 0.0 0.0 0.0 0.0 295.89634259044567 -110.36937728191444 480.9 -1.2123608272369366 1.2042626140445798 -1.20426261404458 -18.374413689381953 -0.12314834638020289 16.48428571923604 0.0003743110832225043 -0.05584928173064424 3.4198590110609594e-18 
0.248 0.007156315354310615 -1.5707963267948966 -1.5707963267948966 0.0 1.5707963267948966 0.0 0.057712220599279156 0.0 0.0 0.0 0.0 0.0 0.23271056693257725 0.0 0.0 0.0 0.0 0.0 295.9464474634466 -110.2349546821036 480.9 -1.212574548500493 1.2039278848649604 -1.2039278848649606 -18.98683438184271 -0.13587809399257586 17.033761909877242 0.00041300332520540097 -0.05771074280195352 3.533854311429658e-18 
0.256 0.0076254598572466905 -1.5707963267948966 -1.5707963267948966 0.0 1.5707963267948966 0.0 0.05957390513473978 0.0 0.0 0.0 0.0 0.0 0.23271056693257725 0.0 0.0 0.0 0.0 0.0 295.99813101617247 -110.09610090703858 480.9 -1.2127952049175654 1.2035821659537151 -1.2035821659537154 -19.599244950622673 -0.14945615245529834 17.58323810051845 0.00045427401962097087 -0.05957217310219657 3.647849611798357e-18 
0.264 0.008109497836466454 -1.5707963267948966 -1.5707963267948966 0.0 1.5707963267948966 0.0 0.061435589670200394 0.0 0.0 0.0 0.0 0.0 0.23271056693257725 0.0 0.0 0.0 0.0 0.0 296.0513870331848 -109.95281367808364 480.9 -1.2130227895175887 1.2032254558657611 -1.2032254558657616 -20.21164438444684 -0.1639098795435093 18.132714291159644 0.0004982063208009436 -0.06143356955758918 3.761844912167056e-18 
0.272 0.008608429291969899 -1.5707963267948966 -1.5707963267948966 0.0 1.5707963267948966 0.0 0.06329727420566102 0.0 0.0 0.0 0.0 0.0 0.23271056693257725 0.0 0.0 0.0 0.0 0.0 296.1062090998543 -109.80509064935619 480.9 -1.2132572951098108 1.2028577531112412 -1.2028577531112414 -20.824031606835035 -0.17926663187092548 18.68219048180085 0.0005448833795468895 -0.06329492889615512 3.875840212535754e-18 
0.28 0.00912225422375703 -1.5707963267948966 -1.5707963267948966 0.0 1.5707963267948966 0.0 0.06515895874112164 0.0 0.0 0.0 0.0 0.0 0.23271056693257725 0.0 0.0 0.0 0.0 0.0 296.1625906021879 -109.65292940820517 480.9 -1.2134987142833955 1.2024790561556271 -1.2024790561556273 -21.4364054740653 -0.19555376477759873 19.23166667244205 0.0005943883427890575 -0.06515624764153587 3.989835512904453e-18 
0.288 0.009650972631827846 -1.5707963267948966 -1.5707963267948966 0.0 1.5707963267948966 0.0 0.06702064327658225 0.0 0.0 0.0 0.0 0.0 0.23271056693257725 0.0 0.0 0.0 0.0 0.0 296.22052472665223 -109.49632747570473 480.9 -1.213747039407529 1.2020893634198269 -1.202089363419827 -22.048764773137478 -0.21279863221066359 19.781142863083247 0.0006468043532239052 -0.06701752210680084 4.103830813273152e-18 
0.296 0.010194584516182343 -1.5707963267948966 -1.5707963267948966 0.0 1.5707963267948966 0.0 0.06888232781204286 0.0 0.0 0.0 0.0 0.0 0.23271056693257725 0.0 0.0 0.0 0.0 0.0 296.28000445999226 -109.33528230716271 480.9 -1.2140022626315268 1.2016886732802912 -1.2016886732802914 -22.661108219737002 -0.23102858659786338 20.33061905372445 0.0007022145489296796 -0.06887874838825837 4.2178261136418495e-18 
0.304 0.01075308987682053 -1.5707963267948966 -1.5707963267948966 0.0 1.5707963267948966 0.0 0.07074401234750348 0.0 0.0 0.0 0.0 0.0 0.23271056693257725 0.0 0.0 0.0 0.0 0.0 296.34102258904437 -109.16979129264404 480.9 -1.2142643758849476 1.201276984069127 -1.2012769840691273 -23.273434456198867 -0.25027097871364185 20.880095244365645 0.0007607020629594016 -0.07073992235926707 4.331821414010548e-18 
0.312 0.0113264887137424 -1.5707963267948966 -1.5707963267948966 0.0 1.5707963267948966 0.0 0.0726056968829641 0.0 0.0 0.0 0.0 0.0 0.23271056693257725 0.0 0.0 0.0 0.0 0.0 296.4035717005465 -108.99985175750919 480.9 -1.2145333708777053 1.200854294074212 -1.2008542940742122 -23.885742049471816 -0.270553157537588 21.429571435006853 0.0008223500229106059 -0.07260103966404807 4.4458167143792475e-18 
0.32 0.011914781026947955 -1.5707963267948966 -1.5707963267948966 0.0 1.5707963267948966 0.0 0.07446738141842472 0.0 0.0 0.0 0.0 0.0 0.23271056693257725 0.0 0.0 0.0 0.0 0.0 296.4676441809419 -108.82546096296771 480.9 -1.214809239100188 1.2004206015393113 -1.2004206015393115 -24.498029489082793 -0.2919024701050242 21.979047625648057 0.0008872415504712022 -0.07446209571149785 4.559812014747946e-18 
0.328 0.012517966816437198 -1.5707963267948966 -1.5707963267948966 0.0 1.5707963267948966 0.0 0.07632906595388533 0.0 0.0 0.0 0.0 0.0 0.23271056693257725 0.0 0.0 0.0 0.0 0.0 296.53323221618007 -108.64661610664652 480.9 -1.2150919718233815 1.1999759046642033 -1.1999759046642038 -25.11029518510162 -0.3143462613495218 22.52852381628926 0.0009554597609407999 -0.07632308566900188 4.673807315116644e-18 
0.336 0.01313604608221012 -1.5707963267948966 -1.5707963267948966 0.0 1.5707963267948966 0.0 0.07819075048934596 0.0 0.0 0.0 0.0 0.0 0.23271056693257725 0.0 0.0 0.0 0.0 0.0 296.6003277915121 -108.46331432317366 480.9 -1.215381560098989 1.1995202016047974 -1.1995202016047977 -25.722537466106022 -0.3379118739371361 23.078000006930456 0.0010270877627268618 -0.0781840044562493 4.7878026154853434e-18 
0.344 0.013769018824266734 -1.5707963267948966 -1.5707963267948966 0.0 1.5707963267948966 0.0 0.08005243502480658 0.0 0.0 0.0 0.0 0.0 0.23271056693257725 0.0 0.0 0.0 0.0 0.0 296.66892269128243 -108.27555268477671 480.9 -1.215677994759561 1.1990534904732655 -1.1990534904732657 -26.334754577146875 -0.3626266480921461 23.62747619757166 0.001102208656815038 -0.08004484673904824 4.901797915854042e-18 
0.352 0.014416885042607025 -1.5707963267948966 -1.5707963267948966 0.0 1.5707963267948966 0.0 0.08191411956026719 0.0 0.0 0.0 0.0 0.0 0.23271056693257725 0.0 0.0 0.0 0.0 0.0 296.73900849871603 -108.08332820189658 480.9 -1.2159812664186223 1.198575769338171 -1.1985757693381711 -26.9469446777138 -0.38851792141408675 24.176952388212857 0.0011809055362130341 -0.08190560692314225 5.015793216222741e-18 
0.36 0.015079644737231005 -1.5707963267948966 -1.5707963267948966 0.0 1.5707963267948966 0.0 0.08377580409572781 0.0 0.0 0.0 0.0 0.0 0.23271056693257725 0.0 0.0 0.0 0.0 0.0 296.8105765957014 -107.8866378238162 480.9 -1.2162913654708087 1.1980870362246023 -1.1980870362246026 -27.559105839701214 -0.41561302868586586 24.726428578854062 0.001263261485367378 -0.083766279148028 5.129788516591439e-18 
0.368 0.01575729790813867 -1.5707963267948966 -1.5707963267948966 0.0 1.5707963267948966 0.0 0.08563748863118842 0.0 0.0 0.0 0.0 0.0 0.23271056693257725 0.0 0.0 0.0 0.0 0.0 296.88361816256895 -107.68547843930456 480.9 -1.216608282091998 1.197587289114307 -1.1975872891143071 -28.171236045374563 -0.44393930167274737 25.27590476949526 0.0013493595795524282 -0.08562685728077374 5.243783816960137e-18 
0.376 0.01644984455533002 -1.5707963267948966 -1.5707963267948966 0.0 1.5707963267948966 0.0 0.08749917316664904 0.0 0.0 0.0 0.0 0.0 0.23271056693257725 0.0 0.0 0.0 0.0 0.0 296.95812417786675 -107.47984687727573 480.9 -1.2169320062394535 1.1970765259458347 -1.197076525945835 -28.783333185337145 -0.4735240689119956 25.825380960136457 0.0014392828842309943 -0.08748733490983936 5.3577791173288366e-18 
0.384 0.017157284678805056 -1.5707963267948966 -1.5707963267948966 0.0 1.5707963267948966 0.0 0.08936085770210966 0.0 0.0 0.0 0.0 0.0 0.23271056693257725 0.0 0.0 0.0 0.0 0.0 297.0340854181304 -107.26973990746309 480.9 -1.217262527651962 1.1965547446146756 -1.196554744614676 -29.39539505649726 -0.5043946554929641 26.374857150777665 0.0015331144543859142 -0.08934770533889745 5.471774417697535e-18 
0.392 0.017879618278563776 -1.5707963267948966 -1.5707963267948966 0.0 1.5707963267948966 0.0 0.09122254223757029 0.0 0.0 0.0 0.0 0.0 0.23271056693257725 0.0 0.0 0.0 0.0 0.0 297.11149245765023 -107.05515424110895 480.9 -1.2175998358499807 1.1960219429734082 -1.1960219429734087 -30.007419360035858 -0.5365783828274207 26.92433334141887 0.0016309373338219521 -0.09120796158065611 5.585769718066234e-18 
0.4 0.018616845354606185 -1.5707963267948966 -1.5707963267948966 0.0 1.5707963267948966 0.0 0.09308422677303091 0.0 0.0 0.0 0.0 0.0 0.23271056693257725 0.0 0.0 0.0 0.0 0.0 297.1903356682342 -106.836086531669 480.9 -1.2179439201357833 1.1954781188318455 -1.1954781188318457 -30.619403699374665 -0.5701025684098942 27.473809532060066 0.0017328345544373731 -0.09306809635068287 5.699765018434933e-18 
0.408 0.019368965906932274 -1.5707963267948966 -1.5707963267948966 0.0 1.5707963267948966 0.0 0.09494591130849152 0.0 0.0 0.0 0.0 0.0 0.23271056693257725 0.0 0.0 0.0 0.0 0.0 297.27060521896703 -106.61253337553242 480.9 -1.2182947695936115 1.1949232699571863 -1.1949232699571868 -31.231345578144857 -0.6049945255678344 28.023285722701264 0.0018388891354645474 -0.09492810206123056 5.813760318803631e-18 
0.416 0.02013597993554205 -1.5707963267948966 -1.5707963267948966 0.0 1.5707963267948966 0.0 0.09680759584395214 0.0 0.0 0.0 0.0 0.0 0.23271056693257725 0.0 0.0 0.0 0.0 0.0 297.3522910759658 -106.38449131275705 480.9 -1.2186523730898267 1.1943573940741703 -1.1943573940741705 -31.843242398156274 -0.6412815632013729 28.572761913342468 0.00194918408267895 -0.09678797081506467 5.92775561917233e-18 
0.424 0.020917887440435504 -1.5707963267948966 -1.5707963267948966 0.0 1.5707963267948966 0.0 0.09866928037941275 0.0 0.0 0.0 0.0 0.0 0.23271056693257725 0.0 0.0 0.0 0.0 0.0 297.43538300213146 -106.15195682781994 480.9 -1.2190167192730685 1.193780488865234 -1.1937804888652344 -32.455091457367224 -0.6789909855124694 29.12223810398367 0.0020638023875759 -0.09864769439929248 6.0417509195410284e-18 
0.432 0.021714688421612647 -1.5707963267948966 -1.5707963267948966 0.0 1.5707963267948966 0.0 0.10053096491487337 0.0 0.0 0.0 0.0 0.0 0.23271056693257725 0.0 0.0 0.0 0.0 0.0 297.51987055689733 -105.91492635038304 480.9 -1.219387796574413 1.193192551970671 -1.1931925519706712 -33.066889947854946 -0.718150091723242 29.67171429462488 0.0021828270265144187 -0.10050726427919436 6.155746219909727e-18 
0.44 0.022526382879073478 -1.5707963267948966 -1.5707963267948966 0.0 1.5707963267948966 0.0 0.102392649450334 0.0 0.0 0.0 0.0 0.0 0.23271056693257725 0.0 0.0 0.0 0.0 0.0 297.6057430959736 -105.67339625607457 480.9 -1.2197655932075324 1.1925935809887926 -1.1925935809887929 -33.678634953786684 -0.7587861757832579 30.221190485266074 0.0023063409598275374 -0.10236667159205678 6.269741520278426e-18 
0.448 0.023352970812817994 -1.5707963267948966 -1.5707963267948966 0.0 1.5707963267948966 0.0 0.1042543339857946 0.0 0.0 0.0 0.0 0.0 0.23271056693257725 0.0 0.0 0.0 0.0 0.0 297.692989771089 -105.42736286728544 480.9 -1.2201500971688635 1.1919835734760973 -1.1919835734760975 -34.29032344939153 -0.8009265260655845 30.770666675907275 0.002434427130898439 -0.10422590714100767 6.383736820647124e-18 
0.456 0.02419445222284619 -1.5707963267948966 -1.5707963267948966 0.0 1.5707963267948966 0.0 0.10611601852125523 0.0 0.0 0.0 0.0 0.0 0.23271056693257725 0.0 0.0 0.0 0.0 0.0 297.7815995297286 -105.17682245398125 480.9 -1.2205412962377724 1.1913625269474348 -1.191362526947435 -34.90195229693298 -0.8445984250513838 31.320142866548476 0.0025671684652017806 -0.10608496138885405 6.497732121015823e-18 
0.464 0.025050827109158076 -1.5707963267948966 -1.5707963267948966 0.0 1.5707963267948966 0.0 0.10797770305671585 0.0 0.0 0.0 0.0 0.0 0.23271056693257725 0.0 0.0 0.0 0.0 0.0 297.87156111486877 -104.92177123452967 480.9 -1.220939177976727 1.1907304388761806 -1.190730438876181 -35.513518244682324 -0.8898291490028409 31.869619057189674 0.002704647869309553 -0.10794382445192195 6.611727421384522e-18 
0.472 0.02592209547175365 -1.5707963267948966 -1.5707963267948966 0.0 1.5707963267948966 0.0 0.10983938759217647 0.0 0.0 0.0 0.0 0.0 0.23271056693257725 0.0 0.0 0.0 0.0 0.0 297.9628630647086 -104.66220537654326 480.9 -1.221343729731468 1.1900873066944098 -1.19008730669441 -36.12501792489274 -0.936645967624216 32.41909524783088 0.002846948229860845 -0.10980248609389891 6.725722721753221e-18 
0.48 0.026808257310632896 -1.5707963267948966 -1.5707963267948966 0.0 1.5707963267948966 0.0 0.11170107212763708 0.0 0.0 0.0 0.0 0.0 0.23271056693257725 0.0 0.0 0.0 0.0 0.0 298.0554937123986 -104.39812099773783 480.9 -1.221754938631188 1.1894331277930703 -1.1894331277930708 -36.73644785177446 -0.9850761437108106 32.96857143847208 0.002994152412494871 -0.11166093571967921 6.839718022121919e-18 
0.488 0.02770931262579584 -1.5707963267948966 -1.5707963267948966 0.0 1.5707963267948966 0.0 0.11356275666309769 0.0 0.0 0.0 0.0 0.0 0.23271056693257725 0.0 0.0 0.0 0.0 0.0 298.1494411857666 -104.12951416680615 480.9 -1.2221727915887066 1.1887678995221693 -1.1887678995221695 -37.347804419470705 -1.0351469327856362 33.51804762911328 0.0031463432607466207 -0.11351916236921189 6.953713322490617e-18 
0.496 0.02862526141724246 -1.5707963267948966 -1.5707963267948966 0.0 1.5707963267948966 0.0 0.11542444119855831 0.0 0.0 0.0 0.0 0.0 0.23271056693257725 0.0 0.0 0.0 0.0 0.0 298.2446934070402 -103.85638090430736 480.9 -1.222597275300656 1.1880916191909496 -1.1880916191909499 -37.9590839000347 -1.0868855827235737 34.067523819754484 0.0033036035949044855 -0.11537715471135167 7.067708622859315e-18 
0.504 0.029556103684972773 -1.5707963267948966 -1.5707963267948966 0.0 1.5707963267948966 0.0 0.11728612573401893 0.0 0.0 0.0 0.0 0.0 0.23271056693257725 0.0 0.0 0.0 0.0 0.0 298.34123809256675 -103.57871718357194 480.9 -1.2230283762476604 1.1874042840680774 -1.1874042840680776 -38.570282441407585 -1.140319333362819 34.617000010395685 0.003466016210829243 -0.11723490103771303 7.181703923228016e-18 
0.512 0.030501839428986762 -1.5707963267948966 -1.5707963267948966 0.0 1.5707963267948966 0.0 0.11914781026947956 0.0 0.0 0.0 0.0 0.0 0.23271056693257725 0.0 0.0 0.0 0.0 0.0 298.4390627525308 -103.29651893162207 480.9 -1.223466080694527 1.186705891381832 -1.1867058913818322 -39.18139606539757 -1.1954754161033965 35.16647620103688 0.0036336638787337343 -0.11909238925652757 7.295699223596714e-18 
0.52 0.031462468649284446 -1.5707963267948966 -1.5707963267948966 0.0 1.5707963267948966 0.0 0.12100949480494017 0.0 0.0 0.0 0.0 0.0 0.23271056693257725 0.0 0.0 0.0 0.0 0.0 298.5381546906687 -103.00978203010783 480.9 -1.2239103746904358 1.185996438320295 -1.1859964383202952 -39.79242066566009 -1.2523810534925421 35.71595239167808 0.0038066293419226267 -0.12094960688650482 7.409694523965411e-18 
0.528 0.032437991345865815 -1.5707963267948966 -1.5707963267948966 0.0 1.5707963267948966 0.0 0.12287117934040079 0.0 0.0 0.0 0.0 0.0 0.23271056693257725 0.0 0.0 0.0 0.0 0.0 298.6385010039809 -102.71850231625892 480.9 -1.2243612440691287 1.185275922031545 -1.1852759220315452 -40.4033520056792 -1.3110634587967327 36.26542858231929 0.003984995315491595 -0.12280654105069666 7.523689824334111e-18 
0.536 0.033428407518730864 -1.5707963267948966 -1.5707963267948966 0.0 1.5707963267948966 0.0 0.12473286387586141 0.0 0.0 0.0 0.0 0.0 0.23271056693257725 0.0 0.0 0.0 0.0 0.0 298.74008858244144 -102.4226755838521 480.9 -1.2248186744491076 1.184544339623852 -1.1845443396238522 -41.01418571675023 -1.3715498355601654 36.814904772960496 0.004168844484985312 -0.12466317847036541 7.63768512470281e-18 
0.544 0.034433717167879595 -1.5707963267948966 -1.5707963267948966 0.0 1.5707963267948966 0.0 0.12659454841132203 0.0 0.0 0.0 0.0 0.0 0.23271056693257725 0.0 0.0 0.0 0.0 0.0 298.84290410870597 -102.12229758419427 480.9 -1.2252826512338306 1.1838016881658802 -1.1838016881658804 -41.624917295963655 -1.4338673771494699 37.36438096360169 0.004358259505013593 -0.1265195054588561 7.751680425071509e-18 
0.552 0.03545392029331201 -1.5707963267948966 -1.5707963267948966 0.0 1.5707963267948966 0.0 0.12845623294678266 0.0 0.0 0.0 0.0 0.0 0.23271056693257725 0.0 0.0 0.0 0.0 0.0 298.94693405781675 -101.8173640271214 480.9 -1.2257531596119147 1.1830479646868874 -1.1830479646868879 -42.235542104190486 -1.4980432662844456 37.913857154242905 0.004553322997825069 -0.12837550791547261 7.865675725440207e-18 
0.56 0.03648901689502812 -1.5707963267948966 -1.5707963267948966 0.0 1.5707963267948966 0.0 0.13031791748224328 0.0 0.0 0.0 0.0 0.0 0.23271056693257725 0.0 0.0 0.0 0.0 0.0 299.05216469690583 -101.50787058201298 480.9 -1.2262301845573342 1.1822831661769309 -1.182283166176931 -42.84605536406891 -1.5641046745546203 38.463333344884106 0.004754117551837758 -0.13023117131935838 7.979671025808906e-18 
0.568 0.03753900697302791 -1.5707963267948966 -1.5707963267948966 0.0 1.5707963267948966 0.0 0.1321796020177039 0.0 0.0 0.0 0.0 0.0 0.23271056693257725 0.0 0.0 0.0 0.0 0.0 299.1585820848966 -101.19381287882261 480.9 -1.2267137108296318 1.181507289587073 -1.1815072895870733 -43.456452157992565 -1.632078761921413 39.01280953552529 0.004960725720125883 -0.13208648072338167 8.093666326177606e-18 
0.576 0.038603890527311384 -1.5707963267948966 -1.5707963267948966 0.0 1.5707963267948966 0.0 0.1340412865531645 0.0 0.0 0.0 0.0 0.0 0.23271056693257725 0.0 0.0 0.0 0.0 0.0 299.266172072203 -100.87518650912402 480.9 -1.227203722974124 1.180720331829594 -1.1807203318295942 -44.066727426100265 -1.7019926762057027 39.5622857261665 0.005173230018862326 -0.13394142074802515 8.207661626546303e-18 
0.584 0.03968366755787853 -1.5707963267948966 -1.5707963267948966 0.0 1.5707963267948966 0.0 0.1359029710886251 0.0 0.0 0.0 0.0 0.0 0.23271056693257725 0.0 0.0 0.0 0.0 0.0 299.3749203004272 -100.55198702717321 480.9 -1.2277002053221113 1.1799222897782022 -1.1799222897782025 -44.67687596426747 -1.7738735525605875 40.11176191680769 0.005391712925716078 -0.13579597557528106 8.321656926915e-18 
0.592 0.04077833806472937 -1.5707963267948966 -1.5707963267948966 0.0 1.5707963267948966 0.0 0.1377646556240857 0.0 0.0 0.0 0.0 0.0 0.23271056693257725 0.0 0.0 0.0 0.0 0.0 299.48481220205576 -100.22420995098632 480.9 -1.2282031419910933 1.179113160268251 -1.1791131602682512 -45.28689242209933 -1.8477485129291302 40.6612381074489 0.00561625687820405 -0.13765012894255116 8.435652227283699e-18 
0.6 0.041887902047863905 -1.5707963267948966 -1.5707963267948966 0.0 1.5707963267948966 0.0 0.13962634015954634 0.0 0.0 0.0 0.0 0.0 0.23271056693257725 0.0 0.0 0.0 0.0 0.0 299.5958330001536 -99.89185076343345 480.9 -1.228712516884985 1.178292940096957 -1.1782929400969573 -45.89677130092554 -1.9236446654868795 41.2107142980901 0.005846944271996601 -0.13950386413655183 8.549647527652398e-18 
0.608 0.04301235950728212 -1.5707963267948966 -1.5707963267948966 0.0 1.5707963267948966 0.0 0.14148802469500696 0.0 0.0 0.0 0.0 0.0 0.23271056693257725 0.0 0.0 0.0 0.0 0.0 299.70796770805765 -99.55490491334844 480.9 -1.2292283136943325 1.1774616260236181 -1.1774616260236186 -46.50650695179714 -2.001589104068966 41.760190488731304 0.006083857459176195 -0.14135716398722536 8.663642828021096e-18 
0.616 0.044151710442984014 -1.5707963267948966 -1.5707963267948966 0.0 1.5707963267948966 0.0 0.14334970923046758 0.0 0.0 0.0 0.0 0.0 0.23271056693257725 0.0 0.0 0.0 0.0 0.0 299.8212011290683 -99.2133678166545 480.9 -1.2297505158965372 1.1766192147698418 -1.176619214769842 -47.116093573485074 -2.0816089075815594 42.30966667937251 0.006327078746448517 -0.14321001086165674 8.777638128389796e-18 
0.624 0.0453059548549696 -1.5707963267948966 -1.5707963267948966 0.0 1.5707963267948966 0.0 0.1452113937659282 0.0 0.0 0.0 0.0 0.0 0.23271056693257725 0.0 0.0 0.0 0.0 0.0 299.9355178561398 -98.86723485750592 480.9 -1.2302791067560779 1.175765703019765 -1.1757657030197655 -47.725525210480825 -2.1637311393974867 42.85914287001371 0.006576690393305438 -0.14506238665799642 8.891633428758495e-18 
0.632 0.04647509274323887 -1.5707963267948966 -1.5707963267948966 0.0 1.5707963267948966 0.0 0.14707307830138883 0.0 0.0 0.0 0.0 0.0 0.23271056693257725 0.0 0.0 0.0 0.0 0.0 300.05090227157007 -98.51650138944576 480.9 -1.2308140693247351 1.174901087420287 -1.1749010874202872 -48.3347957509992 -2.2479828467357983 43.40861906065491 0.006832774610139212 -0.14691427279938965 9.005628729127194e-18 
0.64 0.04765912410779182 -1.5707963267948966 -1.5707963267948966 0.0 1.5707963267948966 0.0 0.14893476283684945 0.0 0.0 0.0 0.0 0.0 0.23271056693257725 0.0 0.0 0.0 0.0 0.0 300.16733854668917 -98.16116273657963 480.9 -1.2313553864418236 1.1740253645812992 -1.1740253645813 -48.943898924983166 -2.33439106002508 43.958095251296115 0.0070954135563072425 -0.14876565022791235 9.119624029495892e-18 
0.648 0.048858048948628455 -1.5707963267948966 -1.5707963267948966 0.0 1.5707963267948966 0.0 0.15079644737231007 0.0 0.0 0.0 0.0 0.0 0.23271056693257725 0.0 0.0 0.0 0.0 0.0 300.28481064154676 -97.80121419476541 480.9 -1.2319030407344194 1.173138531075918 -1.1731385310759181 -49.552828302110996 -2.422982792250311 44.507571441937316 0.007364689338146849 -0.15061649939851368 9.233619329864591e-18 
0.656 0.05007186726574879 -1.5707963267948966 -1.5707963267948966 0.0 1.5707963267948966 0.0 0.15265813190777067 0.0 0.0 0.0 0.0 0.0 0.23271056693257725 0.0 0.0 0.0 0.0 0.0 300.4033023045995 -97.43665103281924 480.9 -1.2324570146175944 1.1722405834407204 -1.1722405834407206 -50.161577289805706 -2.513785038283048 45.05704763257851 0.007640684006939362 -0.1524668002729657 9.347614630233288e-18 
0.664 0.0513005790591528 -1.5707963267948966 -1.5707963267948966 0.0 1.5707963267948966 0.0 0.1545198164432313 0.0 0.0 0.0 0.0 0.0 0.23271056693257725 0.0 0.0 0.0 0.0 0.0 300.5227970723972 -97.0674684937376 480.9 -1.2330172902946517 1.1713315181759845 -1.1713315181759847 -50.77013913124704 -2.606824774194747 45.60652382321971 0.007923479556822948 -0.15431653231382078 9.461609930601988e-18 
0.672 0.05254418432884048 -1.5707963267948966 -1.5707963267948966 0.0 1.5707963267948966 0.0 0.1563815009786919 0.0 0.0 0.0 0.0 0.0 0.23271056693257725 0.0 0.0 0.0 0.0 0.0 300.6432782692692 -96.6936617959354 480.9 -1.2335838497573655 1.1704113317459306 -1.170411331745931 -51.37850690338578 -2.7021289565530107 46.15600001386091 0.008213157922653536 -0.15616567447837623 9.575605230970687e-18 
0.68 0.05380268307481187 -1.5707963267948966 -1.5707963267948966 0.0 1.5707963267948966 0.0 0.15824318551415253 0.0 0.0 0.0 0.0 0.0 0.23271056693257725 0.0 0.0 0.0 0.0 0.0 300.7647290070098 -96.31522613450042 480.9 -1.2341566747862183 1.169480020578962 -1.1694800205789622 -51.98667351496085 -2.7997245217005546 46.70547620450212 0.008509800977813243 -0.15801420521264695 9.689600531339386e-18 
0.688 0.055076075297066936 -1.5707963267948966 -1.5707963267948966 0.0 1.5707963267948966 0.0 0.16010487004961316 0.0 0.0 0.0 0.0 0.0 0.23271056693257725 0.0 0.0 0.0 0.0 0.0 300.8871321845638 -95.93215668246397 480.9 -1.2347357469506461 1.1685375810679133 -1.1685375810679135 -52.59463170451901 -2.8996383850166927 47.25495239514332 0.00881349053196564 -0.15986210244534652 9.803595831708084e-18 
0.696 0.056364360995605677 -1.5707963267948966 -1.5707963267948966 0.0 1.5707963267948966 0.0 0.16196655458507378 0.0 0.0 0.0 0.0 0.0 0.23271056693257725 0.0 0.0 0.0 0.0 0.0 301.01047048771227 -95.54444859208762 480.9 -1.2353210476092824 1.1675840095702996 -1.1675840095703 -53.20237403843744 -3.0018974401611427 47.80442858578452 0.009124308328757281 -0.16170934358187672 9.917591132076783e-18 
0.704 0.0576675401704281 -1.5707963267948966 -1.5707963267948966 0.0 1.5707963267948966 0.0 0.16382823912053437 0.0 0.0 0.0 0.0 0.0 0.23271056693257725 0.0 0.0 0.0 0.0 0.0 301.13472638875794 -95.15209699616646 480.9 -1.2359125579102073 1.1666193024085667 -1.166619302408567 -53.80989290894918 -3.106528558299942 48.35390477642571 0.009442336043464877 -0.16355590549832577 1.0031586432445481e-17 
0.712 0.058985612821534215 -1.5707963267948966 -1.5707963267948966 0.0 1.5707963267948966 0.0 0.165689923655995 0.0 0.0 0.0 0.0 0.0 0.23271056693257725 0.0 0.0 0.0 0.0 0.0 301.259882146211 -94.75509700934843 480.9 -1.236510258791192 1.165643455870342 -1.1656434558703423 -54.41718053217163 -3.213558587313275 48.90338096706692 0.00976765528058747 -0.16540176453547606 1.014558173281418e-17 
0.72 0.06031857894892402 -1.5707963267948966 -1.5707963267948966 0.0 1.5707963267948966 0.0 0.16755160819145562 0.0 0.0 0.0 0.0 0.0 0.23271056693257725 0.0 0.0 0.0 0.0 0.0 301.38591980447546 -94.35344372947003 480.9 -1.237114130979957 1.1646564662086938 -1.164656466208694 -55.024228946138045 -3.3230143509850083 49.452857157708124 0.010100347571383013 -0.1672468964928208 1.0259577033182879e-17 
0.728 0.06166643855259751 -1.5707963267948966 -1.5707963267948966 0.0 1.5707963267948966 0.0 0.16941329272691624 0.0 0.0 0.0 0.0 0.0 0.23271056693257725 0.0 0.0 0.0 0.0 0.0 301.5128211935357 -93.94713223890858 480.9 -1.237724154994424 1.1636583296423901 -1.1636583296423904 -55.63103000883249 -3.4349226481737376 50.00233334834933 0.010440494371348755 -0.16909127662259119 1.0373572333551577e-17 
0.736 0.06302919163255467 -1.5707963267948966 -1.5707963267948966 0.0 1.5707963267948966 0.0 0.17127497726237684 0.0 0.0 0.0 0.0 0.0 0.23271056693257725 0.0 0.0 0.0 0.0 0.0 301.6405679286438 -93.53615760595054 480.9 -1.2383403111429687 1.1626490423561535 -1.1626490423561537 -56.23757539622791 -3.5493102519651414 50.55180953899052 0.010788177057644815 -0.17093487962379303 1.0487567633920274e-17 
0.744 0.06440683818879554 -1.5707963267948966 -1.5707963267948966 0.0 1.5707963267948966 0.0 0.17313666179783746 0.0 0.0 0.0 0.0 0.0 0.23271056693257725 0.0 0.0 0.0 0.0 0.0 301.76914141000793 -93.12051488617648 480.9 -1.2389625795246848 1.161628600500931 -1.1616286005009313 -56.843856600327726 -3.6662039088054437 51.10128572963171 0.011143476926460325 -0.1727776796362545 1.0601562934288973e-17 
0.752 0.06579937822132008 -1.5707963267948966 -1.5707963267948966 0.0 1.5707963267948966 0.0 0.17499834633329808 0.0 0.0 0.0 0.0 0.0 0.23271056693257725 0.0 0.0 0.0 0.0 0.0 301.89852282248125 -92.70019912386243 480.9 -1.23959094002964 1.1605970001941552 -1.1605970001941555 -57.44986492721111 -3.7856303376157796 51.65076192027293 0.011506475190321526 -0.17461965023468423 1.0715558234657673e-17 
0.76 0.06720681173012831 -1.5707963267948966 -1.5707963267948966 0.0 1.5707963267948966 0.0 0.1768600308687587 0.0 0.0 0.0 0.0 0.0 0.23271056693257725 0.0 0.0 0.0 0.0 0.0 302.02869313525207 -92.27520535339758 480.9 -1.240225372339142 1.1595542375200116 -1.159554237520012 -58.05559149508172 -3.9076162288872816 52.20023811091412 0.011877252975341292 -0.1764607644227408 1.0829553535026372e-17 
0.768 0.06862913871522022 -1.5707963267948966 -1.5707963267948966 0.0 1.5707963267948966 0.0 0.17872171540421933 0.0 0.0 0.0 0.0 0.0 0.23271056693257725 0.0 0.0 0.0 0.0 0.0 302.1596331015355 -91.84552860071868 480.9 -1.240865855926003 1.1585003085297128 -1.158500308529713 -58.66102723232048 -4.032188243756667 52.74971430155533 0.01225589131840933 -0.1783009946271139 1.094354883539507e-17 
0.776 0.07006635917659582 -1.5707963267948966 -1.5707963267948966 0.0 1.5707963267948966 0.0 0.18058339993967995 0.0 0.0 0.0 0.0 0.0 0.23271056693257725 0.0 0.0 0.0 0.0 0.0 302.29132325826583 -91.41116388476077 480.9 -1.2415123700548034 1.1574352092417637 -1.157435209241764 -59.26616287554211 -4.159373013062142 53.29919049219652 0.012642471164322629 -0.18014031269161734 1.1057544135763769e-17 
0.784 0.0715184731142551 -1.5707963267948966 -1.5707963267948966 0.0 1.5707963267948966 0.0 0.18244508447514057 0.0 0.0 0.0 0.0 0.0 0.23271056693257725 0.0 0.0 0.0 0.0 0.0 302.4237439257915 -90.97210621892447 480.9 -1.2421648937821652 1.1563589356422423 -1.1563589356422426 -59.870988967655826 -4.2891971363794275 53.84866668283774 0.013037073362855412 -0.18197868987129429 1.1171539436132468e-17 
0.792 0.07298548052819807 -1.5707963267948966 -1.5707963267948966 0.0 1.5707963267948966 0.0 0.1843067690106012 0.0 0.0 0.0 0.0 0.0 0.23271056693257725 0.0 0.0 0.0 0.0 0.0 302.5568752075705 -90.52835061255998 480.9 -1.2428234059570202 1.1552714836850737 -1.155271483685074 -60.47549585593017 -4.421687181037698 54.39814287347894 0.01343977866576809 -0.1838160968265355 1.1285534736501168e-17 
0.8 0.07446738141842474 -1.5707963267948966 -1.5707963267948966 0.0 1.5707963267948966 0.0 0.18616845354606182 0.0 0.0 0.0 0.0 0.0 0.23271056693257725 0.0 0.0 0.0 0.0 0.0 302.69069698986885 -90.07989207246749 480.9 -1.243487885220886 1.1541728492923087 -1.1541728492923093 -61.07967369006223 -4.556869681115252 54.94761906412014 0.013850667723754576 -0.18565250361721042 1.1399530036869867e-17 
0.808 0.07596417578493507 -1.5707963267948966 -1.5707963267948966 0.0 1.5707963267948966 0.0 0.1880301380815224 0.0 0.0 0.0 0.0 0.0 0.23271056693257725 0.0 0.0 0.0 0.0 0.0 302.8251889414601 -89.62672560441428 480.9 -1.2441583100081357 1.1530630283544052 -1.1530630283544054 -61.68351242025112 -4.6947711364147064 55.497095254761334 0.014269821083327383 -0.1874878796968119 1.1513525337238564e-17 
0.816 0.0774758636277291 -1.5707963267948966 -1.5707963267948966 0.0 1.5707963267948966 0.0 0.18989182261698304 0.0 0.0 0.0 0.0 0.0 0.23271056693257725 0.0 0.0 0.0 0.0 0.0 302.9603305133277 -89.16884621466853 480.9 -1.2448346585462833 1.1519420167305126 -1.1519420167305128 -62.28700179527636 -4.835418011417533 56.04657144540253 0.014697319183639928 -0.18932219390661506 1.1627520637607262e-17 
0.824 0.0790024449468068 -1.5707963267948966 -1.5707963267948966 0.0 1.5707963267948966 0.0 0.19175350715244366 0.0 0.0 0.0 0.0 0.0 0.23271056693257725 0.0 0.0 0.0 0.0 0.0 303.0961009383693 -88.70624891154965 480.9 -1.2455169088562545 1.1508098102487563 -1.1508098102487565 -62.89013136058071 -4.978836734217732 56.59604763604374 0.015133242353245396 -0.19115541446985018 1.1741515937975961e-17 
0.832 0.0805439197421682 -1.5707963267948966 -1.5707963267948966 0.0 1.5707963267948966 0.0 0.19361519168790428 0.0 0.0 0.0 0.0 0.0 0.23271056693257725 0.0 0.0 0.0 0.0 0.0 303.23247923110375 -88.23892870699537 480.9 -1.2462050387526735 1.149666404706525 -1.1496664047065253 -63.49289045635796 -5.125053695434456 57.14552382668494 0.01557767080679167 -0.19298750898589045 1.185551123834466e-17 
0.84 0.08210028801381324 -1.5707963267948966 -1.5707963267948966 0.0 1.5707963267948966 0.0 0.19547687622336488 0.0 0.0 0.0 0.0 0.0 0.23271056693257725 0.0 0.0 0.0 0.0 0.0 303.3694441873805 -87.76688061814554 480.9 -1.2468990258441426 1.1485117958707625 -1.1485117958707627 -64.09526821564583 -5.274095247103392 57.69500001732614 0.01603068464165166 -0.19481844442445542 1.1969506538713358e-17 
0.848 0.08367154976174201 -1.5707963267948966 -1.5707963267948966 0.0 1.5707963267948966 0.0 0.1973385607588255 0.0 0.0 0.0 0.0 0.0 0.23271056693257725 0.0 0.0 0.0 0.0 0.0 303.5069743840923 -87.29009966894259 480.9 -1.2475988475335285 1.1473459794782566 -1.1473459794782568 -64.69725356242394 -5.425987701546726 58.24447620796734 0.016492363834488537 -0.1966481871198296 1.2083501839082057e-17 
0.856 0.08525770498595445 -1.5707963267948966 -1.5707963267948966 0.0 1.5707963267948966 0.0 0.19920024529428612 0.0 0.0 0.0 0.0 0.0 0.23271056693257725 0.0 0.0 0.0 0.0 0.0 303.6450481788904 -86.80858089174892 480.9 -1.2483044810182493 1.1461689512359365 -1.1461689512359368 -65.29883520971705 -5.580757330221439 58.79395239860855 0.01696278823775514 -0.19847670276509743 1.2197497139450755e-17 
0.864 0.08685875368645059 -1.5707963267948966 -1.5707963267948966 0.0 1.5707963267948966 0.0 0.20106192982974674 0.0 0.0 0.0 0.0 0.0 0.23271056693257725 0.0 0.0 0.0 0.0 0.0 303.7836437099033 -86.32231932898077 480.9 -1.249015903290562 1.1449807068211666 -1.1449807068211668 -65.90000165770394 -5.7384303625458495 59.34342858924976 0.017442037576127212 -0.20030395640639495 1.2311492439819454e-17 
0.872 0.0884746958632304 -1.5707963267948966 -1.5707963267948966 0.0 1.5707963267948966 0.0 0.20292361436520737 0.0 0.0 0.0 0.0 0.0 0.23271056693257725 0.0 0.0 0.0 0.0 0.0 303.9227388954585 -85.83131003475917 480.9 -1.2497330911378528 1.1437812418820463 -1.1437812418820466 -66.50074119183172 -5.8990329847041085 59.89290477989095 0.017930191442869642 -0.20212991243717848 1.2425487740188153e-17 
0.88 0.09010553151629391 -1.5707963267948966 -1.5707963267948966 0.0 1.5707963267948966 0.0 0.204785298900668 0.0 0.0 0.0 0.0 0.0 0.23271056693257725 0.0 0.0 0.0 0.0 0.0 304.0623114338081 -85.33554807657745 480.9 -1.2504560211429294 1.1425705520377072 -1.1425705520377074 -67.10104188093608 -6.0625913384285335 60.44238097053215 0.018427329296135372 -0.2039545345925109 1.2539483040556851e-17 
0.888 0.0917512606456411 -1.5707963267948966 -1.5707963267948966 0.0 1.5707963267948966 0.0 0.20664698343612858 0.0 0.0 0.0 0.0 0.0 0.23271056693257725 0.0 0.0 0.0 0.0 0.0 304.202338802858 -84.83502853698586 480.9 -1.2511846696843159 1.1413486328786209 -1.141348632878621 -67.70089157536742 -6.229131519759543 60.99185716117336 0.01893353045519619 -0.20577778594336602 1.265347834092555e-17 
0.896 0.09341188325127198 -1.5707963267948966 -1.5707963267948966 0.0 1.5707963267948966 0.0 0.2085086679715892 0.0 0.0 0.0 0.0 0.0 0.23271056693257725 0.0 0.0 0.0 0.0 0.0 304.34279825990046 -84.32974651529263 480.9 -1.2519190129365472 1.1401154799668982 -1.1401154799668984 -68.30027790512308 -6.3986795777830565 61.54133335181455 0.019448874096605045 -0.20759962889095163 1.2767473641294249e-17 
0.904 0.09508739933318652 -1.5707963267948966 -1.5707963267948966 0.0 1.5707963267948966 0.0 0.21037035250704983 0.0 0.0 0.0 0.0 0.0 0.23271056693257725 0.0 0.0 0.0 0.0 0.0 304.48366684135186 -83.81969712928235 480.9 -1.252659026870466 1.1388710888365983 -1.1388710888365985 -68.89918827798591 -6.571261513345129 62.09080954245575 0.01997343925028916 -0.20942002516105143 1.2881468941662947e-17 
0.912 0.09677780889138476 -1.5707963267948966 -1.5707963267948966 0.0 1.5707963267948966 0.0 0.21223203704251045 0.0 0.0 0.0 0.0 0.0 0.23271056693257725 0.0 0.0 0.0 0.0 0.0 304.6249213624934 -83.3048755169509 480.9 -1.2534046872535227 1.1376154549940347 -1.137615454994035 -69.49760987766926 -6.746903277743665 62.640285733096945 0.020507304795573462 -0.2112389357983868 1.2995464242031646e-17 
0.92 0.0984831119258667 -1.5707963267948966 -1.5707963267948966 0.0 1.5707963267948966 0.0 0.21409372157797107 0.0 0.0 0.0 0.0 0.0 0.23271056693257725 0.0 0.0 0.0 0.0 0.0 304.76653841721713 -82.78527683825745 480.9 -1.2541559696500753 1.1363485739180892 -1.1363485739180894 -70.09552966196853 -6.9256307713970156 63.18976192373817 0.021050549457133798 -0.21305632116099857 1.3109459542400345e-17 
0.928 0.1002033084366323 -1.5707963267948966 -1.5707963267948966 0.0 1.5707963267948966 0.0 0.2159554061134317 0.0 0.0 0.0 0.0 0.0 0.23271056693257725 0.0 0.0 0.0 0.0 0.0 304.9084943777759 -82.26089627689316 480.9 -1.254912849421693 1.1350704410605212 -1.1350704410605215 -70.69293436091971 -7.107469842489289 63.73923811437936 0.021603251800879315 -0.21487214091464957 1.3223454842769045e-17 
0.936 0.1019383984236816 -1.5707963267948966 -1.5707963267948966 0.0 1.5707963267948966 0.0 0.21781709064889232 0.0 0.0 0.0 0.0 0.0 0.23271056693257725 0.0 0.0 0.0 0.0 0.0 305.050765394539 -81.73172904206723 480.9 -1.2556753017274578 1.1337810518462823 -1.1337810518462825 -71.28981047496472 -7.292446285592185 64.28871430502056 0.022165490229763496 -0.21668635402724842 1.3337450143137743e-17 
0.944 0.1036883818870146 -1.5707963267948966 -1.5707963267948966 0.0 1.5707963267948966 0.0 0.21967877518435294 0.0 0.0 0.0 0.0 0.0 0.23271056693257725 0.0 0.0 0.0 0.0 0.0 305.19332739575174 -81.19777037030924 480.9 -1.2564433015242713 1.1324804016738328 -1.132480401673833 -71.88614427312406 -7.480585840263173 64.83819049566176 0.022737342979523338 -0.21849891876329502 1.3451445443506442e-17 
0.952 0.10545325882663126 -1.5707963267948966 -1.5707963267948966 0.0 1.5707963267948966 0.0 0.22154045971981356 0.0 0.0 0.0 0.0 0.0 0.23271056693257725 0.0 0.0 0.0 0.0 0.0 305.33615608730076 -80.65901552728923 480.9 -1.2572168235671612 1.1311684859154603 -1.1311684859154605 -72.4819217911767 -7.671914189619839 65.38766668630296 0.02331888811434603 -0.22030979267834863 1.356544074387514e-17 
0.96 0.10723302924253159 -1.5707963267948966 -1.5707963267948966 0.0 1.5707963267948966 0.0 0.22340214425527416 0.0 0.0 0.0 0.0 0.0 0.23271056693257725 0.0 0.0 0.0 0.0 0.0 305.4792269524848 -80.11545980965387 480.9 -1.2579958424095914 1.1298452999175979 -1.129845299917598 -73.07712882984757 -7.866456958890235 65.93714287694416 0.023910203522462734 -0.22211893261351842 1.3679436044243838e-17 
0.968 0.10902769313471562 -1.5707963267948966 -1.5707963267948966 0.0 1.5707963267948966 0.0 0.22526382879073475 0.0 0.0 0.0 0.0 0.0 0.23271056693257725 0.0 0.0 0.0 0.0 0.0 305.6225152517906 -79.56709854688047 480.9 -1.258780332403769 1.1285108390011473 -1.1285108390011476 -73.67175095300287 -8.06423971393904 66.48661906758535 0.02451136691166883 -0.2239262946899783 1.3793431344612535e-17 
0.976 0.11083725050318335 -1.5707963267948966 -1.5707963267948966 0.0 1.5707963267948966 0.0 0.22712551332619538 0.0 0.0 0.0 0.0 0.0 0.23271056693257725 0.0 0.0 0.0 0.0 0.0 305.76599602267504 -79.0139271031473 480.9 -1.2595702677009581 1.1271650984618025 -1.1271650984618027 -74.26577348585322 -8.265287959769356 67.03609525822657 0.0251224558047701 -0.2257318343035052 1.3907426644981233e-17 
0.984 0.11266170134793475 -1.5707963267948966 -1.5707963267948966 0.0 1.5707963267948966 0.0 0.228987197861656 0.0 0.0 0.0 0.0 0.0 0.23271056693257725 0.0 0.0 0.0 0.0 0.0 305.90964407935246 -78.45594087922125 480.9 -1.2603656222517912 1.1258080735703728 -1.125808073570373 -74.85918151316493 -8.46962713899998 67.58557144886775 0.025743547534954364 -0.2275355061190423 1.4021421945349932e-17 
0.992 0.11450104566896983 -1.5707963267948966 -1.5707963267948966 0.0 1.5707963267948966 0.0 0.23084888239711662 0.0 0.0 0.0 0.0 0.0 0.23271056693257725 0.0 0.0 0.0 0.0 0.0 306.0534340125894 -77.8931353143624 480.9 -1.2611663698065845 1.124439759573113 -1.1244397595731133 -75.4519598774797 -8.677282630317977 68.13504763950895 0.02637471924108809 -0.22933726406528782 1.413541724571863e-17 
1.0 0.11635528346628862 -1.5707963267948966 -1.5707963267948966 0.0 1.5707963267948966 0.0 0.23271056693257725 0.0 0.0 0.0 0.0 0.0 0.23271056693257725 0.0 0.0 0.0 0.0 0.0 306.1973401895041 -77.32550588824559 480.9 -1.2619724839156536 1.1230601516920509 -1.1230601516920515 -76.04409317734284 -8.888279746906376 68.68452383015017 0.02701604786293733 -0.23113706132930953 1.4249412546087332e-17 
1.008 0.11822441473989109 -1.5707963267948966 -1.5707963267948966 0.0 1.5707963267948966 0.0 0.23457225146803787 0.0 0.0 0.0 0.0 0.0 0.23271056693257725 0.0 0.0 0.0 0.0 0.0 306.34133675337375 -76.75304812289905 480.9 -1.2627839379296288 1.1216692451253172 -1.1216692451253174 -76.63556576554019 -9.102643734846826 69.23400002079138 0.027667610136312557 -0.232934850351186 1.436340784645603e-17 
1.016 0.12010843948977723 -1.5707963267948966 -1.5707963267948966 0.0 1.5707963267948966 0.0 0.2364339360034985 0.0 0.0 0.0 0.0 0.0 0.23271056693257725 0.0 0.0 0.0 0.0 0.0 306.4853976234481 -76.17575758466005 480.9 -1.2636007049997753 1.1202670350474786 -1.1202670350474788 -77.22636174734409 -9.320399771497042 69.78347621143256 0.028329482588136924 -0.23473058281867507 1.447740314682473e-17 
1.024 0.12200735771594705 -1.5707963267948966 -1.5707963267948966 0.0 1.5707963267948966 0.0 0.2382956205389591 0.0 0.0 0.0 0.0 0.0 0.23271056693257725 0.0 0.0 0.0 0.0 0.0 306.62949649476997 -75.59362988614731 480.9 -1.2644227580783118 1.1188535166098728 -1.118853516609873 -77.81646497876848 -9.541572963842881 70.33295240207377 0.029001741531437347 -0.2365242096619103 1.4591398447193428e-17 
1.032 0.12392116941840058 -1.5707963267948966 -1.5707963267948966 0.0 1.5707963267948966 0.0 0.24015730507441974 0.0 0.0 0.0 0.0 0.0 0.23271056693257725 0.0 0.0 0.0 0.0 0.0 306.7736068380029 -75.00666068825106 480.9 -1.265250069918732 1.1174286849409423 -1.1174286849409425 -78.40585906483342 -9.766188346824872 70.88242859271499 0.029684463060257987 -0.23831568104812592 1.4705393747562127e-17 
1.04 0.12584987459713778 -1.5707963267948966 -1.5707963267948966 0.0 1.5707963267948966 0.0 0.24201898960988033 0.0 0.0 0.0 0.0 0.0 0.23271056693257725 0.0 0.0 0.0 0.0 0.0 306.9177018992661 -74.41484570213937 480.9 -1.2660826130761258 1.1159925351465736 -1.115992535146574 -78.99452735783927 -9.994270881639045 71.43190478335617 0.030377723044495587 -0.24010494637641117 1.4819389047930823e-17 
1.048 0.12779347325215867 -1.5707963267948966 -1.5707963267948966 0.0 1.5707963267948966 0.0 0.24388067414534095 0.0 0.0 0.0 0.0 0.0 0.23271056693257725 0.0 0.0 0.0 0.0 0.0 307.0617546999776 -73.81818069128207 480.9 -1.2669203599075043 1.1145450623104367 -1.1145450623104372 -79.58245295565067 -10.225845454011896 71.98138097399737 0.031081597124656236 -0.24189195427249444 1.4933384348299524e-17 
1.056 0.12975196538346326 -1.5707963267948966 -1.5707963267948966 0.0 1.5707963267948966 0.0 0.24574235868080158 0.0 0.0 0.0 0.0 0.0 0.23271056693257725 0.0 0.0 0.0 0.0 0.0 307.20573803670425 -73.21666147349136 480.9 -1.2677632825721217 1.1130862614943238 -1.113086261494324 -80.16961869999061 -10.46093687244934 72.53085716463858 0.03179616070653296 -0.24367665258355808 1.5047379648668223e-17 
1.064 0.1317253509910515 -1.5707963267948966 -1.5707963267948966 0.0 1.5707963267948966 0.0 0.2476040432162622 0.0 0.0 0.0 0.0 0.0 0.23271056693257725 0.0 0.0 0.0 0.0 0.0 307.3496244810204 -72.61028392297985 480.9 -1.2686113530318022 1.1116161277384924 -1.1116161277384926 -80.7560071747449 -10.699569866459456 73.08033335527978 0.03252148895580383 -0.2454589883730848 1.516137494903692e-17 
1.072 0.13371363007492346 -1.5707963267948966 -1.5707963267948966 0.0 1.5707963267948966 0.0 0.24946572775172282 0.0 0.0 0.0 0.0 0.0 0.23271056693257725 0.0 0.0 0.0 0.0 0.0 307.4933863793746 -71.999043972435 480.9 -1.2694645430512677 1.110134656062011 -1.1101346560620113 -81.34160070427704 -10.941769084748927 73.62980954592099 0.03325765679254994 -0.24723890791573572 1.527537024940562e-17 
1.08 0.13571680263507907 -1.5707963267948966 -1.5707963267948966 0.0 1.5707963267948966 0.0 0.2513274122871834 0.0 0.0 0.0 0.0 0.0 0.23271056693257725 0.0 0.0 0.0 0.0 0.0 307.6369958529649 -71.38293761511122 480.9 -1.270322824198465 1.108641841463104 -1.1086418414631043 -81.9263813517541 -11.187559093392952 74.17928573656218 0.03400473888569288 -0.24901635669226174 1.5389365549774316e-17 
1.088 0.13773486867151838 -1.5707963267948966 -1.5707963267948966 0.0 1.5707963267948966 0.0 0.25318909682264407 0.0 0.0 0.0 0.0 0.0 0.23271056693257725 0.0 0.0 0.0 0.0 0.0 307.7804247976224 -70.76196090693851 480.9 -1.2711861678448932 1.1071376789194962 -1.1071376789194964 -82.5103309174834 -11.436964373978553 74.7287619272034 0.03476280964735124 -0.250791279384448 1.5503360850143017e-17 
1.096 0.13976782818424138 -1.5707963267948966 -1.5707963267948966 0.0 1.5707963267948966 0.0 0.25505078135810466 0.0 0.0 0.0 0.0 0.0 0.23271056693257725 0.0 0.0 0.0 0.0 0.0 307.92364488370424 -70.1361099686485 480.9 -1.2720545451659349 1.1056221633887653 -1.1056221633887655 -83.09343093726054 -11.69000932172103 75.27823811784457 0.03553194322711561 -0.2525636198700928 1.5617356150511716e-17 
1.104 0.14181568117324805 -1.5707963267948966 -1.5707963267948966 0.0 1.5707963267948966 0.0 0.2569124658935653 0.0 0.0 0.0 0.0 0.0 0.23271056693257725 0.0 0.0 0.0 0.0 0.0 308.0666275559956 -69.50538098791704 480.9 -1.2729279271411886 1.1040952898086915 -1.1040952898086918 -83.67566268072918 -11.94671824355353 75.8277143084858 0.03631221350624175 -0.2543333212180218 1.5731351450880415e-17 
1.112 0.14387842763853845 -1.5707963267948966 -1.5707963267948966 0.0 1.5707963267948966 0.0 0.2587741504290259 0.0 0.0 0.0 0.0 0.0 0.23271056693257725 0.0 0.0 0.0 0.0 0.0 308.2093440336202 -68.86977022152418 480.9 -1.2738062845547962 1.1025570530976054 -1.1025570530976057 -84.25700714975225 -12.20711535618947 76.37719049912701 0.03710369409176133 -0.25610032568313756 1.5845346751249113e-17 
1.12 0.14595606758011248 -1.5707963267948966 -1.5707963267948966 0.0 1.5707963267948966 0.0 0.26063583496448656 0.0 0.0 0.0 0.0 0.0 0.23271056693257725 0.0 0.0 0.0 0.0 0.0 308.35176530996193 -68.22927399753094 480.9 -1.2746895879957807 1.1010074481547474 -1.1010074481547476 -84.83744507679553 -12.471224784157762 76.92666668976821 0.037906458310509934 -0.25786457470150614 1.5959342051617812e-17 
1.128 0.1480486009979702 -1.5707963267948966 -1.5707963267948966 0.0 1.5707963267948966 0.0 0.26249751949994715 0.0 0.0 0.0 0.0 0.0 0.23271056693257725 0.0 0.0 0.0 0.0 0.0 308.4938621525949 -67.583888717473 480.9 -1.2755778078583764 1.0994464698606168 -1.099446469860617 -85.41695692332318 -12.739070557810615 77.4761428804094 0.0387205792030718 -0.2596260088854808 1.607333735198651e-17 
1.136 0.15015602789211163 -1.5707963267948966 -1.5707963267948966 0.0 1.5707963267948966 0.0 0.2643592040354078 0.0 0.0 0.0 0.0 0.0 0.23271056693257725 0.0 0.0 0.0 0.0 0.0 308.6356051032241 -66.9336108585715 480.9 -1.276470914342365 1.0978741130773315 -1.097874113077332 -85.99552287820639 -13.01067661130386 78.02561907105063 0.03954612951764093 -0.2613845680188644 1.6187332652355212e-17 
1.144 0.15227834826253675 -1.5707963267948966 -1.5707963267948966 0.0 1.5707963267948966 0.0 0.2662208885708684 0.0 0.0 0.0 0.0 0.0 0.23271056693257725 0.0 0.0 0.0 0.0 0.0 308.7769644776365 -66.27843697596059 480.9 -1.2773688774534107 1.096290372648984 -1.0962903726489843 -86.57312285614408 -13.286066780549541 78.5750952616918 0.04038318170379802 -0.2631401910521096 1.6301327952723908e-17 
1.152 0.15441556210924554 -1.5707963267948966 -1.5707963267948966 0.0 1.5707963267948966 0.0 0.268082573106329 0.0 0.0 0.0 0.0 0.0 0.23271056693257725 0.0 0.0 0.0 0.0 0.0 308.9179103656621 -65.61836370493204 480.9 -1.2782716670033958 1.0946952434020012 -1.0946952434020014 -87.14973649609753 -13.565264801140797 79.12457145233302 0.04123180790620305 -0.2648928160975609 1.6415323253092607e-17 
1.16 0.15656766943223796 -1.5707963267948966 -1.5707963267948966 0.0 1.5707963267948966 0.0 0.2699442576417896 0.0 0.0 0.0 0.0 0.0 0.23271056693257725 0.0 0.0 0.0 0.0 0.0 309.05841263114615 -64.95338776319669 480.9 -1.2791792526107595 1.093088720145505 -1.0930887201455053 -87.72534315973785 -13.848294306248713 79.67404764297419 0.042092079958202785 -0.2666423804247351 1.6529318553461302e-17 
1.168 0.1587346702315141 -1.5707963267948966 -1.5707963267948966 0.0 1.5707963267948966 0.0 0.2718059421772502 0.0 0.0 0.0 0.0 0.0 0.23271056693257725 0.0 0.0 0.0 0.0 0.0 309.19844091193227 -64.28350595316267 480.9 -1.280091603700832 1.0914707976716722 -1.0914707976716727 -88.29992192990724 -14.13517882449117 80.22352383361539 0.04296406937535312 -0.2683888204556451 1.664331385383e-17 
1.176 0.16091656450707395 -1.5707963267948966 -1.5707963267948966 0.0 1.5707963267948966 0.0 0.27366762671271083 0.0 0.0 0.0 0.0 0.0 0.23271056693257725 0.0 0.0 0.0 0.0 0.0 309.33796461985673 -63.6087151642308 480.9 -1.2810086895061767 1.0898414707561004 -1.0898414707561008 -88.87345160909439 -14.425941777773462 80.77300002425659 0.04384784734885552 -0.27013207176016535 1.67573091541987e-17 
1.184 0.1631133522589175 -1.5707963267948966 -1.5707963267948966 0.0 1.5707963267948966 0.0 0.2755293112481714 0.0 0.0 0.0 0.0 0.0 0.23271056693257725 0.0 0.0 0.0 0.0 0.0 309.476952940754 -62.92901237510637 480.9 -1.2819304790669284 1.0882007341581705 -1.0882007341581708 -89.44591071792371 -14.720606479100566 81.32247621489779 0.04474348473890751 -0.27187206905143985 1.6871304454567398e-17 
1.192 0.16532503348704472 -1.5707963267948966 -1.5707963267948966 0.0 1.5707963267948966 0.0 0.2773909957836321 0.0 0.0 0.0 0.0 0.0 0.23271056693257725 0.0 0.0 0.0 0.0 0.0 309.61537483447455 -62.24439465612807 480.9 -1.2828569412311304 1.086548582621414 -1.0865485826214143 -90.01727749365958 -15.019196130361017 81.87195240553902 0.04565105206796663 -0.27360874618133607 1.69852997549361e-17 
1.2 0.16755160819145562 -1.5707963267948966 -1.5707963267948966 0.0 1.5707963267948966 0.0 0.27925268031909267 0.0 0.0 0.0 0.0 0.0 0.23271056693257725 0.0 0.0 0.0 0.0 0.0 309.7531990349136 -61.55485917161363 480.9 -1.2837880446550782 1.0848850108738781 -1.0848850108738783 -90.58752988872492 -15.321733820082121 82.4214285961802 0.046570619513927436 -0.275342036135942 1.7099295055304795e-17 
1.208 0.1697930763721502 -1.5707963267948966 -1.5707963267948966 0.0 1.5707963267948966 0.0 0.2811143648545533 0.0 0.0 0.0 0.0 0.0 0.23271056693257725 0.0 0.0 0.0 0.0 0.0 309.8903940500534 -60.86040318222203 480.9 -1.2847237578036579 1.0832100136284954 -1.0832100136284957 -91.1566455692353 -15.628242521156556 82.97090478682141 0.047502256903211436 -0.2770718710311103 1.7213290355673497e-17 
1.216 0.17204943802912848 -1.5707963267948966 -1.5707963267948966 0.0 1.5707963267948966 0.0 0.2829760493900139 0.0 0.0 0.0 0.0 0.0 0.23271056693257725 0.0 0.0 0.0 0.0 0.0 310.02692816201665 -60.161024047332646 480.9 -1.2856640489506903 1.0815235855834553 -1.0815235855834555 -91.72460191354813 -15.938745088540067 83.52038097746261 0.048446033703769216 -0.278798182108049 1.7327285656042193e-17 
1.224 0.1743206931623904 -1.5707963267948966 -1.5707963267948966 0.0 1.5707963267948966 0.0 0.28483773392547457 0.0 0.0 0.0 0.0 0.0 0.23271056693257725 0.0 0.0 0.0 0.0 0.0 310.1627694271336 -59.45671922744096 480.9 -1.28660888617927 1.0798257214225708 -1.0798257214225713 -92.29137601082779 -16.253264256920275 84.06985716810381 0.04940201901799477 -0.2805208997289598 1.7441280956410894e-17 
1.232 0.17660684177193606 -1.5707963267948966 -1.5707963267948966 0.0 1.5707963267948966 0.0 0.28669941846093516 0.0 0.0 0.0 0.0 0.0 0.23271056693257725 0.0 0.0 0.0 0.0 0.0 310.2978856760212 -58.74748628657096 480.9 -1.2875582373821095 1.0781164158156549 -1.078116415815655 -92.85694465962658 -16.571822638356423 84.61933335874501 0.05037028157555145 -0.28223995337272517 1.7555276256779593e-17 
1.24 0.1789078838577654 -1.5707963267948966 -1.5707963267948966 0.0 1.5707963267948966 0.0 0.28856110299639576 0.0 0.0 0.0 0.0 0.0 0.23271056693257725 0.0 0.0 0.0 0.0 0.0 310.43224451367644 -58.03332289470413 480.9 -1.2885120702618822 1.0763956634188896 -1.07639566341889 -93.42128436648227 -16.894442719889962 85.1688095493862 0.05135088972610932 -0.28395527163064516 1.7669271557148288e-17 
1.248 0.1812238194198784 -1.5707963267948966 -1.5707963267948966 0.0 1.5707963267948966 0.0 0.2904227875318564 0.0 0.0 0.0 0.0 0.0 0.23271056693257725 0.0 0.0 0.0 0.0 0.0 310.56581331958205 -57.3142268302251 480.9 -1.2894703523315647 1.074663458875206 -1.0746634588752062 -93.98437134453201 -17.22114686112585 85.71828574002741 0.05234391143199348 -0.28566678220222497 1.778326685751699e-17 
1.256 0.1835546484582751 -1.5707963267948966 -1.5707963267948966 0.0 1.5707963267948966 0.0 0.292284472067317 0.0 0.0 0.0 0.0 0.0 0.23271056693257725 0.0 0.0 0.0 0.0 0.0 310.6985592478269 -56.59019598238364 480.9 -1.2904330509147819 1.0729197968146544 -1.0729197968146547 -94.5461815121434 -17.551957291784493 86.26776193066863 0.05334941426074316 -0.2873744118910134 1.7897262157885686e-17 
1.264 0.18590037097295548 -1.5707963267948966 -1.5707963267948966 0.0 1.5707963267948966 0.0 0.29414615660277765 0.0 0.0 0.0 0.0 0.0 0.23271056693257725 0.0 0.0 0.0 0.0 0.0 310.83044922723957 -55.86122835377333 480.9 -1.2914001331461498 1.071164671854785 -1.0711646718547851 -95.10669049156287 -17.886896109224196 86.81723812130981 0.05436746537758116 -0.28907808660049505 1.8011257458254387e-17 
1.272 0.18826098696391955 -1.5707963267948966 -1.5707963267948966 0.0 1.5707963267948966 0.0 0.29600784113823825 0.0 0.0 0.0 0.0 0.0 0.23271056693257725 0.0 0.0 0.0 0.0 0.0 310.96144996153686 -55.12732206282661 480.9 -1.2923715659716204 1.0693980786010238 -1.069398078601024 -95.6658736075814 -18.225985275934015 87.36671431195103 0.055398131537793376 -0.2907777313300347 1.8125252758623086e-17 
1.28 0.19063649643116728 -1.5707963267948966 -1.5707963267948966 0.0 1.5707963267948966 0.0 0.2978695256736989 0.0 0.0 0.0 0.0 0.0 0.23271056693257725 0.0 0.0 0.0 0.0 0.0 311.0915279294858 -54.388475346326246 480.9 -1.2933473161488256 1.067620011647053 -1.0676200116470531 -96.22370588621871 -18.56924661699698 87.91619050259223 0.0564414790790182 -0.29247327017087754 1.8239248058991785e-17 
1.288 0.19302689937469875 -1.5707963267948966 -1.5707963267948966 0.0 1.5707963267948966 0.0 0.2997312102091595 0.0 0.0 0.0 0.0 0.0 0.23271056693257725 0.0 0.0 0.0 0.0 0.0 311.2206493850817 -53.64468656193304 480.9 -1.2943273502474235 1.0658304655751905 -1.0658304655751907 -96.78016205342507 -18.91670181752349 88.46566669323342 0.05749757391344528 -0.29416462630220386 1.8353243359360483e-17 
1.296 0.19543219579451382 -1.5707963267948966 -1.5707963267948966 0.0 1.5707963267948966 0.0 0.30159289474462014 0.0 0.0 0.0 0.0 0.0 0.23271056693257725 0.0 0.0 0.0 0.0 0.0 311.3487803577399 -52.895954190730116 480.9 -1.2953116346494429 1.0640294349567727 -1.064029434956773 -97.33521653380242 -19.268372420054853 89.01514288387463 0.05856648151992359 -0.2958517219872414 1.8467238659729182e-17 
1.304 0.19785238569061264 -1.5707963267948966 -1.5707963267948966 0.0 1.5707963267948966 0.0 0.30345457928008074 0.0 0.0 0.0 0.0 0.0 0.23271056693257725 0.0 0.0 0.0 0.0 0.0 311.4758866525038 -52.14227683978304 480.9 -1.2963001355496278 1.0622169143525342 -1.0622169143525344 -97.88884344934382 -19.624279821936927 89.5646190745158 0.05964826693597852 -0.2975344785694341 1.858123396009788e-17 
1.312 0.20028746906299516 -1.5707963267948966 -1.5707963267948966 0.0 1.5707963267948966 0.0 0.30531626381554133 0.0 0.0 0.0 0.0 0.0 0.23271056693257725 0.0 0.0 0.0 0.0 0.0 311.60193385026787 -51.38365324471652 480.9 -1.2972928189557824 1.060392898312993 -1.0603928983129933 -98.44101661819276 -19.984445272663628 90.11409526515702 0.06074299474973749 -0.299212816468671 1.8695229260466576e-17 
1.32 0.20273744591166132 -1.5707963267948966 -1.5707963267948966 0.0 1.5707963267948966 0.0 0.307177948351002 0.0 0.0 0.0 0.0 0.0 0.23271056693257725 0.0 0.0 0.0 0.0 0.0 311.7268873080165 -50.62008227230705 480.9 -1.29828965068912 1.0585573813788365 -1.0585573813788367 -98.9917095534217 -20.34888987119039 90.6635714557982 0.06185072909176411 -0.3008866551775735 1.8809224560835278e-17 
1.328 0.2052023162366112 -1.5707963267948966 -1.5707963267948966 0.0 1.5707963267948966 0.0 0.3090396328864626 0.0 0.0 0.0 0.0 0.0 0.23271056693257725 0.0 0.0 0.0 0.0 0.0 311.8507121590794 -49.851562923091606 480.9 -1.2992905963846044 1.0567103580813024 -1.0567103580813026 -99.54089546183083 -20.717634563217395 91.21304764643942 0.0629715336268006 -0.3025559132578444 1.8923219861203976e-17 
1.336 0.20768208003784472 -1.5707963267948966 -1.5707963267948966 0.0 1.5707963267948966 0.0 0.31090131742192323 0.0 0.0 0.0 0.0 0.0 0.23271056693257725 0.0 0.0 0.0 0.0 0.0 311.9733733134027 -49.07809433399251 480.9 -1.3002956214912973 1.0548518229425703 -1.0548518229425707 -100.08854724276722 -21.09070013844252 91.76252383708064 0.06410547154541801 -0.3042205083366785 1.9037215161572675e-17 
1.344 0.21017673731536193 -1.5707963267948966 -1.5707963267948966 0.0 1.5707963267948966 0.0 0.3127630019573838 0.0 0.0 0.0 0.0 0.0 0.23271056693257725 0.0 0.0 0.0 0.0 0.0 312.094835457837 -48.299675780958005 480.9 -1.3013046912727038 1.0529817704761466 -1.0529817704761466 -100.63463748696459 -21.468107227783964 92.31200002772185 0.06525260555557437 -0.3058803571032359 1.9151210461941374e-17 
1.352 0.21268628806916287 -1.5707963267948966 -1.5707963267948966 0.0 1.5707963267948966 0.0 0.3146246864928445 0.0 0.0 0.0 0.0 0.0 0.23271056693257725 0.0 0.0 0.0 0.0 0.0 312.21506305644243 -47.516306681618914 480.9 -1.302317770807119 1.051100195187252 -1.0511001951872523 -101.17913847540432 -21.84987630057241 92.86147621836304 0.06641299787408028 -0.30753537530518027 1.9265205762310072e-17 
1.36 0.21521073229924748 -1.5707963267948966 -1.5707963267948966 0.0 1.5707963267948966 0.0 0.31648637102830507 0.0 0.0 0.0 0.0 0.0 0.23271056693257725 0.0 0.0 0.0 0.0 0.0 312.3340203508109 -46.72798659796109 480.9 -1.3033348249879715 1.0492070915732132 -1.0492070915732135 -101.72202217819758 -22.23602766171272 93.41095240900424 0.0675867102179718 -0.3091854777452814 1.937920106267877e-17 
1.368 0.21775007000561575 -1.5707963267948966 -1.5707963267948966 0.0 1.5707963267948966 0.0 0.3183480555637657 0.0 0.0 0.0 0.0 0.0 0.23271056693257725 0.0 0.0 0.0 0.0 0.0 312.4516713604053 -45.934715239013464 480.9 -1.3043558185241702 1.047302454123853 -1.0473024541238531 -102.26326025348989 -22.62658144881511 93.96042859964544 0.06877380379579062 -0.31083057827808475 1.9493196363047473e-17 
1.376 0.22030430118826774 -1.5707963267948966 -1.5707963267948966 0.0 1.5707963267948966 0.0 0.3202097400992263 0.0 0.0 0.0 0.0 0.0 0.23271056693257725 0.0 0.0 0.0 0.0 0.0 312.5679798829172 -45.13649246355187 480.9 -1.3053807159404485 1.045386277321878 -1.0453862773218783 -102.80282404638722 -23.021557629295675 94.50990479028665 0.06997433929877106 -0.3124705898066481 1.9607191663416168e-17 
1.384 0.22287342584720338 -1.5707963267948966 -1.5707963267948966 0.0 1.5707963267948966 0.0 0.3220714246346869 0.0 0.0 0.0 0.0 0.0 0.23271056693257725 0.0 0.0 0.0 0.0 0.0 312.68290949464176 -44.333318282818496 480.9 -1.306409481577712 1.0434585556432767 -1.043458555643277 -103.34068458790527 -23.420975997446263 95.05938098092787 0.07118837689193394 -0.3141054242793473 1.9721186963784867e-17 
1.392 0.2254574439824227 -1.5707963267948966 -1.5707963267948966 0.0 1.5707963267948966 0.0 0.32393310917014756 0.0 0.0 0.0 0.0 0.0 0.23271056693257725 0.0 0.0 0.0 0.0 0.0 312.7964235508716 -43.52519286325665 480.9 -1.307442079593379 1.0415192835577063 -1.0415192835577065 -103.87681259394122 -23.824856171473673 95.60885717156903 0.07241597620508716 -0.3157349926867514 1.9835182264153566e-17 
1.4 0.22805635559392576 -1.5707963267948966 -1.5707963267948966 0.0 1.5707963267948966 0.0 0.32579479370560815 0.0 0.0 0.0 0.0 0.0 0.23271056693257725 0.0 0.0 0.0 0.0 0.0 312.90848518630935 -42.71211652926123 480.9 -1.3084784739617286 1.0395684555288909 -1.039568455528891 -104.41117846426921 -24.233217590508012 96.15833336221024 0.07365719632373258 -0.31735920505856907 1.9949177564522264e-17 
1.408 0.2306701606817124 -1.5707963267948966 -1.5707963267948966 0.0 1.5707963267948966 0.0 0.32765647824106875 0.0 0.0 0.0 0.0 0.0 0.23271056693257725 0.0 0.0 0.0 0.0 0.0 313.01905731549795 -41.89408976594433 480.9 -1.3095186284742442 1.0376060660150155 -1.0376060660150157 -104.94375228155944 -24.64607951158032 96.70780955285146 0.07491209577987941 -0.318977970460667 2.0063172864890963e-17 
1.416 0.23329885924578278 -1.5707963267948966 -1.5707963267948966 0.0 1.5707963267948966 0.0 0.32951816277652934 0.0 0.0 0.0 0.0 0.0 0.23271056693257725 0.0 0.0 0.0 0.0 0.0 313.1281026332714 -41.071113221916065 480.9 -1.310562506739956 1.0356321094691183 -1.0356321094691185 -105.47450381042125 -25.063461006569337 97.25728574349263 0.07618073254276396 -0.3205911969921619 2.0177168165259658e-17 
1.424 0.23594245128613686 -1.5707963267948966 -1.5707963267948966 0.0 1.5707963267948966 0.0 0.33137984731199 0.0 0.0 0.0 0.0 0.0 0.23271056693257725 0.0 0.0 0.0 0.0 0.0 313.23558361522436 -40.243187712080754 480.9 -1.3116100721857875 1.033646580339492 -1.0336465803394923 -106.00340249647117 -25.485380959117318 97.80676193413382 0.07746316400947514 -0.32219879178258715 2.029116346562836e-17 
1.432 0.23860093680277464 -1.5707963267948966 -1.5707963267948966 0.0 1.5707963267948966 0.0 0.3332415318474506 0.0 0.0 0.0 0.0 0.0 0.23271056693257725 0.0 0.0 0.0 0.0 0.0 313.3414625182016 -39.410314220448086 480.9 -1.3126612880568964 1.0316494730700776 -1.0316494730700778 -106.53041746542534 -25.911858061515012 98.35623812477503 0.07875944699548637 -0.3238006609891348 2.0405158765997056e-17 
1.44 0.24127431579569608 -1.5707963267948966 -1.5707963267948966 0.0 1.5707963267948966 0.0 0.33510321638291124 0.0 0.0 0.0 0.0 0.0 0.23271056693257725 0.0 0.0 0.0 0.0 0.0 313.44570138080724 -38.572493902959124 480.9 -1.3137161174170175 1.0296407821008629 -1.029640782100863 -107.05551752221785 -26.34291081155568 98.90571431541626 0.08006963772509328 -0.3253967097939752 2.0519154066365757e-17 
1.448 0.24396258826490122 -1.5707963267948966 -1.5707963267948966 0.0 1.5707963267948966 0.0 0.33696490091837183 0.0 0.0 0.0 0.0 0.0 0.23271056693257725 0.0 0.0 0.0 0.0 0.0 313.5482620239346 -37.72972809032739 480.9 -1.3147745231488066 1.0276205018682818 -1.027620501868282 -107.57867115014442 -26.7785575093581 99.45519050605746 0.08139379182175717 -0.32698684240165476 2.0633149366734453e-17 
1.456 0.24666575421039005 -1.5707963267948966 -1.5707963267948966 0.0 1.5707963267948966 0.0 0.3388265854538325 0.0 0.0 0.0 0.0 0.0 0.23271056693257725 0.0 0.0 0.0 0.0 0.0 313.64910605131666 -36.882018290894564 480.9 -1.3158364679541803 1.025588626805613 -1.0255886268056131 -108.09984651003248 -27.218816254158654 100.00466669669865 0.08273196429835458 -0.3285709620365729 2.0747144667103155e-17 
1.464 0.24938381363216253 -1.5707963267948966 -1.5707963267948966 0.0 1.5707963267948966 0.0 0.3406882699892931 0.0 0.0 0.0 0.0 0.0 0.23271056693257725 0.0 0.0 0.0 0.0 0.0 313.7481948500972 -36.02936619350105 480.9 -1.31690191435466 1.0235451513433818 -1.023545151343382 -108.61901143943778 -27.6637049410723 100.55414288733982 0.08408420954733224 -0.33014897094054035 2.0861139967471853e-17 
1.472 0.2521167665302187 -1.5707963267948966 -1.5707963267948966 0.0 1.5707963267948966 0.0 0.3425499545247537 0.0 0.0 0.0 0.0 0.0 0.23271056693257725 0.0 0.0 0.0 0.0 0.0 313.8454895914233 -35.171773670370754 480.9 -1.3179708246917088 1.0214900699097582 -1.0214900699097584 -109.13613345186803 -28.113241257822693 101.10361907798104 0.08545058133076808 -0.3317207703704195 2.097513526784055e-17 
1.48 0.2548646129045586 -1.5707963267948966 -1.5707963267948966 0.0 1.5707963267948966 0.0 0.3444116390602143 0.0 0.0 0.0 0.0 0.0 0.23271056693257725 0.0 0.0 0.0 0.0 0.0 313.94095123105916 -34.30924278001068 480.9 -1.3190431611270759 1.019423376930961 -1.0194233769309613 -109.65117973603391 -28.567442681441115 101.65309526862225 0.08683113277033774 -0.3332862605958477 2.108913056820925e-17 
1.488 0.25762735275518217 -1.5707963267948966 -1.5707963267948966 0.0 1.5707963267948966 0.0 0.3462733235956749 0.0 0.0 0.0 0.0 0.0 0.23271056693257725 0.0 0.0 0.0 0.0 0.0 314.0345405100221 -33.441775770124714 480.9 -1.3201188856431325 1.0173450668316604 -1.0173450668316606 -110.16411715512803 -29.02632647493445 102.20257145926347 0.0882259163371868 -0.33484534089704565 2.1203125868577946e-17 
1.496 0.2604049860820894 -1.5707963267948966 -1.5707963267948966 0.0 1.5707963267948966 0.0 0.34813500813113557 0.0 0.0 0.0 0.0 0.0 0.23271056693257725 0.0 0.0 0.0 0.0 0.0 314.12621795524007 -32.569375080541526 480.9 -1.3211979600432124 1.015255134035377 -1.0152551340353773 -110.67491224613218 -29.489909683922175 102.75204764990465 0.08963498384170876 -0.3363979095627118 2.1317121168946648e-17 
1.504 0.2631937895162094 -1.5707963267948966 -1.5707963267948966 0.0 1.5707963267948966 0.0 0.3481350081311355 0.0 0.0 0.0 0.0 0.0 -0.23271056693257725 0.0 0.0 0.0 0.0 0.0 314.2158258768803 -31.69321328786409 480.9 -1.32227890442205 1.0131563753276356 -1.0131563753276358 -110.59224040872502 -29.798445181480744 102.75204764990463 0.09057278170662841 -0.3361466273821429 2.1317121168946645e-17 
1.512 0.26597142284311664 -1.5707963267948966 -1.5707963267948966 0.0 1.5707963267948966 0.0 0.3462733235956749 0.0 0.0 0.0 0.0 0.0 -0.23271056693257725 0.0 0.0 0.0 0.0 0.0 314.30264576358843 -30.820315799943028 480.9 -1.3233530607985087 1.0110656043659896 -1.0110656043659898 -109.91808727929318 -29.94452247172995 102.20257145926342 0.09101678562835852 -0.33409752972429535 2.1203125868577946e-17 
1.52 0.26873416269374023 -1.5707963267948966 -1.5707963267948966 0.0 1.5707963267948966 0.0 0.34441163906021427 0.0 0.0 0.0 0.0 0.0 -0.23271056693257725 0.0 0.0 0.0 0.0 0.0 314.3865946768518 -29.951862838442388 480.9 -1.3244190249061423 1.008985630823886 -1.0089856308238863 -109.24442854705937 -30.08545878473309 101.65309526862224 0.09144516347943189 -0.3320499347934935 2.1089130568209247e-17 
1.528 0.27148200906808007 -1.5707963267948966 -1.5707963267948966 0.0 1.5707963267948966 0.0 0.3425499545247537 0.0 0.0 0.0 0.0 0.0 -0.23271056693257725 0.0 0.0 0.0 0.0 0.0 314.46771077863536 -29.08786478317913 480.9 -1.325476837065888 1.0069164625005476 -1.0069164625005478 -108.57128466903774 -30.221285613938754 101.10361907798102 0.09185801098461628 -0.3300039047691117 2.097513526784055e-17 
1.536 0.27421496196613626 -1.5707963267948966 -1.5707963267948966 0.0 1.5707963267948966 0.0 0.340688269989293 0.0 0.0 0.0 0.0 0.0 -0.23271056693257725 0.0 0.0 0.0 0.0 0.0 314.54603206013894 -28.228331782484936 480.9 -1.3265265373495028 1.0048581071206755 -1.0048581071206757 -107.8986757110418 -30.35203447795316 100.55414288733982 0.0922554239451464 -0.32795950064146445 2.086113996747185e-17 
1.544 0.27693302138790876 -1.5707963267948966 -1.5707963267948966 0.0 1.5707963267948966 0.0 0.33882658545383243 0.0 0.0 0.0 0.0 0.0 -0.23271056693257725 0.0 0.0 0.0 0.0 0.0 314.62159634056 -27.37327375594067 480.9 -1.3275681655801799 1.0028105723350533 -1.0028105723350536 -107.22662134996602 -30.47773691797403 100.00466669669862 0.09263749823092411 -0.32591678221874176 2.0747144667103152e-17 
1.552 0.2796361873333976 -1.5707963267948966 -1.5707963267948966 0.0 1.5707963267948966 0.0 0.33696490091837183 0.0 0.0 0.0 0.0 0.0 -0.23271056693257725 0.0 0.0 0.0 0.0 0.0 314.6944412658819 -26.522700397100916 480.9 -1.3286017613331595 1.0007738657211425 -1.0007738657211427 -106.55514087607621 -30.59842449526553 99.45519050605742 0.09300432977284358 -0.32387580813397027 2.0633149366734453e-17 
1.56 0.28232445980260273 -1.5707963267948966 -1.5707963267948966 0.0 1.5707963267948966 0.0 0.3351032163829112 0.0 0.0 0.0 0.0 0.0 -0.23271056693257725 0.0 0.0 0.0 0.0 0.0 314.76460430768486 -25.67662117620934 480.9 -1.3296273639363345 0.9987479947836776 -0.9987479947836778 -105.88425319530859 -30.71412878867395 98.90571431541623 0.09335601455523998 -0.3218366358520018 2.0519154066365754e-17 
1.568 0.2849978387955242 -1.5707963267948966 -1.5707963267948966 0.0 1.5707963267948966 0.0 0.3332415318474506 0.0 0.0 0.0 0.0 0.0 -0.23271056693257725 0.0 0.0 0.0 0.0 0.0 314.8321227619823 -24.83504534290381 480.9 -1.3306450124708467 0.9967329669552506 -0.9967329669552508 -105.2139768315773 -30.824881392184064 98.35623812477503 0.09369264860846221 -0.31979932167652675 2.0405158765997056e-17 
1.576 0.2876563243121619 -1.5707963267948966 -1.5707963267948966 0.0 1.5707963267948966 0.0 0.33137984731198994 0.0 0.0 0.0 0.0 0.0 -0.23271056693257725 0.0 0.0 0.0 0.0 0.0 314.8970337480803 -23.99798192891188 480.9 -1.3316547457716812 0.9947287895968917 -0.9947287895968919 -104.54432992908947 -30.93071391251575 97.80676193413382 0.09401432800156764 -0.31776392075711085 2.0291163465628357e-17 
1.584 0.290299916352516 -1.5707963267948966 -1.5707963267948966 0.0 1.5707963267948966 0.0 0.32951816277652934 0.0 0.0 0.0 0.0 0.0 -0.23271056693257725 0.0 0.0 0.0 0.0 0.0 314.9593742074603 -23.165439750735963 480.9 -1.3326566024282522 0.9927354699986471 -0.9927354699986474 -103.87533025466806 -31.031657966760875 97.25728574349263 0.09432114883513945 -0.3157304870962555 2.0177168165259658e-17 
1.592 0.2929286149165864 -1.5707963267948966 -1.5707963267948966 0.0 1.5707963267948966 0.0 0.3276564782410687 0.0 0.0 0.0 0.0 0.0 -0.23271056693257725 0.0 0.0 0.0 0.0 0.0 315.0191809026856 -22.337427412328346 480.9 -1.3336506207849828 0.990753015380146 -0.9907530153801465 -103.20699520008176 -31.127745180059964 96.70780955285143 0.09461320723422482 -0.3136990735564795 2.0063172864890957e-17 
1.6 0.2955424200043731 -1.5707963267948966 -1.5707963267948966 0.0 1.5707963267948966 0.0 0.3257947937056081 0.0 0.0 0.0 0.0 0.0 -0.23271056693257725 0.0 0.0 0.0 0.0 0.0 315.07649041633 -21.513953307755607 480.9 -1.3346368389418803 0.9887814328911686 -0.9887814328911688 -102.53934178438183 -31.219007183318727 96.15833336221023 0.09489059934139432 -0.311669731867422 1.994917756452226e-17 
1.608 0.2981413316158762 -1.5707963267948966 -1.5707963267948966 0.0 1.5707963267948966 0.0 0.3239331091701475 0.0 0.0 0.0 0.0 0.0 -0.23271056693257725 0.0 0.0 0.0 0.0 0.0 315.13133914992983 -20.695025623852466 480.9 -1.3356152947551045 0.9868207296122029 -0.9868207296122031 -101.87238665624524 -31.305475610963942 95.60885717156903 0.09515342130992081 -0.3096425126329642 1.9835182264153562e-17 
1.616 0.3007253497510955 -1.5707963267948966 -1.5707963267948966 0.0 1.5707963267948966 0.0 0.32207142463468685 0.0 0.0 0.0 0.0 0.0 -0.23271056693257725 0.0 0.0 0.0 0.0 0.0 315.1837633229576 -19.880652342865123 480.9 -1.336586025837531 0.9848709125550009 -0.984870912555001 -101.20614609632409 -31.38718209873857 95.05938098092784 0.09540176929707773 -0.3076174653383711 1.9721186963784864e-17 
1.624 0.30329447441003116 -1.5707963267948966 -1.5707963267948966 0.0 1.5707963267948966 0.0 0.32020974009922626 0.0 0.0 0.0 0.0 0.0 -0.23271056693257725 0.0 0.0 0.0 0.0 0.0 315.2337989718184 -19.070841245083052 480.9 -1.3375490695593084 0.9829319886631267 -0.9829319886631268 -100.54063601960091 -31.46415828153609 94.50990479028663 0.09563573945755652 -0.3055946383574496 1.9607191663416165e-17 
1.632 0.3058487055926831 -1.5707963267948966 -1.5707963267948966 0.0 1.5707963267948966 0.0 0.3183480555637656 0.0 0.0 0.0 0.0 0.0 -0.23271056693257725 0.0 0.0 0.0 0.0 0.0 315.2814819488681 -18.265599911460548 480.9 -1.3385044630484093 0.9810039648124999 -0.9810039648125001 -99.87587197774924 -31.536435791273323 93.96042859964541 0.095855427937001 -0.3035740789597241 1.9493196363047463e-17 
1.64 0.3083880432990514 -1.5707963267948966 -1.5707963267948966 0.0 1.5707963267948966 0.0 0.316486371028305 0.0 0.0 0.0 0.0 0.0 -0.23271056693257725 0.0 0.0 0.0 0.0 0.0 315.3268479214524 -17.46493572622636 480.9 -1.3394522431911768 0.9790868478119358 -0.979086847811936 -99.21186916149951 -31.604046254802068 93.4109524090042 0.0960609308656598 -0.3015558333176277 1.9379201062678768e-17 
1.648 0.31091248752913603 -1.5707963267948966 -1.5707963267948966 0.0 1.5707963267948966 0.0 0.31462468649284436 0.0 0.0 0.0 0.0 0.0 -0.23271056693257725 0.0 0.0 0.0 0.0 0.0 315.3699323709681 -16.668855879482553 480.9 -1.3403924466328645 0.9771806444036779 -0.9771806444036781 -98.54864240300981 -31.667021291858877 92.861476218363 0.09625234435215466 -0.29953994651370763 1.9265205762310066e-17 
1.656 0.31342203828293697 -1.5707963267948966 -1.5707963267948966 0.0 1.5707963267948966 0.0 0.31276300195738377 0.0 0.0 0.0 0.0 0.0 -0.23271056693257725 0.0 0.0 0.0 0.0 0.0 315.41077059194515 -15.877367369791337 480.9 -1.3413251097781713 0.975285361263927 -0.9752853612639272 -97.8862061782411 -31.72539251305306 92.31200002772181 0.09642976447736494 -0.29752646254784526 1.915121046194137e-17 
1.664 0.31591669556045415 -1.5707963267948966 -1.5707963267948966 0.0 1.5707963267948966 0.0 0.3109013174219231 0.0 0.0 0.0 0.0 0.0 -0.23271056693257725 0.0 0.0 0.0 0.0 0.0 315.44939769114904 -15.090477006750852 480.9 -1.34225026879177 0.9734010050033641 -0.9734010050033642 -97.22457460933657 -31.77919151789239 91.76252383708061 0.09659328728842674 -0.2955154243444881 1.903721516157267e-17 
1.672 0.31839645936168764 -1.5707963267948966 -1.5707963267948966 0.0 1.5707963267948966 0.0 0.3090396328864626 0.0 0.0 0.0 0.0 0.0 -0.23271056693257725 0.0 0.0 0.0 0.0 0.0 315.4858485867044 -14.30819141355865 480.9 -1.3431679595988326 0.9715275821676709 -0.9715275821676711 -96.56376146700532 -31.828449892846617 91.21304764643942 0.09674300879284686 -0.2935068737598946 1.8923219861203976e-17 
1.68 0.3208613296866375 -1.5707963267948966 -1.5707963267948966 0.0 1.5707963267948966 0.0 0.30717794835100193 0.0 0.0 0.0 0.0 0.0 -0.23271056693257725 0.0 0.0 0.0 0.0 0.0 315.52015800723836 -13.530517029563732 480.9 -1.344078217885547 0.9696650992380416 -0.9696650992380418 -95.90378017290908 -31.8731992094481 90.66357145579819 0.09687902495272979 -0.29150085158938926 1.8809224560835275e-17 
1.688 0.32331130653530366 -1.5707963267948966 -1.5707963267948966 0.0 1.5707963267948966 0.0 0.30531626381554133 0.0 0.0 0.0 0.0 0.0 -0.23271056693257725 0.0 0.0 0.0 0.0 0.0 315.5523604910445 -12.757460112806367 480.9 -1.34498107909963 0.9678135626316924 -0.9678135626316926 -95.24464380205283 -31.91347102242983 90.11409526515702 0.09700143167911805 -0.28949739757462867 1.8695229260466576e-17 
1.696 0.3257463899076862 -1.5707963267948966 -1.5707963267948966 0.0 1.5707963267948966 0.0 0.3034545792800807 0.0 0.0 0.0 0.0 0.0 -0.23271056693257725 0.0 0.0 0.0 0.0 0.0 315.58249038526594 -11.989026742545793 480.9 -1.3458765784508357 0.9659729787023669 -0.965972978702367 -94.58636508517814 -31.949296867900156 89.56461907451578 0.09711032482644424 -0.2874965504108758 1.8581233960097877e-17 
1.704 0.32816657980378494 -1.5707963267948966 -1.5707963267948966 0.0 1.5707963267948966 0.0 0.3015928947446201 0.0 0.0 0.0 0.0 0.0 -0.23271056693257725 0.0 0.0 0.0 0.0 0.0 315.6105818450983 -11.225222821775755 480.9 -1.3467647509114582 0.9641433537408332 -0.9641433537408334 -93.92895641115942 -31.980708261554234 89.01514288387463 0.09720580018709495 -0.28549834775428395 1.846723865972918e-17 
1.712 0.3305718762236001 -1.5707963267948966 -1.5707963267948966 0.0 1.5707963267948966 0.0 0.2997312102091595 0.0 0.0 0.0 0.0 0.0 -0.23271056693257725 0.0 0.0 0.0 0.0 0.0 315.6366688330115 -10.466054079727488 480.9 -1.347645631216828 0.9623246939753809 -0.9623246939753811 -93.2724298294026 -32.007736696921924 88.4656666932334 0.09728795348608488 -0.28350282622918727 1.8353243359360483e-17 
1.72 0.33296227916713156 -1.5707963267948966 -1.5707963267948966 0.0 1.5707963267948966 0.0 0.29786952567369884 0.0 0.0 0.0 0.0 0.0 -0.23271056693257725 0.0 0.0 0.0 0.0 0.0 315.6607851179918 -9.71152607436051 480.9 -1.348519253865802 0.9605170055723089 -0.9605170055723091 -92.6167970522461 -32.030413643651706 87.9161905025922 0.09735688037584106 -0.2815100214353985 1.8239248058991782e-17 
1.728 0.3353377886343793 -1.5707963267948966 -1.5707963267948966 0.0 1.5707963267948966 0.0 0.29600784113823825 0.0 0.0 0.0 0.0 0.0 -0.23271056693257725 0.0 0.0 0.0 0.0 0.0 315.68296427480067 -8.961644194840591 480.9 -1.3493856531212542 0.9587202946364114 -0.9587202946364116 -91.96206945736377 -32.048770545830706 87.36671431195103 0.09741267643109637 -0.279519967955513 1.8125252758623086e-17 
1.736 0.33769840462534334 -1.5707963267948966 -1.5707963267948966 0.0 1.5707963267948966 0.0 0.2941461566027776 0.0 0.0 0.0 0.0 0.0 -0.23271056693257725 0.0 0.0 0.0 0.0 0.0 315.7032396832537 -8.216413664004904 480.9 -1.350244863010555 0.9569345672114598 -0.9569345672114602 -91.30825809016945 -32.06283882034022 86.8172381213098 0.09745543714389127 -0.2775326993622172 1.8011257458254384e-17 
1.744 0.3400441271400237 -1.5707963267948966 -1.5707963267948966 0.0 1.5707963267948966 0.0 0.292284472067317 0.0 0.0 0.0 0.0 0.0 -0.23271056693257725 0.0 0.0 0.0 0.0 0.0 315.72164452751724 -7.475839540814739 480.9 -1.3510969173260456 0.9551598292806754 -0.9551598292806757 -90.65537366622307 -32.0726498552468 86.26776193066858 0.09748525791868329 -0.27554824822560203 1.7897262157885686e-17 
1.752 0.3423749561784204 -1.5707963267948966 -1.5707963267948966 0.0 1.5707963267948966 0.0 0.29042278753185635 0.0 0.0 0.0 0.0 0.0 -0.23271056693257725 0.0 0.0 0.0 0.0 0.0 315.7382117954229 -6.739926722795005 480.9 -1.3519418496255153 0.9533960867672052 -0.9533960867672056 -90.00342657363788 -32.07823500822835 85.7182857400274 0.09750223406756338 -0.2735666461204799 1.7783266857516987e-17 
1.76 0.3446908917405334 -1.5707963267948966 -1.5707963267948966 0.0 1.5707963267948966 0.0 0.28856110299639576 0.0 0.0 0.0 0.0 0.0 -0.23271056693257725 0.0 0.0 0.0 0.0 0.0 315.75297427779986 -6.008679948460685 480.9 -1.3527796932326615 0.9516433455345852 -0.9516433455345854 -89.35242687548865 -32.07962560503534 85.16880954938618 0.09750646080557855 -0.2715879236337041 1.7669271557148288e-17 
1.768 0.3469919338263628 -1.5707963267948966 -1.5707963267948966 0.0 1.5707963267948966 0.0 0.28669941846093516 0.0 0.0 0.0 0.0 0.0 -0.23271056693257725 0.0 0.0 0.0 0.0 0.0 315.7659645678249 -5.282103799730301 480.9 -1.3536104812375562 0.9499016113872047 -0.949901611387205 -88.70238431222059 -32.07685293798656 84.61933335874501 0.09749803324615976 -0.26961211037149113 1.7555276256779593e-17 
1.776 0.3492780824359084 -1.5707963267948966 -1.5707963267948966 0.0 1.5707963267948966 0.0 0.2848377339254745 0.0 0.0 0.0 0.0 0.0 -0.23271056693257725 0.0 0.0 0.0 0.0 0.0 315.77721506038944 -4.56020270432623 480.9 -1.3544342464970986 0.9481708900707638 -0.948170890070764 -88.05330830405872 -32.06994826449931 84.0698571681038 0.09747704639665444 -0.2676392349667438 1.744128095641089e-17 
1.784 0.35154933756917034 -1.5707963267948966 -1.5707963267948966 0.0 1.5707963267948966 0.0 0.28297604939001386 0.0 0.0 0.0 0.0 0.0 -0.23271056693257725 0.0 0.0 0.0 0.0 0.0 315.78675795148365 -3.842980938161258 480.9 -1.3552510216354705 0.946451187272727 -0.9464511872727271 -87.40520795341743 -32.05894280565389 83.52038097746258 0.09744359515396321 -0.26566932508637514 1.732728565604219e-17 
1.792 0.35380569922614863 -1.5707963267948966 -1.5707963267948966 0.0 1.5707963267948966 0.0 0.28111436485455327 0.0 0.0 0.0 0.0 0.0 -0.23271056693257725 0.0 0.0 0.0 0.0 0.0 315.79462523759736 -3.1304426277123163 480.9 -1.3560608390445807 0.9447425086227724 -0.9447425086227726 -86.75809204731021 -32.04386774479188 82.9709047868214 0.0973977743002793 -0.2637024074386329 1.7213290355673494e-17 
1.8 0.35604716740684317 -1.5707963267948966 -1.5707963267948966 0.0 1.5707963267948966 0.0 0.27925268031909267 0.0 0.0 0.0 0.0 0.0 -0.23271056693257725 0.0 0.0 0.0 0.0 0.0 315.8008487151377 -2.422591752380253 480.9 -1.35686373088451 0.9430448596932379 -0.9430448596932381 -86.11196905975895 -32.024754226148126 82.4214285961802 0.0973396784989305 -0.26173850778042235 1.7099295055304795e-17 
1.808 0.3582737421112541 -1.5707963267948966 -1.5707963267948966 0.0 1.5707963267948966 0.0 0.277390995783632 0.0 0.0 0.0 0.0 0.0 -0.23271056693257725 0.0 0.0 0.0 0.0 0.0 315.80545997986235 -1.71943214683618 480.9 -1.3576597290839423 0.9413582459995586 -0.9413582459995589 -85.46684715420288 -32.00163335351619 81.871952405539 0.09726940229032278 -0.25977765092462884 1.6985299754936097e-17 
1.816 0.3604854233393813 -1.5707963267948966 -1.5707963267948966 0.0 1.5707963267948966 0.0 0.2755293112481714 0.0 0.0 0.0 0.0 0.0 -0.23271056693257725 0.0 0.0 0.0 0.0 0.0 315.80849042632957 -1.0209675033542318 480.9 -1.3584488653406057 0.9396826730007071 -0.9396826730007074 -84.82273418590701 -31.97453618894695 81.3224762148978 0.09718704008798465 -0.25781986074743773 1.6871304454567398e-17 
1.824 0.36268221109122484 -1.5707963267948966 -1.5707963267948966 0.0 1.5707963267948966 0.0 0.27366762671271083 0.0 0.0 0.0 0.0 0.0 -0.23271056693257725 0.0 0.0 0.0 0.0 0.0 315.8099712473638 -0.32720137413022954 480.9 -1.359231171121695 0.9380181460996226 -0.9380181460996229 -84.17963770436948 -31.943493751480116 80.77300002425662 0.0970926861747116 -0.25586516019565186 1.67573091541987e-17 
1.832 0.3648641053667847 -1.5707963267948966 -1.5707963267948966 0.0 1.5707963267948966 0.0 0.2718059421772502 0.0 0.0 0.0 0.0 0.0 -0.23271056693257725 0.0 0.0 0.0 0.0 0.0 315.8099334335366 0.36186282641310896 480.9 -1.3600066776642954 0.9363646706436403 -0.9363646706436405 -83.53756495572793 -31.908537015908397 80.22352383361537 0.09698643469880973 -0.2539135712940058 1.664331385383e-17 
1.84 0.3670311061660608 -1.5707963267948966 -1.5707963267948966 0.0 1.5707963267948966 0.0 0.26994425764178953 0.0 0.0 0.0 0.0 0.0 -0.23271056693257725 0.0 0.0 0.0 0.0 0.0 315.80840777266326 1.0462218193351234 480.9 -1.3607754159758034 0.9347222519249146 -0.9347222519249149 -82.89652288516476 -31.86969691157411 79.67404764297419 0.09686837967043804 -0.25196511515247644 1.65293185534613e-17 
1.848 0.3691832134890533 -1.5707963267948966 -1.5707963267948966 0.0 1.5707963267948966 0.0 0.26808257310632894 0.0 0.0 0.0 0.0 0.0 -0.23271056693257725 0.0 0.0 0.0 0.0 0.0 315.8054248493138 1.7258724589002696 480.9 -1.3615374168343393 0.9330908951808389 -0.9330908951808391 -82.25651813931067 -31.82700432119795 79.12457145233297 0.09673861495804849 -0.2500198119735887 1.6415323253092603e-17 
1.856 0.3713204273357621 -1.5707963267948966 -1.5707963267948966 0.0 1.5707963267948966 0.0 0.26622088857086834 0.0 0.0 0.0 0.0 0.0 -0.23271056693257725 0.0 0.0 0.0 0.0 0.0 315.80101504434015 2.4008117303149206 480.9 -1.362292710789157 0.9314706055944606 -0.9314706055944608 -81.61755706864675 -31.780490079739582 78.57509526169179 0.09659723428492276 -0.24807768105971653 1.6301327952723905e-17 
1.864 0.37344274770618724 -1.5707963267948966 -1.5707963267948966 0.0 1.5707963267948966 0.0 0.2643592040354077 0.0 0.0 0.0 0.0 0.0 -0.23271056693257725 0.0 0.0 0.0 0.0 0.0 315.79520853441653 3.0710367474787397 480.9 -1.3630413281610503 0.9298613882948934 -0.9298613882948936 -80.97964572990452 -31.730184973289994 78.02561907105057 0.09644433122580545 -0.24613874082037845 1.6187332652355203e-17 
1.872 0.37555017460032863 -1.5707963267948966 -1.5707963267948966 0.0 1.5707963267948966 0.0 0.2624975194999471 0.0 0.0 0.0 0.0 0.0 -0.23271056693257725 0.0 0.0 0.0 0.0 0.0 315.78803529159495 3.7365447507499283 480.9 -1.3637832990427532 0.9282632483577243 -0.9282632483577246 -80.34278988846428 -31.67611973799519 77.47614288040938 0.0962799992036328 -0.24420300877952666 1.6073337351986508e-17 
1.88 0.3776427080181864 -1.5707963267948966 -1.5707963267948966 0.0 1.5707963267948966 0.0 0.26063583496448645 0.0 0.0 0.0 0.0 0.0 -0.23271056693257725 0.0 0.0 0.0 0.0 0.0 315.77952508287495 4.397333104725124 480.9 -1.3645186532993336 0.9266761908054156 -0.9266761908054159 -79.70699502075084 -31.618325059011013 76.92666668976817 0.09610433148635568 -0.24227050158282926 1.5959342051617806e-17 
1.888 0.37972034795976045 -1.5707963267948966 -1.5707963267948966 0.0 1.5707963267948966 0.0 0.25877415042902585 0.0 0.0 0.0 0.0 0.0 -0.23271056693257725 0.0 0.0 0.0 0.0 0.0 315.76970746978697 5.053399296033373 480.9 -1.3652474205685907 0.9251002206077068 -0.925100220607707 -79.07226631662725 -31.55683156948891 76.37719049912697 0.09591742118385688 -0.24034123500494603 1.584534675124911e-17 
1.896 0.38178309442505076 -1.5707963267948966 -1.5707963267948966 0.0 1.5707963267948966 0.0 0.2569124658935652 0.0 0.0 0.0 0.0 0.0 -0.23271056693257725 0.0 0.0 0.0 0.0 0.0 315.7586118079894 5.704740931144542 480.9 -1.3659696302614361 0.9235353426820078 -0.923535342682008 -78.43860868178571 -31.491669849592196 75.82771430848578 0.0957193612449611 -0.23841522395679549 1.573135145088041e-17 
1.904 0.3838309474140575 -1.5707963267948966 -1.5707963267948966 0.0 1.5707963267948966 0.0 0.2550507813581046 0.0 0.0 0.0 0.0 0.0 -0.23271056693257725 0.0 0.0 0.0 0.0 0.0 315.74626724687926 6.351355734192808 480.9 -1.3666853115622826 0.921981561893791 -0.9219815618937911 -77.80602674013592 -31.422870425542943 75.27823811784455 0.09551024445453783 -0.23649248249281435 1.561735615051171e-17 
1.912 0.38586390692678046 -1.5707963267948966 -1.5707963267948966 0.0 1.5707963267948966 0.0 0.253189096822644 0.0 0.0 0.0 0.0 0.0 -0.23271056693257725 0.0 0.0 0.0 0.0 0.0 315.7327027292166 6.99324154481365 480.9 -1.3673944934294202 0.92043888305698 -0.9204388830569802 -77.17452483619047 -31.350463768698663 74.72876192720338 0.09529016343069503 -0.23457302381820813 1.5503360850143014e-17 
1.92 0.3878819729632197 -1.5707963267948966 -1.5707963267948966 0.0 1.5707963267948966 0.0 0.2513274122871834 0.0 0.0 0.0 0.0 0.0 -0.23271056693257725 0.0 0.0 0.0 0.0 0.0 315.7179469907607 7.6303963159965775 480.9 -1.3680972045953912 0.9189073109343312 -0.9189073109343314 -76.54410703744723 -31.27448029465914 74.17928573656218 0.09505921062206425 -0.2326568602961922 1.5389365549774316e-17 
1.928 0.3898851455233754 -1.5707963267948966 -1.5707963267948966 0.0 1.5707963267948966 0.0 0.2494657277517228 0.0 0.0 0.0 0.0 0.0 -0.23271056693257725 0.0 0.0 0.0 0.0 0.0 315.7020285599204 8.262818111951816 480.9 -1.3687934735673617 0.9173868502378157 -0.9173868502378161 -75.91477713676858 -31.194950362402732 73.62980954592099 0.09481747830517549 -0.2307440034552236 1.5275370249405617e-17 
1.936 0.3918734246072473 -1.5707963267948966 -1.5707963267948966 0.0 1.5707963267948966 0.0 0.24760404321626217 0.0 0.0 0.0 0.0 0.0 -0.23271056693257725 0.0 0.0 0.0 0.0 0.0 315.68497575741594 8.890505105992027 480.9 -1.369483328627487 0.9158775056289943 -0.9158775056289944 -75.2865386547572 -31.11190427345207 73.08033335527978 0.09456505858192119 -0.22883446399622245 1.5161374949036918e-17 
1.944 0.3938468102148356 -1.5707963267948966 -1.5707963267948966 0.0 1.5707963267948966 0.0 0.24574235868080155 0.0 0.0 0.0 0.0 0.0 -0.23271056693257725 0.0 0.0 0.0 0.0 0.0 315.66681669595437 9.513455578428761 480.9 -1.3701667978332737 0.9143792817193884 -0.9143792817193886 -74.65939484212852 -31.02537227106883 72.53085716463859 0.09430204337710892 -0.2269282517997827 1.504737964866822e-17 
1.952 0.39580530234614014 -1.5707963267948966 -1.5707963267948966 0.0 1.5707963267948966 0.0 0.24388067414534093 0.0 0.0 0.0 0.0 0.0 -0.23271056693257725 0.0 0.0 0.0 0.0 0.0 315.6475792799156 10.131667914483764 480.9 -1.3708439090179394 0.9128921830708523 -0.9128921830708525 -74.0333486820794 -30.9353845394774 71.98138097399737 0.09402852443610153 -0.22502537593337207 1.493338434829952e-17 
1.96 0.397748901001161 -1.5707963267948966 -1.5707963267948966 0.0 1.5707963267948966 0.0 0.24201898960988033 0.0 0.0 0.0 0.0 0.0 -0.23271056693257725 0.0 0.0 0.0 0.0 0.0 315.62729120505185 10.745140602215258 480.9 -1.3715146897907657 0.9114162141959338 -0.911416214195934 -73.40840289265317 -30.84197120311711 71.43190478335617 0.09374459332254442 -0.22312584465852028 1.4819389047930823e-17 
1.968 0.3996776061798982 -1.5707963267948966 -1.5707963267948966 0.0 1.5707963267948966 0.0 0.24015730507441968 0.0 0.0 0.0 0.0 0.0 -0.23271056693257725 0.0 0.0 0.0 0.0 0.0 315.60597995819785 11.353872230459082 480.9 -1.3721791675374473 0.9099513795582377 -0.9099513795582379 -72.7845599291006 -30.745162325922806 70.88242859271496 0.09345034141617875 -0.22122966543799572 1.4705393747562124e-17 
1.976 0.4015914178823517 -1.5707963267948966 -1.5707963267948966 0.0 1.5707963267948966 0.0 0.23829562053895909 0.0 0.0 0.0 0.0 0.0 -0.23271056693257725 0.0 0.0 0.0 0.0 0.0 315.58367281699293 11.957861486784811 480.9 -1.3728373694204392 0.9084976835727823 -0.9084976835727825 -72.16182198623704 -30.6449879106335 70.33295240207377 0.09314585991074015 -0.21933684494296973 1.4591398447193425e-17 
1.984 0.4034903361085216 -1.5707963267948966 -1.5707963267948966 0.0 1.5707963267948966 0.0 0.23643393600349846 0.0 0.0 0.0 0.0 0.0 -0.23271056693257725 0.0 0.0 0.0 0.0 0.0 315.5603968496144 12.557107155467168 480.9 -1.3734893223792994 0.9070551306063532 -0.9070551306063535 -71.54019100079532 -30.541477898128914 69.78347621143259 0.09283123981194201 -0.21744738906016814 1.4477403146824727e-17 
1.992 0.4053743608584077 -1.5707963267948966 -1.5707963267948966 0.0 1.5707963267948966 0.0 0.23457225146803784 0.0 0.0 0.0 0.0 0.0 -0.23271056693257725 0.0 0.0 0.0 0.0 0.0 315.53617891452166 13.151608115472062 480.9 -1.3741350531310248 0.9056237249778534 -0.9056237249778536 -70.91966865377425 -30.43466216679346 69.23400002079136 0.09250657193554246 -0.21556130289900988 1.4363407846456028e-17 
2.0 0.40724349213201017 -1.5707963267948966 -1.5707963267948966 0.0 1.5707963267948966 0.0 0.23271056693257722 0.0 0.0 0.0 0.0 0.0 -0.23271056693257725 0.0 0.0 0.0 0.0 0.0 315.5110456602121 13.741363338458338 480.9 -1.3747745881703877 0.90420347095865 -0.9042034709586502 -70.30025637278298 -30.324570531907753 68.68452383015016 0.09217194690549471 -0.21367859079873247 1.424941254608733e-17 
