Fleaurent/UniversalRobot/csv/robot_movel_x400_Singular.csv
timestamp target_q_0 target_q_1 target_q_2 target_q_3 target_q_4 target_q_5 target_qd_0 target_qd_1 target_qd_2 target_qd_3 target_qd_4 target_qd_5 target_qdd_0 target_qdd_1 target_qdd_2 target_qdd_3 target_qdd_4 target_qdd_5 target_current_0 target_current_1 target_current_2 target_current_3 target_current_4 target_current_5 target_moment_0 target_moment_1 target_moment_2 target_moment_3 target_moment_4 target_moment_5 actual_q_0 actual_q_1 actual_q_2 actual_q_3 actual_q_4 actual_q_5 actual_qd_0 actual_qd_1 actual_qd_2 actual_qd_3 actual_qd_4 actual_qd_5 actual_current_0 actual_current_1 actual_current_2 actual_current_3 actual_current_4 actual_current_5 joint_control_output_0 joint_control_output_1 joint_control_output_2 joint_control_output_3 joint_control_output_4 joint_control_output_5 actual_TCP_pose_0 actual_TCP_pose_1 actual_TCP_pose_2 actual_TCP_pose_3 actual_TCP_pose_4 actual_TCP_pose_5 actual_TCP_speed_0 actual_TCP_speed_1 actual_TCP_speed_2 actual_TCP_speed_3 actual_TCP_speed_4 actual_TCP_speed_5 actual_TCP_force_0 actual_TCP_force_1 actual_TCP_force_2 actual_TCP_force_3 actual_TCP_force_4 actual_TCP_force_5 target_TCP_pose_0 target_TCP_pose_1 target_TCP_pose_2 target_TCP_pose_3 target_TCP_pose_4 target_TCP_pose_5 target_TCP_speed_0 target_TCP_speed_1 target_TCP_speed_2 target_TCP_speed_3 target_TCP_speed_4 target_TCP_speed_5
7707.639999999999 1.6244145631790161 -2.085700337086813 2.3236467838287354 -3.472584072743551 -0.05377322832216436 0.11205138266086578 0.0 0.0 0.0 0.0 0.0 0.0 0.0 0.0 0.0 0.0 0.0 0.0 1.9747353935518702e-17 -0.01635456166548786 -0.6928915259581856 0.01968809579943538 -0.006510300211118856 0.0 2.2662062158878047e-16 -0.18838000544495248 -5.850216338782681 0.08126240276244055 -0.02702674429627759 0.0 1.6244264841079712 -2.085700337086813 2.3236589431762695 -3.4726198355304163 -0.053785149251119435 0.11199108511209488 0.0 0.0 -0.0 0.0 0.0 0.0 0.006729126907885075 -0.0785064771771431 -0.7426950335502625 0.06378264725208282 -0.048116736114025116 0.12980328500270844 0.006729126907885075 -0.0717773512005806 -0.7472701668739319 0.06490164250135422 -0.04923573136329651 0.09959045052528381 0.19969016812221801 -0.07274348075281008 0.3985886677669791 -1.1969202099480252 1.2180431224475483 -1.1939262417244947 0.0 0.0 0.0 0.0 0.0 0.0 4.3923864275667395 -3.7244453691318498 -4.257250726425119 -0.6034509844074228 1.4008249076053727 0.3376337691864062 0.1996894554583975 -0.07274751472285904 0.39859117483232454 -1.196859983632481 1.2180842510740573 -1.193863433688838 0.0 0.0 0.0 0.0 0.0 0.0
7707.647999999999 1.6244145631790161 -2.085700337086813 2.3236467838287354 -3.472584072743551 -0.05377322832216436 0.11205138266086578 0.0 0.0 0.0 0.0 0.0 0.0 0.0 0.0 0.0 0.0 0.0 0.0 1.9747353935518702e-17 -0.01635456166548786 -0.6928915259581856 0.01968809579943538 -0.006510300211118856 0.0 2.2662062158878047e-16 -0.18838000544495248 -5.850216338782681 0.08126240276244055 -0.02702674429627759 0.0 1.624450445175171 -2.0856884161578577 2.323575019836426 -3.4726079146014612 -0.053748909627096 0.11205138266086578 0.0 0.0 -0.0 0.0 0.0 0.0 0.008972168900072575 -0.0695343092083931 -0.748795211315155 0.06602063775062561 -0.0503547228872776 0.1018284410238266 0.006729126907885075 -0.0717773512005806 -0.748795211315155 0.06490164250135422 -0.04923573136329651 0.1018284410238266 0.19969203137214672 -0.07273676757483803 0.39860452506093574 -1.196949097655439 1.2179995700023116 -1.1938815031359375 0.0 0.0 0.0 0.0 0.0 0.0 1.1398090447050215 -3.1602153554943473 -4.3791892067755045 -0.47183603178020755 -0.011931701267874028 0.4327186354288728 0.1996894554583975 -0.07274751472285904 0.39859117483232454 -1.196859983632481 1.2180842510740573 -1.193863433688838 0.0 0.0 0.0 0.0 0.0 0.0
7707.656 1.6244145631790161 -2.085700337086813 2.3236467838287354 -3.472584072743551 -0.05377322832216436 0.11205138266086578 0.0 0.0 0.0 0.0 0.0 0.0 0.0 0.0 0.0 0.0 0.0 0.0 1.9747353935518702e-17 -0.01635456166548786 -0.6928915259581856 0.01968809579943538 -0.006510300211118856 0.0 2.2662062158878047e-16 -0.18838000544495248 -5.850216338782681 0.08126240276244055 -0.02702674429627759 0.0 1.624450445175171 -2.0856884161578577 2.3236348628997803 -3.4726198355304163 -0.05377322832216436 0.11199108511209488 0.0 0.0 -0.0 0.0 0.0 0.0 0.008972168900072575 -0.0762634351849556 -0.748795211315155 0.07609158009290695 -0.048116736114025116 0.10294743627309799 0.006729126907885075 -0.0717773512005806 -0.7472701668739319 0.06490164250135422 -0.04923573136329651 0.09847146272659302 0.1996920410725087 -0.07273982059265205 0.3985924851125424 -1.1969467566538918 1.2180116271388548 -1.193908503398794 0.0 0.0 0.0 0.0 0.0 0.0 0.19187039696528668 -3.828312908723077 -4.736062989366638 -0.47462762964241606 -1.7282848222578822 0.635081837436002 0.1996894554583975 -0.07274751472285904 0.39859117483232454 -1.196859983632481 1.2180842510740573 -1.193863433688838 0.0 0.0 0.0 0.0 0.0 0.0
7707.664 1.6244145631790161 -2.085700337086813 2.3236467838287354 -3.472584072743551 -0.05377322832216436 0.11205138266086578 0.0 0.0 0.0 0.0 0.0 0.0 0.0 0.0 0.0 0.0 0.0 0.0 1.9747353935518702e-17 -0.01635456166548786 -0.6928915259581856 0.01968809579943538 -0.006510300211118856 0.0 2.2662062158878047e-16 -0.18838000544495248 -5.850216338782681 0.08126240276244055 -0.02702674429627759 0.0 1.6244025230407715 -2.0856526533709925 2.3236348628997803 -3.4726079146014612 -0.05377322832216436 0.11202741414308548 0.0 0.0 -0.0 0.0 0.0 0.0 0.011215210892260075 -0.0695343092083931 -0.748795211315155 0.08056755363941193 -0.04923573136329651 0.09735246747732162 0.004486084450036287 -0.0717773512005806 -0.7472701668739319 0.06490164250135422 -0.04923573136329651 0.1018284410238266 0.19968907996386392 -0.07275922050101696 0.3985895417670522 -1.1968636111479287 1.2180877312504976 -1.1938808127981284 0.0 0.0 0.0 0.0 0.0 0.0 -1.102738493773279 -3.487458539253713 -4.728688232532919 -0.44849787169830957 -1.943595788636328 0.6323353296864528 0.1996894554583975 -0.07274751472285904 0.39859117483232454 -1.196859983632481 1.2180842510740573 -1.193863433688838 0.0 0.0 0.0 0.0 0.0 0.0
7707.672 1.6244145631790161 -2.085700337086813 2.3236467838287354 -3.472584072743551 -0.05377322832216436 0.11205138266086578 0.0 0.0 0.0 0.0 0.0 0.0 0.0 0.0 0.0 0.0 0.0 0.0 1.9747353935518702e-17 -0.01635456166548786 -0.6928915259581856 0.01968809579943538 -0.006510300211118856 0.0 2.2662062158878047e-16 -0.18838000544495248 -5.850216338782681 0.08126240276244055 -0.02702674429627759 0.0 1.6244385242462158 -2.0856764952289026 2.323575019836426 -3.472595993672506 -0.05377322832216436 0.11197910457849503 0.0 0.0 -0.0 0.0 0.0 0.0 0.006729126907885075 -0.0740203931927681 -0.7731958627700806 0.06937761604785919 -0.04364075884222984 0.10966140031814575 0.006729126907885075 -0.0717773512005806 -0.7472701668739319 0.06490164250135422 -0.04923573136329651 0.1018284410238266 0.19969137730324288 -0.07274509755674778 0.39860375791504116 -1.1969667435087543 1.2180025622297384 -1.1939444043314333 0.0 0.0 0.0 0.0 0.0 0.0 2.6095504093473316 -2.920307809396903 -5.543676797436007 -0.5092060990630474 0.6923575282563524 0.3067444143157086 0.1996894554583975 -0.07274751472285904 0.39859117483232454 -1.196859983632481 1.2180842510740573 -1.193863433688838 0.0 0.0 0.0 0.0 0.0 0.0
7707.679999999999 1.6244145631790161 -2.085700337086813 2.3236467838287354 -3.472584072743551 -0.05377322832216436 0.11205138266086578 0.0 0.0 0.0 0.0 0.0 0.0 0.0 0.0 0.0 0.0 0.0 0.0 1.9747353935518702e-17 -0.01635456166548786 -0.6928915259581856 0.01968809579943538 -0.006510300211118856 0.0 2.2662062158878047e-16 -0.18838000544495248 -5.850216338782681 0.08126240276244055 -0.02702674429627759 0.0 1.624450445175171 -2.085712258015768 2.32361102104187 -3.472584072743551 -0.053760830556051076 0.11195513606071472 0.0 0.0 -0.0 0.0 0.0 0.0 0.01345825381577015 -0.0717773512005806 -0.7335448265075684 0.05594969168305397 -0.0503547228872776 0.09847146272659302 0.006729126907885075 -0.0717773512005806 -0.7457451224327087 0.06490164250135422 -0.04923573136329651 0.1007094457745552 0.19969186996397031 -0.07273515429507951 0.3985993567623759 -1.1969883514749566 1.217980771762566 -1.1939345057769677 0.0 0.0 0.0 0.0 0.0 0.0 0.817162762684444 -3.51983500803881 -3.5386763125847325 -0.45619476586656027 -0.027585055788287488 0.47027822472192415 0.1996894554583975 -0.07274751472285904 0.39859117483232454 -1.196859983632481 1.2180842510740573 -1.193863433688838 0.0 0.0 0.0 0.0 0.0 0.0
7707.688 1.6244145631790161 -2.085700337086813 2.3236467838287354 -3.472584072743551 -0.05377322832216436 0.11205138266086578 0.0 0.0 0.0 0.0 0.0 0.0 0.0 0.0 0.0 0.0 0.0 0.0 1.9747353935518702e-17 -0.01635456166548786 -0.6928915259581856 0.01968809579943538 -0.006510300211118856 0.0 2.2662062158878047e-16 -0.18838000544495248 -5.850216338782681 0.08126240276244055 -0.02702674429627759 0.0 1.6244264841079712 -2.085712258015768 2.3236348628997803 -3.4726317564593714 -0.05373698869814092 0.11195513606071472 0.0 0.0 -0.0 0.0 0.0 0.0 0.006729126907885075 -0.0650482252240181 -0.767095685005188 0.03580780327320099 -0.04699774086475372 0.1007094457745552 0.006729126907885075 -0.0717773512005806 -0.7457451224327087 0.06490164250135422 -0.04923573136329651 0.1007094457745552 0.19968992844510586 -0.07273474093892927 0.398594155395487 -1.1970065508866887 1.217970350340847 -1.1939516587147667 0.0 0.0 0.0 0.0 0.0 0.0 5.070361526163254 -1.80717665422131 -4.317006450641683 -0.47271200254555545 4.269557675943831 -0.09450033048804893 0.1996894554583975 -0.07274751472285904 0.39859117483232454 -1.196859983632481 1.2180842510740573 -1.193863433688838 0.0 0.0 0.0 0.0 0.0 0.0
7707.696 1.6244145631790161 -2.085700337086813 2.3236467838287354 -3.472584072743551 -0.05377322832216436 0.11205138266086578 0.0 0.0 0.0 0.0 0.0 0.0 0.0 0.0 0.0 0.0 0.0 0.0 1.9747353935518702e-17 -0.01635456166548786 -0.6928915259581856 0.01968809579943538 -0.006510300211118856 0.0 2.2662062158878047e-16 -0.18838000544495248 -5.850216338782681 0.08126240276244055 -0.02702674429627759 0.0 1.6244025230407715 -2.085700337086813 2.32361102104187 -3.472584072743551 -0.05373698869814092 0.11203939467668533 0.0 0.0 -0.0 0.0 0.0 0.0 0.01345825381577015 -0.0717773512005806 -0.7655707001686096 0.07609158009290695 -0.04587874934077263 0.10406643152236938 0.006729126907885075 -0.0717773512005806 -0.7457451224327087 0.06490164250135422 -0.04923573136329651 0.1007094457745552 0.19968853992815308 -0.07274570648531607 0.39859817924647983 -1.1969078643652031 1.2180454831254515 -1.1938800984349325 0.0 0.0 0.0 0.0 0.0 0.0 0.068166255412926 -3.1588965291711593 -5.348200976006638 -0.4815513943711748 -0.5299196038198333 0.4526688829158881 0.1996894554583975 -0.07274751472285904 0.39859117483232454 -1.196859983632481 1.2180842510740573 -1.193863433688838 0.0 0.0 0.0 0.0 0.0 0.0
7707.704 1.6244145631790161 -2.085700337086813 2.3236467838287354 -3.472584072743551 -0.05377322832216436 0.11205138266086578 0.0 0.0 0.0 0.0 0.0 0.0 0.0 0.0 0.0 0.0 0.0 0.0 1.9747353935518702e-17 -0.01635456166548786 -0.6928915259581856 0.01968809579943538 -0.006510300211118856 0.0 2.2662062158878047e-16 -0.18838000544495248 -5.850216338782681 0.08126240276244055 -0.02702674429627759 0.0 1.6244145631790161 -2.0856764952289026 2.323622941970825 -3.4726198355304163 -0.05377322832216436 0.11201542615890503 0.0 0.0 -0.0 0.0 0.0 0.0 0.006729126907885075 -0.0605621412396431 -0.7304947376251221 0.07385359704494476 -0.04699774086475372 0.08056755363941193 0.006729126907885075 -0.0672912672162056 -0.7457451224327087 0.06378264725208282 -0.04587874934077263 0.1007094457745552 0.19968957430510595 -0.07274950991933801 0.3985939178698414 -1.19691158350755 1.2180491621089897 -1.193916988944553 0.0 0.0 0.0 0.0 0.0 0.0 -1.3216594825259023 -3.1624331955744194 -3.655231551718198 -0.3701085826774453 -2.346000182727577 0.6410711430416457 0.1996894554583975 -0.07274751472285904 0.39859117483232454 -1.196859983632481 1.2180842510740573 -1.193863433688838 0.0 0.0 0.0 0.0 0.0 0.0
7707.7119999999995 1.6244145631790161 -2.085700337086813 2.3236467838287354 -3.472584072743551 -0.05377322832216436 0.11205138266086578 0.0 0.0 0.0 0.0 0.0 0.0 0.0 0.0 0.0 0.0 0.0 0.0 1.9747353935518702e-17 -0.01635456166548786 -0.6928915259581856 0.01968809579943538 -0.006510300211118856 0.0 2.2662062158878047e-16 -0.18838000544495248 -5.850216338782681 0.08126240276244055 -0.02702674429627759 0.0 1.6244264841079712 -2.0856884161578577 2.32361102104187 -3.4726317564593714 -0.053760830556051076 0.11202741414308548 0.0 0.0 -0.0 0.0 0.0 0.0 0.0 -0.0717773512005806 -0.7243945598602295 0.07273460179567337 -0.041402772068977356 0.11189938336610794 0.006729126907885075 -0.0695343092083931 -0.7457451224327087 0.06490164250135422 -0.048116736114025116 0.1007094457745552 0.19969021588907868 -0.07274174397710777 0.39859720395794834 -1.1969402516888354 1.218019769939588 -1.1939168610371396 0.0 0.0 0.0 0.0 0.0 0.0 3.02958944059482 -3.841635194750395 -3.604558587622084 -0.517173697181636 -1.0136745396861964 0.5467593419632877 0.1996894554583975 -0.07274751472285904 0.39859117483232454 -1.196859983632481 1.2180842510740573 -1.193863433688838 0.0 0.0 0.0 0.0 0.0 0.0
7707.719999999999 1.6244145631790161 -2.085700337086813 2.3236467838287354 -3.472584072743551 -0.05377322832216436 0.11205138266086578 0.0 0.0 0.0 0.0 0.0 0.0 0.0 0.0 0.0 0.0 0.0 0.0 1.9747353935518702e-17 -0.01635456166548786 -0.6928915259581856 0.01968809579943538 -0.006510300211118856 0.0 2.2662062158878047e-16 -0.18838000544495248 -5.850216338782681 0.08126240276244055 -0.02702674429627759 0.0 1.624450445175171 -2.0856884161578577 2.3236348628997803 -3.472584072743551 -0.05373698869814092 0.11199108511209488 0.0 0.0 -0.0 0.0 0.0 0.0 0.006729126907885075 -0.0740203931927681 -0.7701457738876343 0.048116736114025116 -0.05371170490980148 0.09623347222805023 0.006729126907885075 -0.0740203931927681 -0.7457451224327087 0.06378264725208282 -0.0503547228872776 0.1007094457745552 0.1996922082462323 -0.07273990173554143 0.39859232973666525 -1.1969415028205663 1.2180060619752082 -1.1938532244801598 0.0 0.0 0.0 0.0 0.0 0.0 2.790248175926522 -2.6678171822367998 -4.879022677700522 -0.44832891284584864 1.708564066795753 0.24319605099847236 0.1996894554583975 -0.07274751472285904 0.39859117483232454 -1.196859983632481 1.2180842510740573 -1.193863433688838 0.0 0.0 0.0 0.0 0.0 0.0
7707.728 1.6244145631790161 -2.085700337086813 2.3236467838287354 -3.472584072743551 -0.05377322832216436 0.11205138266086578 0.0 0.0 0.0 0.0 0.0 0.0 0.0 0.0 0.0 0.0 0.0 0.0 1.9747353935518702e-17 -0.01635456166548786 -0.6928915259581856 0.01968809579943538 -0.006510300211118856 0.0 2.2662062158878047e-16 -0.18838000544495248 -5.850216338782681 0.08126240276244055 -0.02702674429627759 0.0 1.6244385242462158 -2.085700337086813 2.3236589431762695 -3.472595993672506 -0.05379707018007451 0.11197910457849503 0.0 0.0 -0.0 0.0 0.0 0.0 0.011215210892260075 -0.0628051832318306 -0.7625206112861633 0.06378264725208282 -0.048116736114025116 0.10854240506887436 0.006729126907885075 -0.0717773512005806 -0.7457451224327087 0.06602063775062561 -0.04923573136329651 0.1007094457745552 0.19969115623368028 -0.0727440892023793 0.398588840811238 -1.1969116326453932 1.2180487352957377 -1.1939174093970455 0.0 0.0 0.0 0.0 0.0 0.0 2.180534310185536 -2.306400437098929 -4.785032867250456 -0.5058130660782624 2.0330282596094293 0.15764033700047164 0.1996894554583975 -0.07274751472285904 0.39859117483232454 -1.196859983632481 1.2180842510740573 -1.193863433688838 0.0 0.0 0.0 0.0 0.0 0.0
7707.736 1.6244145631790161 -2.085700337086813 2.3236467838287354 -3.472584072743551 -0.05377322832216436 0.11205138266086578 0.0 0.0 0.0 0.0 0.0 0.0 0.0 0.0 0.0 0.0 0.0 0.0 1.9747353935518702e-17 -0.01635456166548786 -0.6928915259581856 0.01968809579943538 -0.006510300211118856 0.0 2.2662062158878047e-16 -0.18838000544495248 -5.850216338782681 0.08126240276244055 -0.02702674429627759 0.0 1.6244264841079712 -2.085712258015768 2.323598861694336 -3.472595993672506 -0.05373698869814092 0.11200307309627533 0.0 0.0 -0.0 0.0 0.0 0.0 0.01570129580795765 -0.0628051832318306 -0.7289696931838989 0.06378264725208282 -0.04587874934077263 0.1018284410238266 0.006729126907885075 -0.0717773512005806 -0.7442200779914856 0.06378264725208282 -0.04923573136329651 0.1007094457745552 0.19969005730037237 -0.07273654447836705 0.3986016088974313 -1.1969713531166482 1.2179927485675608 -1.1939165379932208 0.0 0.0 0.0 0.0 0.0 0.0 0.3974704484397381 -3.124590136188949 -3.4034657691425303 -0.4722005093331762 0.23764451825947763 0.3930099182801726 0.1996894554583975 -0.07274751472285904 0.39859117483232454 -1.196859983632481 1.2180842510740573 -1.193863433688838 0.0 0.0 0.0 0.0 0.0 0.0
7707.744 1.6244145631790161 -2.085700337086813 2.3236467838287354 -3.472584072743551 -0.05377322832216436 0.11205138266086578 0.0 0.0 0.0 0.0 0.0 0.0 0.0 0.0 0.0 0.0 0.0 0.0 1.9747353935518702e-17 -0.01635456166548786 -0.6928915259581856 0.01968809579943538 -0.006510300211118856 0.0 2.2662062158878047e-16 -0.18838000544495248 -5.850216338782681 0.08126240276244055 -0.02702674429627759 0.0 1.6244025230407715 -2.0856526533709925 2.323598861694336 -3.472571674977438 -0.053760830556051076 0.11200307309627533 0.0 0.0 -0.0 0.0 0.0 0.0 0.006729126907885075 -0.0740203931927681 -0.7579454779624939 0.06154466047883034 -0.04923573136329651 0.11525636911392212 0.006729126907885075 -0.0717773512005806 -0.748795211315155 0.06266365945339203 -0.04923573136329651 0.1007094457745552 0.1996892107876134 -0.07276004856089185 0.3985969017417165 -1.196888168025707 1.2180684367547745 -1.1938889822398775 0.0 0.0 0.0 0.0 0.0 0.0 3.4185135176073125 -3.095548393676559 -4.734539996593885 -0.5360933896447947 1.449955471882838 0.282832530956053 0.1996894554583975 -0.07274751472285904 0.39859117483232454 -1.196859983632481 1.2180842510740573 -1.193863433688838 0.0 0.0 0.0 0.0 0.0 0.0
7707.7519999999995 1.6244145631790161 -2.085700337086813 2.3236467838287354 -3.472584072743551 -0.05377322832216436 0.11205138266086578 0.0 0.0 0.0 0.0 0.0 0.0 0.0 0.0 0.0 0.0 0.0 0.0 1.9747353935518702e-17 -0.01635456166548786 -0.6928915259581856 0.01968809579943538 -0.006510300211118856 0.0 2.2662062158878047e-16 -0.18838000544495248 -5.850216338782681 0.08126240276244055 -0.02702674429627759 0.0 1.6244145631790161 -2.0856645742999476 2.3236348628997803 -3.472584072743551 -0.053785149251119435 0.11202741414308548 0.0 0.0 -0.0 0.0 0.0 0.0 0.011215210892260075 -0.0717773512005806 -0.7335448265075684 0.07721057534217834 -0.04923573136329651 0.10742340981960297 0.006729126907885075 -0.0695343092083931 -0.7457451224327087 0.06378264725208282 -0.04923573136329651 0.1007094457745552 0.1996899118402402 -0.07275689141164025 0.3985907095296242 -1.1968545223706428 1.2180929164835568 -1.193872216012893 0.0 0.0 0.0 0.0 0.0 0.0 -0.022393350070581915 -3.8714183508772497 -4.072306965594119 -0.49571736635152286 -1.5305181490339317 0.6304060090700999 0.1996894554583975 -0.07274751472285904 0.39859117483232454 -1.196859983632481 1.2180842510740573 -1.193863433688838 0.0 0.0 0.0 0.0 0.0 0.0
7707.759999999999 1.6244145631790161 -2.085700337086813 2.3236467838287354 -3.472584072743551 -0.05377322832216436 0.11205138266086578 0.0 0.0 0.0 0.0 0.0 0.0 0.0 0.0 0.0 0.0 0.0 0.0 1.9747353935518702e-17 -0.01635456166548786 -0.6928915259581856 0.01968809579943538 -0.006510300211118856 0.0 2.2662062158878047e-16 -0.18838000544495248 -5.850216338782681 0.08126240276244055 -0.02702674429627759 0.0 1.6244264841079712 -2.085712258015768 2.323622941970825 -3.472584072743551 -0.053760830556051076 0.11197910457849503 0.0 0.0 -0.0 0.0 0.0 0.0 0.01570129580795765 -0.0717773512005806 -0.7259196043014526 0.05930667370557785 -0.04923573136329651 0.09175749868154526 0.006729126907885075 -0.0717773512005806 -0.7457451224327087 0.06378264725208282 -0.04923573136329651 0.1007094457745552 0.19969014006029853 -0.07274035277564218 0.3985969293165502 -1.196950816341362 1.2180155020428591 -1.1939254551003102 0.0 0.0 0.0 0.0 0.0 0.0 -0.6222058994340199 -3.8078812668112527 -3.299745361580679 -0.4233837524681452 -1.2361010924360654 0.603626782022633 0.1996894554583975 -0.07274751472285904 0.39859117483232454 -1.196859983632481 1.2180842510740573 -1.193863433688838 0.0 0.0 0.0 0.0 0.0 0.0
7707.768 1.6244145631790161 -2.085700337086813 2.3236467838287354 -3.472584072743551 -0.05377322832216436 0.11205138266086578 0.0 0.0 0.0 0.0 0.0 0.0 0.0 0.0 0.0 0.0 0.0 0.0 1.9747353935518702e-17 -0.01635456166548786 -0.6928915259581856 0.01968809579943538 -0.006510300211118856 0.0 2.2662062158878047e-16 -0.18838000544495248 -5.850216338782681 0.08126240276244055 -0.02702674429627759 0.0 1.6244264841079712 -2.0856526533709925 2.323622941970825 -3.472584072743551 -0.053785149251119435 0.11199108511209488 0.0 0.0 -0.0 0.0 0.0 0.0 0.01345825381577015 -0.0785064771771431 -0.7198194265365601 0.05259270966053009 -0.04923573136329651 0.09847146272659302 0.006729126907885075 -0.0717773512005806 -0.7442200779914856 0.06602063775062561 -0.04923573136329651 0.1007094457745552 0.19969092259888047 -0.07275703497408273 0.3985921422266485 -1.1968870679206836 1.2180672208789456 -1.1938901892786045 0.0 0.0 0.0 0.0 0.0 0.0 0.8583117001896461 -4.238309168583859 -3.004604706407497 -0.4549482006096619 -0.908851916025319 0.6107359033745225 0.1996894554583975 -0.07274751472285904 0.39859117483232454 -1.196859983632481 1.2180842510740573 -1.193863433688838 0.0 0.0 0.0 0.0 0.0 0.0
7707.776 1.6244145631790161 -2.085700337086813 2.3236467838287354 -3.472584072743551 -0.05377322832216436 0.11205138266086578 0.0 0.0 0.0 0.0 0.0 0.0 0.0 0.0 0.0 0.0 0.0 0.0 1.9747353935518702e-17 -0.01635456166548786 -0.6928915259581856 0.01968809579943538 -0.006510300211118856 0.0 2.2662062158878047e-16 -0.18838000544495248 -5.850216338782681 0.08126240276244055 -0.02702674429627759 0.0 1.6244145631790161 -2.085700337086813 2.3236467838287354 -3.472571674977438 -0.05377322832216436 0.11201542615890503 0.0 0.0 -0.0 0.0 0.0 0.0 0.004486084450036287 -0.0650482252240181 -0.7381199598312378 0.06490164250135422 -0.04587874934077263 0.1197323426604271 0.006729126907885075 -0.0672912672162056 -0.7457451224327087 0.06378264725208282 -0.04923573136329651 0.1007094457745552 0.1996895136895026 -0.07274857304015846 0.39859121727597085 -1.196877830245935 1.2180737674172721 -1.1938805549738327 0.0 0.0 0.0 0.0 0.0 0.0 4.001892574096536 -2.911667962726635 -3.8710629232950304 -0.5572601175985726 1.7289448321786505 0.23257500381722926 0.1996894554583975 -0.07274751472285904 0.39859117483232454 -1.196859983632481 1.2180842510740573 -1.193863433688838 0.0 0.0 0.0 0.0 0.0 0.0
7707.784 1.6244145631790161 -2.085700337086813 2.3236467838287354 -3.472584072743551 -0.05377322832216436 0.11205138266086578 0.0 0.0 0.0 0.0 0.0 0.0 0.0 0.0 0.0 0.0 0.0 0.0 1.9747353935518702e-17 -0.01635456166548786 -0.6928915259581856 0.01968809579943538 -0.006510300211118856 0.0 2.2662062158878047e-16 -0.18838000544495248 -5.850216338782681 0.08126240276244055 -0.02702674429627759 0.0 1.6244264841079712 -2.0856764952289026 2.323622941970825 -3.472595993672506 -0.053760830556051076 0.11199108511209488 0.0 0.0 -0.0 0.0 0.0 0.0 0.011215210892260075 -0.0672912672162056 -0.7198194265365601 0.06266365945339203 -0.051473718136548996 0.10406643152236938 0.006729126907885075 -0.0717773512005806 -0.748795211315155 0.06378264725208282 -0.04923573136329651 0.1007094457745552 0.19969055326516816 -0.07274814802224408 0.39859390447609555 -1.196925342962058 1.2180331052518376 -1.1938984431109003 0.0 0.0 0.0 0.0 0.0 0.0 0.8939843557708722 -3.594248946715614 -3.078637395179927 -0.4817953330479008 -0.2756346751563073 0.5083954038465694 0.1996894554583975 -0.07274751472285904 0.39859117483232454 -1.196859983632481 1.2180842510740573 -1.193863433688838 0.0 0.0 0.0 0.0 0.0 0.0
7707.7919999999995 1.6244145631790161 -2.085700337086813 2.3236467838287354 -3.472584072743551 -0.05377322832216436 0.11205138266086578 0.0 0.0 0.0 0.0 0.0 0.0 0.0 0.0 0.0 0.0 0.0 0.0 1.9747353935518702e-17 -0.01635456166548786 -0.6928915259581856 0.01968809579943538 -0.006510300211118856 0.0 2.2662062158878047e-16 -0.18838000544495248 -5.850216338782681 0.08126240276244055 -0.02702674429627759 0.0 1.6244264841079712 -2.0856645742999476 2.3236589431762695 -3.4726198355304163 -0.05377322832216436 0.11201542615890503 0.0 0.0 -0.0 0.0 0.0 0.0 0.01345825381577015 -0.0717773512005806 -0.6984688639640808 0.07385359704494476 -0.051473718136548996 0.09847146272659302 0.006729126907885075 -0.0717773512005806 -0.748795211315155 0.067139632999897 -0.04923573136329651 0.1007094457745552 0.1996906370621983 -0.07275131578529714 0.39858559225341705 -1.1968837799637417 1.2180647529296478 -1.1938718127165147 0.0 0.0 0.0 0.0 0.0 0.0 -1.6116516456933314 -4.663099969876984 -2.54400986616497 -0.4517772938578701 -3.214516124102369 0.8752594311112974 0.1996894554583975 -0.07274751472285904 0.39859117483232454 -1.196859983632481 1.2180842510740573 -1.193863433688838 0.0 0.0 0.0 0.0 0.0 0.0
7707.799999999999 1.6244145631790161 -2.085700337086813 2.3236467838287354 -3.472584072743551 -0.05377322832216436 0.11205138266086578 0.0 0.0 0.0 0.0 0.0 0.0 0.0 0.0 0.0 0.0 0.0 0.0 1.9747353935518702e-17 -0.01635456166548786 -0.6928915259581856 0.01968809579943538 -0.006510300211118856 0.0 2.2662062158878047e-16 -0.18838000544495248 -5.850216338782681 0.08126240276244055 -0.02702674429627759 0.0 1.6244385242462158 -2.085724178944723 2.3236348628997803 -3.472667996083395 -0.053760830556051076 0.11202741414308548 0.0 0.0 -0.0 0.0 0.0 0.0 0.004486084450036287 -0.0650482252240181 -0.7548953890800476 0.0503547228872776 -0.05594969168305397 0.09959045052528381 0.006729126907885075 -0.0717773512005806 -0.748795211315155 0.06490164250135422 -0.04923573136329651 0.1007094457745552 0.19969047802777307 -0.07272826055127346 0.39859520847068775 -1.196979695549947 1.217986506046588 -1.1939445528797925 0.0 0.0 0.0 0.0 0.0 0.0 3.1213950267622392 -2.3819303908074296 -4.171696954854897 -0.46450300947127815 2.182801658264048 0.19091260611999902 0.1996894554583975 -0.07274751472285904 0.39859117483232454 -1.196859983632481 1.2180842510740573 -1.193863433688838 0.0 0.0 0.0 0.0 0.0 0.0
7707.808 1.6244145631790161 -2.085700337086813 2.3236467838287354 -3.472584072743551 -0.05377322832216436 0.11205138266086578 0.0 0.0 0.0 0.0 0.0 0.0 0.0 0.0 0.0 0.0 0.0 0.0 1.9747353935518702e-17 -0.01635456166548786 -0.6928915259581856 0.01968809579943538 -0.006510300211118856 0.0 2.2662062158878047e-16 -0.18838000544495248 -5.850216338782681 0.08126240276244055 -0.02702674429627759 0.0 1.6243906021118164 -2.0856526533709925 2.32361102104187 -3.472595993672506 -0.05377322832216436 0.11201542615890503 0.0 0.0 -0.0 0.0 0.0 0.0 0.006729126907885075 -0.0762634351849556 -0.7304947376251221 0.07497258484363556 -0.04364075884222984 0.12756529450416565 0.006729126907885075 -0.0717773512005806 -0.7472701668739319 0.06490164250135422 -0.04923573136329651 0.1007094457745552 0.19968824267497126 -0.07276179156316284 0.39859443751214857 -1.1968750738049039 1.2180848127776693 -1.1939075024365131 0.0 0.0 0.0 0.0 0.0 0.0 3.1497995098723512 -4.056194978407474 -3.9951693017931578 -0.5909519117982089 -0.1834497915341427 0.49420551659719547 0.1996894554583975 -0.07274751472285904 0.39859117483232454 -1.196859983632481 1.2180842510740573 -1.193863433688838 0.0 0.0 0.0 0.0 0.0 0.0
7707.816 1.6244145631790161 -2.085700337086813 2.3236467838287354 -3.472584072743551 -0.05377322832216436 0.11205138266086578 0.0 0.0 0.0 0.0 0.0 0.0 0.0 0.0 0.0 0.0 0.0 0.0 1.9747353935518702e-17 -0.01635456166548786 -0.6928915259581856 0.01968809579943538 -0.006510300211118856 0.0 2.2662062158878047e-16 -0.18838000544495248 -5.850216338782681 0.08126240276244055 -0.02702674429627759 0.0 1.624450445175171 -2.0856526533709925 2.32361102104187 -3.4726079146014612 -0.05373698869814092 0.11203939467668533 0.0 0.0 -0.0 0.0 0.0 0.0 0.011215210892260075 -0.0740203931927681 -0.7472701668739319 0.06378264725208282 -0.04923573136329651 0.10294743627309799 0.006729126907885075 -0.0717773512005806 -0.7472701668739319 0.06266365945339203 -0.04923573136329651 0.1007094457745552 0.19969253966680175 -0.07274585218329412 0.3985941187700932 -1.1969142657565124 1.2180224757625135 -1.1938265454277728 0.0 0.0 0.0 0.0 0.0 0.0 1.052706607874922 -3.481473098985926 -4.334725852390454 -0.47669694825531794 -0.22604096729983597 0.4743377149765949 0.1996894554583975 -0.07274751472285904 0.39859117483232454 -1.196859983632481 1.2180842510740573 -1.193863433688838 0.0 0.0 0.0 0.0 0.0 0.0
7707.824 1.6244145631790161 -2.085700337086813 2.3236467838287354 -3.472584072743551 -0.05377322832216436 0.11205138266086578 0.0 0.0 0.0 0.0 0.0 0.0 0.0 0.0 0.0 0.0 0.0 0.0 1.9747353935518702e-17 -0.01635456166548786 -0.6928915259581856 0.01968809579943538 -0.006510300211118856 0.0 2.2662062158878047e-16 -0.18838000544495248 -5.850216338782681 0.08126240276244055 -0.02702674429627759 0.0 1.6244264841079712 -2.085700337086813 2.3236348628997803 -3.472595993672506 -0.05373698869814092 0.11197910457849503 0.0 0.0 -0.0 0.0 0.0 0.0 0.004486084450036287 -0.0672912672162056 -0.7686207294464111 0.07609158009290695 -0.04923573136329651 0.10294743627309799 0.006729126907885075 -0.0717773512005806 -0.7472701668739319 0.06602063775062561 -0.04923573136329651 0.1007094457745552 0.19969025285833017 -0.07274073135730011 0.3985932835154669 -1.1969555050477783 1.2180058295486875 -1.1938978258041244 0.0 0.0 0.0 0.0 0.0 0.0 1.3688702017119228 -2.706677510083503 -5.404460235901772 -0.47707599206803214 -0.02195256813877905 0.383201915329395 0.1996894554583975 -0.07274751472285904 0.39859117483232454 -1.196859983632481 1.2180842510740573 -1.193863433688838 0.0 0.0 0.0 0.0 0.0 0.0
7707.831999999999 1.6244145631790161 -2.085700337086813 2.3236467838287354 -3.472584072743551 -0.05377322832216436 0.11205138266086578 0.0 0.0 0.0 0.0 0.0 0.0 0.0 0.0 0.0 0.0 0.0 0.0 1.9747353935518702e-17 -0.01635456166548786 -0.6928915259581856 0.01968809579943538 -0.006510300211118856 0.0 2.2662062158878047e-16 -0.18838000544495248 -5.850216338782681 0.08126240276244055 -0.02702674429627759 0.0 1.6244145631790161 -2.0856884161578577 2.3236708641052246 -3.472584072743551 -0.053760830556051076 0.11197910457849503 0.0 0.0 -0.0 0.0 0.0 0.0 0.008972168900072575 -0.0650482252240181 -0.7655707001686096 0.07609158009290695 -0.0503547228872776 0.09735246747732162 0.006729126907885075 -0.0672912672162056 -0.7472701668739319 0.06602063775062561 -0.04923573136329651 0.1007094457745552 0.19968963772349163 -0.07275027095073834 0.3985851815934779 -1.1968948886228385 1.2180605576342172 -1.193879744384307 0.0 0.0 0.0 0.0 0.0 0.0 0.013901848418715418 -2.6864225359970564 -5.233578536327324 -0.45065515033748 -0.3635034802581773 0.41999421682745486 0.1996894554583975 -0.07274751472285904 0.39859117483232454 -1.196859983632481 1.2180842510740573 -1.193863433688838 0.0 0.0 0.0 0.0 0.0 0.0
7707.839999999999 1.6244145631790161 -2.085700337086813 2.3236467838287354 -3.472584072743551 -0.05377322832216436 0.11205138266086578 0.0 0.0 0.0 0.0 0.0 0.0 0.0 0.0 0.0 0.0 0.0 0.0 1.9747353935518702e-17 -0.01635456166548786 -0.6928915259581856 0.01968809579943538 -0.006510300211118856 0.0 2.2662062158878047e-16 -0.18838000544495248 -5.850216338782681 0.08126240276244055 -0.02702674429627759 0.0 1.624450445175171 -2.085724178944723 2.3236348628997803 -3.4726317564593714 -0.05373698869814092 0.11201542615890503 0.0 0.0 -0.0 0.0 0.0 0.0 0.011215210892260075 -0.0695343092083931 -0.7747209072113037 0.05930667370557785 -0.04699774086475372 0.09847146272659302 0.006729126907885075 -0.0695343092083931 -0.7472701668739319 0.06490164250135422 -0.04923573136329651 0.1007094457745552 0.19969151471688876 -0.07272701852832333 0.3985951499266667 -1.1969819099004981 1.2179750309018522 -1.1938986050857971 0.0 0.0 0.0 0.0 0.0 0.0 1.714059460799019 -2.4736385571478254 -5.26949840190295 -0.4582912600221931 1.3624127516826707 0.22499974552209231 0.1996894554583975 -0.07274751472285904 0.39859117483232454 -1.196859983632481 1.2180842510740573 -1.193863433688838 0.0 0.0 0.0 0.0 0.0 0.0
7707.848 1.6244145631790161 -2.085700337086813 2.3236467838287354 -3.472584072743551 -0.05377322832216436 0.11205138266086578 0.0 0.0 0.0 0.0 0.0 0.0 0.0 0.0 0.0 0.0 0.0 0.0 1.9747353935518702e-17 -0.01635456166548786 -0.6928915259581856 0.01968809579943538 -0.006510300211118856 0.0 2.2662062158878047e-16 -0.18838000544495248 -5.850216338782681 0.08126240276244055 -0.02702674429627759 0.0 1.6244025230407715 -2.0856884161578577 2.32361102104187 -3.4726198355304163 -0.05379707018007451 0.11195513606071472 0.0 0.0 -0.0 0.0 0.0 0.0 0.01570129580795765 -0.0807495191693306 -0.7716708183288574 0.0682586282491684 -0.04699774086475372 0.09959045052528381 0.006729126907885075 -0.0785064771771431 -0.7472701668739319 0.06490164250135422 -0.04923573136329651 0.09959045052528381 0.19968852953844599 -0.07275051802626907 0.3985975229143616 -1.196953934485492 1.2180333499911848 -1.1940069815490406 0.0 0.0 0.0 0.0 0.0 0.0 -0.1337181164685199 -3.5548785153650924 -5.542341048130052 -0.46037984481272093 -0.8351128972477796 0.5175674875598625 0.1996894554583975 -0.07274751472285904 0.39859117483232454 -1.196859983632481 1.2180842510740573 -1.193863433688838 0.0 0.0 0.0 0.0 0.0 0.0
7707.856 1.6244145631790161 -2.085700337086813 2.3236467838287354 -3.472584072743551 -0.05377322832216436 0.11205138266086578 0.0 0.0 0.0 0.0 0.0 0.0 0.0 0.0 0.0 0.0 0.0 0.0 1.9747353935518702e-17 -0.01635456166548786 -0.6928915259581856 0.01968809579943538 -0.006510300211118856 0.0 2.2662062158878047e-16 -0.18838000544495248 -5.850216338782681 0.08126240276244055 -0.02702674429627759 0.0 1.6243906021118164 -2.0856884161578577 2.3236708641052246 -3.472584072743551 -0.05379707018007451 0.11197910457849503 0.0 0.0 -0.0 0.0 0.0 0.0 0.006729126907885075 -0.0650482252240181 -0.7564204335212708 0.07609158009290695 -0.05371170490980148 0.1007094457745552 0.006729126907885075 -0.0717773512005806 -0.7457451224327087 0.06490164250135422 -0.04923573136329651 0.1007094457745552 0.1996878951537354 -0.07275802740320467 0.39858545936975437 -1.1968635961237473 1.2181018462452673 -1.193925599607635 0.0 0.0 0.0 0.0 0.0 0.0 0.3836150112576496 -2.864671394141734 -4.864485998266531 -0.46615035790741965 -0.4097790182160455 0.4575452543169502 0.1996894554583975 -0.07274751472285904 0.39859117483232454 -1.196859983632481 1.2180842510740573 -1.193863433688838 0.0 0.0 0.0 0.0 0.0 0.0
7707.864 1.6244145631790161 -2.085700337086813 2.3236467838287354 -3.472584072743551 -0.05377322832216436 0.11205138266086578 0.0 0.0 0.0 0.0 0.0 0.0 0.0 0.0 0.0 0.0 0.0 0.0 1.9747353935518702e-17 -0.01635456166548786 -0.6928915259581856 0.01968809579943538 -0.006510300211118856 0.0 2.2662062158878047e-16 -0.18838000544495248 -5.850216338782681 0.08126240276244055 -0.02702674429627759 0.0 1.6244385242462158 -2.085700337086813 2.3236467838287354 -3.4726317564593714 -0.053785149251119435 0.11201542615890503 0.0 0.0 -0.0 0.0 0.0 0.0 0.0 -0.0672912672162056 -0.759470522403717 0.07721057534217834 -0.048116736114025116 0.10854240506887436 0.006729126907885075 -0.0672912672162056 -0.7472701668739319 0.06490164250135422 -0.04923573136329651 0.1007094457745552 0.19969097470959787 -0.0727396370127714 0.3985911029205289 -1.1969248936380665 1.2180334703094748 -1.1939176724175933 0.0 0.0 0.0 0.0 0.0 0.0 2.4768960694896034 -2.861982390799327 -5.068578063451346 -0.5030511551746184 -0.0003611709353932959 0.39134353220737667 0.1996894554583975 -0.07274751472285904 0.39859117483232454 -1.196859983632481 1.2180842510740573 -1.193863433688838 0.0 0.0 0.0 0.0 0.0 0.0
7707.871999999999 1.6244145631790161 -2.085700337086813 2.3236467838287354 -3.472584072743551 -0.05377322832216436 0.11205138266086578 0.0 0.0 0.0 0.0 0.0 0.0 0.0 0.0 0.0 0.0 0.0 0.0 1.9747353935518702e-17 -0.01635456166548786 -0.6928915259581856 0.01968809579943538 -0.006510300211118856 0.0 2.2662062158878047e-16 -0.18838000544495248 -5.850216338782681 0.08126240276244055 -0.02702674429627759 0.0 1.6244624853134155 -2.0856884161578577 2.3236348628997803 -3.4726198355304163 -0.05373698869814092 0.11201542615890503 0.0 0.0 -0.0 0.0 0.0 0.0 0.006729126907885075 -0.0717773512005806 -0.7731958627700806 0.06490164250135422 -0.044759754091501236 0.09511447697877884 0.006729126907885075 -0.0740203931927681 -0.7503202557563782 0.06490164250135422 -0.04923573136329651 0.09623347222805023 0.19969291590906785 -0.07273444459106397 0.3985922071233314 -1.1969543663594573 1.2179904142733653 -1.193853488996716 0.0 0.0 0.0 0.0 0.0 0.0 1.5811981893730598 -2.749510857242263 -5.379700786290189 -0.44103923181153576 0.1760842323358952 0.34746639312892186 0.1996894554583975 -0.07274751472285904 0.39859117483232454 -1.196859983632481 1.2180842510740573 -1.193863433688838 0.0 0.0 0.0 0.0 0.0 0.0
7707.879999999999 1.6244145631790161 -2.085700337086813 2.3236467838287354 -3.472584072743551 -0.05377322832216436 0.11205138266086578 0.0 0.0 0.0 0.0 0.0 0.0 0.0 0.0 0.0 0.0 0.0 0.0 1.9747353935518702e-17 -0.01635456166548786 -0.6928915259581856 0.01968809579943538 -0.006510300211118856 0.0 2.2662062158878047e-16 -0.18838000544495248 -5.850216338782681 0.08126240276244055 -0.02702674429627759 0.0 1.6244145631790161 -2.0856764952289026 2.3236589431762695 -3.472595993672506 -0.053760830556051076 0.11200307309627533 0.0 0.0 -0.0 0.0 0.0 0.0 0.011215210892260075 -0.0762634351849556 -0.7320197820663452 0.0839245393872261 -0.04587874934077263 0.08728151768445969 0.006729126907885075 -0.0717773512005806 -0.748795211315155 0.06266365945339203 -0.04923573136329651 0.10294743627309799 0.19968972514315408 -0.07275177736257066 0.3985865735517756 -1.19688557049083 1.2180656629673452 -1.1938710770663161 0.0 0.0 0.0 0.0 0.0 0.0 -2.6843461784882874 -4.452108856940061 -4.222077683325529 -0.3981910250932274 -4.51190548212826 0.9400248988385067 0.1996894554583975 -0.07274751472285904 0.39859117483232454 -1.196859983632481 1.2180842510740573 -1.193863433688838 0.0 0.0 0.0 0.0 0.0 0.0
7707.888 1.6244145631790161 -2.085700337086813 2.3236467838287354 -3.472584072743551 -0.05377322832216436 0.11205138266086578 0.0 0.0 0.0 0.0 0.0 0.0 0.0 0.0 0.0 0.0 0.0 0.0 1.9747353935518702e-17 -0.01635456166548786 -0.6928915259581856 0.01968809579943538 -0.006510300211118856 0.0 2.2662062158878047e-16 -0.18838000544495248 -5.850216338782681 0.08126240276244055 -0.02702674429627759 0.0 1.6244025230407715 -2.085724178944723 2.3236827850341797 -3.4726317564593714 -0.05373698869814092 0.11201542615890503 0.0 0.0 -0.0 0.0 0.0 0.0 0.004486084450036287 -0.0717773512005806 -0.7503202557563782 0.05818767845630646 -0.04364075884222984 0.10630441457033157 0.006729126907885075 -0.0717773512005806 -0.7457451224327087 0.06602063775062561 -0.04923573136329651 0.1007094457745552 0.1996880813199312 -0.07273825073941599 0.3985853918335983 -1.1969253448636696 1.2180342917438614 -1.1938975794923765 0.0 0.0 0.0 0.0 0.0 0.0 3.486861503914122 -3.0486851821171372 -4.297135482125607 -0.49403330001965484 1.0080642514365763 0.2974353067407268 0.1996894554583975 -0.07274751472285904 0.39859117483232454 -1.196859983632481 1.2180842510740573 -1.193863433688838 0.0 0.0 0.0 0.0 0.0 0.0
7707.896 1.6244145631790161 -2.085700337086813 2.3236467838287354 -3.472584072743551 -0.05377322832216436 0.11205138266086578 0.0 0.0 0.0 0.0 0.0 0.0 0.0 0.0 0.0 0.0 0.0 0.0 1.9747353935518702e-17 -0.01635456166548786 -0.6928915259581856 0.01968809579943538 -0.006510300211118856 0.0 2.2662062158878047e-16 -0.18838000544495248 -5.850216338782681 0.08126240276244055 -0.02702674429627759 0.0 1.6244264841079712 -2.0856526533709925 2.3236467838287354 -3.4726079146014612 -0.053760830556051076 0.11199108511209488 0.0 0.0 -0.0 0.0 0.0 0.0 0.0022430422250181437 -0.0628051832318306 -0.759470522403717 0.051473718136548996 -0.0503547228872776 0.12980328500270844 0.006729126907885075 -0.0650482252240181 -0.7503202557563782 0.06490164250135422 -0.04923573136329651 0.1007094457745552 0.19969083597470788 -0.07275383255382335 0.39858701925783735 -1.1969003442393453 1.2180511710099478 -1.1938712439757093 0.0 0.0 0.0 0.0 0.0 0.0 6.875119011692714 -1.9496259878423614 -4.391562854032471 -0.6085997205730945 5.045970058897759 -0.1397301047437476 0.1996894554583975 -0.07274751472285904 0.39859117483232454 -1.196859983632481 1.2180842510740573 -1.193863433688838 0.0 0.0 0.0 0.0 0.0 0.0
7707.9039999999995 1.6244145631790161 -2.085700337086813 2.3236467838287354 -3.472584072743551 -0.05377322832216436 0.11205138266086578 0.0 0.0 0.0 0.0 0.0 0.0 0.0 0.0 0.0 0.0 0.0 0.0 1.9747353935518702e-17 -0.01635456166548786 -0.6928915259581856 0.01968809579943538 -0.006510300211118856 0.0 2.2662062158878047e-16 -0.18838000544495248 -5.850216338782681 0.08126240276244055 -0.02702674429627759 0.0 1.6244264841079712 -2.085712258015768 2.323622941970825 -3.472595993672506 -0.05377322832216436 0.11197910457849503 0.0 0.0 -0.0 0.0 0.0 0.0 0.01345825381577015 -0.0672912672162056 -0.7396449446678162 0.07161560654640198 -0.048116736114025116 0.09735246747732162 0.006729126907885075 -0.0672912672162056 -0.7503202557563782 0.06266365945339203 -0.04923573136329651 0.1007094457745552 0.19969008433150906 -0.07274035179168248 0.3985969835580904 -1.196952393932114 1.218017565784898 -1.1939441287470804 0.0 0.0 0.0 0.0 0.0 0.0 -0.5708949959329431 -3.3714699808947795 -4.098456236896565 -0.44962727565243044 -1.078886283530213 0.5416084772763611 0.1996894554583975 -0.07274751472285904 0.39859117483232454 -1.196859983632481 1.2180842510740573 -1.193863433688838 0.0 0.0 0.0 0.0 0.0 0.0
7707.911999999999 1.6244145631790161 -2.085700337086813 2.3236467838287354 -3.472584072743551 -0.05377322832216436 0.11205138266086578 0.0 0.0 0.0 0.0 0.0 0.0 0.0 0.0 0.0 0.0 0.0 0.0 1.9747353935518702e-17 -0.01635456166548786 -0.6928915259581856 0.01968809579943538 -0.006510300211118856 0.0 2.2662062158878047e-16 -0.18838000544495248 -5.850216338782681 0.08126240276244055 -0.02702674429627759 0.0 1.6244624853134155 -2.085712258015768 2.3236348628997803 -3.472584072743551 -0.053760830556051076 0.11201542615890503 0.0 0.0 -0.0 0.0 0.0 0.0 0.011215210892260075 -0.0785064771771431 -0.7198194265365601 0.07385359704494476 -0.04699774086475372 0.09287648648023605 0.006729126907885075 -0.0740203931927681 -0.7442200779914856 0.06378264725208282 -0.04923573136329651 0.1007094457745552 0.19969277165020277 -0.07273357728451246 0.39859450186579226 -1.1969329680593366 1.2180122678515715 -1.1938630821913194 0.0 0.0 0.0 0.0 0.0 0.0 -1.3916095342211798 -4.661411411871347 -3.5197317352148794 -0.42509329921996536 -3.6526397598826104 0.8877604535929321 0.1996894554583975 -0.07274751472285904 0.39859117483232454 -1.196859983632481 1.2180842510740573 -1.193863433688838 0.0 0.0 0.0 0.0 0.0 0.0
7707.92 1.6244145631790161 -2.085700337086813 2.3236467838287354 -3.472584072743551 -0.05377322832216436 0.11205138266086578 0.0 0.0 0.0 0.0 0.0 0.0 0.0 0.0 0.0 0.0 0.0 0.0 1.9747353935518702e-17 -0.01635456166548786 -0.6928915259581856 0.01968809579943538 -0.006510300211118856 0.0 2.2662062158878047e-16 -0.18838000544495248 -5.850216338782681 0.08126240276244055 -0.02702674429627759 0.0 1.6244025230407715 -2.0856884161578577 2.3236708641052246 -3.4726079146014612 -0.05377322832216436 0.11200307309627533 0.0 0.0 -0.0 0.0 0.0 0.0 0.011215210892260075 -0.0650482252240181 -0.7747209072113037 0.06490164250135422 -0.04923573136329651 0.10294743627309799 0.006729126907885075 -0.0672912672162056 -0.748795211315155 0.06378264725208282 -0.04923573136329651 0.1007094457745552 0.19968865007787898 -0.07275165664094517 0.39858519503625256 -1.1968813467066546 1.2180765274067626 -1.1938986526412643 0.0 0.0 0.0 0.0 0.0 0.0 1.5656822278707583 -2.247818965817568 -5.3394686161237015 -0.47931640051346697 1.6387672863185005 0.1906515083999847 0.1996894554583975 -0.07274751472285904 0.39859117483232454 -1.196859983632481 1.2180842510740573 -1.193863433688838 0.0 0.0 0.0 0.0 0.0 0.0
7707.928 1.6244145631790161 -2.085700337086813 2.3236467838287354 -3.472584072743551 -0.05377322832216436 0.11205138266086578 0.0 0.0 0.0 0.0 0.0 0.0 0.0 0.0 0.0 0.0 0.0 0.0 1.9747353935518702e-17 -0.01635456166548786 -0.6928915259581856 0.01968809579943538 -0.006510300211118856 0.0 2.2662062158878047e-16 -0.18838000544495248 -5.850216338782681 0.08126240276244055 -0.02702674429627759 0.0 1.6244264841079712 -2.0856884161578577 2.323598861694336 -3.4726079146014612 -0.05373698869814092 0.11201542615890503 0.0 0.0 -0.0 0.0 0.0 0.0 0.008972168900072575 -0.0605621412396431 -0.7396449446678162 0.07049661129713058 -0.0503547228872776 0.09959045052528381 0.006729126907885075 -0.0695343092083931 -0.7503202557563782 0.06378264725208282 -0.04923573136329651 0.1007094457745552 0.1996903141090525 -0.07274140223332877 0.3985995787789603 -1.1969539319126914 1.2180044980835565 -1.193898320869695 0.0 0.0 0.0 0.0 0.0 0.0 0.5289977867868114 -2.8237756952367823 -3.968142783914822 -0.4614575905814286 -0.031024700145077654 0.4099554518473234 0.1996894554583975 -0.07274751472285904 0.39859117483232454 -1.196859983632481 1.2180842510740573 -1.193863433688838 0.0 0.0 0.0 0.0 0.0 0.0
7707.936 1.6244145631790161 -2.085700337086813 2.3236467838287354 -3.472584072743551 -0.05377322832216436 0.11205138266086578 0.0 0.0 0.0 0.0 0.0 0.0 0.0 0.0 0.0 0.0 0.0 0.0 1.9747353935518702e-17 -0.01635456166548786 -0.6928915259581856 0.01968809579943538 -0.006510300211118856 0.0 2.2662062158878047e-16 -0.18838000544495248 -5.850216338782681 0.08126240276244055 -0.02702674429627759 0.0 1.624450445175171 -2.085700337086813 2.3236348628997803 -3.472595993672506 -0.053748909627096 0.11201542615890503 0.0 0.0 -0.0 0.0 0.0 0.0 0.004486084450036287 -0.0740203931927681 -0.7518453001976013 0.06378264725208282 -0.044759754091501236 0.09959045052528381 0.006729126907885075 -0.0717773512005806 -0.7503202557563782 0.06378264725208282 -0.04923573136329651 0.1007094457745552 0.19969199605799673 -0.07273692407111453 0.3985933749476491 -1.196933711453792 1.2180131643604826 -1.193862648422144 0.0 0.0 0.0 0.0 0.0 0.0 2.136361309554428 -3.3232084179128205 -4.523328441228127 -0.4609999161098011 -0.34958222611557827 0.4505031904688306 0.1996894554583975 -0.07274751472285904 0.39859117483232454 -1.196859983632481 1.2180842510740573 -1.193863433688838 0.0 0.0 0.0 0.0 0.0 0.0
7707.9439999999995 1.6244145631790161 -2.085700337086813 2.3236467838287354 -3.472584072743551 -0.05377322832216436 0.11205138266086578 0.0 0.0 0.0 0.0 0.0 0.0 0.0 0.0 0.0 0.0 0.0 0.0 1.9747353935518702e-17 -0.01635456166548786 -0.6928915259581856 0.01968809579943538 -0.006510300211118856 0.0 2.2662062158878047e-16 -0.18838000544495248 -5.850216338782681 0.08126240276244055 -0.02702674429627759 0.0 1.6244264841079712 -2.0856526533709925 2.3236348628997803 -3.472595993672506 -0.05380899110902959 0.11199108511209488 0.0 0.0 -0.0 0.0 0.0 0.0 0.0022430422250181437 -0.0650482252240181 -0.767095685005188 0.067139632999897 -0.04699774086475372 0.10854240506887436 0.004486084450036287 -0.0650482252240181 -0.7503202557563782 0.06378264725208282 -0.04923573136329651 0.09623347222805023 0.19969088002157112 -0.07275838592116239 0.3985898567232838 -1.1968740531388353 1.2180828500476664 -1.193908718754127 0.0 0.0 0.0 0.0 0.0 0.0 3.373978654721895 -2.347847436688429 -5.096518862479079 -0.5051964257860966 1.5945017896870068 0.19449718900898702 0.1996894554583975 -0.07274751472285904 0.39859117483232454 -1.196859983632481 1.2180842510740573 -1.193863433688838 0.0 0.0 0.0 0.0 0.0 0.0
7707.951999999999 1.6244145631790161 -2.085700337086813 2.3236467838287354 -3.472584072743551 -0.05377322832216436 0.11205138266086578 0.0 0.0 0.0 0.0 0.0 0.0 0.0 0.0 0.0 0.0 0.0 0.0 1.9747353935518702e-17 -0.01635456166548786 -0.6928915259581856 0.01968809579943538 -0.006510300211118856 0.0 2.2662062158878047e-16 -0.18838000544495248 -5.850216338782681 0.08126240276244055 -0.02702674429627759 0.0 1.6244385242462158 -2.0856764952289026 2.32361102104187 -3.472584072743551 -0.053785149251119435 0.11199108511209488 0.0 0.0 -0.0 0.0 0.0 0.0 0.01345825381577015 -0.0695343092083931 -0.7808210849761963 0.0682586282491684 -0.044759754091501236 0.09511447697877884 0.006729126907885075 -0.0740203931927681 -0.748795211315155 0.06378264725208282 -0.04923573136329651 0.1007094457745552 0.19969147274999224 -0.07274834189645292 0.3985965592703376 -1.1969178499584068 1.2180403365785415 -1.1939084958799155 0.0 0.0 0.0 0.0 0.0 0.0 0.31218645253239374 -2.5442629043490785 -5.732638594698759 -0.4412771240792772 0.34325508421144574 0.3121888092784424 0.1996894554583975 -0.07274751472285904 0.39859117483232454 -1.196859983632481 1.2180842510740573 -1.193863433688838 0.0 0.0 0.0 0.0 0.0 0.0
7707.96 1.6244145631790161 -2.085700337086813 2.3236467838287354 -3.472584072743551 -0.05377322832216436 0.11205138266086578 0.0 0.0 0.0 0.0 0.0 0.0 0.0 0.0 0.0 0.0 0.0 0.0 1.9747353935518702e-17 -0.01635456166548786 -0.6928915259581856 0.01968809579943538 -0.006510300211118856 0.0 2.2662062158878047e-16 -0.18838000544495248 -5.850216338782681 0.08126240276244055 -0.02702674429627759 0.0 1.6244145631790161 -2.085712258015768 2.3236589431762695 -3.472584072743551 -0.05373698869814092 0.11203939467668533 0.0 0.0 -0.0 0.0 0.0 0.0 -0.0022430422250181437 -0.0740203931927681 -0.767095685005188 0.06042566895484924 -0.048116736114025116 0.10294743627309799 0.006729126907885075 -0.0717773512005806 -0.7472701668739319 0.06490164250135422 -0.04923573136329651 0.09847146272659302 0.19968931150429972 -0.07274202731736691 0.39858941558286093 -1.1968884261113732 1.2180549762364312 -1.1938439284667048 0.0 0.0 0.0 0.0 0.0 0.0 3.9481719395005803 -2.8491530285250417 -5.071958228429253 -0.4782594874107003 0.8520506154283998 0.3106086662894473 0.1996894554583975 -0.07274751472285904 0.39859117483232454 -1.196859983632481 1.2180842510740573 -1.193863433688838 0.0 0.0 0.0 0.0 0.0 0.0
7707.968 1.6244145631790161 -2.085700337086813 2.3236467838287354 -3.472584072743551 -0.05377322832216436 0.11205138266086578 0.0 0.0 0.0 0.0 0.0 0.0 0.0 0.0 0.0 0.0 0.0 0.0 1.9747353935518702e-17 -0.01635456166548786 -0.6928915259581856 0.01968809579943538 -0.006510300211118856 0.0 2.2662062158878047e-16 -0.18838000544495248 -5.850216338782681 0.08126240276244055 -0.02702674429627759 0.0 1.6244264841079712 -2.0856764952289026 2.323598861694336 -3.472595993672506 -0.05373698869814092 0.11195513606071472 0.0 0.0 -0.0 0.0 0.0 0.0 0.01570129580795765 -0.0628051832318306 -0.7792960405349731 0.048116736114025116 -0.04923573136329651 0.09847146272659302 0.006729126907885075 -0.0650482252240181 -0.7472701668739319 0.06378264725208282 -0.04923573136329651 0.09959045052528381 0.19969052651807928 -0.07274535750256773 0.39859862502882293 -1.196981735428254 1.2179884211817666 -1.193924676611008 0.0 0.0 0.0 0.0 0.0 0.0 2.2297676914047866 -1.7148108787484933 -5.070793703528594 -0.4612186707180622 3.4618692657160186 -0.02180279870647076 0.1996894554583975 -0.07274751472285904 0.39859117483232454 -1.196859983632481 1.2180842510740573 -1.193863433688838 0.0 0.0 0.0 0.0 0.0 0.0
7707.976 1.6244145631790161 -2.085700337086813 2.3236467838287354 -3.472584072743551 -0.05377322832216436 0.11205138266086578 0.0 0.0 0.0 0.0 0.0 0.0 0.0 0.0 0.0 0.0 0.0 0.0 1.9747353935518702e-17 -0.01635456166548786 -0.6928915259581856 0.01968809579943538 -0.006510300211118856 0.0 2.2662062158878047e-16 -0.18838000544495248 -5.850216338782681 0.08126240276244055 -0.02702674429627759 0.0 1.6243906021118164 -2.085712258015768 2.3236467838287354 -3.4726436773883265 -0.053785149251119435 0.11199108511209488 0.0 0.0 -0.0 0.0 0.0 0.0 0.006729126907885075 -0.0628051832318306 -0.7045690417289734 0.06937761604785919 -0.04587874934077263 0.07944856584072113 0.006729126907885075 -0.0650482252240181 -0.7472701668739319 0.06490164250135422 -0.04699774086475372 0.1007094457745552 0.19968727637929012 -0.07274525135574528 0.3985920566660199 -1.1969365055871026 1.2180449376040428 -1.193989055684771 0.0 0.0 0.0 0.0 0.0 0.0 -1.3581732542301097 -3.817253870762247 -2.521663979361347 -0.36387987379190767 -3.156948282960721 0.7744738082794373 0.1996894554583975 -0.07274751472285904 0.39859117483232454 -1.196859983632481 1.2180842510740573 -1.193863433688838 0.0 0.0 0.0 0.0 0.0 0.0
7707.9839999999995 1.6244145631790161 -2.085700337086813 2.3236467838287354 -3.472584072743551 -0.05377322832216436 0.11205138266086578 0.0 0.0 0.0 0.0 0.0 0.0 0.0 0.0 0.0 0.0 0.0 0.0 1.9747353935518702e-17 -0.01635456166548786 -0.6928915259581856 0.01968809579943538 -0.006510300211118856 0.0 2.2662062158878047e-16 -0.18838000544495248 -5.850216338782681 0.08126240276244055 -0.02702674429627759 0.0 1.6244145631790161 -2.085748020802633 2.3236589431762695 -3.472584072743551 -0.05377322832216436 0.11201542615890503 0.0 0.0 -0.0 0.0 0.0 0.0 0.004486084450036287 -0.0762634351849556 -0.7579454779624939 0.05818767845630646 -0.044759754091501236 0.13204127550125122 0.006729126907885075 -0.0740203931927681 -0.748795211315155 0.06602063775062561 -0.048116736114025116 0.1018284410238266 0.19968884321238992 -0.07273618629311585 0.39859267723538333 -1.196911305634984 1.2180494978848009 -1.1939169983636821 0.0 0.0 0.0 0.0 0.0 0.0 6.038540764859787 -3.0703852981961917 -4.712560812015931 -0.6160374255204859 2.987231898348072 0.11617868094224135 0.1996894554583975 -0.07274751472285904 0.39859117483232454 -1.196859983632481 1.2180842510740573 -1.193863433688838 0.0 0.0 0.0 0.0 0.0 0.0
7707.991999999999 1.6244145631790161 -2.085700337086813 2.3236467838287354 -3.472584072743551 -0.05377322832216436 0.11205138266086578 0.0 0.0 0.0 0.0 0.0 0.0 0.0 0.0 0.0 0.0 0.0 0.0 1.9747353935518702e-17 -0.01635456166548786 -0.6928915259581856 0.01968809579943538 -0.006510300211118856 0.0 2.2662062158878047e-16 -0.18838000544495248 -5.850216338782681 0.08126240276244055 -0.02702674429627759 0.0 1.6244264841079712 -2.0856764952289026 2.32361102104187 -3.472595993672506 -0.05380899110902959 0.11202741414308548 0.0 0.0 -0.0 0.0 0.0 0.0 0.004486084450036287 -0.0628051832318306 -0.7259196043014526 0.05259270966053009 -0.04699774086475372 0.11301837861537933 0.006729126907885075 -0.0717773512005806 -0.7472701668739319 0.06266365945339203 -0.048116736114025116 0.1007094457745552 0.19969054130159394 -0.07275168364446997 0.398596701310622 -1.1968805955907895 1.2180756844922005 -1.1939181615194878 0.0 0.0 0.0 0.0 0.0 0.0 4.384033314088564 -2.8185222904471456 -3.0266014989304555 -0.5267727859232559 2.267717674786556 0.18616385563725737 0.1996894554583975 -0.07274751472285904 0.39859117483232454 -1.196859983632481 1.2180842510740573 -1.193863433688838 0.0 0.0 0.0 0.0 0.0 0.0
7708.0 1.6244145631790161 -2.085700337086813 2.3236467838287354 -3.472584072743551 -0.05377322832216436 0.11205138266086578 0.0 0.0 0.0 0.0 0.0 0.0 0.0 0.0 0.0 0.0 0.0 0.0 1.9747353935518702e-17 -0.01635456166548786 -0.6928915259581856 0.01968809579943538 -0.006510300211118856 0.0 2.2662062158878047e-16 -0.18838000544495248 -5.850216338782681 0.08126240276244055 -0.02702674429627759 0.0 1.624450445175171 -2.085724178944723 2.3236348628997803 -3.4726317564593714 -0.05372506776918584 0.11202741414308548 0.0 0.0 -0.0 0.0 0.0 0.0 0.02018737979233265 -0.0672912672162056 -0.7335448265075684 0.05594969168305397 -0.05259270966053009 0.10854240506887436 0.006729126907885075 -0.0672912672162056 -0.7472701668739319 0.067139632999897 -0.048116736114025116 0.1018284410238266 0.19969151439379926 -0.07272604100750626 0.3985950584363076 -1.196979574307492 1.217972803658085 -1.1938804929253855 0.0 0.0 0.0 0.0 0.0 0.0 0.7238562671697987 -3.213804823444195 -3.4741803244448226 -0.5048477698505925 1.3256801424759044 0.3293747380184354 0.1996894554583975 -0.07274751472285904 0.39859117483232454 -1.196859983632481 1.2180842510740573 -1.193863433688838 0.0 0.0 0.0 0.0 0.0 0.0
7708.008 1.6244145631790161 -2.085700337086813 2.3236467838287354 -3.472584072743551 -0.05377322832216436 0.11205138266086578 0.0 0.0 0.0 0.0 0.0 0.0 0.0 0.0 0.0 0.0 0.0 0.0 1.9747353935518702e-17 -0.01635456166548786 -0.6928915259581856 0.01968809579943538 -0.006510300211118856 0.0 2.2662062158878047e-16 -0.18838000544495248 -5.850216338782681 0.08126240276244055 -0.02702674429627759 0.0 1.6244264841079712 -2.085700337086813 2.32361102104187 -3.472584072743551 -0.05380899110902959 0.11197910457849503 0.0 0.0 -0.0 0.0 0.0 0.0 0.0022430422250181437 -0.0672912672162056 -0.759470522403717 0.07049661129713058 -0.051473718136548996 0.1018284410238266 0.006729126907885075 -0.0717773512005806 -0.748795211315155 0.06602063775062561 -0.0503547228872776 0.09959045052528381 0.19969028449676118 -0.07274682596605794 0.3985987315671911 -1.1969245431944044 1.218047126572216 -1.1939628916180187 0.0 0.0 0.0 0.0 0.0 0.0 1.9226651701009974 -2.7936051901191545 -4.893073135427378 -0.47208026828335725 0.14516093751016435 0.38912673593646974 0.1996894554583975 -0.07274751472285904 0.39859117483232454 -1.196859983632481 1.2180842510740573 -1.193863433688838 0.0 0.0 0.0 0.0 0.0 0.0
7708.016 1.6244145631790161 -2.085700337086813 2.3236467838287354 -3.472584072743551 -0.05377322832216436 0.11205138266086578 0.0 0.0 0.0 0.0 0.0 0.0 0.0 0.0 0.0 0.0 0.0 0.0 1.9747353935518702e-17 -0.01635456166548786 -0.6928915259581856 0.01968809579943538 -0.006510300211118856 0.0 2.2662062158878047e-16 -0.18838000544495248 -5.850216338782681 0.08126240276244055 -0.02702674429627759 0.0 1.6244385242462158 -2.0856764952289026 2.3236348628997803 -3.4726198355304163 -0.053785149251119435 0.11201542615890503 0.0 0.0 -0.0 0.0 0.0 0.0 0.008972168900072575 -0.0717773512005806 -0.7259196043014526 0.06490164250135422 -0.04364075884222984 0.0839245393872261 0.006729126907885075 -0.0740203931927681 -0.7518453001976013 0.06378264725208282 -0.04923573136329651 0.10294743627309799 0.1996913306324014 -0.0727461162044781 0.39859158186082166 -1.1969082395508464 1.2180455623080921 -1.19389954827903 0.0 0.0 0.0 0.0 0.0 0.0 -0.567899929355116 -3.881906786136655 -3.433311468706376 -0.38538546275091984 -2.503329849659464 0.7010504828491155 0.1996894554583975 -0.07274751472285904 0.39859117483232454 -1.196859983632481 1.2180842510740573 -1.193863433688838 0.0 0.0 0.0 0.0 0.0 0.0
7708.023999999999 1.6244145631790161 -2.085700337086813 2.3236467838287354 -3.472584072743551 -0.05377322832216436 0.11205138266086578 0.0 0.0 0.0 0.0 0.0 0.0 0.0 0.0 0.0 0.0 0.0 0.0 1.9747353935518702e-17 -0.01635456166548786 -0.6928915259581856 0.01968809579943538 -0.006510300211118856 0.0 2.2662062158878047e-16 -0.18838000544495248 -5.850216338782681 0.08126240276244055 -0.02702674429627759 0.0 1.6244744062423706 -2.0856884161578577 2.3236589431762695 -3.472584072743551 -0.053748909627096 0.11197910457849503 0.0 0.0 -0.0 0.0 0.0 0.0 0.004486084450036287 -0.0762634351849556 -0.759470522403717 0.0839245393872261 -0.05259270966053009 0.09623347222805023 0.006729126907885075 -0.0717773512005806 -0.7503202557563782 0.06490164250135422 -0.04923573136329651 0.1007094457745552 0.19969397766576868 -0.07273692975364973 0.39858751768358447 -1.19693848502297 1.218003028270938 -1.1938353915730011 0.0 0.0 0.0 0.0 0.0 0.0 -0.6622515594621413 -3.7529542980032504 -5.35701955656724 -0.44194326386237937 -2.7442792765775756 0.7398899354665137 0.1996894554583975 -0.07274751472285904 0.39859117483232454 -1.196859983632481 1.2180842510740573 -1.193863433688838 0.0 0.0 0.0 0.0 0.0 0.0
7708.031999999999 1.6244145631790161 -2.085700337086813 2.3236467838287354 -3.472584072743551 -0.05377322832216436 0.11205138266086578 0.0 0.0 0.0 0.0 0.0 0.0 0.0 0.0 0.0 0.0 0.0 0.0 1.9747353935518702e-17 -0.01635456166548786 -0.6928915259581856 0.01968809579943538 -0.006510300211118856 0.0 2.2662062158878047e-16 -0.18838000544495248 -5.850216338782681 0.08126240276244055 -0.02702674429627759 0.0 1.6243906021118164 -2.085712258015768 2.3236708641052246 -3.4726198355304163 -0.053760830556051076 0.11203939467668533 0.0 0.0 -0.0 0.0 0.0 0.0 0.0022430422250181437 -0.0628051832318306 -0.7381199598312378 0.06490164250135422 -0.051473718136548996 0.08840051293373108 0.006729126907885075 -0.0717773512005806 -0.7457451224327087 0.06490164250135422 -0.04923573136329651 0.1007094457745552 0.1996874140075877 -0.0727461278403662 0.3985870484282212 -1.1968805932121365 1.2180759195511022 -1.1938981866614682 0.0 0.0 0.0 0.0 0.0 0.0 0.9178403317950641 -2.909207494943138 -3.7953061996264905 -0.40865893096094597 -0.6911057930894604 0.48530150063311855 0.1996894554583975 -0.07274751472285904 0.39859117483232454 -1.196859983632481 1.2180842510740573 -1.193863433688838 0.0 0.0 0.0 0.0 0.0 0.0
7708.04 1.6244145631790161 -2.085700337086813 2.3236467838287354 -3.472584072743551 -0.05377322832216436 0.11205138266086578 0.0 0.0 0.0 0.0 0.0 0.0 0.0 0.0 0.0 0.0 0.0 0.0 1.9747353935518702e-17 -0.01635456166548786 -0.6928915259581856 0.01968809579943538 -0.006510300211118856 0.0 2.2662062158878047e-16 -0.18838000544495248 -5.850216338782681 0.08126240276244055 -0.02702674429627759 0.0 1.6244145631790161 -2.0856884161578577 2.32361102104187 -3.4726079146014612 -0.053785149251119435 0.11200307309627533 0.0 0.0 -0.0 0.0 0.0 0.0 0.01570129580795765 -0.0695343092083931 -0.710669219493866 0.07273460179567337 -0.0503547228872776 0.067139632999897 0.006729126907885075 -0.0717773512005806 -0.7533703446388245 0.06490164250135422 -0.04923573136329651 0.1018284410238266 0.19968946121279574 -0.0727481538318906 0.3985974723078124 -1.1969225152052403 1.2180452271160407 -1.193944454498778 0.0 0.0 0.0 0.0 0.0 0.0 -4.734965943495372 -4.384133485512151 -2.93790251910713 -0.3040920106365574 -5.072010312542175 1.0178962463492247 0.1996894554583975 -0.07274751472285904 0.39859117483232454 -1.196859983632481 1.2180842510740573 -1.193863433688838 0.0 0.0 0.0 0.0 0.0 0.0
7708.048 1.6244145631790161 -2.085700337086813 2.3236467838287354 -3.472584072743551 -0.05377322832216436 0.11205138266086578 0.0 0.0 0.0 0.0 0.0 0.0 0.0 0.0 0.0 0.0 0.0 0.0 1.9747353935518702e-17 -0.01635456166548786 -0.6928915259581856 0.01968809579943538 -0.006510300211118856 0.0 2.2662062158878047e-16 -0.18838000544495248 -5.850216338782681 0.08126240276244055 -0.02702674429627759 0.0 1.6243906021118164 -2.0856764952289026 2.323586940765381 -3.472595993672506 -0.053785149251119435 0.11199108511209488 0.0 0.0 -0.0 0.0 0.0 0.0 0.006729126907885075 -0.0605621412396431 -0.767095685005188 0.07385359704494476 -0.04252176731824875 0.09175749868154526 0.006729126907885075 -0.0717773512005806 -0.7457451224327087 0.06266365945339203 -0.04923573136329651 0.1007094457745552 0.19968790414179755 -0.07275605830713934 0.3986014219250576 -1.196920034856453 1.2180569980367577 -1.1939711332384508 0.0 0.0 0.0 0.0 0.0 0.0 0.6288696028839035 -2.2716197065107657 -5.165729199349915 -0.42520238763982293 -0.05931065757828498 0.321277029520346 0.1996894554583975 -0.07274751472285904 0.39859117483232454 -1.196859983632481 1.2180842510740573 -1.193863433688838 0.0 0.0 0.0 0.0 0.0 0.0
7708.056 1.6244145631790161 -2.085700337086813 2.3236467838287354 -3.472584072743551 -0.05377322832216436 0.11205138266086578 0.0 0.0 0.0 0.0 0.0 0.0 0.0 0.0 0.0 0.0 0.0 0.0 1.9747353935518702e-17 -0.01635456166548786 -0.6928915259581856 0.01968809579943538 -0.006510300211118856 0.0 2.2662062158878047e-16 -0.18838000544495248 -5.850216338782681 0.08126240276244055 -0.02702674429627759 0.0 1.6244385242462158 -2.0856764952289026 2.3236348628997803 -3.472595993672506 -0.053760830556051076 0.11199108511209488 0.0 0.0 -0.0 0.0 0.0 0.0 0.006729126907885075 -0.0762634351849556 -0.7259196043014526 0.07497258484363556 -0.044759754091501236 0.09959045052528381 0.006729126907885075 -0.0717773512005806 -0.7472701668739319 0.06266365945339203 -0.04923573136329651 0.1007094457745552 0.19969144211280718 -0.07274615727000387 0.3985914770226917 -1.196922780848338 1.218030368673595 -1.1938805200089075 0.0 0.0 0.0 0.0 0.0 0.0 0.18028082755882263 -4.305415691822009 -3.7726633470279616 -0.45763702949824336 -2.733581137440365 0.7600560557757178 0.1996894554583975 -0.07274751472285904 0.39859117483232454 -1.196859983632481 1.2180842510740573 -1.193863433688838 0.0 0.0 0.0 0.0 0.0 0.0
7708.063999999999 1.6244145631790161 -2.085700337086813 2.3236467838287354 -3.472584072743551 -0.05377322832216436 0.11205138266086578 0.0 0.0 0.0 0.0 0.0 0.0 0.0 0.0 0.0 0.0 0.0 0.0 1.9747353935518702e-17 -0.01635456166548786 -0.6928915259581856 0.01968809579943538 -0.006510300211118856 0.0 2.2662062158878047e-16 -0.18838000544495248 -5.850216338782681 0.08126240276244055 -0.02702674429627759 0.0 1.6244624853134155 -2.085712258015768 2.323598861694336 -3.4726317564593714 -0.05379707018007451 0.11199108511209488 0.0 0.0 -0.0 0.0 0.0 0.0 0.004486084450036287 -0.0740203931927681 -0.7503202557563782 0.07385359704494476 -0.04699774086475372 0.09175749868154526 0.006729126907885075 -0.0717773512005806 -0.7472701668739319 0.06378264725208282 -0.04923573136329651 0.1007094457745552 0.19969250916238482 -0.0727312292337405 0.3986019472946035 -1.1969897239848406 1.2179821096723118 -1.193972656892112 0.0 0.0 0.0 0.0 0.0 0.0 0.15722736947000973 -3.6037139923176826 -4.696588951551731 -0.42220799884516375 -2.142032185677788 0.6504767681193697 0.1996894554583975 -0.07274751472285904 0.39859117483232454 -1.196859983632481 1.2180842510740573 -1.193863433688838 0.0 0.0 0.0 0.0 0.0 0.0
7708.071999999999 1.6244145631790161 -2.085700337086813 2.3236467838287354 -3.472584072743551 -0.05377322832216436 0.11205138266086578 0.0 0.0 0.0 0.0 0.0 0.0 0.0 0.0 0.0 0.0 0.0 0.0 1.9747353935518702e-17 -0.01635456166548786 -0.6928915259581856 0.01968809579943538 -0.006510300211118856 0.0 2.2662062158878047e-16 -0.18838000544495248 -5.850216338782681 0.08126240276244055 -0.02702674429627759 0.0 1.6244145631790161 -2.0857365767108362 2.32361102104187 -3.4726079146014612 -0.053785149251119435 0.11202741414308548 0.0 0.0 -0.0 0.0 0.0 0.0 0.006729126907885075 -0.0628051832318306 -0.7442200779914856 0.06042566895484924 -0.0503547228872776 0.12085133790969849 0.006729126907885075 -0.0717773512005806 -0.7472701668739319 0.06378264725208282 -0.04923573136329651 0.1007094457745552 0.19968882947599917 -0.07273628564901516 0.3986014905300194 -1.1969381987929633 1.2180322525659941 -1.1939631473617844 0.0 0.0 0.0 0.0 0.0 0.0 4.097740512502448 -2.5537904487647687 -3.9729312711664964 -0.5638216938873889 2.77256012955698 0.12532512582294225 0.1996894554583975 -0.07274751472285904 0.39859117483232454 -1.196859983632481 1.2180842510740573 -1.193863433688838 0.0 0.0 0.0 0.0 0.0 0.0
7708.08 1.6244145631790161 -2.085700337086813 2.3236467838287354 -3.472584072743551 -0.05377322832216436 0.11205138266086578 0.0 0.0 0.0 0.0 0.0 0.0 0.0 0.0 0.0 0.0 0.0 0.0 1.9747353935518702e-17 -0.01635456166548786 -0.6928915259581856 0.01968809579943538 -0.006510300211118856 0.0 2.2662062158878047e-16 -0.18838000544495248 -5.850216338782681 0.08126240276244055 -0.02702674429627759 0.0 1.624450445175171 -2.085700337086813 2.323586940765381 -3.4726079146014612 -0.053748909627096 0.11197910457849503 0.0 0.0 -0.0 0.0 0.0 0.0 0.0 -0.0628051832318306 -0.748795211315155 0.05594969168305397 -0.04028377681970596 0.11301837861537933 0.006729126907885075 -0.0717773512005806 -0.7472701668739319 0.06602063775062561 -0.04587874934077263 0.1007094457745552 0.1996918878713767 -0.0727342435725793 0.3986030922735003 -1.1970023988061758 1.2179657963089146 -1.1939348220582482 0.0 0.0 0.0 0.0 0.0 0.0 5.514764302418934 -2.3119133845407283 -4.04825872404806 -0.5277275783469216 2.743446356778332 0.06055813833655329 0.1996894554583975 -0.07274751472285904 0.39859117483232454 -1.196859983632481 1.2180842510740573 -1.193863433688838 0.0 0.0 0.0 0.0 0.0 0.0
7708.088 1.6244145631790161 -2.085700337086813 2.3236467838287354 -3.472584072743551 -0.05377322832216436 0.11205138266086578 0.0 0.0 0.0 0.0 0.0 0.0 0.0 0.0 0.0 0.0 0.0 0.0 1.9747353935518702e-17 -0.01635456166548786 -0.6928915259581856 0.01968809579943538 -0.006510300211118856 0.0 2.2662062158878047e-16 -0.18838000544495248 -5.850216338782681 0.08126240276244055 -0.02702674429627759 0.0 1.6244264841079712 -2.085724178944723 2.3236589431762695 -3.4726079146014612 -0.05377322832216436 0.11197910457849503 0.0 0.0 -0.0 0.0 0.0 0.0 0.02018737979233265 -0.0628051832318306 -0.7686207294464111 0.067139632999897 -0.051473718136548996 0.10854240506887436 0.006729126907885075 -0.0695343092083931 -0.7472701668739319 0.06490164250135422 -0.048116736114025116 0.1007094457745552 0.19968991107505277 -0.07273764573828846 0.39859060640721833 -1.1969438641257075 1.2180237149293989 -1.1939349118828602 0.0 0.0 0.0 0.0 0.0 0.0 0.27836382045694813 -2.325884148036103 -5.109154970332108 -0.505643957695234 1.9032362742696427 0.18445645616191675 0.1996894554583975 -0.07274751472285904 0.39859117483232454 -1.196859983632481 1.2180842510740573 -1.193863433688838 0.0 0.0 0.0 0.0 0.0 0.0
7708.096 1.6244145631790161 -2.085700337086813 2.3236467838287354 -3.472584072743551 -0.05377322832216436 0.11205138266086578 0.0 0.0 0.0 0.0 0.0 0.0 0.0 0.0 0.0 0.0 0.0 0.0 1.9747353935518702e-17 -0.01635456166548786 -0.6928915259581856 0.01968809579943538 -0.006510300211118856 0.0 2.2662062158878047e-16 -0.18838000544495248 -5.850216338782681 0.08126240276244055 -0.02702674429627759 0.0 1.6244385242462158 -2.0856884161578577 2.323622941970825 -3.472595993672506 -0.053785149251119435 0.11205138266086578 0.0 0.0 -0.0 0.0 0.0 0.0 0.004486084450036287 -0.0717773512005806 -0.7350698709487915 0.07497258484363556 -0.04699774086475372 0.10742340981960297 0.006729126907885075 -0.0695343092083931 -0.7472701668739319 0.06490164250135422 -0.048116736114025116 0.1007094457745552 0.19969127326235417 -0.07274480026388545 0.39859508568893476 -1.1968816944188745 1.2180624606180404 -1.1938730896252934 0.0 0.0 0.0 0.0 0.0 0.0 1.4531821330668084 -3.7266804144337042 -4.084966518457586 -0.49610210769356883 -1.2390507040328558 0.5807515315237928 0.1996894554583975 -0.07274751472285904 0.39859117483232454 -1.196859983632481 1.2180842510740573 -1.193863433688838 0.0 0.0 0.0 0.0 0.0 0.0
7708.103999999999 1.6244145631790161 -2.085700337086813 2.3236467838287354 -3.472584072743551 -0.05377322832216436 0.11205138266086578 0.0 0.0 0.0 0.0 0.0 0.0 0.0 0.0 0.0 0.0 0.0 0.0 1.9747353935518702e-17 -0.01635456166548786 -0.6928915259581856 0.01968809579943538 -0.006510300211118856 0.0 2.2662062158878047e-16 -0.18838000544495248 -5.850216338782681 0.08126240276244055 -0.02702674429627759 0.0 1.6244025230407715 -2.085712258015768 2.3236348628997803 -3.4726555983172815 -0.053760830556051076 0.11201542615890503 0.0 0.0 -0.0 0.0 0.0 0.0 0.004486084450036287 -0.0695343092083931 -0.7396449446678162 0.06602063775062561 -0.044759754091501236 0.13092228770256042 0.006729126907885075 -0.0717773512005806 -0.7457451224327087 0.06490164250135422 -0.048116736114025116 0.1007094457745552 0.19968807414425238 -0.07273944552840202 0.3985942565236201 -1.196954241785597 1.2180195161961451 -1.1939614770737508 0.0 0.0 0.0 0.0 0.0 0.0 5.0086348227127075 -3.159480941668842 -4.0471941863525815 -0.6096886372468705 2.127857374750979 0.20886276321956568 0.1996894554583975 -0.07274751472285904 0.39859117483232454 -1.196859983632481 1.2180842510740573 -1.193863433688838 0.0 0.0 0.0 0.0 0.0 0.0
7708.112 1.6244145631790161 -2.085700337086813 2.3236467838287354 -3.472584072743551 -0.05377322832216436 0.11205138266086578 0.0 0.0 0.0 0.0 0.0 0.0 0.0 0.0 0.0 0.0 0.0 0.0 1.9747353935518702e-17 -0.01635456166548786 -0.6928915259581856 0.01968809579943538 -0.006510300211118856 0.0 2.2662062158878047e-16 -0.18838000544495248 -5.850216338782681 0.08126240276244055 -0.02702674429627759 0.0 1.6244145631790161 -2.0856645742999476 2.3236467838287354 -3.4726317564593714 -0.05373698869814092 0.11197910457849503 0.0 0.0 -0.0 0.0 0.0 0.0 0.01345825381577015 -0.0695343092083931 -0.7060940861701965 0.07049661129713058 -0.04923573136329651 0.10518541932106018 0.006729126907885075 -0.0717773512005806 -0.7457451224327087 0.06490164250135422 -0.048116736114025116 0.1007094457745552 0.19968969977984197 -0.0727492852447978 0.39858774951653936 -1.196941490244689 1.2180204098715388 -1.1938974530545696 0.0 0.0 0.0 0.0 0.0 0.0 -0.29018211224299645 -4.224304952757933 -2.7464212252268547 -0.48489102521542904 -1.7633720419330967 0.6914929786812984 0.1996894554583975 -0.07274751472285904 0.39859117483232454 -1.196859983632481 1.2180842510740573 -1.193863433688838 0.0 0.0 0.0 0.0 0.0 0.0
7708.12 1.6244145631790161 -2.085700337086813 2.3236467838287354 -3.472584072743551 -0.05377322832216436 0.11205138266086578 0.0 0.0 0.0 0.0 0.0 0.0 0.0 0.0 0.0 0.0 0.0 0.0 1.9747353935518702e-17 -0.01635456166548786 -0.6928915259581856 0.01968809579943538 -0.006510300211118856 0.0 2.2662062158878047e-16 -0.18838000544495248 -5.850216338782681 0.08126240276244055 -0.02702674429627759 0.0 1.6244145631790161 -2.0856526533709925 2.3236348628997803 -3.472584072743551 -0.05373698869814092 0.11197910457849503 0.0 0.0 -0.0 0.0 0.0 0.0 0.006729126907885075 -0.0695343092083931 -0.7503202557563782 0.05818767845630646 -0.05371170490980148 0.08951950818300247 0.006729126907885075 -0.0717773512005806 -0.7457451224327087 0.06378264725208282 -0.0503547228872776 0.1007094457745552 0.19969006715931598 -0.07275587974219476 0.3985893455765163 -1.1969081250544702 1.2180447176926408 -1.1938613081636247 0.0 0.0 0.0 0.0 0.0 0.0 0.8836630062416877 -3.024729295066285 -4.235149109588991 -0.4145067527352767 -0.1696822827860717 0.4531328414708412 0.1996894554583975 -0.07274751472285904 0.39859117483232454 -1.196859983632481 1.2180842510740573 -1.193863433688838 0.0 0.0 0.0 0.0 0.0 0.0
7708.128 1.6244145631790161 -2.085700337086813 2.3236467838287354 -3.472584072743551 -0.05377322832216436 0.11205138266086578 0.0 0.0 0.0 0.0 0.0 0.0 0.0 0.0 0.0 0.0 0.0 0.0 1.9747353935518702e-17 -0.01635456166548786 -0.6928915259581856 0.01968809579943538 -0.006510300211118856 0.0 2.2662062158878047e-16 -0.18838000544495248 -5.850216338782681 0.08126240276244055 -0.02702674429627759 0.0 1.6244145631790161 -2.085700337086813 2.32361102104187 -3.4726317564593714 -0.05373698869814092 0.11203939467668533 0.0 0.0 -0.0 0.0 0.0 0.0 0.0 -0.0672912672162056 -0.748795211315155 0.06490164250135422 -0.044759754091501236 0.09735246747732162 0.006729126907885075 -0.0672912672162056 -0.7457451224327087 0.06378264725208282 -0.04923573136329651 0.1007094457745552 0.19968919181534225 -0.0727392317753115 0.3985980155919476 -1.1969470309603971 1.2180123747926819 -1.1939073410863097 0.0 0.0 0.0 0.0 0.0 0.0 2.6383597878569782 -2.9042930440052954 -4.318164556938834 -0.45110029648760414 -0.033909762712795506 0.3880436666366953 0.1996894554583975 -0.07274751472285904 0.39859117483232454 -1.196859983632481 1.2180842510740573 -1.193863433688838 0.0 0.0 0.0 0.0 0.0 0.0
7708.1359999999995 1.6244145631790161 -2.085700337086813 2.3236467838287354 -3.472584072743551 -0.05377322832216436 0.11205138266086578 0.0 0.0 0.0 0.0 0.0 0.0 0.0 0.0 0.0 0.0 0.0 0.0 1.9747353935518702e-17 -0.01635456166548786 -0.6928915259581856 0.01968809579943538 -0.006510300211118856 0.0 2.2662062158878047e-16 -0.18838000544495248 -5.850216338782681 0.08126240276244055 -0.02702674429627759 0.0 1.6244624853134155 -2.085724178944723 2.3236348628997803 -3.4726198355304163 -0.053748909627096 0.11199108511209488 0.0 0.0 -0.0 0.0 0.0 0.0 0.004486084450036287 -0.0762634351849556 -0.7152442932128906 0.06490164250135422 -0.051473718136548996 0.08728151768445969 0.006729126907885075 -0.0762634351849556 -0.7457451224327087 0.06378264725208282 -0.04923573136329651 0.09735246747732162 0.1996924467093619 -0.07272660933487304 0.3985952823372495 -1.1969907954114503 1.2179687819781104 -1.1939079177845768 0.0 0.0 0.0 0.0 0.0 0.0 -0.22890394499642994 -4.4093728328914015 -3.0738072536931087 -0.39987122638868183 -3.0958300808074575 0.8394432757774059 0.1996894554583975 -0.07274751472285904 0.39859117483232454 -1.196859983632481 1.2180842510740573 -1.193863433688838 0.0 0.0 0.0 0.0 0.0 0.0
7708.143999999999 1.6244145631790161 -2.085700337086813 2.3236467838287354 -3.472584072743551 -0.05377322832216436 0.11205138266086578 0.0 0.0 0.0 0.0 0.0 0.0 0.0 0.0 0.0 0.0 0.0 0.0 1.9747353935518702e-17 -0.01635456166548786 -0.6928915259581856 0.01968809579943538 -0.006510300211118856 0.0 2.2662062158878047e-16 -0.18838000544495248 -5.850216338782681 0.08126240276244055 -0.02702674429627759 0.0 1.624450445175171 -2.085748020802633 2.32361102104187 -3.472571674977438 -0.05379707018007451 0.11200307309627533 0.0 0.0 -0.0 0.0 0.0 0.0 0.004486084450036287 -0.0717773512005806 -0.7564204335212708 0.07721057534217834 -0.04252176731824875 0.09959045052528381 0.006729126907885075 -0.0695343092083931 -0.7457451224327087 0.06378264725208282 -0.04923573136329651 0.1018284410238266 0.19969145964115065 -0.07273037123326039 0.39860266107534503 -1.196949505180227 1.2180152331864114 -1.1939451648317259 0.0 0.0 0.0 0.0 0.0 0.0 1.0153532222126205 -3.3194363000655622 -5.003151565170088 -0.45967051495815203 -1.3679005196753424 0.5312934817020797 0.1996894554583975 -0.07274751472285904 0.39859117483232454 -1.196859983632481 1.2180842510740573 -1.193863433688838 0.0 0.0 0.0 0.0 0.0 0.0
7708.152 1.6244145631790161 -2.085700337086813 2.3236467838287354 -3.472584072743551 -0.05377322832216436 0.11205138266086578 0.0 0.0 0.0 0.0 0.0 0.0 0.0 0.0 0.0 0.0 0.0 0.0 1.9747353935518702e-17 -0.01635456166548786 -0.6928915259581856 0.01968809579943538 -0.006510300211118856 0.0 2.2662062158878047e-16 -0.18838000544495248 -5.850216338782681 0.08126240276244055 -0.02702674429627759 0.0 1.6244264841079712 -2.0857365767108362 2.3236708641052246 -3.472595993672506 -0.053748909627096 0.11197910457849503 0.0 0.0 -0.0 0.0 0.0 0.0 0.0022430422250181437 -0.0628051832318306 -0.7045690417289734 0.09287648648023605 -0.04587874934077263 0.11413737386465073 0.006729126907885075 -0.0695343092083931 -0.7457451224327087 0.06378264725208282 -0.04923573136329651 0.1007094457745552 0.19968981683389492 -0.07273402773905732 0.3985890676374691 -1.1969491088984192 1.2180135955029179 -1.1939073528463202 0.0 0.0 0.0 0.0 0.0 0.0 0.48000176681372114 -4.065295707773337 -3.143393269024618 -0.5251711905717097 -2.7077774115433106 0.7480244027090079 0.1996894554583975 -0.07274751472285904 0.39859117483232454 -1.196859983632481 1.2180842510740573 -1.193863433688838 0.0 0.0 0.0 0.0 0.0 0.0
7708.16 1.6244145631790161 -2.085700337086813 2.3236467838287354 -3.472584072743551 -0.05377322832216436 0.11205138266086578 0.0 0.0 0.0 0.0 0.0 0.0 0.0 0.0 0.0 0.0 0.0 0.0 1.9747353935518702e-17 -0.01635456166548786 -0.6928915259581856 0.01968809579943538 -0.006510300211118856 0.0 2.2662062158878047e-16 -0.18838000544495248 -5.850216338782681 0.08126240276244055 -0.02702674429627759 0.0 1.6244385242462158 -2.085712258015768 2.3236589431762695 -3.472571674977438 -0.053785149251119435 0.11199108511209488 0.0 0.0 -0.0 0.0 0.0 0.0 0.0022430422250181437 -0.0605621412396431 -0.7609955668449402 0.07385359704494476 -0.051473718136548996 0.09399548172950745 0.006729126907885075 -0.0695343092083931 -0.7457451224327087 0.06378264725208282 -0.04923573136329651 0.1007094457745552 0.1996911138191266 -0.0727422500595433 0.39858982730522485 -1.196900603847811 1.218052882263551 -1.1938899507734306 0.0 0.0 0.0 0.0 0.0 0.0 0.9677148512309062 -2.385063053864304 -4.919733460219234 -0.43547575943743744 -0.08738106393773588 0.37702085133072233 0.1996894554583975 -0.07274751472285904 0.39859117483232454 -1.196859983632481 1.2180842510740573 -1.193863433688838 0.0 0.0 0.0 0.0 0.0 0.0
7708.168 1.6244145631790161 -2.085700337086813 2.3236467838287354 -3.472584072743551 -0.05377322832216436 0.11205138266086578 0.0 0.0 0.0 0.0 0.0 0.0 0.0 0.0 0.0 0.0 0.0 0.0 1.9747353935518702e-17 -0.01635456166548786 -0.6928915259581856 0.01968809579943538 -0.006510300211118856 0.0 2.2662062158878047e-16 -0.18838000544495248 -5.850216338782681 0.08126240276244055 -0.02702674429627759 0.0 1.6244264841079712 -2.0856407324420374 2.32361102104187 -3.4726198355304163 -0.05377322832216436 0.11199108511209488 0.0 0.0 -0.0 0.0 0.0 0.0 0.008972168900072575 -0.0628051832318306 -0.7289696931838989 0.08168654888868332 -0.051473718136548996 0.11301837861537933 0.006729126907885075 -0.0695343092083931 -0.7457451224327087 0.06378264725208282 -0.04923573136329651 0.09847146272659302 0.19969089777885818 -0.07275552868107457 0.3985933610735678 -1.1969186307171924 1.2180411255771935 -1.1939079837553974 0.0 0.0 0.0 0.0 0.0 0.0 0.4632410508287434 -3.3792404478525193 -3.8586447401838764 -0.5227704582920786 -0.7137954186291919 0.525655048363639 0.1996894554583975 -0.07274751472285904 0.39859117483232454 -1.196859983632481 1.2180842510740573 -1.193863433688838 0.0 0.0 0.0 0.0 0.0 0.0
7708.1759999999995 1.6244145631790161 -2.085700337086813 2.3236467838287354 -3.472584072743551 -0.05377322832216436 0.11205138266086578 0.0 0.0 0.0 0.0 0.0 0.0 0.0 0.0 0.0 0.0 0.0 0.0 1.9747353935518702e-17 -0.01635456166548786 -0.6928915259581856 0.01968809579943538 -0.006510300211118856 0.0 2.2662062158878047e-16 -0.18838000544495248 -5.850216338782681 0.08126240276244055 -0.02702674429627759 0.0 1.6244864463806152 -2.085724178944723 2.32361102104187 -3.472571674977438 -0.05377322832216436 0.11197910457849503 0.0 0.0 -0.0 0.0 0.0 0.0 0.01570129580795765 -0.0672912672162056 -0.7640456557273865 0.067139632999897 -0.04923573136329651 0.11301837861537933 0.006729126907885075 -0.0695343092083931 -0.7472701668739319 0.06378264725208282 -0.04923573136329651 0.10294743627309799 0.1996943904488556 -0.0727271023721802 0.3986004889881638 -1.1969808402190998 1.2179741589503388 -1.1938996082275786 0.0 0.0 0.0 0.0 0.0 0.0 1.416154147619391 -2.679404004223895 -5.003499571053618 -0.5261066492206821 1.6241445168543833 0.23004012361722515 0.1996894554583975 -0.07274751472285904 0.39859117483232454 -1.196859983632481 1.2180842510740573 -1.193863433688838 0.0 0.0 0.0 0.0 0.0 0.0
7708.183999999999 1.6244145631790161 -2.085700337086813 2.3236467838287354 -3.472584072743551 -0.05377322832216436 0.11205138266086578 0.0 0.0 0.0 0.0 0.0 0.0 0.0 0.0 0.0 0.0 0.0 0.0 1.9747353935518702e-17 -0.01635456166548786 -0.6928915259581856 0.01968809579943538 -0.006510300211118856 0.0 2.2662062158878047e-16 -0.18838000544495248 -5.850216338782681 0.08126240276244055 -0.02702674429627759 0.0 1.6244624853134155 -2.085700337086813 2.3236589431762695 -3.4726198355304163 -0.05373698869814092 0.11199108511209488 0.0 0.0 -0.0 0.0 0.0 0.0 0.004486084450036287 -0.0695343092083931 -0.7320197820663452 0.06042566895484924 -0.048116736114025116 0.09175749868154526 0.006729126907885075 -0.0695343092083931 -0.7503202557563782 0.06378264725208282 -0.04923573136329651 0.1007094457745552 0.19969278561170734 -0.07273234241270099 0.3985882983818966 -1.1969637922923704 1.2179852191539338 -1.1938622352952721 0.0 0.0 0.0 0.0 0.0 0.0 1.29586035610611 -3.4305149595540563 -3.548465983795636 -0.42384658638143513 -0.8901135356652522 0.5330755477572297 0.1996894554583975 -0.07274751472285904 0.39859117483232454 -1.196859983632481 1.2180842510740573 -1.193863433688838 0.0 0.0 0.0 0.0 0.0 0.0
7708.192 1.6244145631790161 -2.085700337086813 2.3236467838287354 -3.472584072743551 -0.05377322832216436 0.11205138266086578 0.0 0.0 0.0 0.0 0.0 0.0 0.0 0.0 0.0 0.0 0.0 0.0 1.9747353935518702e-17 -0.01635456166548786 -0.6928915259581856 0.01968809579943538 -0.006510300211118856 0.0 2.2662062158878047e-16 -0.18838000544495248 -5.850216338782681 0.08126240276244055 -0.02702674429627759 0.0 1.6244264841079712 -2.0856884161578577 2.323586940765381 -3.472595993672506 -0.05377322832216436 0.11202741414308548 0.0 0.0 -0.0 0.0 0.0 0.0 0.0022430422250181437 -0.0560760572552681 -0.7289696931838989 0.0682586282491684 -0.044759754091501236 0.09847146272659302 0.006729126907885075 -0.0695343092083931 -0.7442200779914856 0.06378264725208282 -0.04923573136329651 0.1007094457745552 0.19969035798647458 -0.07274497784051225 0.3986023251577424 -1.196925303632983 1.2180339475366362 -1.1939176851501372 0.0 0.0 0.0 0.0 0.0 0.0 2.0095393365239973 -2.626788431720211 -3.410181342059869 -0.45663878620912135 0.2084338067439346 0.34949913705015284 0.1996894554583975 -0.07274751472285904 0.39859117483232454 -1.196859983632481 1.2180842510740573 -1.193863433688838 0.0 0.0 0.0 0.0 0.0 0.0
7708.2 1.6244145631790161 -2.085700337086813 2.3236467838287354 -3.472584072743551 -0.05377322832216436 0.11205138266086578 0.0 0.0 0.0 0.0 0.0 0.0 0.0 0.0 0.0 0.0 0.0 0.0 1.9747353935518702e-17 -0.01635456166548786 -0.6928915259581856 0.01968809579943538 -0.006510300211118856 0.0 2.2662062158878047e-16 -0.18838000544495248 -5.850216338782681 0.08126240276244055 -0.02702674429627759 0.0 1.6244025230407715 -2.0856764952289026 2.3236348628997803 -3.4726079146014612 -0.05377322832216436 0.11200307309627533 0.0 0.0 -0.0 0.0 0.0 0.0 0.004486084450036287 -0.0740203931927681 -0.7381199598312378 0.06937761604785919 -0.04923573136329651 0.11525636911392212 0.006729126907885075 -0.0695343092083931 -0.7472701668739319 0.06490164250135422 -0.04923573136329651 0.09959045052528381 0.1996887673053855 -0.07275334537213363 0.39859153126437263 -1.196898222492438 1.2180642971401945 -1.1939168998467486 0.0 0.0 0.0 0.0 0.0 0.0 2.681395235763411 -3.67488938427468 -4.117968227253385 -0.5339528346172155 -0.1090213827522757 0.4810310760034124 0.1996894554583975 -0.07274751472285904 0.39859117483232454 -1.196859983632481 1.2180842510740573 -1.193863433688838 0.0 0.0 0.0 0.0 0.0 0.0
7708.208 1.6244145631790161 -2.085700337086813 2.3236467838287354 -3.472584072743551 -0.05377322832216436 0.11205138266086578 0.0 0.0 0.0 0.0 0.0 0.0 0.0 0.0 0.0 0.0 0.0 0.0 1.9747353935518702e-17 -0.01635456166548786 -0.6928915259581856 0.01968809579943538 -0.006510300211118856 0.0 2.2662062158878047e-16 -0.18838000544495248 -5.850216338782681 0.08126240276244055 -0.02702674429627759 0.0 1.624450445175171 -2.085724178944723 2.323622941970825 -3.4726079146014612 -0.05377322832216436 0.11201542615890503 0.0 0.0 -0.0 0.0 0.0 0.0 0.01570129580795765 -0.0717773512005806 -0.7564204335212708 0.0682586282491684 -0.04699774086475372 0.09735246747732162 0.006729126907885075 -0.0695343092083931 -0.7472701668739319 0.06602063775062561 -0.04923573136329651 0.09959045052528381 0.1996916147079283 -0.07273161173583523 0.39859793727182385 -1.1969537798658714 1.218004957822869 -1.1939177788159554 0.0 0.0 0.0 0.0 0.0 0.0 -0.37827062395627725 -3.266562824471959 -4.772427658389187 -0.45028029932575314 -0.6004354830488925 0.4777883990125523 0.1996894554583975 -0.07274751472285904 0.39859117483232454 -1.196859983632481 1.2180842510740573 -1.193863433688838 0.0 0.0 0.0 0.0 0.0 0.0
7708.215999999999 1.6244145631790161 -2.085700337086813 2.3236467838287354 -3.472584072743551 -0.05377322832216436 0.11205138266086578 0.0 0.0 0.0 0.0 0.0 0.0 0.0 0.0 0.0 0.0 0.0 0.0 1.9747353935518702e-17 -0.01635456166548786 -0.6928915259581856 0.01968809579943538 -0.006510300211118856 0.0 2.2662062158878047e-16 -0.18838000544495248 -5.850216338782681 0.08126240276244055 -0.02702674429627759 0.0 1.6244145631790161 -2.0856645742999476 2.32361102104187 -3.472584072743551 -0.05377322832216436 0.11202741414308548 0.0 0.0 -0.0 0.0 0.0 0.0 0.004486084450036287 -0.0740203931927681 -0.7579454779624939 0.07832957059144974 -0.048116736114025116 0.11637535691261292 0.006729126907885075 -0.0717773512005806 -0.7472701668739319 0.06266365945339203 -0.04699774086475372 0.09959045052528381 0.19968988569202045 -0.07275508679623899 0.3985954731042205 -1.1968777207065109 1.2180729929254708 -1.1938810343691992 0.0 0.0 0.0 0.0 0.0 0.0 2.2437226342909953 -3.3987573931458783 -5.148498511605167 -0.5390084589553895 -0.24391902428419052 0.45773265886824854 0.1996894554583975 -0.07274751472285904 0.39859117483232454 -1.196859983632481 1.2180842510740573 -1.193863433688838 0.0 0.0 0.0 0.0 0.0 0.0
7708.223999999999 1.6244145631790161 -2.085700337086813 2.3236467838287354 -3.472584072743551 -0.05377322832216436 0.11205138266086578 0.0 0.0 0.0 0.0 0.0 0.0 0.0 0.0 0.0 0.0 0.0 0.0 1.9747353935518702e-17 -0.01635456166548786 -0.6928915259581856 0.01968809579943538 -0.006510300211118856 0.0 2.2662062158878047e-16 -0.18838000544495248 -5.850216338782681 0.08126240276244055 -0.02702674429627759 0.0 1.6243906021118164 -2.085712258015768 2.3236348628997803 -3.4726079146014612 -0.05373698869814092 0.11199108511209488 0.0 0.0 -0.0 0.0 0.0 0.0 0.008972168900072575 -0.0695343092083931 -0.7564204335212708 0.08280554413795471 -0.04699774086475372 0.09623347222805023 0.006729126907885075 -0.0740203931927681 -0.7472701668739319 0.067139632999897 -0.0503547228872776 0.1007094457745552 0.1996874303834514 -0.07274394138158398 0.39859423722275306 -1.1969461055982469 1.21802549502148 -1.1939335490877367 0.0 0.0 0.0 0.0 0.0 0.0 -0.8369414681187994 -3.3404164544296107 -5.095525047093902 -0.44321354756586434 -2.0017868937750767 0.6124764363734189 0.1996894554583975 -0.07274751472285904 0.39859117483232454 -1.196859983632481 1.2180842510740573 -1.193863433688838 0.0 0.0 0.0 0.0 0.0 0.0
7708.232 1.6244145631790161 -2.085700337086813 2.3236467838287354 -3.472584072743551 -0.05377322832216436 0.11205138266086578 0.0 0.0 0.0 0.0 0.0 0.0 0.0 0.0 0.0 0.0 0.0 0.0 1.9747353935518702e-17 -0.01635456166548786 -0.6928915259581856 0.01968809579943538 -0.006510300211118856 0.0 2.2662062158878047e-16 -0.18838000544495248 -5.850216338782681 0.08126240276244055 -0.02702674429627759 0.0 1.6244025230407715 -2.085700337086813 2.323586940765381 -3.4725597540484827 -0.053748909627096 0.11202741414308548 0.0 0.0 -0.0 0.0 0.0 0.0 0.006729126907885075 -0.0672912672162056 -0.7564204335212708 0.067139632999897 -0.05371170490980148 0.08168654888868332 0.006729126907885075 -0.0717773512005806 -0.7472701668739319 0.06378264725208282 -0.04923573136329651 0.1018284410238266 0.19968862821843433 -0.07274792428905855 0.3986032575175717 -1.1969100268463653 1.2180479083472537 -1.1938980545058546 0.0 0.0 0.0 0.0 0.0 0.0 -0.6811615920751541 -2.9450998678866602 -4.657067812738329 -0.37663861518408137 -1.3220963815192361 0.5510721693285012 0.1996894554583975 -0.07274751472285904 0.39859117483232454 -1.196859983632481 1.2180842510740573 -1.193863433688838 0.0 0.0 0.0 0.0 0.0 0.0
7708.24 1.6244145631790161 -2.085700337086813 2.3236467838287354 -3.472584072743551 -0.05377322832216436 0.11205138266086578 0.0 0.0 0.0 0.0 0.0 0.0 0.0 0.0 0.0 0.0 0.0 0.0 1.9747353935518702e-17 -0.01635456166548786 -0.6928915259581856 0.01968809579943538 -0.006510300211118856 0.0 2.2662062158878047e-16 -0.18838000544495248 -5.850216338782681 0.08126240276244055 -0.02702674429627759 0.0 1.6243906021118164 -2.0856884161578577 2.323586940765381 -3.472595993672506 -0.05373698869814092 0.11202741414308548 0.0 0.0 -0.0 0.0 0.0 0.0 0.01794433780014515 -0.0672912672162056 -0.7274446487426758 0.05818767845630646 -0.04364075884222984 0.08616252988576889 0.006729126907885075 -0.0650482252240181 -0.7518453001976013 0.06378264725208282 -0.04923573136329651 0.09959045052528381 0.19968774689032195 -0.07274917141242994 0.39860204709706626 -1.1969278533583143 1.218036312019619 -1.1939159542117017 0.0 0.0 0.0 0.0 0.0 0.0 -0.9825892225114008 -3.4618622316577135 -3.255758417853687 -0.3977614444548742 -1.0497085413213851 0.5318836950232525 0.1996894554583975 -0.07274751472285904 0.39859117483232454 -1.196859983632481 1.2180842510740573 -1.193863433688838 0.0 0.0 0.0 0.0 0.0 0.0
7708.248 1.6244145631790161 -2.085700337086813 2.3236467838287354 -3.472584072743551 -0.05377322832216436 0.11205138266086578 0.0 0.0 0.0 0.0 0.0 0.0 0.0 0.0 0.0 0.0 0.0 0.0 1.9747353935518702e-17 -0.01635456166548786 -0.6928915259581856 0.01968809579943538 -0.006510300211118856 0.0 2.2662062158878047e-16 -0.18838000544495248 -5.850216338782681 0.08126240276244055 -0.02702674429627759 0.0 1.624450445175171 -2.0856645742999476 2.3236348628997803 -3.472595993672506 -0.053760830556051076 0.11199108511209488 0.0 0.0 -0.0 0.0 0.0 0.0 0.006729126907885075 -0.0695343092083931 -0.7304947376251221 0.06266365945339203 -0.048116736114025116 0.1186133474111557 0.006729126907885075 -0.0695343092083931 -0.7457451224327087 0.06378264725208282 -0.04923573136329651 0.09847146272659302 0.1996924657707116 -0.07274671431956137 0.3985904822915182 -1.1969201797905935 1.2180277011805976 -1.1938626605342029 0.0 0.0 0.0 0.0 0.0 0.0 3.4009939003328333 -3.3910222097030833 -3.5733020586035105 -0.5512245753764013 1.1047589802954887 0.3431665796837972 0.1996894554583975 -0.07274751472285904 0.39859117483232454 -1.196859983632481 1.2180842510740573 -1.193863433688838 0.0 0.0 0.0 0.0 0.0 0.0
7708.255999999999 1.6244145631790161 -2.085700337086813 2.3236467838287354 -3.472584072743551 -0.05377322832216436 0.11205138266086578 0.0 0.0 0.0 0.0 0.0 0.0 0.0 0.0 0.0 0.0 0.0 0.0 1.9747353935518702e-17 -0.01635456166548786 -0.6928915259581856 0.01968809579943538 -0.006510300211118856 0.0 2.2662062158878047e-16 -0.18838000544495248 -5.850216338782681 0.08126240276244055 -0.02702674429627759 0.0 1.6244264841079712 -2.085700337086813 2.323598861694336 -3.472595993672506 -0.05377322832216436 0.11201542615890503 0.0 0.0 -0.0 0.0 0.0 0.0 0.004486084450036287 -0.0695343092083931 -0.7823461294174194 0.07497258484363556 -0.04364075884222984 0.10630441457033157 0.006729126907885075 -0.0717773512005806 -0.7503202557563782 0.06378264725208282 -0.04923573136329651 0.09959045052528381 0.19969021454608332 -0.07274245383481842 0.39860089237030666 -1.1969341291413105 1.218028361165459 -1.193926548790149 0.0 0.0 0.0 0.0 0.0 0.0 2.306011537868666 -2.502990550003766 -5.97963645570015 -0.4935950980570971 0.6351624093655897 0.2743552006416826 0.1996894554583975 -0.07274751472285904 0.39859117483232454 -1.196859983632481 1.2180842510740573 -1.193863433688838 0.0 0.0 0.0 0.0 0.0 0.0
7708.263999999999 1.6244145631790161 -2.085700337086813 2.3236467838287354 -3.472584072743551 -0.05377322832216436 0.11205138266086578 0.0 0.0 0.0 0.0 0.0 0.0 0.0 0.0 0.0 0.0 0.0 0.0 1.9747353935518702e-17 -0.01635456166548786 -0.6928915259581856 0.01968809579943538 -0.006510300211118856 0.0 2.2662062158878047e-16 -0.18838000544495248 -5.850216338782681 0.08126240276244055 -0.02702674429627759 0.0 1.6244264841079712 -2.0856884161578577 2.323622941970825 -3.472595993672506 -0.053748909627096 0.11199108511209488 0.0 0.0 -0.0 0.0 0.0 0.0 0.008972168900072575 -0.0762634351849556 -0.7503202557563782 0.07273460179567337 -0.04923573136329651 0.10294743627309799 0.006729126907885075 -0.0717773512005806 -0.7472701668739319 0.067139632999897 -0.048116736114025116 0.09959045052528381 0.19969039658666818 -0.07274423288926553 0.39859480773508454 -1.1969401775741721 1.2180192449664757 -1.1938982401100098 0.0 0.0 0.0 0.0 0.0 0.0 0.49274358029597326 -3.731152539585256 -4.715795200232499 -0.475194338261944 -1.3148151263199903 0.593785913676548 0.1996894554583975 -0.07274751472285904 0.39859117483232454 -1.196859983632481 1.2180842510740573 -1.193863433688838 0.0 0.0 0.0 0.0 0.0 0.0
7708.272 1.6244145631790161 -2.085700337086813 2.3236467838287354 -3.472584072743551 -0.05377322832216436 0.11205138266086578 0.0 0.0 0.0 0.0 0.0 0.0 0.0 0.0 0.0 0.0 0.0 0.0 1.9747353935518702e-17 -0.01635456166548786 -0.6928915259581856 0.01968809579943538 -0.006510300211118856 0.0 2.2662062158878047e-16 -0.18838000544495248 -5.850216338782681 0.08126240276244055 -0.02702674429627759 0.0 1.6244264841079712 -2.0856645742999476 2.323598861694336 -3.472584072743551 -0.053760830556051076 0.11200307309627533 0.0 0.0 -0.0 0.0 0.0 0.0 0.01794433780014515 -0.0672912672162056 -0.7548953890800476 0.09959045052528381 -0.04587874934077263 0.10518541932106018 0.006729126907885075 -0.0717773512005806 -0.7472701668739319 0.06490164250135422 -0.04923573136329651 0.1018284410238266 0.19969073949087376 -0.07275126781611226 0.3985978540487318 -1.1969166839028307 1.218038606466457 -1.1938897753258542 0.0 0.0 0.0 0.0 0.0 0.0 -3.0080145619888454 -3.5759803889721917 -5.413411869122573 -0.4835745401524843 -2.835164235055781 0.7020367154351006 0.1996894554583975 -0.07274751472285904 0.39859117483232454 -1.196859983632481 1.2180842510740573 -1.193863433688838 0.0 0.0 0.0 0.0 0.0 0.0
7708.28 1.6244145631790161 -2.085700337086813 2.3236467838287354 -3.472584072743551 -0.05377322832216436 0.11205138266086578 0.0 0.0 0.0 0.0 0.0 0.0 0.0 0.0 0.0 0.0 0.0 0.0 1.9747353935518702e-17 -0.01635456166548786 -0.6928915259581856 0.01968809579943538 -0.006510300211118856 0.0 2.2662062158878047e-16 -0.18838000544495248 -5.850216338782681 0.08126240276244055 -0.02702674429627759 0.0 1.6243906021118164 -2.085700337086813 2.3236708641052246 -3.4726198355304163 -0.05377322832216436 0.11200307309627533 0.0 0.0 -0.0 0.0 0.0 0.0 0.006729126907885075 -0.0650482252240181 -0.7472701668739319 0.07161560654640198 -0.051473718136548996 0.09959045052528381 0.006729126907885075 -0.0672912672162056 -0.748795211315155 0.06490164250135422 -0.04923573136329651 0.1007094457745552 0.19968757053795705 -0.07275008198771413 0.39858614888878674 -1.1968922935144304 1.2180731135273724 -1.1939255424014101 0.0 0.0 0.0 0.0 0.0 0.0 0.721220054278033 -2.9798620637286217 -4.380483644746204 -0.4610063188011786 -0.36363578616350395 0.4559887227792947 0.1996894554583975 -0.07274751472285904 0.39859117483232454 -1.196859983632481 1.2180842510740573 -1.193863433688838 0.0 0.0 0.0 0.0 0.0 0.0
7708.288 1.6244145631790161 -2.085700337086813 2.3236467838287354 -3.472584072743551 -0.05377322832216436 0.11205138266086578 0.0 0.0 0.0 0.0 0.0 0.0 0.0 0.0 0.0 0.0 0.0 0.0 1.9747353935518702e-17 -0.01635456166548786 -0.6928915259581856 0.01968809579943538 -0.006510300211118856 0.0 2.2662062158878047e-16 -0.18838000544495248 -5.850216338782681 0.08126240276244055 -0.02702674429627759 0.0 1.6244145631790161 -2.0856884161578577 2.323622941970825 -3.4726317564593714 -0.053760830556051076 0.11200307309627533 0.0 0.0 -0.0 0.0 0.0 0.0 0.006729126907885075 -0.0695343092083931 -0.7442200779914856 0.06042566895484924 -0.04699774086475372 0.11637535691261292 0.006729126907885075 -0.0717773512005806 -0.7503202557563782 0.06490164250135422 -0.04923573136329651 0.1007094457745552 0.19968936168334078 -0.0727445380763504 0.3985947765508547 -1.1969441375596503 1.21802313211545 -1.1939345537901636 0.0 0.0 0.0 0.0 0.0 0.0 3.6790652325067983 -3.0474205985495777 -4.0766155136928965 -0.5415888251601297 1.6533383106536201 0.25432169802856086 0.1996894554583975 -0.07274751472285904 0.39859117483232454 -1.196859983632481 1.2180842510740573 -1.193863433688838 0.0 0.0 0.0 0.0 0.0 0.0
7708.295999999999 1.6244145631790161 -2.085700337086813 2.3236467838287354 -3.472584072743551 -0.05377322832216436 0.11205138266086578 0.0 0.0 0.0 0.0 0.0 0.0 0.0 0.0 0.0 0.0 0.0 0.0 1.9747353935518702e-17 -0.01635456166548786 -0.6928915259581856 0.01968809579943538 -0.006510300211118856 0.0 2.2662062158878047e-16 -0.18838000544495248 -5.850216338782681 0.08126240276244055 -0.02702674429627759 0.0 1.6244145631790161 -2.0856526533709925 2.3236348628997803 -3.472595993672506 -0.05373698869814092 0.11200307309627533 0.0 0.0 -0.0 0.0 0.0 0.0 0.01345825381577015 -0.0717773512005806 -0.7396449446678162 0.067139632999897 -0.04923573136329651 0.13204127550125122 0.006729126907885075 -0.0717773512005806 -0.7457451224327087 0.06378264725208282 -0.04923573136329651 0.1007094457745552 0.19969001116771112 -0.0727548621317553 0.39858930475400156 -1.1968987889695109 1.2180498413000156 -1.1938526649669203 0.0 0.0 0.0 0.0 0.0 0.0 3.2309911690348025 -3.429264741183483 -4.104684198563927 -0.6145370704307883 1.8634585434029887 0.27655184704201813 0.1996894554583975 -0.07274751472285904 0.39859117483232454 -1.196859983632481 1.2180842510740573 -1.193863433688838 0.0 0.0 0.0 0.0 0.0 0.0
