Fleaurent/UniversalRobot/csv/robolib_movej_Trapez.csv
timestamp target_q_0 target_q_1 target_q_2 target_q_3 target_q_4 target_q_5 target_qd_0 target_qd_1 target_qd_2 target_qd_3 target_qd_4 target_qd_5 target_qdd_0 target_qdd_1 target_qdd_2 target_qdd_3 target_qdd_4 target_qdd_5 target_TCP_pose_0 target_TCP_pose_1 target_TCP_pose_2 target_TCP_pose_3 target_TCP_pose_4 target_TCP_pose_5 target_TCP_speed_0 target_TCP_speed_1 target_TCP_speed_2 target_TCP_speed_3 target_TCP_speed_4 target_TCP_speed_5
0.0 0.0 -1.5707963267948966 -1.5707963267948966 0.0 1.5707963267948966 0.0 0.0 0.0 0.0 0.0 0.0 0.0 1.0 0.0 0.0 0.0 0.0 0.0 295.15 -112.34999999999998 480.9 -1.2091995761561454 1.2091995761561456 -1.2091995761561458 0.0 0.0 0.0 0.0 0.0 0.0 
0.008 3.2e-05 -1.5707963267948966 -1.5707963267948966 0.0 1.5707963267948966 0.0 0.008 0.0 0.0 0.0 0.0 0.0 1.0 0.0 0.0 0.0 0.0 0.0 295.1535950488826 -112.34055514247841 480.9 -1.2092147055764364 1.2091760113249628 -1.209176011324963 -2.631999998652416 -8.422399998548118e-05 2.3612 2.559999999563093e-07 -0.007999999995904 4.898587196589413e-19 
0.016 0.000128 -1.5707963267948966 -1.5707963267948966 0.0 1.5707963267948966 0.0 0.016 0.0 0.0 0.0 0.0 0.0 1.0 0.0 0.0 0.0 0.0 0.0 295.1643783820919 -112.31221987973194 480.9 -1.2092600917893326 1.209105316402997 -1.2091053164029972 -5.263999956877312 -0.0006737919981598094 4.7223999999999995 2.0479999944075947e-06 -0.015999999868928 9.797174393178825e-19 
0.024 0.000288 -1.5707963267948966 -1.5707963267948966 0.0 1.5707963267948966 0.0 0.024 0.0 0.0 0.0 0.0 0.0 1.0 0.0 0.0 0.0 0.0 0.0 295.182344559092 -112.2649921417959 480.9 -1.2093357286510245 1.2089874901051165 -1.2089874901051167 -7.895999672537091 -0.002274047968563127 7.0836 6.911999904448513e-06 -0.023999999004672007 1.4695761589768239e-18 
0.032 0.000512 -1.5707963267948966 -1.5707963267948966 0.0 1.5707963267948966 0.0 0.032 0.0 0.0 0.0 0.0 0.0 1.0 0.0 0.0 0.0 0.0 0.0 295.2074845115868 -112.19886848066349 480.9 -1.2094416059222521 1.2088225302898576 -1.2088225302898579 -10.527998620074014 -0.005390335764492052 9.444799999999999 1.6383999284172125e-05 -0.03199999580569609 1.959434878635765e-18 
0.04 0.0008 -1.5707963267948966 -1.5707963267948966 0.0 1.5707963267948966 0.0 0.04 0.0 0.0 0.0 0.0 0.0 1.0 0.0 0.0 0.0 0.0 0.0 295.23978554241785 -112.11384407318803 480.9 -1.209577709268942 1.2086104339600623 -1.2086104339600627 -13.159995788800225 -0.010527998877012645 11.806 3.199999658666678e-05 -0.03999998720000068 2.4492935982947064e-18 
0.048 0.001152 -1.5707963267948966 -1.5707963267948966 0.0 1.5707963267948966 0.0 0.048 0.0 0.0 0.0 0.0 0.0 1.0 0.0 0.0 0.0 0.0 0.0 295.2792313240216 -112.00991272514642 480.9 -1.2097440202630958 1.2083511972637653 -1.2083511972637655 -15.791989521187975 -0.018192379976135136 14.167200000000001 5.5295987769410345e-05 -0.04799996814950752 2.9391523179536477e-18 
0.056 0.0015680000000000002 -1.5707963267948966 -1.5707963267948966 0.0 1.5707963267948966 0.0 0.056 0.0 0.0 0.0 0.0 0.0 1.0 0.0 0.0 0.0 0.0 0.0 295.32580189645034 -111.88706687646494 480.9 -1.2099405163839287 1.208044815495334 -1.2080448154953343 -18.42397735116035 -0.028888820162204495 16.528399999999994 8.780796401886173e-05 -0.055999931158542106 3.429011037612589e-18 
0.064 0.002048 -1.5707963267948966 -1.5707963267948966 0.0 1.5707963267948966 0.0 0.064 0.0 0.0 0.0 0.0 0.0 1.0 0.0 0.0 0.0 0.0 0.0 295.379473664957 -111.74529760760825 480.9 -1.21016717101927 1.2076912830968698 -1.20769128309687 -21.05595584238292 -0.043122657855061364 18.889599999999994 0.00013107190837405023 -0.06399986578231892 3.91886975727153e-18 
0.072 0.0025920000000000006 -1.5707963267948966 -1.5707963267948966 0.0 1.5707963267948966 0.0 0.07200000000000001 0.0 0.0 0.0 0.0 0.0 1.0 0.0 0.0 0.0 0.0 0.0 295.4402193971484 -111.58459464713222 480.9 -1.2104239534672074 1.2072905936598501 -1.2072905936598504 -23.687920426556936 -0.061399227248528504 21.2508 0.00018662379102896598 -0.07199975813543141 4.408728476930472e-18 
0.08 0.0032 -1.5707963267948966 -1.5707963267948966 0.0 1.5707963267948966 0.0 0.08 0.0 0.0 0.0 0.0 0.0 1.0 0.0 0.0 0.0 0.0 0.0 295.50800821970904 -111.40494638040256 480.9 -1.2107108289379842 1.2068427399270305 -1.206842739927031 -26.319865241714993 -0.08422385625777883 23.612 0.00025599956309355705 -0.07999959040034953 4.898587196589413e-18 
0.088 0.0038719999999999996 -1.5707963267948966 -1.5707963267948966 0.0 1.5707963267948966 0.0 0.088 0.0 0.0 0.0 0.0 0.0 1.0 0.0 0.0 0.0 0.0 0.0 295.5828056147004 -111.20633985948024 480.9 -1.2110277585561553 1.206347713794597 -1.2063477137945973 -28.951782970520366 -0.11210186388714335 25.973200000000002 0.00034073514859314576 -0.08799934033592816 5.388445916248354e-18 
0.096 0.004608 -1.5707963267948966 -1.5707963267948966 0.0 1.5707963267948966 0.0 0.096 0.0 0.0 0.0 0.0 0.0 1.0 0.0 0.0 0.0 0.0 0.0 295.6645734154394 -110.98876081417534 480.9 -1.2113746993629853 1.2058055063145694 -1.2058055063145698 -31.583664678571456 -0.14553855694591944 28.3344 0.00044236643448608266 -0.09599898078593148 5.8783046359072955e-18 
0.104 0.005408000000000001 -1.5707963267948966 -1.5707963267948966 0.0 1.5707963267948966 0.0 0.10400000000000001 0.0 0.0 0.0 0.0 0.0 1.0 0.0 0.0 0.0 0.0 0.0 295.75326980196127 -110.75219366427145 480.9 -1.211751604319099 1.2052161076974512 -1.2052161076974515 -34.21549965271334 -0.18503922603974343 30.6956 0.0005624292584794691 -0.10399847918757854 6.368163355566237e-18 
0.112 0.006272000000000001 -1.5707963267948966 -1.5707963267948966 0.0 1.5707963267948966 0.0 0.112 0.0 0.0 0.0 0.0 0.0 1.0 0.0 0.0 0.0 0.0 0.0 295.8488492960722 -110.49662153292248 480.9 -1.212158422307384 1.204579507315135 -1.2045795073151353 -36.84727523935867 -0.23110914076509698 33.05679999999999 0.0007024593944227934 -0.11199779708011755 6.858022075225178e-18 
0.12 0.0072 -1.5707963267948966 -1.5707963267948966 0.0 1.5707963267948966 0.0 0.12 0.0 0.0 0.0 0.0 0.0 1.0 0.0 0.0 0.0 0.0 0.0 295.95126275599847 -110.22202626122389 480.9 -1.212595098136135 1.203895693704051 -1.2038956937040513 -39.478976682820736 -0.2842535440345237 35.418 0.0008639925350593491 -0.1199968896134369 7.347880794884118e-18 
0.128 0.008192 -1.5707963267948966 -1.5707963267948966 0.0 1.5707963267948966 0.0 0.128 0.0 0.0 0.0 0.0 0.0 1.0 0.0 0.0 0.0 0.0 0.0 296.06045737063687 -109.92838842396122 480.9 -1.2130615725424498 1.2031646545685644 -1.2031646545685646 -42.11058696366191 -0.3449776454601391 37.779199999999996 0.0010485642719153235 -0.12799570505672314 7.83773951454306e-18 
0.136 0.009248000000000001 -1.5707963267948966 -1.5707963267948966 0.0 1.5707963267948966 0.0 0.136 0.0 0.0 0.0 0.0 0.0 1.0 0.0 0.0 0.0 0.0 0.0 296.17637665341584 -109.61568734653784 480.9 -1.2135577821958687 1.202386376784623 -1.2023863767846232 -44.74208663706135 -0.4137866137230303 40.1404 0.0012577100721064827 -0.13599418430717736 8.327598234202002e-18 
0.144 0.010368000000000002 -1.5707963267948966 -1.5707963267948966 0.0 1.5707963267948966 0.0 0.14400000000000002 0.0 0.0 0.0 0.0 0.0 1.0 0.0 0.0 0.0 0.0 0.0 296.2989604357729 -109.28390112308516 480.9 -1.2140836597022584 1.201560846403644 -1.2015608464036442 -47.373453671206306 -0.491185567856154 42.5016 0.0014929652518424214 -0.14399226039880336 8.817456953860944e-18 
0.152 0.011552 -1.5707963267948966 -1.5707963267948966 0.0 1.5707963267948966 0.0 0.152 0.0 0.0 0.0 0.0 0.0 1.0 0.0 0.0 0.0 0.0 0.0 296.4281448602577 -108.93300663575795 480.9 -1.2146391336079376 1.2006880486566487 -1.200688048656649 -50.00466328571211 -0.5776795673683581 44.86280000000001 0.001755864946408392 -0.15198985801128304 9.307315673519884e-18 
0.16 0.0128 -1.5707963267948966 -1.5707963267948966 0.0 1.5707963267948966 0.0 0.16 0.0 0.0 0.0 0.0 0.0 1.0 0.0 0.0 0.0 0.0 0.0 296.5638623732683 -108.56297957521768 480.9 -1.2152241284040484 1.1997679679586404 -1.1997679679586406 -52.63568779007652 -0.6737736011371748 47.22399999999998 0.0020479440764047947 -0.159986892978956 9.797174393178826e-18 
0.168 0.014112000000000001 -1.5707963267948966 -1.5707963267948966 0.0 1.5707963267948966 0.0 0.168 0.0 0.0 0.0 0.0 0.0 1.0 0.0 0.0 0.0 0.0 0.0 296.70604171743196 -108.1737944623074 480.9 -1.2158385645311605 1.1988005879132215 -1.1988005879132217 -55.266496422174725 -0.7799725749980484 49.58520000000001 0.002370737310024472 -0.16798327179992317 1.0287033112837767e-17 
0.176 0.015487999999999998 -1.5707963267948966 -1.5707963267948966 0.0 1.5707963267948966 0.0 0.176 0.0 0.0 0.0 0.0 0.0 1.0 0.0 0.0 0.0 0.0 0.0 296.8546079236366 -107.7654246709212 480.9 -1.21648235838412 1.1977858913174522 -1.1977858913174524 -57.89705518680232 -0.896781297957708 51.946400000000004 0.002725779021148058 -0.1759788911452958 1.0776891832496707e-17 
0.184 0.016928 -1.5707963267948966 -1.5707963267948966 0.0 1.5707963267948966 0.0 0.184 0.0 0.0 0.0 0.0 0.0 1.0 0.0 0.0 0.0 0.0 0.0 297.0094823027274 -107.33784245207201 480.9 -1.2171554223171324 1.1967238601669474 -1.1967238601669477 -60.52732669427415 -1.024704466959407 54.307599999999994 0.003114603243037721 -0.18397363736861447 1.1266750552155649e-17 
0.192 0.018432 -1.5707963267948966 -1.5707963267948966 0.0 1.5707963267948966 0.0 0.192 0.0 0.0 0.0 0.0 0.0 1.0 0.0 0.0 0.0 0.0 0.0 297.1705824368763 -106.891018959161 480.9 -1.217857664649078 1.195614475661211 -1.1956144756612113 -63.157269999087724 -1.1642466501278055 56.668800000000005 0.0035387436174097535 -0.19196738601546423 1.1756609271814591e-17 
0.2 0.020000000000000004 -1.5707963267948966 -1.5707963267948966 0.0 1.5707963267948966 0.0 0.2 0.0 0.0 0.0 0.0 0.0 1.0 0.0 0.0 0.0 0.0 0.0 297.3378221706364 -106.42492427445274 480.9 -1.2185889896690676 1.194457718209207 -1.1944577182092075 -65.78684043866082 -1.3159122684213136 59.03 0.0039997333386666166 -0.19996000133331557 1.2246467991473533e-17 
0.208 0.021632000000000005 -1.5707963267948966 -1.5707963267948966 0.0 1.5707963267948966 0.0 0.20800000000000002 0.0 0.0 0.0 0.0 0.0 1.0 0.0 0.0 0.0 0.0 0.0 297.51111160169467 -105.93952743675972 480.9 -1.2193492976422196 1.1932535674351608 -1.193253567435161 -68.41598947215414 -1.4802055756197636 61.3912 0.004499105093069202 -0.2079513357816235 1.2736326711132474e-17 
0.216 0.023327999999999998 -1.5707963267948966 -1.5707963267948966 0.0 1.5707963267948966 0.0 0.216 0.0 0.0 0.0 0.0 0.0 1.0 0.0 0.0 0.0 0.0 0.0 297.69035707133327 -105.4347964703403 480.9 -1.2201384848156724 1.192002002184595 -1.1920020021845952 -71.0446645193901 -1.6576306365753446 63.752399999999994 0.005038390992630239 -0.21594122954221914 1.3226185430791415e-17 
0.224 0.025088000000000003 -1.5707963267948966 -1.5707963267948966 0.0 1.5707963267948966 0.0 0.224 0.0 0.0 0.0 0.0 0.0 1.0 0.0 0.0 0.0 0.0 0.0 297.8754611546139 -104.91069841501428 480.9 -1.2209564434248221 1.1907030005305959 -1.190703000530596 -73.67280879988078 -1.8486913036547907 66.11359999999999 0.005619122503510014 -0.22392951003003278 1.3716044150450356e-17 
0.232 0.026912000000000002 -1.5707963267948966 -1.5707963267948966 0.0 1.5707963267948966 0.0 0.232 0.0 0.0 0.0 0.0 0.0 1.0 0.0 0.0 0.0 0.0 0.0 298.0663226502984 -104.36719935750016 480.9 -1.2218030616997861 1.1893565397803083 -1.1893565397803085 -76.30036117197805 -2.053891191300898 68.4748 0.006242830368695751 -0.23191599140418862 1.4205902870109297e-17 
0.24 0.0288 -1.5707963267948966 -1.5707963267948966 0.0 1.5707963267948966 0.0 0.24 0.0 0.0 0.0 0.0 0.0 1.0 0.0 0.0 0.0 0.0 0.0 298.2628365705195 -103.80426446397853 480.9 -1.2226782238720857 1.187962596481655 -1.1879625964816551 -78.92725597216106 -2.2737336486415383 70.836 0.0069110445247463305 -0.23990047407951692 1.4695761589768237e-17 
0.248 0.030751999999999998 -1.5707963267948966 -1.5707963267948966 0.0 1.5707963267948966 0.0 0.248 0.0 0.0 0.0 0.0 0.0 1.0 0.0 0.0 0.0 0.0 0.0 298.46489413021624 -103.2218580138858 480.9 -1.2235818101815525 1.1865211464302812 -1.1865211464302814 -81.55342285447652 -2.50872173007442 73.1972 0.007625294012384268 -0.24788274423853046 1.518562030942718e-17 
0.256 0.032768 -1.5707963267948966 -1.5707963267948966 0.0 1.5707963267948966 0.0 0.256 0.0 0.0 0.0 0.0 0.0 1.0 0.0 0.0 0.0 0.0 0.0 298.6723827363506 -102.61994343494302 480.9 -1.2245136968834491 1.1850321646767241 -1.1850321646767243 -84.17878663014876 -2.7593581637559557 75.55839999999999 0.008387106880717204 -0.25586257334391727 1.567547902908612e-17 
0.264 0.034848000000000004 -1.5707963267948966 -1.5707963267948966 0.0 1.5707963267948966 0.0 0.264 0.0 0.0 0.0 0.0 0.0 1.0 0.0 0.0 0.0 0.0 0.0 298.8851859769186 -101.99848333942413 480.9 -1.2254737562558078 1.1834956255337983 -1.1834956255337985 -86.80326710737802 -3.0261453179227353 77.9196 0.00919801008487155 -0.2638397176516049 1.6165337748745064e-17 
0.272 0.036992000000000004 -1.5707963267948966 -1.5707963267948966 0.0 1.5707963267948966 0.0 0.272 0.0 0.0 0.0 0.0 0.0 1.0 0.0 0.0 0.0 0.0 0.0 299.10318360977504 -101.35743956166809 480.9 -1.2264618566069785 1.1819115025842022 -1.1819115025842024 -89.42677893134575 -3.3095851649742074 80.2808 0.010059529376821313 -0.2718139177244552 1.6655196468404004e-17 
0.28 0.039200000000000006 -1.5707963267948966 -1.5707963267948966 0.0 1.5707963267948966 0.0 0.28 0.0 0.0 0.0 0.0 0.0 1.0 0.0 0.0 0.0 0.0 0.0 299.32625155128665 -100.69677319684001 480.9 -1.227477862283392 1.180279768688341 -1.1802797686883413 -92.04923142444831 -3.61017924324534 82.64199999999998 0.010973189189195577 -0.2797848979466514 1.7145055188062947e-17 
0.288 0.04147200000000001 -1.5707963267948966 -1.5707963267948966 0.0 1.5707963267948966 0.0 0.28800000000000003 0.0 0.0 0.0 0.0 0.0 1.0 0.0 0.0 0.0 0.0 0.0 299.5542618648326 -100.01644464094551 480.9 -1.228521633677521 1.1786003959923594 -1.1786003959923597 -94.67052842678056 -3.9284286163981794 85.00320000000002 0.011940512511848583 -0.2877523660388467 1.7634913907721887e-17 
0.296 0.04380799999999999 -1.5707963267948966 -1.5707963267948966 0.0 1.5707963267948966 0.0 0.296 0.0 0.0 0.0 0.0 0.0 1.0 0.0 0.0 0.0 0.0 0.0 299.78708274916875 -99.3164136321033 480.9 -1.229593027236055 1.1768733559363898 -1.17687335593639 -97.29056813689292 -4.264833830361407 87.36439999999999 0.012963020760976936 -0.29571601257414265 1.8124772627380827e-17 
0.304 0.046208 -1.5707963267948966 -1.5707963267948966 0.0 1.5707963267948966 0.0 0.304 0.0 0.0 0.0 0.0 0.0 1.0 0.0 0.0 0.0 0.0 0.0 300.0245785266769 -98.59663929308057 480.9 -1.230691895468271 1.1750986192630084 -1.1750986192630086 -99.90924295284678 -4.6198948677472 89.72559999999999 0.014042233640569012 -0.303675510494975 1.8614631347039768e-17 
0.312 0.048672 -1.5707963267948966 -1.5707963267948966 0.0 1.5707963267948966 0.0 0.312 0.0 0.0 0.0 0.0 0.0 1.0 0.0 0.0 0.0 0.0 0.0 300.26660963151534 -97.85708017509612 480.9 -1.2318180869546018 1.1732761560258933 -1.1732761560258935 -102.52643931359417 -4.994111099674857 92.08680000000001 0.015179668995972229 -0.3116305146309853 1.910449006669871e-17 
0.32 0.0512 -1.5707963267948966 -1.5707963267948966 0.0 1.5707963267948966 0.0 0.32 0.0 0.0 0.0 0.0 0.0 1.0 0.0 0.0 0.0 0.0 0.0 300.51303259769185 -97.09769430289576 480.9 -1.2329714463554022 1.1714059355986934 -1.1714059355986937 -105.14203754070981 -5.3879812349309795 94.448 0.016376842659364697 -0.31958066121796297 1.959434878635765e-17 
0.328 0.053792000000000006 -1.5707963267948966 -1.5707963267948966 0.0 1.5707963267948966 0.0 0.328 0.0 0.0 0.0 0.0 0.0 1.0 0.0 0.0 0.0 0.0 0.0 300.76370004708065 -96.31843922110498 480.9 -1.2341518144199064 1.1694879266840952 -1.1694879266840954 -107.75591168050471 -5.802003266396133 96.80920000000002 0.017635268286918353 -0.3275255674179474 2.0084207506016594e-17 
0.336 0.056448000000000005 -1.5707963267948966 -1.5707963267948966 0.0 1.5707963267948966 0.0 0.336 0.0 0.0 0.0 0.0 0.0 1.0 0.0 0.0 0.0 0.0 0.0 301.0184606774018 -95.51927204186333 480.9 -1.2353590279953721 1.1675220973230866 -1.1675220973230869 -110.36792934655168 -6.2366744146682604 99.1704 0.01895645718744154 -0.3354648308405826 2.0574066225675535e-17 
0.344 0.05916800000000001 -1.5707963267948966 -1.5707963267948966 0.0 1.5707963267948966 0.0 0.34400000000000003 0.0 0.0 0.0 0.0 0.0 1.0 0.0 0.0 0.0 0.0 0.0 301.2771592501865 -94.7001494937454 480.9 -1.2365929200364143 1.1655084149044206 -1.1655084149044208 -112.97795156265605 -6.692491068813395 101.5316 0.020341918142289972 -0.34339802906582384 2.1063924945334478e-17 
0.352 0.06195199999999999 -1.5707963267948966 -1.5707963267948966 0.0 1.5707963267948966 0.0 0.352 0.0 0.0 0.0 0.0 0.0 1.0 0.0 0.0 0.0 0.0 0.0 301.5396365787498 -93.86102797197294 480.9 -1.2378533196145127 1.163446846174269 -1.1634468461742693 -115.58583260630478 -7.169948724174478 103.89279999999998 0.021793157216335818 -0.3513247191680996 2.1553783664993415e-17 
0.36 0.0648 -1.5707963267948966 -1.5707963267948966 0.0 1.5707963267948966 0.0 0.36 0.0 0.0 0.0 0.0 0.0 1.0 0.0 0.0 0.0 0.0 0.0 301.8057295161929 -93.00186358992268 480.9 -1.2391400519277098 1.1613373572460712 -1.1613373572460715 -118.19141985263049 -7.6695419171695445 106.25399999999999 0.02331167755978587 -0.359244437242038 2.2043642384652358e-17 
0.368 0.067712 -1.5707963267948966 -1.5707963267948966 0.0 1.5707963267948966 0.0 0.368 0.0 0.0 0.0 0.0 0.0 1.0 0.0 0.0 0.0 0.0 0.0 302.0752709434597 -92.12261223193445 480.9 -1.240452938310473 1.159179913610567 -1.1591799136105674 -120.79455361892735 -8.19176415701072 108.61519999999997 0.02489897920064051 -0.3671566979298704 2.2533501104311298e-17 
0.376 0.070688 -1.5707963267948966 -1.5707963267948966 0.0 1.5707963267948966 0.0 0.376 0.0 0.0 0.0 0.0 0.0 1.0 0.0 0.0 0.0 0.0 0.0 302.3480897574701 -91.22322960742385 480.9 -1.2417917962437328 1.1569744801460164 -1.156974480146017 -123.39506700975832 -8.737107854276083 110.9764 0.026556558827586896 -0.3750609939506332 2.3023359823970242e-17 
0.384 0.073728 -1.5707963267948966 -1.5707963267948966 0.0 1.5707963267948966 0.0 0.384 0.0 0.0 0.0 0.0 0.0 1.0 0.0 0.0 0.0 0.0 0.0 302.62401085935505 -90.30367130630366 480.9 -1.2431564393650893 1.1547210211286019 -1.154721021128602 -125.99278576269498 -9.306064246266645 113.3376 0.02828590956312052 -0.38295679563129176 2.3513218543629182e-17 
0.392 0.07683200000000001 -1.5707963267948966 -1.5707963267948966 0.0 1.5707963267948966 0.0 0.392 0.0 0.0 0.0 0.0 0.0 1.0 0.0 0.0 0.0 0.0 0.0 302.902855142819 -89.36389285571877 480.9 -1.244546677479181 1.1524195002430102 -1.1524195002430104 -128.5875280947325 -9.899123319081324 115.69879999999999 0.030088520726690972 -0.3908435504399164 2.4003077263288125e-17 
0.4 0.08000000000000002 -1.5707963267948966 -1.5707963267948966 0.0 1.5707963267948966 0.0 0.4 0.0 0.0 0.0 0.0 0.0 1.0 0.0 0.0 0.0 0.0 0.0 303.1844394826546 -88.40384977809795 480.9 -1.245962316568212 1.1500698805931906 -1.1500698805931908 -131.17910454942472 -10.516773726343123 118.05999999999997 0.031965877587669084 -0.39872068252104775 2.4492935982947065e-17 
0.408 0.08323200000000001 -1.5707963267948966 -1.5707963267948966 0.0 1.5707963267948966 0.0 0.40800000000000003 0.0 0.0 0.0 0.0 0.0 1.0 0.0 0.0 0.0 0.0 0.0 303.4685767234366 -87.42349765052661 480.9 -1.247403158802641 1.1476721247132875 -1.1476721247132877 -133.7673178447861 -11.159502704510334 120.4212 0.033919461107934167 -0.4065875922333924 2.498279470260601e-17 
0.416 0.08652800000000002 -1.5707963267948966 -1.5707963267948966 0.0 1.5707963267948966 0.0 0.41600000000000004 0.0 0.0 0.0 0.0 0.0 1.0 0.0 0.0 0.0 0.0 0.0 303.7550756684213 -86.42279216544465 480.9 -1.2488690025520166 1.145226194578745 -1.1452261945787452 -136.35196272200906 -11.827795984707086 122.7824 0.03595074767388174 -0.41444365568999714 2.547265342226495e-17 
0.424 0.089888 -1.5707963267948966 -1.5707963267948966 0.0 1.5707963267948966 0.0 0.424 0.0 0.0 0.0 0.0 0.0 1.0 0.0 0.0 0.0 0.0 0.0 304.04374106867937 -85.40168919267246 480.9 -1.2503596423959624 1.1427320516175752 -1.1427320516175754 -138.93282579504742 -12.522137701008075 125.14359999999996 0.03806120881765375 -0.42228822430105595 2.5962512141923886e-17 
0.432 0.09331199999999999 -1.5707963267948966 -1.5707963267948966 0.0 1.5707963267948966 0.0 0.432 0.0 0.0 0.0 0.0 0.0 1.0 0.0 0.0 0.0 0.0 0.0 304.3343736124907 -84.36014484276872 480.9 -1.2518748691353065 1.140189656721796 -1.1401896567217962 -141.5096854011185 -13.243010295113079 127.50480000000002 0.0402523109273954 -0.4301206243195091 2.645237086158283e-17 
0.44 0.0968 -1.5707963267948966 -1.5707963267948966 0.0 1.5707963267948966 0.0 0.44 0.0 0.0 0.0 0.0 0.0 1.0 0.0 0.0 0.0 0.0 0.0 304.6267699150285 -83.29811553172306 480.9 -1.2534144698033538 1.1375989702590303 -1.1375989702590306 -144.08231145217874 -13.990894417347281 129.86599999999999 0.042525514946344344 -0.4379401563896011 2.694222958124177e-17 
0.448 0.10035200000000001 -1.5707963267948966 -1.5707963267948966 0.0 1.5707963267948966 0.0 0.448 0.0 0.0 0.0 0.0 0.0 1.0 0.0 0.0 0.0 0.0 0.0 304.9207225083637 -82.21555804698657 480.9 -1.254978227677287 1.1349599520842613 -1.1349599520842617 -146.65046528742963 -14.766268823924332 132.22719999999995 0.044882276060560305 -0.44574609509857027 2.7432088300900713e-17 
0.456 0.103968 -1.5707963267948966 -1.5707963267948966 0.0 1.5707963267948966 0.0 0.456 0.0 0.0 0.0 0.0 0.0 1.0 0.0 0.0 0.0 0.0 0.0 305.21601983181864 -81.11242961484298 480.9 -1.256565922289704 1.132272561551745 -1.1322725615517453 -149.21389952691254 -15.569610270409669 134.5884 0.04732404337510541 -0.4535376885316491 2.792194702055965e-17 
0.464 0.10764800000000001 -1.5707963267948966 -1.5707963267948966 0.0 1.5707963267948966 0.0 0.464 0.0 0.0 0.0 0.0 0.0 1.0 0.0 0.0 0.0 0.0 0.0 305.5124462227003 -79.9886879691225 480.9 -1.2581773294402823 1.129536757527078 -1.1295367575270783 -151.77235792625433 -16.4013934013224 136.9496 0.049852259578487566 -0.46131415783056035 2.8411805740218593e-17 
0.472 0.11139200000000002 -1.5707963267948966 -1.5707963267948966 0.0 1.5707963267948966 0.0 0.47200000000000003 0.0 0.0 0.0 0.0 0.0 1.0 0.0 0.0 0.0 0.0 0.0 305.8097819074453 -78.84429142126089 480.9 -1.2598122212075618 1.1267524983994113 -1.1267524983994115 -154.32557523262602 -17.262090635814893 139.3108 0.05246836059518208 -0.4690746967557022 2.890166445987754e-17 
0.48 0.1152 -1.5707963267948966 -1.5707963267948966 0.0 1.5707963267948966 0.0 0.48 0.0 0.0 0.0 0.0 0.0 1.0 0.0 0.0 0.0 0.0 0.0 306.1078029932077 -77.67919893170574 480.9 -1.2614703659608488 1.1239197420938114 -1.1239197420938116 -156.8732770419808 -18.152172049370048 141.672 0.05517377522604881 -0.4768184712522213 2.9391523179536474e-17 
0.488 0.119072 -1.5707963267948966 -1.5707963267948966 0.0 1.5707963267948966 0.0 0.488 0.0 0.0 0.0 0.0 0.0 1.0 0.0 0.0 0.0 0.0 0.0 306.4062814599219 -76.49337018267077 480.9 -1.2631515283722325 1.1210384460837686 -1.1210384460837688 -159.41517965763907 -19.072105251457174 144.0332 0.0579699247764656 -0.48454461902017953 2.988138189919542e-17 
0.496 0.12300799999999999 -1.5707963267948966 -1.5707963267948966 0.0 1.5707963267948966 0.0 0.496 0.0 0.0 0.0 0.0 0.0 1.0 0.0 0.0 0.0 0.0 0.0 306.704985152874 -75.28676565224029 480.9 -1.26485546942871 1.1181085674038405 -1.1181085674038407 -161.95098995028977 -20.022355259088165 146.3944 0.060858222672000535 -0.4922522490890267 3.037124061885436e-17 
0.504 0.127008 -1.5707963267948966 -1.5707963267948966 0.0 1.5707963267948966 0.0 0.504 0.0 0.0 0.0 0.0 0.0 1.0 0.0 0.0 0.0 0.0 0.0 307.00367777581505 -74.05934668982387 480.9 -1.2665819464444141 1.1151300626624359 -1.1151300626624363 -164.48040521948184 -21.003384366217 148.7556 0.06384007406144988 -0.4999404413966013 3.08610993385133e-17 
0.512 0.131072 -1.5707963267948966 -1.5707963267948966 0.0 1.5707963267948966 0.0 0.512 0.0 0.0 0.0 0.0 0.0 1.0 0.0 0.0 0.0 0.0 0.0 307.3021188846506 -72.81107559296223 480.9 -1.268330713072941 1.1121028880547332 -1.1121028880547335 -167.00311305667884 -22.015652008926192 151.11679999999998 0.06691687540707052 -0.507608246372884 3.135095805817224e-17 
0.52 0.13520000000000001 -1.5707963267948966 -1.5707963267948966 0.0 1.5707963267948966 0.0 0.52 0.0 0.0 0.0 0.0 0.0 1.0 0.0 0.0 0.0 0.0 0.0 307.6000638817408 -71.54191568548418 480.9 -1.2701015193197747 1.1090269993757274 -1.1090269993757278 -169.51879120995537 -23.0596146263454 153.47799999999995 0.07009001406184015 -0.5152546845287397 3.1840816777831187e-17 
0.528 0.13939200000000002 -1.5707963267948966 -1.5707963267948966 0.0 1.5707963267948966 0.0 0.528 0.0 0.0 0.0 0.0 0.0 1.0 0.0 0.0 0.0 0.0 0.0 307.8972640108474 -70.25183139701446 480.9 -1.271894111554794 1.1059023520334073 -1.1059023520334075 -172.02710745041335 -24.13572551724804 155.83920000000003 0.07336086783358071 -0.5228787460498886 3.233067549749013e-17 
0.536 0.14364800000000003 -1.5707963267948966 -1.5707963267948966 0.0 1.5707963267948966 0.0 0.536 0.0 0.0 0.0 0.0 0.0 1.0 0.0 0.0 0.0 0.0 0.0 308.193466352762 -68.94078834383129 480.9 -1.2737082325248719 1.1027289010620551 -1.1027289010620553 -174.5277194404016 -25.24443469227352 158.2004 0.0767308045357858 -0.5304793903963575 3.282053421714907e-17 
0.544 0.14796800000000002 -1.5707963267948966 -1.5707963267948966 0.0 1.5707963267948966 0.0 0.544 0.0 0.0 0.0 0.0 0.0 1.0 0.0 0.0 0.0 0.0 0.0 308.48841382165506 -67.60875341107318 480.9 -1.2755436213665516 1.0995066011356742 -1.0995066011356744 -177.0202746036216 -26.38618872172335 160.5616 0.08020118152499502 -0.5380555459076645 3.331039293680801e-17 
0.552 0.15235200000000002 -1.5707963267948966 -1.5707963267948966 0.0 1.5707963267948966 0.0 0.552 0.0 0.0 0.0 0.0 0.0 1.0 0.0 0.0 0.0 0.0 0.0 308.7818451621793 -66.25569483629245 480.9 -1.2774000136187915 1.0962354065815236 -1.0962354065815239 -179.50440999720735 -27.56143057888137 162.9228 0.08377334522456348 -0.545606109414004 3.3800251656466954e-17 
0.56 0.15680000000000002 -1.5707963267948966 -1.5707963267948966 0.0 1.5707963267948966 0.0 0.56 0.0 0.0 0.0 0.0 0.0 1.0 0.0 0.0 0.0 0.0 0.0 309.07349494736843 -64.88158229435392 480.9 -1.2792771412357875 1.0929152713937798 -1.09291527139378 -181.97975218586808 -28.770599478809103 165.284 0.08744863063467816 -0.5531299458537023 3.4290110376125894e-17 
0.568 0.16131200000000004 -1.5707963267948966 -1.5707963267948966 0.0 1.5707963267948966 0.0 0.5680000000000001 0.0 0.0 0.0 0.0 0.0 1.0 0.0 0.0 0.0 0.0 0.0 309.36309357736735 -63.48638698367569 480.9 -1.2811747325998544 1.089546149247304 -1.0895461492473042 -184.44591711818623 -30.014130712569095 167.64520000000002 0.09122836082847753 -0.5606258878972226 3.4779969095784834e-17 
0.576 0.16588800000000004 -1.5707963267948966 -1.5707963267948966 0.0 1.5707963267948966 0.0 0.5760000000000001 0.0 0.0 0.0 0.0 0.0 1.0 0.0 0.0 0.0 0.0 0.0 309.65036727903464 -62.07008171380913 480.9 -1.283092512534367 1.086127993511522 -1.0861279935115224 -186.90251000516443 -31.29245547683052 170.00640000000004 0.09511384643413535 -0.5680927355780074 3.5269827815443774e-17 
0.584 0.17052799999999999 -1.5707963267948966 -1.5707963267948966 0.0 1.5707963267948966 0.0 0.584 0.0 0.0 0.0 0.0 0.0 1.0 0.0 0.0 0.0 0.0 0.0 309.9350381064552 -60.63264099435358 480.9 -1.2850302023167552 1.0826607572644071 -1.0826607572644074 -189.34912520111894 -32.60600069881276 172.36759999999998 0.09910638510277439 -0.5755292559304527 3.575968653510271e-17 
0.592 0.17523199999999997 -1.5707963267948966 -1.5707963267948966 0.0 1.5707963267948966 0.0 0.592 0.0 0.0 0.0 0.0 0.0 1.0 0.0 0.0 0.0 0.0 0.0 310.21682394240463 -59.17404112520218 480.9 -1.2869875196915488 1.0791443933065696 -1.0791443933065699 -191.78534608701924 -33.955188856524565 174.72879999999998 0.10320726096208077 -0.5829341826353168 3.6249545254761655e-17 
0.6 0.18 -1.5707963267948966 -1.5707963267948966 0.0 1.5707963267948966 0.0 0.6 0.0 0.0 0.0 0.0 0.0 1.0 0.0 0.0 0.0 0.0 0.0 310.49543850080534 -57.694260288113426 480.9 -1.2889641788834592 1.0755788541754445 -1.0755788541754447 -194.21074495637518 -35.34043779425768 177.08999999999997 0.10741774405549451 -0.5903062156728729 3.6739403974420595e-17 
0.608 0.184832 -1.5707963267948966 -1.5707963267948966 0.0 1.5707963267948966 0.0 0.608 0.0 0.0 0.0 0.0 0.0 1.0 0.0 0.0 0.0 0.0 0.0 310.7705913302158 -56.19327863960257 480.9 -1.290959890610505 1.0719640921595757 -1.0719640921595759 -196.62488290377735 -36.76216053329629 179.45119999999997 0.11173908976685805 -0.5976440209841256 3.7229262694079535e-17 
0.616 0.189728 -1.5707963267948966 -1.5707963267948966 0.0 1.5707963267948966 0.0 0.616 0.0 0.0 0.0 0.0 0.0 1.0 0.0 0.0 0.0 0.0 0.0 311.04198781839443 -54.67107840514705 480.9 -1.2929743620971663 1.0683000593129957 -1.0683000593129959 -199.02730971619764 -38.22076507780476 181.8124 0.11617253823040963 -0.6049462301404184 3.7719121413738475e-17 
0.624 0.194688 -1.5707963267948966 -1.5707963267948966 0.0 1.5707963267948966 0.0 0.624 0.0 0.0 0.0 0.0 0.0 1.0 0.0 0.0 0.0 0.0 0.0 311.30932919798215 -53.12764397469877 480.9 -1.2950072970875648 1.064586707469696 -1.0645867074696962 -201.4175637671599 -39.71665421585853 184.1736 0.12071931372601383 -0.6122114400217626 3.820898013339742e-17 
0.632 0.199712 -1.5707963267948966 -1.5707963267948966 0.0 1.5707963267948966 0.0 0.632 0.0 0.0 0.0 0.0 0.0 1.0 0.0 0.0 0.0 0.0 0.0 311.57231255334386 -51.5629619994952 480.9 -1.2970583958586641 1.0608239882581854 -1.0608239882581856 -203.79517191389365 -41.250225315584984 186.5348 0.12538062405952885 -0.619438212504236 3.869883885305636e-17 
0.64 0.2048 -1.5707963267948966 -1.5707963267948966 0.0 1.5707963267948966 0.0 0.64 0.0 0.0 0.0 0.0 0.0 1.0 0.0 0.0 0.0 0.0 0.0 311.83063082861486 -49.97702149016153 480.9 -1.299127355233488 1.0570118531161334 -1.0570118531161337 -206.15964939758615 -42.821870116382804 188.896 0.13015765992821524 -0.6266250741567968 3.91886975727153e-17 
0.648 0.209952 -1.5707963267948966 -1.5707963267948966 0.0 1.5707963267948966 0.0 0.648 0.0 0.0 0.0 0.0 0.0 1.0 0.0 0.0 0.0 0.0 0.0 312.08397283699526 -48.3698139160942 480.9 -1.3012138685943437 1.0531502533050965 -1.053150253305097 -208.51049974685063 -44.43197451519128 191.25719999999998 0.13505159427109814 -0.6337705159478743 3.967855629237424e-17 
0.656 0.21516800000000003 -1.5707963267948966 -1.5707963267948966 0.0 1.5707963267948966 0.0 0.656 0.0 0.0 0.0 0.0 0.0 1.0 0.0 0.0 0.0 0.0 0.0 312.3320232713363 -46.741333306116 480.9 -1.3033176258960528 1.0492391399253238 -1.049239139925324 -210.84721468453174 -46.08091834778234 193.61839999999998 0.14006358160420163 -0.6408729929621025 4.016841501203319e-17 
0.664 0.22044800000000003 -1.5707963267948966 -1.5707963267948966 0.0 1.5707963267948966 0.0 0.664 0.0 0.0 0.0 0.0 0.0 1.0 0.0 0.0 0.0 0.0 0.0 312.57446271606506 -45.09157635039213 480.9 -1.3054383136791738 1.0452784639306374 -1.0452784639306376 -213.16927403797132 -47.76907516505102 195.9796 0.14519475734058063 -0.6479309241275724 4.065827373169213e-17 
0.672 0.22579200000000002 -1.5707963267948966 -1.5707963267948966 0.0 1.5707963267948966 0.0 0.672 0.0 0.0 0.0 0.0 0.0 1.0 0.0 0.0 0.0 0.0 0.0 312.8109676604921 -43.42054250359524 480.9 -1.307575615083226 1.0412681761433915 -1.0412681761433917 -215.4761456528604 -49.49681200428255 198.3408 0.15044623709508378 -0.654942691953983 4.114813245135107e-17 
0.68 0.23120000000000004 -1.5707963267948966 -1.5707963267948966 0.0 1.5707963267948966 0.0 0.68 0.0 0.0 0.0 0.0 0.0 1.0 0.0 0.0 0.0 0.0 0.0 313.0412105135488 -41.72823408930752 480.9 -1.3097292098598872 1.0372082272694958 -1.0372082272694962 -217.7672853108068 -51.26448915537612 200.702 0.15581911597378761 -0.6619066422820875 4.163799117101001e-17 
0.688 0.23667200000000005 -1.5707963267948966 -1.5707963267948966 0.0 1.5707963267948966 0.0 0.6880000000000001 0.0 0.0 0.0 0.0 0.0 1.0 0.0 0.0 0.0 0.0 0.0 313.26485961999964 -40.01465640564612 480.9 -1.3118987743861812 1.0330985679135136 -1.0330985679135138 -220.0421366507488 -53.0724599220085 203.0632 0.16131446784805017 -0.6688210840448292 4.2127849890668956e-17 
0.696 0.24220800000000003 -1.5707963267948966 -1.5707963267948966 0.0 1.5707963267948966 0.0 0.6960000000000001 0.0 0.0 0.0 0.0 0.0 1.0 0.0 0.0 0.0 0.0 0.0 313.48157927817925 -38.27981783209776 480.9 -1.3140839816776364 1.0289391485938213 -1.0289391485938215 -222.30013109434987 -54.921070377723616 205.4244 0.16693334461314172 -0.6756842890405771 4.2617708610327896e-17 
0.704 0.24780799999999997 -1.5707963267948966 -1.5707963267948966 0.0 1.5707963267948966 0.0 0.704 0.0 0.0 0.0 0.0 0.0 1.0 0.0 0.0 0.0 0.0 0.0 313.6910297592985 -36.52372993754742 480.9 -1.3162845014014093 1.0247299197578326 -1.0247299197578328 -224.54068777551055 -56.81065911693586 207.78559999999996 0.17267677543141602 -0.682494491718877 4.310756732998683e-17 
0.712 0.253472 -1.5707963267948966 -1.5707963267948966 0.0 1.5707963267948966 0.0 0.712 0.0 0.0 0.0 0.0 0.0 1.0 0.0 0.0 0.0 0.0 0.0 313.8928673283695 -34.746407589484825 480.9 -1.3184999998893734 1.0204708317972837 -1.020470831797284 -226.7632134741373 -58.74155700083916 210.14679999999998 0.17854576595999747 -0.6892498889791407 4.359742604964577e-17 
0.72 0.2592 -1.5707963267948966 -1.5707963267948966 0.0 1.5707963267948966 0.0 0.72 0.0 0.0 0.0 0.0 0.0 1.0 0.0 0.0 0.0 0.0 0.0 314.08674426679806 -32.947869064371886 480.9 -1.3207301401511626 1.0161618350635744 -1.0161618350635746 -228.96710255431003 -60.71408689821554 212.508 0.1845412975629652 -0.6959486399827053 4.4087284769304716e-17 
0.728 0.264992 -1.5707963267948966 -1.5707963267948966 0.0 1.5707963267948966 0.0 0.728 0.0 0.0 0.0 0.0 0.0 1.0 0.0 0.0 0.0 0.0 0.0 314.27230889669113 -31.128136159152554 480.9 -1.3229745818871645 1.011802879883167 -1.0118028798831673 -231.1517369069934 -62.728563421140954 214.86919999999998 0.19066432650802725 -0.7025888659787033 4.4577143488963657e-17 
0.736 0.270848 -1.5707963267948966 -1.5707963267948966 0.0 1.5707963267948966 0.0 0.736 0.0 0.0 0.0 0.0 0.0 1.0 0.0 0.0 0.0 0.0 0.0 314.4492056069299 -29.287234303886187 480.9 -1.325232981501457 1.0073939165730368 -1.007393916573037 -233.3164858974387 -64.78529265558873 217.23039999999997 0.19691578314768618 -0.7091686501441906 4.5067002208622597e-17 
0.744 0.276768 -1.5707963267948966 -1.5707963267948966 0.0 1.5707963267948966 0.0 0.744 0.0 0.0 0.0 0.0 0.0 1.0 0.0 0.0 0.0 0.0 0.0 314.6170748810569 -27.425192675483903 480.9 -1.3275049921146813 1.0029348954561714 -1.0029348954561716 -235.4607063174268 -66.88457188693427 219.59159999999997 0.20329657108490662 -0.7156860374389873 4.555686092828154e-17 
0.752 0.282752 -1.5707963267948966 -1.5707963267948966 0.0 1.5707963267948966 0.0 0.752 0.0 0.0 0.0 0.0 0.0 1.0 0.0 0.0 0.0 0.0 0.0 314.7755533270284 -25.54204431252707 480.9 -1.3297902635768493 0.9984257668771235 -0.9984257668771237 -237.58374234250414 -69.02668932036806 221.9528 0.20980756632330722 -0.7221390344756964 4.6046719647940483e-17 
0.76 0.2888 -1.5707963267948966 -1.5707963267948966 0.0 1.5707963267948966 0.0 0.76 0.0 0.0 0.0 0.0 0.0 1.0 0.0 0.0 0.0 0.0 0.0 314.924273708881 -23.637826231144622 480.9 -1.3320884424800694 0.9938664812176029 -0.9938664812176031 -239.68492549436687 -71.21192379622806 224.314 0.21644961640190902 -0.7285256094053705 4.6536578367599424e-17 
0.768 0.294912 -1.5707963267948966 -1.5707963267948966 0.0 1.5707963267948966 0.0 0.768 0.0 0.0 0.0 0.0 0.0 1.0 0.0 0.0 0.0 0.0 0.0 315.0628649803647 -21.712579541926345 480.9 -1.3343991721711972 0.9892569889121167 -0.9892569889121169 -241.76357460855147 -73.44054450026475 226.6752 0.22322353951448257 -0.7348436918193054 4.7026437087258364e-17 
0.776 0.301088 -1.5707963267948966 -1.5707963267948966 0.0 1.5707963267948966 0.0 0.776 0.0 0.0 0.0 0.0 0.0 1.0 0.0 0.0 0.0 0.0 0.0 315.1909523205919 -19.76634956784679 480.9 -1.3367220927643941 0.9845972404636498 -0.98459724046365 -243.8189958075904 -75.71281066885726 229.0364 0.23013012361354793 -0.7410911726674481 4.7516295806917304e-17 
0.784 0.30732800000000005 -1.5707963267948966 -1.5707963267948966 0.0 1.5707963267948966 0.0 0.784 0.0 0.0 0.0 0.0 0.0 1.0 0.0 0.0 0.0 0.0 0.0 315.3081571717553 -17.799185963174043 480.9 -1.3390568411535937 0.9798871864593842 -0.9798871864593844 -245.8504824797969 -78.02897128920182 231.39759999999998 0.2371701254990937 -0.7472659041939116 4.800615452657625e-17 
0.792 0.313632 -1.5707963267948966 -1.5707963267948966 0.0 1.5707963267948966 0.0 0.792 0.0 0.0 0.0 0.0 0.0 1.0 0.0 0.0 0.0 0.0 0.0 315.4140972789641 -15.81114283333594 480.9 -1.3414030510248645 0.975126777586456 -0.9751267775864563 -247.85731526384308 -80.38926479449799 233.75879999999998 0.24434426989209118 -0.7533656998901005 4.849601324623519e-17 
0.8 0.32000000000000006 -1.5707963267948966 -1.5707963267948966 0.0 1.5707963267948966 0.0 0.8 0.0 0.0 0.0 0.0 0.0 0.0 0.0 0.0 0.0 0.0 0.0 315.50838673225326 -13.802278855715038 480.9 -1.3437603528686695 0.9703159646477474 -0.9703159646477476 -249.83876203929844 -82.7939187541622 236.12 0.2516532484928943 -0.7593883344659527 4.898587196589413e-17 
0.808 0.3264000000000001 -1.5707963267948966 -1.5707963267948966 0.0 1.5707963267948966 0.0 0.8 0.0 0.0 0.0 0.0 0.0 0.0 0.0 0.0 0.0 0.0 0.0 315.5902591241956 -11.78275629566603 480.9 -1.3461166250400376 0.965478889190115 -0.9654788891901153 -249.30376789620433 -84.39118030194561 236.12 0.2565081468144244 -0.757762212450469 4.898587196589413e-17 
0.816 0.3328000000000001 -1.5707963267948966 -1.5707963267948966 0.0 1.5707963267948966 0.0 0.8 0.0 0.0 0.0 0.0 0.0 0.0 0.0 0.0 0.0 0.0 0.0 315.6592049832469 -9.762751115566477 480.9 -1.3484600024213886 0.9606397346610869 -0.9606397346610871 -248.75856230563227 -85.9849851987826 236.12 0.2613525385981234 -0.756105052600706 4.898587196589413e-17 
0.824 0.33920000000000006 -1.5707963267948966 -1.5707963267948966 0.0 1.5707963267948966 0.0 0.8 0.0 0.0 0.0 0.0 0.0 0.0 0.0 0.0 0.0 0.0 0.0 315.7152214853944 -7.742346054546179 480.9 -1.3507904978479464 0.9557985147721534 -0.9557985147721536 -248.20316759912717 -87.57526816264738 236.12000000000003 0.2661862254183811 -0.7544169227936997 4.898587196589413e-17 
0.832 0.3456000000000001 -1.5707963267948966 -1.5707963267948966 0.0 1.5707963267948966 0.0 0.8 0.0 0.0 0.0 0.0 0.0 0.0 0.0 0.0 0.0 0.0 0.0 315.75830633621 -5.721623868113934 480.9 -1.3531081240791623 0.9509552431835191 -0.9509552431835194 -247.63760652557846 -89.16196405577212 236.12000000000003 0.2710090092880612 -0.7526978921750105 4.898587196589413e-17 
0.84 0.352 -1.5707963267948966 -1.5707963267948966 0.0 1.5707963267948966 0.0 0.8 0.0 0.0 0.0 0.0 0.0 0.0 0.0 0.0 0.0 0.0 0.0 315.78845777094415 -3.700667324768034 480.9 -1.3554128937988612 0.946109933504494 -0.9461099335044942 -247.06190225028865 -90.74500788731484 236.12 0.27582069266661047 -0.7509480311558925 4.898587196589413e-17 
0.848 0.3584 -1.5707963267948966 -1.5707963267948966 0.0 1.5707963267948966 0.0 0.8 0.0 0.0 0.0 0.0 0.0 0.0 0.0 0.0 0.0 0.0 0.0 315.80567455459845 -1.6795592026058692 480.9 -1.3577048196153765 0.9412625992938795 -0.9412625992938798 -246.47607835402434 -92.32433481602158 236.12 0.2806210784681507 -0.7491674114104083 4.898587196589413e-17 
0.856 0.3648 -1.5707963267948966 -1.5707963267948966 0.0 1.5707963267948966 0.0 0.8 0.0 0.0 0.0 0.0 0.0 0.0 0.0 0.0 0.0 0.0 0.0 315.8099559819757 0.34161771406644803 480.9 -1.359983914061698 0.9364132540603576 -0.9364132540603578 -245.88015883205048 -93.8998801528821 236.12 0.2854099700695505 -0.7473561058724939 4.898587196589413e-17 
0.864 0.37120000000000003 -1.5707963267948966 -1.5707963267948966 0.0 1.5707963267948966 0.0 0.8 0.0 0.0 0.0 0.0 0.0 0.0 0.0 0.0 0.0 0.0 0.0 315.8013018777093 2.3627806381249172 480.9 -1.362250189595611 0.9315619112628728 -0.931561911262873 -245.27416809314738 -95.47157936377971 236.12 0.2901871713184794 -0.7455141887329708 4.898587196589413e-17 
0.872 0.37760000000000005 -1.5707963267948966 -1.5707963267948966 0.0 1.5707963267948966 0.0 0.8 0.0 0.0 0.0 0.0 0.0 0.0 0.0 0.0 0.0 0.0 0.0 315.7797125962702 4.383846783018818 480.9 -1.3645036585998342 0.9267085843110139 -0.926708584311014 -244.65813095861097 -97.03936807213445 236.12000000000003 0.2949524865414421 -0.7436417354365075 4.898587196589413e-17 
0.88 0.384 -1.5707963267948966 -1.5707963267948966 0.0 1.5707963267948966 0.0 0.8 0.0 0.0 0.0 0.0 0.0 0.0 0.0 0.0 0.0 0.0 0.0 315.7451890219522 6.404733366161359 480.9 -1.3667443333821645 0.921853286565396 -0.9218532865653962 -244.03207266123604 -98.60318206154001 236.11999999999995 0.2997057205517934 -0.7417388226785291 4.898587196589413e-17 
0.888 0.3904 -1.5707963267948966 -1.5707963267948966 0.0 1.5707963267948966 0.0 0.8 0.0 0.0 0.0 0.0 0.0 0.0 0.0 0.0 0.0 0.0 0.0 315.69773256883633 8.425357612320692 480.9 -1.3689722261756112 0.9169960313380349 -0.9169960313380351 -243.39601884428308 -100.16295727839406 236.12000000000003 0.3044466786577327 -0.7398055284020764 4.898587196589413e-17 
0.896 0.39680000000000004 -1.5707963267948966 -1.5707963267948966 0.0 1.5707963267948966 0.0 0.8 0.0 0.0 0.0 0.0 0.0 0.0 0.0 0.0 0.0 0.0 0.0 315.63734518073204 10.445636757010167 480.9 -1.3711873491385396 0.9121368318927252 -0.9121368318927254 -242.74999556042746 -101.71862983452175 236.12 0.3091751666702789 -0.7378419317946123 4.898587196589413e-17 
0.904 0.40320000000000006 -1.5707963267948966 -1.5707963267948966 0.0 1.5707963267948966 0.0 0.8 0.0 0.0 0.0 0.0 0.0 0.0 0.0 0.0 0.0 0.0 0.0 315.56402933109837 12.465488049878484 480.9 -1.373389714354805 0.9072757014454121 -0.9072757014454123 -242.09402927069252 -103.27013600979268 236.12 0.313890990911224 -0.7358481132847796 4.898587196589413e-17 
0.912 0.4096000000000001 -1.5707963267948966 -1.5707963267948966 0.0 1.5707963267948966 0.0 0.8 0.0 0.0 0.0 0.0 0.0 0.0 0.0 0.0 0.0 0.0 0.0 315.4777880229423 14.484828758099066 480.9 -1.3755793338338944 0.902412653164564 -0.9024126531645642 -241.42814684336582 -104.81741225473087 236.12 0.3185939582210665 -0.7338241545391058 4.898587196589413e-17 
0.92 0.41600000000000004 -1.5707963267948966 -1.5707963267948966 0.0 1.5707963267948966 0.0 0.8 0.0 0.0 0.0 0.0 0.0 0.0 0.0 0.0 0.0 0.0 0.0 315.37862478869573 16.50357616975884 480.9 -1.377756219511061 0.8975477001715411 -0.8975477001715413 -240.75237555289843 -106.36039519311758 236.12 0.3232838759669228 -0.7317701384586579 4.898587196589413e-17 
0.928 0.42240000000000005 -1.5707963267948966 -1.5707963267948966 0.0 1.5707963267948966 0.0 0.8 0.0 0.0 0.0 0.0 0.0 0.0 0.0 0.0 0.0 0.0 0.0 315.26654369007093 18.52164759724607 480.9 -1.3799203832474607 0.8926808555409622 -0.8926808555409623 -240.066743078788 -107.89902162458746 236.12 0.32796055205041785 -0.7296861491756474 4.898587196589413e-17 
0.936 0.42880000000000007 -1.5707963267948966 -1.5707963267948966 0.0 1.5707963267948966 0.0 0.8 0.0 0.0 0.0 0.0 0.0 0.0 0.0 0.0 0.0 0.0 0.0 315.141549317894 20.538960380637246 480.9 -1.3820718368302891 0.8878121323010714 -0.8878121323010716 -239.3712775044448 -109.43322852721695 236.12000000000003 0.3326237949155531 -0.7275722720499842 4.898587196589413e-17 
0.944 0.4352000000000001 -1.5707963267948966 -1.5707963267948966 0.0 1.5707963267948966 0.0 0.8 0.0 0.0 0.0 0.0 0.0 0.0 0.0 0.0 0.0 0.0 0.0 315.0036467919169 22.555431891082744 480.9 -1.384210591972919 0.8829415434341005 -0.8829415434341007 -238.66600731604146 -110.96295306010582 236.12000000000003 0.3372734135565527 -0.7254285936657796 4.898587196589413e-17 
0.952 0.4416000000000001 -1.5707963267948966 -1.5707963267948966 0.0 1.5707963267948966 0.0 0.8 0.0 0.0 0.0 0.0 0.0 0.0 0.0 0.0 0.0 0.0 0.0 314.85284176060776 24.5709795341915 480.9 -1.3863366603150298 0.8780691018766302 -0.8780691018766302 -237.95096140134635 -112.48813256595106 236.11999999999995 0.3419092175256872 -0.7232552018278005 4.898587196589413e-17 
0.96 0.448 -1.5707963267948966 -1.5707963267948966 0.0 1.5707963267948966 0.0 0.8 0.0 0.0 0.0 0.0 0.0 0.0 0.0 0.0 0.0 0.0 0.0 314.68914040091977 26.585520753413725 480.9 -1.3884500534227466 0.87319482051995 -0.87319482051995 -237.22616904854019 -114.00870457361334 236.12 0.346531016941074 -0.7210521855578729 4.898587196589413e-17 
0.968 0.4544 -1.5707963267948966 -1.5707963267948966 0.0 1.5707963267948966 0.0 0.8 0.0 0.0 0.0 0.0 0.0 0.0 0.0 0.0 0.0 0.0 0.0 314.5125494180376 28.59897303342287 480.9 -1.3905507827887726 0.8683187122104151 -0.8683187122104151 -236.49165994501632 -115.52460680067584 236.12000000000003 0.35113862249445554 -0.718819635091235 4.898587196589413e-17 
0.976 0.4608 -1.5707963267948966 -1.5707963267948966 0.0 1.5707963267948966 0.0 0.8 0.0 0.0 0.0 0.0 0.0 0.0 0.0 0.0 0.0 0.0 0.0 314.3230760451032 30.611253903494973 480.9 -1.3926388598325208 0.8634407897498024 -0.8634407897498025 -235.74746417616504 -117.03577715599529 236.12 0.3557318454589523 -0.716557641872842 4.898587196589413e-17 
0.984 0.46720000000000006 -1.5707963267948966 -1.5707963267948966 0.0 1.5707963267948966 0.0 0.8 0.0 0.0 0.0 0.0 0.0 0.0 0.0 0.0 0.0 0.0 0.0 314.12072804291955 32.62228094088696 480.9 -1.3947142959002472 0.8585610658956637 -0.8585610658956638 -234.99361222414092 -118.5421537422452 236.12 0.360310497696794 -0.7142662985536198 4.898587196589413e-17 
0.992 0.4736 -1.5707963267948966 -1.5707963267948966 0.0 1.5707963267948966 0.0 0.8 0.0 0.0 0.0 0.0 0.0 0.0 0.0 0.0 0.0 0.0 0.0 313.9055136996324 34.63197177421252 480.9 -1.3967771022651843 0.8536795533616781 -0.8536795533616782 -234.23013496661451 -120.0436748584512 236.11999999999995 0.36487439166702496 -0.7119456989866703 4.898587196589413e-17 
1.0 0.48000000000000004 -1.5707963267948966 -1.5707963267948966 0.0 1.5707963267948966 0.0 0.8 0.0 0.0 0.0 0.0 0.0 0.0 0.0 0.0 0.0 0.0 0.0 313.6774418303913 36.6402440868161 480.9 -1.3988272901276688 0.8487962648180005 -0.8487962648180006 -233.4570636755076 -121.54027900251829 236.11999999999995 0.36942334043318636 -0.7095959382234274 4.898587196589413e-17 
1.008 0.48640000000000005 -1.5707963267948966 -1.5707963267948966 0.0 1.5707963267948966 0.0 0.8 0.0 0.0 0.0 0.0 0.0 0.0 0.0 0.0 0.0 0.0 0.0 313.436521776988 38.64701562014457 480.9 -1.4008648706152758 0.843911212891611 -0.843911212891611 -232.67443001571215 -123.03190487374998 236.12 0.37395715767097265 -0.7072171125097634 4.898587196589413e-17 
1.016 0.4928 -1.5707963267948966 -1.5707963267948966 0.0 1.5707963267948966 0.0 0.8 0.0 0.0 0.0 0.0 0.0 0.0 0.0 0.0 0.0 0.0 0.0 313.1827634074743 40.652204177116445 480.9 -1.402889854782946 0.83902441016666 -0.8390244101666601 -231.8822660437935 -124.5184913753591 236.11999999999995 0.37847565767586366 -0.704809319282047 4.898587196589413e-17 
1.024 0.4992000000000001 -1.5707963267948966 -1.5707963267948966 0.0 1.5707963267948966 0.0 0.8 0.0 0.0 0.0 0.0 0.0 0.0 0.0 0.0 0.0 0.0 0.0 312.9161771157575 42.655727625488865 480.9 -1.404902253613117 0.8341358691848129 -0.834135869184813 -231.0806042066771 -125.99997761697045 236.12 0.38297865537073095 -0.7023726571631522 4.898587196589413e-17 
1.032 0.5056 -1.5707963267948966 -1.5707963267948966 0.0 1.5707963267948966 0.0 0.8 0.0 0.0 0.0 0.0 0.0 0.0 0.0 0.0 0.0 0.0 0.0 312.63677382117476 44.65750390122136 480.9 -1.4069020780158519 0.8292456024455936 -0.8292456024455938 -230.26947734031975 -127.47630291711462 236.12 0.3874659663134184 -0.6999072259584187 4.898587196589413e-17 
1.04 0.512 -1.5707963267948966 -1.5707963267948966 0.0 1.5707963267948966 0.0 0.8 0.0 0.0 0.0 0.0 0.0 0.0 0.0 0.0 0.0 0.0 0.0 312.34456496804603 46.657451011837665 480.9 -1.4088893388289647 0.8243536224067229 -0.824353622406723 -229.4489186683645 -128.94740680571377 236.11999999999995 0.3919374067042973 -0.697413126651564 4.898587196589413e-17 
1.048 0.5184000000000001 -1.5707963267948966 -1.5707963267948966 0.0 1.5707963267948966 0.0 0.8 0.0 0.0 0.0 0.0 0.0 0.0 0.0 0.0 0.0 0.0 0.0 312.03956252520516 48.65548703978372 480.9 -1.410864046818151 0.8194599414844593 -0.8194599414844594 -228.61896180077986 -130.41322902655833 236.12 0.39639279339379435 -0.6948904614005467 4.898587196589413e-17 
1.056 0.5248 -1.5707963267948966 -1.5707963267948966 0.0 1.5707963267948966 0.0 0.8 0.0 0.0 0.0 0.0 0.0 0.0 0.0 0.0 0.0 0.0 0.0 311.72177898550945 50.65153014578312 480.9 -1.4128262126771145 0.814564572053936 -0.8145645720539361 -227.7796407324831 -131.87370953977498 236.12 0.4008319438898936 -0.6923393335333832 4.898587196589413e-17 
1.064 0.5312000000000001 -1.5707963267948966 -1.5707963267948966 0.0 1.5707963267948966 0.0 0.8 0.0 0.0 0.0 0.0 0.0 0.0 0.0 0.0 0.0 0.0 0.0 311.3912273653283 52.645498572189375 480.9 -1.41477584702769 0.8096675264494951 -0.8096675264494952 -226.93098984194773 -133.32878852428615 236.11999999999995 0.4052546763656115 -0.6897598475439141 4.898587196589413e-17 
1.072 0.5376000000000001 -1.5707963267948966 -1.5707963267948966 0.0 1.5707963267948966 0.0 0.8 0.0 0.0 0.0 0.0 0.0 0.0 0.0 0.0 0.0 0.0 0.0 311.04792120400987 54.63731064633442 480.9 -1.4167129604199737 0.804768816965023 -0.8047688169650231 -226.07304388979566 -134.77840638026007 236.12 0.409660809666444 -0.6871521090875248 4.898587196589413e-17 
1.08 0.544 -1.5707963267948966 -1.5707963267948966 0.0 1.5707963267948966 0.0 0.8 0.0 0.0 0.0 0.0 0.0 0.0 0.0 0.0 0.0 0.0 0.0 310.6918745633265 56.62688478387427 480.9 -1.4186375633324433 0.7998684558542805 -0.7998684558542806 -225.20583801737314 -136.222503731552 236.12 0.41405016331778727 -0.684516224976818 4.898587196589413e-17 
1.088 0.5504000000000001 -1.5707963267948966 -1.5707963267948966 0.0 1.5707963267948966 0.0 0.8 0.0 0.0 0.0 0.0 0.0 0.0 0.0 0.0 0.0 0.0 0.0 310.3231020268988 58.61413949213036 480.9 -1.4205496661720858 0.7949664553312351 -0.7949664553312352 -224.3294077453114 -137.66102142813634 236.11999999999995 0.4184225575323294 -0.6818523031772383 4.898587196589413e-17 
1.096 0.5568000000000001 -1.5707963267948966 -1.5707963267948966 0.0 1.5707963267948966 0.0 0.8 0.0 0.0 0.0 0.0 0.0 0.0 0.0 0.0 0.0 0.0 0.0 309.9416186995984 60.59899337342768 480.9 -1.422449279274519 0.7900628275703877 -0.7900628275703878 -223.44378897207196 -139.09390054852938 236.12 0.42277781321741453 -0.6791604528026504 4.898587196589413e-17 
1.104 0.5632000000000001 -1.5707963267948966 -1.5707963267948966 0.0 1.5707963267948966 0.0 0.8 0.0 0.0 0.0 0.0 0.0 0.0 0.0 0.0 0.0 0.0 0.0 309.54744020692897 62.58136512842878 480.9 -1.4243364129041152 0.7851575847071004 -0.7851575847071006 -222.54901797247587 -140.52108240220264 236.12 0.42711575198237894 -0.6764407841108688 4.898587196589413e-17 
1.112 0.5696000000000001 -1.5707963267948966 -1.5707963267948966 0.0 1.5707963267948966 0.0 0.8 0.0 0.0 0.0 0.0 0.0 0.0 0.0 0.0 0.0 0.0 0.0 309.1405826943864 64.56117355946373 480.9 -1.4262110772541237 0.7802507388379222 -0.7802507388379223 -221.64513139621815 -141.942508531987 236.12 0.43143619614585715 -0.6736934084991433 4.898587196589413e-17 
1.12 0.5760000000000001 -1.5707963267948966 -1.5707963267948966 0.0 1.5707963267948966 0.0 0.8 0.0 0.0 0.0 0.0 0.0 0.0 0.0 0.0 0.0 0.0 0.0 308.7210628267977 66.53833757385593 480.9 -1.4280732824467912 0.7753423020209119 -0.7753423020209119 -220.73216626636665 -143.3581207164668 236.12 0.4357389687430602 -0.6709184384995948 4.898587196589413e-17 
1.128 0.5824000000000001 -1.5707963267948966 -1.5707963267948966 0.0 1.5707963267948966 0.0 0.8 0.0 0.0 0.0 0.0 0.0 0.0 0.0 0.0 0.0 0.0 0.0 308.2888977876378 68.51277618724387 480.9 -1.4299230385334836 0.7704322862759593 -0.7704322862759594 -219.81015997784544 -144.76786097236496 236.11999999999995 0.4400238935330243 -0.6681159877746062 4.898587196589413e-17 
1.136 0.5888000000000002 -1.5707963267948966 -1.5707963267948966 0.0 1.5707963267948966 0.0 0.8 0.0 0.0 0.0 0.0 0.0 0.0 0.0 0.0 0.0 0.0 0.0 307.8441052783264 70.484408526898 480.9 -1.4317603554948062 0.765520703585108 -0.7655207035851082 -218.87915029590317 -146.17167155691772 236.12 0.444290795005829 -0.6652861711121677 4.898587196589413e-17 
1.144 0.5952000000000002 -1.5707963267948966 -1.5707963267948966 0.0 1.5707963267948966 0.0 0.8 0.0 0.0 0.0 0.0 0.0 0.0 0.0 0.0 0.0 0.0 0.0 307.38670351750255 72.45315383503319 480.9 -1.433585243240723 0.7606075658928723 -0.7606075658928724 -217.93917535456632 -147.5694949702397 236.12 0.4485394983897864 -0.6624291044211742 4.898587196589413e-17 
1.152 0.6016000000000001 -1.5707963267948966 -1.5707963267948966 0.0 1.5707963267948966 0.0 0.8 0.0 0.0 0.0 0.0 0.0 0.0 0.0 0.0 0.0 0.0 0.0 306.91671124027823 74.41893147211698 480.9 -1.435397711610675 0.755692885106554 -0.7556928851065541 -216.99027365507692 -148.96127395767942 236.12 0.45276982965860013 -0.6595449047266776 4.898587196589413e-17 
1.16 0.608 -1.5707963267948966 -1.5707963267948966 0.0 1.5707963267948966 0.0 0.8 0.0 0.0 0.0 0.0 0.0 0.0 0.0 0.0 0.0 0.0 0.0 306.4341476974716 76.38166092017218 480.9 -1.4371977703736998 0.7507766730965598 -0.7507766730965599 -216.0324840643161 -150.34695151216405 236.12 0.4569816155384927 -0.6566336901650945 4.898587196589413e-17 
1.168 0.6144000000000001 -1.5707963267948966 -1.5707963267948966 0.0 1.5707963267948966 0.0 0.8 0.0 0.0 0.0 0.0 0.0 0.0 0.0 0.0 0.0 0.0 0.0 305.93903265481777 78.34126178607502 480.9 -1.438985429228547 0.7458589416967137 -0.7458589416967139 -215.06584581321147 -151.7264708765348 236.12 0.46117468351530344 -0.6536955799793661 4.898587196589413e-17 
1.176 0.6208 -1.5707963267948966 -1.5707963267948966 0.0 1.5707963267948966 0.0 0.8 0.0 0.0 0.0 0.0 0.0 0.0 0.0 0.0 0.0 0.0 0.0 305.4313863921597 80.29765380484801 480.9 -1.4407606978037981 0.7409397027045712 -0.7409397027045712 -214.09039849513061 -153.0997755458713 236.12 0.46534886184155416 -0.6507306945140748 4.898587196589413e-17 
1.184 0.6272 -1.5707963267948966 -1.5707963267948966 0.0 1.5707963267948966 0.0 0.8 0.0 0.0 0.0 0.0 0.0 0.0 0.0 0.0 0.0 0.0 0.0 304.9112297026174 82.25075684294754 480.9 -1.4425235856579781 0.7360189678817279 -0.736018967881728 -213.1061820642594 -154.4668092698063 236.12 0.46950397954348433 -0.647739155210515 4.898587196589413e-17 
1.192 0.6335999999999999 -1.5707963267948966 -1.5707963267948966 0.0 1.5707963267948966 0.0 0.8 0.0 0.0 0.0 0.0 0.0 0.0 0.0 0.0 0.0 0.0 0.0 304.37858389173607 84.20049090154625 480.9 -1.444274102279676 0.7310967489541321 -0.7310967489541322 -212.11323683396523 -155.82751605482963 236.12 0.4736398664280536 -0.6447210846017181 4.898587196589413e-17 
1.2 0.64 -1.5707963267948966 -1.5707963267948966 0.0 1.5707963267948966 0.0 0.8 0.0 0.0 0.0 0.0 0.0 0.0 0.0 0.0 0.0 0.0 0.0 303.8334707766137 86.14677611980974 480.9 -1.4460122570876546 0.7261730576123899 -0.72617305761239 -211.11160347514584 -157.1818401665816 236.12000000000003 0.4777563530899137 -0.6416766063074342 4.898587196589413e-17 
1.208 0.6464000000000001 -1.5707963267948966 -1.5707963267948966 0.0 1.5707963267948966 0.0 0.8 0.0 0.0 0.0 0.0 0.0 0.0 0.0 0.0 0.0 0.0 0.0 303.27591268500726 88.08953277816752 480.9 -1.447738059430969 0.7212479055120737 -0.7212479055120737 -210.1013230145636 -158.52972613213592 236.12 0.4818532709183463 -0.6386058450290687 4.898587196589413e-17 
1.216 0.6528 -1.5707963267948966 -1.5707963267948966 0.0 1.5707963267948966 0.0 0.8 0.0 0.0 0.0 0.0 0.0 0.0 0.0 0.0 0.0 0.0 0.0 302.7059324544182 90.0286813015785 480.9 -1.4494515185890762 0.7163213042740261 -0.7163213042740262 -209.08243683316496 -159.87111874227188 236.12 0.48593045210416985 -0.6355089265445744 4.898587196589413e-17 
1.224 0.6592 -1.5707963267948966 -1.5707963267948966 0.0 1.5707963267948966 0.0 0.8 0.0 0.0 0.0 0.0 0.0 0.0 0.0 0.0 0.0 0.0 0.0 302.1235534311571 91.96414226279028 480.9 -1.45115264377195 0.7113932654846639 -0.711393265484664 -208.05498666438544 -161.20596305373573 236.12 0.4899877296466132 -0.6323859777032992 4.898587196589413e-17 
1.232 0.6656 -1.5707963267948966 -1.5707963267948966 0.0 1.5707963267948966 0.0 0.8 0.0 0.0 0.0 0.0 0.0 0.0 0.0 0.0 0.0 0.0 0.0 301.5287994693874 93.89583638559245 480.9 -1.4528414441201916 0.7064638006962805 -0.7064638006962806 -207.01901459244027 -162.53420439149107 236.12 0.4940249373601553 -0.6292371264207911 4.898587196589413e-17 
1.24 0.672 -1.5707963267948966 -1.5707963267948966 0.0 1.5707963267948966 0.0 0.8 0.0 0.0 0.0 0.0 0.0 0.0 0.0 0.0 0.0 0.0 0.0 300.9216949301481 95.82368454806385 480.9 -1.4545179287051426 0.7015329214273467 -0.7015329214273468 -205.97456305060075 -163.85578835095848 236.12 0.4980419098813328 -0.6260625016735585 4.898587196589413e-17 
1.248 0.6784000000000001 -1.5707963267948966 -1.5707963267948966 0.0 1.5707963267948966 0.0 0.8 0.0 0.0 0.0 0.0 0.0 0.0 0.0 0.0 0.0 0.0 0.0 300.30226468035636 97.7476077858133 480.9 -1.4561821065289928 0.6966006391628089 -0.696600639162809 -204.92167481945594 -165.1706608002437 236.12 0.5020384826755129 -0.622862233493787 4.898587196589413e-17 
1.256 0.6848000000000001 -1.5707963267948966 -1.5707963267948966 0.0 1.5707963267948966 0.0 0.8 0.0 0.0 0.0 0.0 0.0 0.0 0.0 0.0 0.0 0.0 0.0 299.6705340917885 99.66752729521386 480.9 -1.4578339865248915 0.6916669653543883 -0.6916669653543884 -203.86039302516065 -166.47876788235502 236.12 0.5060144920436324 -0.6196364529640142 4.898587196589413e-17 
1.264 0.6912 -1.5707963267948966 -1.5707963267948966 0.0 1.5707963267948966 0.0 0.8 0.0 0.0 0.0 0.0 0.0 0.0 0.0 0.0 0.0 0.0 0.0 299.0265290400412 101.58336443663094 480.9 -1.4594735775570575 0.6867319114208769 -0.686731911420877 -202.7907611376687 -167.78005601740927 236.12 0.5099697751289035 -0.616385292211759 4.898587196589413e-17 
1.272 0.6976 -1.5707963267948966 -1.5707963267948966 0.0 1.5707963267948966 0.0 0.8 0.0 0.0 0.0 0.0 0.0 0.0 0.0 0.0 0.0 0.0 0.0 298.3702759034713 103.49504073764308 480.9 -1.4611008884208854 0.6817954887484325 -0.6817954887484327 -201.7128229689528 -169.07447190482637 236.12 0.5139041699234844 -0.6131088844041118 4.898587196589413e-17 
1.28 0.7040000000000001 -1.5707963267948966 -1.5707963267948966 0.0 1.5707963267948966 0.0 0.8 0.0 0.0 0.0 0.0 0.0 0.0 0.0 0.0 0.0 0.0 0.0 297.7018015621155 105.40247789625626 480.9 -1.4627159278430544 0.6768577086908729 -0.6768577086908729 -200.62662267120947 -170.36196252551252 236.12 0.5178175152751141 -0.6098073637422781 4.898587196589413e-17 
1.288 0.7104000000000001 -1.5707963267948966 -1.5707963267948966 0.0 1.5707963267948966 0.0 0.8 0.0 0.0 0.0 0.0 0.0 0.0 0.0 0.0 0.0 0.0 0.0 297.02113339658933 107.30559778411114 480.9 -1.4643187044816346 0.6719185825699676 -0.6719185825699676 -199.53220473505112 -171.642475144032 236.11999999999995 0.5217096508937143 -0.6064808654560825 4.898587196589413e-17 
1.296 0.7168000000000001 -1.5707963267948966 -1.5707963267948966 0.0 1.5707963267948966 0.0 0.8 0.0 0.0 0.0 0.0 0.0 0.0 0.0 0.0 0.0 0.0 0.0 296.3282992869659 109.2043224496831 480.9 -1.465909226926194 0.6669781216757302 -0.6669781216757302 -198.42961398768347 -172.9159573107668 236.12 0.5255804173579539 -0.60312952579843 4.898587196589413e-17 
1.304 0.7232000000000001 -1.5707963267948966 -1.5707963267948966 0.0 1.5707963267948966 0.0 0.8 0.0 0.0 0.0 0.0 0.0 0.0 0.0 0.0 0.0 0.0 0.0 295.6233276116332 111.09857412147537 480.9 -1.4674875036979027 0.6620363372667063 -0.6620363372667064 -197.3188955910693 -174.18235686406558 236.11999999999995 0.5294296561217798 -0.5997534820397242 4.898587196589413e-17 
1.312 0.7296 -1.5707963267948966 -1.5707963267948966 0.0 1.5707963267948966 0.0 0.8 0.0 0.0 0.0 0.0 0.0 0.0 0.0 0.0 0.0 0.0 0.0 294.90624724613264 112.98827521120435 480.9 -1.4690535432496394 0.6570932405702639 -0.6570932405702641 -196.20009504007885 -175.4416219323796 236.11999999999995 0.5332572095209107 -0.5963528724622458 4.898587196589413e-17 
1.32 0.7360000000000001 -1.5707963267948966 -1.5707963267948966 0.0 1.5707963267948966 0.0 0.8 0.0 0.0 0.0 0.0 0.0 0.0 0.0 0.0 0.0 0.0 0.0 294.1770875619757 114.8733483169776 480.9 -1.4706073539660938 0.6521488427828793 -0.6521488427828794 -195.0732581606263 -176.6937009363878 236.12 0.5370629207792943 -0.5929278363544872 4.898587196589413e-17 
1.328 0.7424000000000002 -1.5707963267948966 -1.5707963267948966 0.0 1.5707963267948966 0.0 0.8 0.0 0.0 0.0 0.0 0.0 0.0 0.0 0.0 0.0 0.0 0.0 293.4358784254411 116.75371622646418 480.9 -1.4721489441638693 0.6472031550704235 -0.6472031550704236 -193.93843110779264 -177.93854259110915 236.12 0.5408466340155295 -0.5894785140054487 4.898587196589413e-17 
1.336 0.7488000000000001 -1.5707963267948966 -1.5707963267948966 0.0 1.5707963267948966 0.0 0.8 0.0 0.0 0.0 0.0 0.0 0.0 0.0 0.0 0.0 0.0 0.0 292.6826501963515 118.62930192005746 480.9 -1.4736783220915879 0.6422561885684465 -0.6422561885684466 -192.79566036393535 -179.1760959080036 236.12000000000003 0.544608194249251 -0.5860050466988916 4.898587196589413e-17 
1.344 0.7552000000000001 -1.5707963267948966 -1.5707963267948966 0.0 1.5707963267948966 0.0 0.8 0.0 0.0 0.0 0.0 0.0 0.0 0.0 0.0 0.0 0.0 0.0 291.91743372682976 120.50002857402959 480.9 -1.4751954959299907 0.6373079543824612 -0.6373079543824614 -191.6449927367843 -180.40631019706015 236.12 0.5483474474074778 -0.582507576707551 4.898587196589413e-17 
1.352 0.7616 -1.5707963267948966 -1.5707963267948966 0.0 1.5707963267948966 0.0 0.8 0.0 0.0 0.0 0.0 0.0 0.0 0.0 0.0 0.0 0.0 0.0 291.14026036003554 122.36581956367849 480.9 -1.4767004737920373 0.6323584635882247 -0.6323584635882247 -190.48647535752463 -181.62913506887367 236.12 0.5520642403309232 -0.5789862472873089 4.898587196589413e-17 
1.36 0.7680000000000001 -1.5707963267948966 -1.5707963267948966 0.0 1.5707963267948966 0.0 0.8 0.0 0.0 0.0 0.0 0.0 0.0 0.0 0.0 0.0 0.0 0.0 290.3511619288812 124.22659846646604 480.9 -1.4781932637230095 0.6274077272320199 -0.62740772723202 -189.32015567886617 -182.84452043670836 236.12 0.5557584207802687 -0.5754412026713258 4.898587196589413e-17 
1.368 0.7744000000000002 -1.5707963267948966 -1.5707963267948966 0.0 1.5707963267948966 0.0 0.8 0.0 0.0 0.0 0.0 0.0 0.0 0.0 0.0 0.0 0.0 0.0 289.55017075472824 126.0822890651485 480.9 -1.479673873700608 0.622455756330935 -0.6224557563309351 -188.1460814731 -184.05241651854945 236.11999999999995 0.5594298374423996 -0.5718725880641337 4.898587196589413e-17 
1.376 0.7808000000000002 -1.5707963267948966 -1.5707963267948966 0.0 1.5707963267948966 0.0 0.8 0.0 0.0 0.0 0.0 0.0 0.0 0.0 0.0 0.0 0.0 0.0 288.73731964606327 127.93281535089841 480.9 -1.4811423116350526 0.6175025618731416 -0.6175025618731417 -186.96430083014138 -185.25277383914226 236.12 0.5630783399366027 -0.5682805496356881 4.898587196589413e-17 
1.384 0.7872000000000001 -1.5707963267948966 -1.5707963267948966 0.0 1.5707963267948966 0.0 0.8 0.0 0.0 0.0 0.0 0.0 0.0 0.0 0.0 0.0 0.0 0.0 287.9126418971539 129.7781015264178 480.9 -1.4825985853691797 0.6125481548181724 -0.6125481548181724 -185.7748621555602 -186.44554323201882 236.12 0.566703778820726 -0.5646652345153805 4.898587196589413e-17 
1.392 0.7936000000000001 -1.5707963267948966 -1.5707963267948966 0.0 1.5707963267948966 0.0 0.8 0.0 0.0 0.0 0.0 0.0 0.0 0.0 0.0 0.0 0.0 0.0 287.0761712866855 131.61807200904295 480.9 -1.4840427026785392 0.6075925460971966 -0.6075925460971967 -184.57781416859837 -187.63067584151153 236.12000000000003 0.5703060055972995 -0.5610267907860133 4.898587196589413e-17 
1.4 0.8000000000000002 -1.5707963267948966 -1.5707963267948966 0.0 1.5707963267948966 0.0 0.8 0.0 0.0 0.0 0.0 0.0 0.0 0.0 0.0 0.0 0.0 0.0 286.2279420763772 133.45265143384015 480.9 -1.4854746712714944 0.6026357466132957 -0.6026357466132958 -183.37320590017393 -188.80812312475442 236.12 0.5738848727196183 -0.5573653674777322 4.898587196589413e-17 
1.408 0.8064 -1.5707963267948966 -1.5707963267948966 0.0 1.5707963267948966 0.0 0.8 0.0 0.0 0.0 0.0 0.0 0.0 0.0 0.0 0.0 0.0 0.0 285.36798900957905 135.2817646566926 480.9 -1.4868944987893118 0.5976777672417368 -0.5976777672417369 -182.16108669087328 -189.9778368536713 236.12 0.5774402335977852 -0.5536811145619248 4.898587196589413e-17 
1.416 0.8128 -1.5707963267948966 -1.5707963267948966 0.0 1.5707963267948966 0.0 0.8 0.0 0.0 0.0 0.0 0.0 0.0 0.0 0.0 0.0 0.0 0.0 284.4963473098483 137.1053367573784 480.9 -1.4883021928062623 0.5927186188302448 -0.5927186188302449 -180.94150618892962 -191.1397691169515 236.12 0.5809719426047159 -0.5499741829450748 4.898587196589413e-17 
1.424 0.8191999999999999 -1.5707963267948966 -1.5707963267948966 0.0 1.5707963267948966 0.0 0.8 0.0 0.0 0.0 0.0 0.0 0.0 0.0 0.0 0.0 0.0 0.0 283.61305267950723 138.92329304263936 480.9 -1.489697760829711 0.5877583121992743 -0.5877583121992744 -179.71451434818997 -192.2938723220119 236.12 0.5844798550821032 -0.5462447244625834 4.898587196589413e-17 
1.432 0.8256 -1.5707963267948966 -1.5707963267948966 0.0 1.5707963267948966 0.0 0.8 0.0 0.0 0.0 0.0 0.0 0.0 0.0 0.0 0.0 0.0 0.0 282.7181412981802 140.73555904924018 480.9 -1.4910812103002136 0.5827968581422799 -0.58279685814228 -178.48016142606843 -193.44009919694662 236.11999999999995 0.5879638273463423 -0.5424928918725483 4.898587196589413e-17 
1.44 0.832 -1.5707963267948966 -1.5707963267948966 0.0 1.5707963267948966 0.0 0.8 0.0 0.0 0.0 0.0 0.0 0.0 0.0 0.0 0.0 0.0 0.0 281.8116498213125 142.5420605470185 480.9 -1.492452548591607 0.5778342674259852 -0.5778342674259853 -177.23849798148822 -194.57840279246307 236.12 0.5914237166944166 -0.5387188388495082 4.898587196589413e-17 
1.448 0.8384 -1.5707963267948966 -1.5707963267948966 0.0 1.5707963267948966 0.0 0.8 0.0 0.0 0.0 0.0 0.0 0.0 0.0 0.0 0.0 0.0 0.0 280.8936153786682 144.3427235419257 480.9 -1.4938117830111055 0.5728705507906512 -0.5728705507906513 -175.98957487281035 -195.70873648380513 236.12 0.594859381409742 -0.534922719978147 4.898587196589413e-17 
1.456 0.8448 -1.5707963267948966 -1.5707963267948966 0.0 1.5707963267948966 0.0 0.8 0.0 0.0 0.0 0.0 0.0 0.0 0.0 0.0 0.0 0.0 0.0 279.9640755728097 146.13747427905713 480.9 -1.4951589207993863 0.567905718950343 -0.5679057189503431 -174.7334432557508 -196.83105397266283 236.12 0.5982706807679722 -0.531104690746963 4.898587196589413e-17 
1.464 0.8512000000000001 -1.5707963267948966 -1.5707963267948966 0.0 1.5707963267948966 0.0 0.8 0.0 0.0 0.0 0.0 0.0 0.0 0.0 0.0 0.0 0.0 0.0 279.02306847755744 147.92623924567357 480.9 -1.4964939691306844 0.562939782593196 -0.5629397825931961 -173.470154581285 -197.94530928906877 236.12 0.6016574750427623 -0.5272649075418996 4.898587196589413e-17 
1.472 0.8576 -1.5707963267948966 -1.5707963267948966 0.0 1.5707963267948966 0.0 0.8 0.0 0.0 0.0 0.0 0.0 0.0 0.0 0.0 0.0 0.0 0.0 278.0706326364306 149.7089451742121 480.9 -1.4978169351128805 0.5579727523816804 -0.5579727523816805 -172.19976059354036 -199.05145679328095 236.12 0.6050196255114924 -0.5234035276399402 4.898587196589413e-17 
1.48 0.864 -1.5707963267948966 -1.5707963267948966 0.0 1.5707963267948966 0.0 0.8 0.0 0.0 0.0 0.0 0.0 0.0 0.0 0.0 0.0 0.0 0.0 277.106807061068 151.485519045287 480.9 -1.4991278257875922 0.5530046389528658 -0.5530046389528659 -170.92231332767707 -200.1494511776522 236.12 0.608356994460949 -0.5195207092026658 4.898587196589413e-17 
1.488 0.8704000000000001 -1.5707963267948966 -1.5707963267948966 0.0 1.5707963267948966 0.0 0.8 0.0 0.0 0.0 0.0 0.0 0.0 0.0 0.0 0.0 0.0 0.0 276.13163122963044 153.25588809068103 480.9 -1.500426648130258 0.5480354529186826 -0.5480354529186827 -169.6378651077565 -201.23924746848616 236.12 0.6116694451929671 -0.5156166112697765 4.898587196589413e-17 
1.496 0.8768 -1.5707963267948966 -1.5707963267948966 0.0 1.5707963267948966 0.0 0.8 0.0 0.0 0.0 0.0 0.0 0.0 0.0 0.0 0.0 0.0 0.0 275.14514508518374 155.01997979632554 480.9 -1.50171340905023 0.5430652048661855 -0.5430652048661856 -168.3464685445982 -202.320801027879 236.12 0.6149568420300274 -0.5116913937525781 4.898587196589413e-17 
1.504 0.8832000000000001 -1.5707963267948966 -1.5707963267948966 0.0 1.5707963267948966 0.0 0.8 0.0 0.0 0.0 0.0 0.0 0.0 0.0 0.0 0.0 0.0 0.0 274.1473890340623 156.777721905271 480.9 -1.5029881153908577 0.5380939053578127 -0.5380939053578128 -167.0481765336248 -203.39406755554825 236.12 0.6182190503208154 -0.507745217427431 4.898587196589413e-17 
1.512 0.8896000000000001 -1.5707963267948966 -1.5707963267948966 0.0 1.5707963267948966 0.0 0.8 0.0 0.0 0.0 0.0 0.0 0.0 0.0 0.0 0.0 0.0 0.0 273.1384039442146 158.52904242064625 480.9 -1.5042507739295727 0.5331215649316461 -0.5331215649316462 -165.7430422526956 -204.45900309064692 236.12 0.6214559364457354 -0.5037782439291659 4.898587196589413e-17 
1.52 0.896 -1.5707963267948966 -1.5707963267948966 0.0 1.5707963267948966 0.0 0.8 0.0 0.0 0.0 0.0 0.0 0.0 0.0 0.0 0.0 0.0 0.0 272.11823114352876 160.27386960860787 480.9 -1.5055013913779787 0.5281481941016709 -0.5281481941016709 -164.43111915992824 -205.5155640135644 236.12 0.6246673678223842 -0.49979063574446275 4.898587196589413e-17 
1.528 0.9024000000000001 -1.5707963267948966 -1.5707963267948966 0.0 1.5707963267948966 0.0 0.8 0.0 0.0 0.0 0.0 0.0 0.0 0.0 0.0 0.0 0.0 0.0 271.0869124181401 162.01213200127827 480.9 -1.506739974381931 0.5231738033580318 -0.5231738033580319 -163.11246099150918 -206.56370704771302 236.12 0.6278532129109818 -0.49578255620519507 4.898587196589413e-17 
1.536 0.9088 -1.5707963267948966 -1.5707963267948966 0.0 1.5707963267948966 0.0 0.8 0.0 0.0 0.0 0.0 0.0 0.0 0.0 0.0 0.0 0.0 0.0 270.0444900107195 163.74375839967274 480.9 -1.507966529521623 0.5181984031672907 -0.5181984031672908 -161.7871217594927 -207.60338926130058 236.12 0.6310133412197586 -0.49175416948174067 4.898587196589413e-17 
1.544 0.9152000000000001 -1.5707963267948966 -1.5707963267948966 0.0 1.5707963267948966 0.0 0.8 0.0 0.0 0.0 0.0 0.0 0.0 0.0 0.0 0.0 0.0 0.0 268.991006618743 165.46867787661623 480.9 -1.5091810633116682 0.5132220039726827 -0.5132220039726828 -160.45515574958833 -208.63456806908908 236.12 0.6341476233103012 -0.4877056405762563 4.898587196589413e-17 
1.552 0.9216000000000001 -1.5707963267948966 -1.5707963267948966 0.0 1.5707963267948966 0.0 0.8 0.0 0.0 0.0 0.0 0.0 0.0 0.0 0.0 0.0 0.0 0.0 267.9265053927429 167.18681977964798 480.9 -1.5103835822011826 0.5082446161943698 -0.5082446161943699 -159.11661751893772 -209.6572012341386 236.12 0.6372559308028529 -0.4836371353159201 4.898587196589413e-17 
1.56 0.9280000000000002 -1.5707963267948966 -1.5707963267948966 0.0 1.5707963267948966 0.0 0.8 0.0 0.0 0.0 0.0 0.0 0.0 0.0 0.0 0.0 0.0 0.0 266.85102993454075 168.898113733916 480.9 -1.5115740925738663 0.5032662502296957 -0.5032662502296958 -157.7715618938796 -210.67124686953775 236.12 0.6403381363815738 -0.47954882034613866 4.898587196589413e-17 
1.568 0.9344000000000001 -1.5707963267948966 -1.5707963267948966 0.0 1.5707963267948966 0.0 0.8 0.0 0.0 0.0 0.0 0.0 0.0 0.0 0.0 0.0 0.0 0.0 265.7646242954609 170.60248964505908 480.9 -1.5127526007480845 0.4982869164534391 -0.4982869164534392 -156.42004396770437 -211.67666344011906 236.12 0.643394113799754 -0.4754408631237215 4.898587196589413e-17 
1.576 0.9408000000000001 -1.5707963267948966 -1.5707963267948966 0.0 1.5707963267948966 0.0 0.8 0.0 0.0 0.0 0.0 0.0 0.0 0.0 0.0 0.0 0.0 0.0 264.6673329745265 172.29987770207822 480.9 -1.5139191129769454 0.49330662521806456 -0.4933066252180647 -155.06211909839732 -212.67340976416037 236.12 0.646423737884986 -0.47131343191002223 4.898587196589413e-17 
1.584 0.9472000000000002 -1.5707963267948966 -1.5707963267948966 0.0 1.5707963267948966 0.0 0.8 0.0 0.0 0.0 0.0 0.0 0.0 0.0 0.0 0.0 0.0 0.0 263.55920091663654 173.99020838019595 480.9 -1.5150736354483816 0.48832538685397436 -0.4883253868539745 -153.6978429063712 -213.66144501507156 236.12 0.6494268845442905 -0.4671666957640461 4.898587196589413e-17 
1.592 0.9536000000000001 -1.5707963267948966 -1.5707963267948966 0.0 1.5707963267948966 0.0 0.8 0.0 0.0 0.0 0.0 0.0 0.0 0.0 0.0 0.0 0.0 0.0 262.44027351072526 175.67341244370394 480.9 -1.516216174285228 0.4833432116697589 -0.483343211669759 -152.3272712721881 -214.64072872306699 236.12 0.6524034307692005 -0.46300082453552616 4.898587196589413e-17 
1.6 0.9600000000000002 -1.5707963267948966 -1.5707963267948966 0.0 1.5707963267948966 0.0 0.8 0.0 0.0 0.0 0.0 0.0 0.0 0.0 0.0 0.0 0.0 0.0 261.31059658790264 177.34942094879915 480.9 -1.5173467355452979 0.478360109952445 -0.4783601099524451 -150.95046033427056 -215.61122077682276 236.11999999999995 0.6553532546407987 -0.4588159888579652 4.898587196589413e-17 
1.608 0.9664000000000001 -1.5707963267948966 -1.5707963267948966 0.0 1.5707963267948966 0.0 0.8 0.0 0.0 0.0 0.0 0.0 0.0 0.0 0.0 0.0 0.0 0.0 260.17021641957774 179.01816524640748 480.9 -1.5184653252214613 0.47337609196774627 -0.4733760919677464 -149.56746648660211 -216.57288142512016 236.12 0.6582762353347117 -0.45461236014164785 4.898587196589413e-17 
1.616 0.9728000000000001 -1.5707963267948966 -1.5707963267948966 0.0 1.5707963267948966 0.0 0.8 0.0 0.0 0.0 0.0 0.0 0.0 0.0 0.0 0.0 0.0 0.0 259.01917971556264 180.67957698499592 480.9 -1.5195719492417197 0.4683911679603082 -0.46839116796030833 -148.17834637641744 -217.52567127847342 236.12000000000003 0.661172253126059 -0.4503901105666184 4.898587196589413e-17 
1.624 0.9792000000000002 -1.5707963267948966 -1.5707963267948966 0.0 1.5707963267948966 0.0 0.8 0.0 0.0 0.0 0.0 0.0 0.0 0.0 0.0 0.0 0.0 0.0 257.8575336221598 182.33358811337183 480.9 -1.5206666134692832 0.4634053481539569 -0.463405348153957 -146.78315690188194 -218.46955131074333 236.12 0.6640411893943567 -0.44614941307562894 4.898587196589413e-17 
1.632 0.9856000000000001 -1.5707963267948966 -1.5707963267948966 0.0 1.5707963267948966 0.0 0.8 0.0 0.0 0.0 0.0 0.0 0.0 0.0 0.0 0.0 0.0 0.0 256.6853257202309 183.9801308834706 480.9 -1.5217493237026425 0.4584186427519442 -0.4584186427519443 -145.3819552097615 -219.4044828607358 236.12 0.6668829266283763 -0.44189044136705624 4.898587196589413e-17 
1.64 0.9920000000000002 -1.5707963267948966 -1.5707963267948966 0.0 1.5707963267948966 0.0 0.8 0.0 0.0 0.0 0.0 0.0 0.0 0.0 0.0 0.0 0.0 0.0 255.50260402324756 185.61913785313072 480.9 -1.5228200856756453 0.4534310619371927 -0.4534310619371928 -143.97479869308148 -220.33042763378523 236.12 0.6696973484309581 -0.43761336988778565 4.898587196589413e-17 
1.648 0.9984000000000002 -1.5707963267948966 -1.5707963267948966 0.0 1.5707963267948966 0.0 0.8 0.0 0.0 0.0 0.0 0.0 0.0 0.0 0.0 0.0 0.0 0.0 254.30941697532532 187.25054188885568 480.9 -1.5238789050575654 0.4484426158725398 -0.4484426158725399 -142.56174498877616 -221.24734770332313 236.12 0.6724843395237785 -0.4333183738260673 4.898587196589413e-17 
1.656 1.0048000000000001 -1.5707963267948966 -1.5707963267948966 0.0 1.5707963267948966 0.0 0.8 0.0 0.0 0.0 0.0 0.0 0.0 0.0 0.0 0.0 0.0 0.0 253.10581344923872 188.8742761685644 480.9 -1.5249257874531799 0.4434533147009817 -0.4434533147009818 -141.1428519753276 -222.15520551243168 236.12 0.675243785752072 -0.4290056291043392 4.898587196589413e-17 
1.664 1.0112 -1.5707963267948966 -1.5707963267948966 0.0 1.5707963267948966 0.0 0.8 0.0 0.0 0.0 0.0 0.0 0.0 0.0 0.0 0.0 0.0 0.0 251.89184274442002 190.4902741843278 480.9 -1.5259607384028353 0.43846316854591544 -0.4384631685459155 -139.71817777039536 -223.053963875382 236.12000000000003 0.677975574089307 -0.4246753123720224 4.898587196589413e-17 
1.672 1.0176 -1.5707963267948966 -1.5707963267948966 0.0 1.5707963267948966 0.0 0.8 0.0 0.0 0.0 0.0 0.0 0.0 0.0 0.0 0.0 0.0 0.0 250.6675545849394 192.09846974509298 480.9 -1.5269837633825216 0.43347218751138056 -0.43347218751138067 -138.2877807284356 -223.9435859791571 236.12 0.6806795926418149 -0.4203276009982845 4.898587196589413e-17 
1.68 1.024 -1.5707963267948966 -1.5707963267948966 0.0 1.5707963267948966 0.0 0.8 0.0 0.0 0.0 0.0 0.0 0.0 0.0 0.0 0.0 0.0 0.0 249.43299911746888 193.69879697939473 480.9 -1.5279948678039408 0.4284803816823007 -0.4284803816823008 -136.8517194383112 -224.82403538496007 236.12 0.683355730653374 -0.4159626730647757 4.898587196589413e-17 
1.688 1.0304 -1.5707963267948966 -1.5707963267948966 0.0 1.5707963267948966 0.0 0.8 0.0 0.0 0.0 0.0 0.0 0.0 0.0 0.0 0.0 0.0 0.0 248.18822690922767 195.29119033805318 480.9 -1.5289940570145768 0.4234877611247238 -0.4234877611247239 -135.41005272089185 -225.69527602970626 236.12 0.6860038785097454 -0.4115807073583339 4.898587196589413e-17 
1.696 1.0368 -1.5707963267948966 -1.5707963267948966 0.0 1.5707963267948966 0.0 0.8 0.0 0.0 0.0 0.0 0.0 0.0 0.0 0.0 0.0 0.0 0.0 246.93328894591144 196.87558459685903 480.9 -1.5299813362977612 0.4184943358860607 -0.41849433588606083 -133.96283962664472 -226.5572722275007 236.12 0.6886239277431633 -0.4071818833636618 4.898587196589413e-17 
1.704 1.0432000000000001 -1.5707963267948966 -1.5707963267948966 0.0 1.5707963267948966 0.0 0.8 0.0 0.0 0.0 0.0 0.0 0.0 0.0 0.0 0.0 0.0 0.0 245.6682366296037 198.45191485924505 480.9 -1.5309567108727444 0.413500115995325 -0.41350011599532505 -132.5101394332158 -227.40998867109977 236.12000000000003 0.6912157710367773 -0.4027663812559751 4.898587196589413e-17 
1.712 1.0496 -1.5707963267948966 -1.5707963267948966 0.0 1.5707963267948966 0.0 0.8 0.0 0.0 0.0 0.0 0.0 0.0 0.0 0.0 0.0 0.0 0.0 244.3931217766705 200.02011655894387 480.9 -1.5319201858947586 0.40850511146337015 -0.40850511146337026 -131.05201164300195 -228.25339043335694 236.12 0.6937793022290485 -0.39833438189362297 4.898587196589413e-17 
1.72 1.056 -1.5707963267948966 -1.5707963267948966 0.0 1.5707963267948966 0.0 0.8 0.0 0.0 0.0 0.0 0.0 0.0 0.0 0.0 0.0 0.0 0.0 243.10799661563794 201.58012546263328 480.9 -1.532871766455086 0.4035093322831271 -0.4035093322831272 -129.5885159807136 -229.08744296865407 236.12 0.6963144163180975 -0.3938860668106796 4.898587196589413e-17 
1.728 1.0624 -1.5707963267948966 -1.5707963267948966 0.0 1.5707963267948966 0.0 0.8 0.0 0.0 0.0 0.0 0.0 0.0 0.0 0.0 0.0 0.0 0.0 241.81291378505287 203.13187767256665 480.9 -1.5338114575811241 0.3985127884298409 -0.398512788429841 -128.11971239092844 -229.91211211431596 236.12 0.6988210094660059 -0.38942161820950894 4.898587196589413e-17 
1.736 1.0688 -1.5707963267948966 -1.5707963267948966 0.0 1.5707963267948966 0.0 0.8 0.0 0.0 0.0 0.0 0.0 0.0 0.0 0.0 0.0 0.0 0.0 240.50792633132704 204.6753096291904 480.9 -1.5347392642364477 0.3935154898613059 -0.393515489861306 -126.64566103563614 -230.72736409200957 236.12 0.7012989790030687 -0.3849412189533013 4.898587196589413e-17 
1.744 1.0752000000000002 -1.5707963267948966 -1.5707963267948966 0.0 1.5707963267948966 0.0 0.8 0.0 0.0 0.0 0.0 0.0 0.0 0.0 0.0 0.0 0.0 0.0 239.19308770656403 206.21035811374742 480.9 -1.5356551913208738 0.38851744651810133 -0.38851744651810144 -125.1664222917741 -231.53316550912805 236.12 0.7037482234320002 -0.38044505255858385 4.898587196589413e-17 
1.752 1.0816000000000001 -1.5707963267948966 -1.5707963267948966 0.0 1.5707963267948966 0.0 0.8 0.0 0.0 0.0 0.0 0.0 0.0 0.0 0.0 0.0 0.0 0.0 237.86845176637019 207.73696025086633 480.9 -1.5365592436705253 0.38351866832382614 -0.38351866832382625 -123.68205674875453 -232.32948336015784 236.12 0.7061686424320908 -0.3759333031877038 4.898587196589413e-17 
1.76 1.088 -1.5707963267948966 -1.5707963267948966 0.0 1.5707963267948966 0.0 0.8 0.0 0.0 0.0 0.0 0.0 0.0 0.0 0.0 0.0 0.0 0.0 236.53407276764835 209.25505351113705 480.9 -1.5374514260578913 0.37851916518533124 -0.37851916518533135 -122.19262520598255 -233.1162850280312 236.12 0.7085601368633168 -0.3714061556412843 4.898587196589413e-17 
1.768 1.0944 -1.5707963267948966 -1.5707963267948966 0.0 1.5707963267948966 0.0 0.8 0.0 0.0 0.0 0.0 0.0 0.0 0.0 0.0 0.0 0.0 0.0 235.19000536637577 210.7645757136719 480.9 -1.5383317431918895 0.3735189469929543 -0.37351894699295435 -120.69818867036587 -233.89353828546177 236.12 0.7109226087704006 -0.3668637953506561 4.898587196589413e-17 
1.776 1.1008 -1.5707963267948966 -1.5707963267948966 0.0 1.5707963267948966 0.0 0.8 0.0 0.0 0.0 0.0 0.0 0.0 0.0 0.0 0.0 0.0 0.0 233.8363046153653 212.26546502865247 480.9 -1.5392001997179254 0.3685180236207505 -0.36851802362075053 -119.19880835381603 -234.6612112962648 236.12 0.7132559613868232 -0.36230640837026146 4.898587196589413e-17 
1.784 1.1072000000000002 -1.5707963267948966 -1.5707963267948966 0.0 1.5707963267948966 0.0 0.8 0.0 0.0 0.0 0.0 0.0 0.0 0.0 0.0 0.0 0.0 0.0 232.47302596201035 213.75765997986235 480.9 -1.5400568002179529 0.3635164049267251 -0.36351640492672516 -117.69454567074115 -235.41927261666115 236.12 0.7155600991387878 -0.3577341813700339 4.898587196589413e-17 
1.792 1.1136000000000001 -1.5707963267948966 -1.5707963267948966 0.0 1.5707963267948966 0.0 0.8 0.0 0.0 0.0 0.0 0.0 0.0 0.0 0.0 0.0 0.0 0.0 231.10022524601413 215.24109944720487 480.9 -1.540901549210532 0.35851410075306495 -0.358514100753065 -116.18546223553054 -236.16769119656507 236.12 0.7178349276491339 -0.3531473016277524 4.898587196589413e-17 
1.8 1.12 -1.5707963267948966 -1.5707963267948966 0.0 1.5707963267948966 0.0 0.8 0.0 0.0 0.0 0.0 0.0 0.0 0.0 0.0 0.0 0.0 0.0 229.7179586971019 216.71572266920685 480.9 -1.5417344511508888 0.3535111209263678 -0.35351112092636783 -114.67161986003062 -236.90643638085612 236.12 0.7200803537412042 -0.3485459570213697 4.898587196589413e-17 
1.808 1.1264 -1.5707963267948966 -1.5707963267948966 0.0 1.5707963267948966 0.0 0.8 0.0 0.0 0.0 0.0 0.0 0.0 0.0 0.0 0.0 0.0 0.0 228.3262829327183 218.18146924550734 480.9 -1.54255551043097 0.3485074752578724 -0.3485074752578724 -113.15308055101349 -237.63547791063493 236.12 0.7222962854426593 -0.34393033602131756 4.898587196589413e-17 
1.816 1.1328 -1.5707963267948966 -1.5707963267948966 0.0 1.5707963267948966 0.0 0.8 0.0 0.0 0.0 0.0 0.0 0.0 0.0 0.0 0.0 0.0 0.0 226.92525495570808 219.63827913933147 480.9 -1.5433647313795016 0.3435031735436881 -0.34350317354368815 -111.62990650763689 -238.3547859244623 236.12 0.7244826319892471 -0.3393006276827869 4.898587196589413e-17 
1.824 1.1392000000000002 -1.5707963267948966 -1.5707963267948966 0.0 1.5707963267948966 0.0 0.8 0.0 0.0 0.0 0.0 0.0 0.0 0.0 0.0 0.0 0.0 0.0 225.51493215198118 221.08609267994973 480.9 -1.5441621182620429 0.33849822556502296 -0.338498225565023 -110.10216011889668 -239.0643309595826 236.12 0.7266393038285186 -0.33465702163798383 4.898587196589413e-17 
1.832 1.1456000000000002 -1.5707963267948966 -1.5707963267948966 0.0 1.5707963267948966 0.0 0.8 0.0 0.0 0.0 0.0 0.0 0.0 0.0 0.0 0.0 0.0 0.0 224.09537228816265 222.52485056512177 480.9 -1.5449476752810434 0.3334926410884124 -0.3334926410884124 -108.56990396107142 -239.76408395313035 236.12 0.7287662126234965 -0.329999708088363 4.898587196589413e-17 
1.84 1.1520000000000001 -1.5707963267948966 -1.5707963267948966 0.0 1.5707963267948966 0.0 0.8 0.0 0.0 0.0 0.0 0.0 0.0 0.0 0.0 0.0 0.0 0.0 222.666633509226 223.95449386352587 480.9 -1.5457214065758935 0.32848642986594545 -0.3284864298659455 -107.03320079515908 -240.45401624332078 236.12000000000003 0.7308632712562941 -0.32532887779683606 4.898587196589413e-17 
1.848 1.1584 -1.5707963267948966 -1.5707963267948966 0.0 1.5707963267948966 0.0 0.8 0.0 0.0 0.0 0.0 0.0 0.0 0.0 0.0 0.0 0.0 0.0 221.22877433611177 225.37496401717237 480.9 -1.546483316222982 0.32347960163549233 -0.3234796016354924 -105.49211356430645 -241.13409957062373 236.12000000000003 0.7329303938316831 -0.3206447220799588 4.898587196589413e-17 
1.856 1.1648 -1.5707963267948966 -1.5707963267948966 0.0 1.5707963267948966 0.0 0.8 0.0 0.0 0.0 0.0 0.0 0.0 0.0 0.0 0.0 0.0 0.0 219.7818536633307 226.78620284380236 480.9 -1.5472334082357457 0.31847216612093054 -0.31847216612093054 -103.94670539123106 -241.80430607892123 236.12 0.7349674956806116 -0.3159474328000944 4.898587196589413e-17 
1.864 1.1712000000000002 -1.5707963267948966 -1.5707963267948966 0.0 1.5707963267948966 0.0 0.8 0.0 0.0 0.0 0.0 0.0 0.0 0.0 0.0 0.0 0.0 0.0 218.32593075655126 228.18815253927093 480.9 -1.547971686564721 0.31346413303237003 -0.3134641330323701 -102.39703957563563 -242.46460831664837 236.12 0.7369744933636729 -0.3112372023575551 4.898587196589413e-17 
1.872 1.1776000000000002 -1.5707963267948966 -1.5707963267948966 0.0 1.5707963267948966 0.0 0.8 0.0 0.0 0.0 0.0 0.0 0.0 0.0 0.0 0.0 0.0 0.0 216.86106525017217 229.58075567991438 480.9 -1.548698155097596 0.3084555120663794 -0.30845551206637944 -100.84317959161531 -243.11497923791785 236.12 0.7389513046745223 -0.3065142236827213 4.898587196589413e-17 
1.88 1.1840000000000002 -1.5707963267948966 -1.5707963267948966 0.0 1.5707963267948966 0.0 0.8 0.0 0.0 0.0 0.0 0.0 0.0 0.0 0.0 0.0 0.0 0.0 215.38731714487983 230.96395522490292 480.9 -1.5494128176592614 0.3034463129062092 -0.30344631290620927 -99.28518908505782 -243.75539220362762 236.12 0.740897848643245 -0.30177869022813925 4.898587196589413e-17 
1.888 1.1904000000000001 -1.5707963267948966 -1.5707963267948966 0.0 1.5707963267948966 0.0 0.8 0.0 0.0 0.0 0.0 0.0 0.0 0.0 0.0 0.0 0.0 0.0 213.90474680519048 232.33769451857643 480.9 -1.5501156780118572 0.2984365452220165 -0.29843654522201657 -97.72313187103646 -244.3858209825521 236.12 0.7428140455396721 -0.2970307959605971 4.898587196589413e-17 
1.896 1.1968 -1.5707963267948966 -1.5707963267948966 0.0 1.5707963267948966 0.0 0.8 0.0 0.0 0.0 0.0 0.0 0.0 0.0 0.0 0.0 0.0 0.0 212.41341495697804 233.70191729276564 480.9 -1.5508067398548229 0.2934262186710885 -0.29342621867108853 -96.15707193119633 -245.0062397524168 236.12000000000003 0.7446998168766469 -0.2922707353531803 4.898587196589413e-17 
1.904 1.2032000000000003 -1.5707963267948966 -1.5707963267948966 0.0 1.5707963267948966 0.0 0.8 0.0 0.0 0.0 0.0 0.0 0.0 0.0 0.0 0.0 0.0 0.0 210.91338268498635 235.05656766909638 480.9 -1.5514860068249452 0.28841534289806486 -0.2884153428980649 -94.58707341113356 -245.61662310095554 236.12 0.7465550854132387 -0.2874987033773056 4.898587196589413e-17 
1.912 1.2096000000000002 -1.5707963267948966 -1.5707963267948966 0.0 1.5707963267948966 0.0 0.8 0.0 0.0 0.0 0.0 0.0 0.0 0.0 0.0 0.0 0.0 0.0 209.40471143032778 236.4015901612786 480.9 -1.552153482496405 0.28340392753516164 -0.2834039275351617 -93.01320061776812 -246.21694602695166 236.12 0.7483797751579078 -0.2827148954947359 4.898587196589413e-17 
1.92 1.216 -1.5707963267948966 -1.5707963267948966 0.0 1.5707963267948966 0.0 0.8 0.0 0.0 0.0 0.0 0.0 0.0 0.0 0.0 0.0 0.0 0.0 207.8874629879659 237.73692967737912 480.9 -1.5528091703808233 0.2783919822023916 -0.2783919822023916 -91.43551801670962 -246.8071839412621 236.12000000000003 0.7501738113716173 -0.27791950764957324 4.898587196589413e-17 
1.928 1.2224 -1.5707963267948966 -1.5707963267948966 0.0 1.5707963267948966 0.0 0.8 0.0 0.0 0.0 0.0 0.0 0.0 0.0 0.0 0.0 0.0 0.0 206.36169950418474 239.06253152207802 480.9 -1.5534530739273056 0.27337951650778586 -0.2733795165077859 -89.85409022961669 -247.3873126678244 236.12 0.7519371205708949 -0.273112736260233 4.898587196589413e-17 
1.936 1.2288000000000001 -1.5707963267948966 -1.5707963267948966 0.0 1.5707963267948966 0.0 0.8 0.0 0.0 0.0 0.0 0.0 0.0 0.0 0.0 0.0 0.0 0.0 204.82748347404328 240.37834139890919 480.9 -1.5540851965224884 0.268366540047616 -0.26836654004761606 -88.2689820315504 -247.95730844464708 236.12 0.7536696305308421 -0.2682947782113993 4.898587196589413e-17 
1.944 1.2352 -1.5707963267948966 -1.5707963267948966 0.0 1.5707963267948966 0.0 0.8 0.0 0.0 0.0 0.0 0.0 0.0 0.0 0.0 0.0 0.0 0.0 203.28487773881562 241.6843054124838 480.9 -1.554705541490582 0.26335306240661427 -0.2633530624066143 -86.68025834832102 -248.5171479247827 236.11999999999995 0.7553712702880934 -0.2634658308459605 4.898587196589413e-17 
1.952 1.2416 -1.5707963267948966 -1.5707963267948966 0.0 1.5707963267948966 0.0 0.8 0.0 0.0 0.0 0.0 0.0 0.0 0.0 0.0 0.0 0.0 0.0 201.7339454834171 242.9803700706987 480.9 -1.5553141120934122 0.2583390931581925 -0.25833909315819253 -85.08798425382845 -249.06680817728454 236.12 0.757041970143722 -0.2586260919569254 4.898587196589413e-17 
1.96 1.248 -1.5707963267948966 -1.5707963267948966 0.0 1.5707963267948966 0.0 0.8 0.0 0.0 0.0 0.0 0.0 0.0 0.0 0.0 0.0 0.0 0.0 200.17475023381593 244.2664822869266 480.9 -1.5559109115304646 0.253324641864663 -0.2533246418646631 -83.49222496739701 -249.60626668814544 236.12000000000003 0.7586816616660955 -0.25377575977932215 4.898587196589413e-17 
1.968 1.2543898543276801 -1.5707963267948966 -1.5707963267948966 0.0 1.5707963267948966 0.0 0.7954954084936208 0.0 0.0 0.0 0.0 0.0 -1.0 0.0 0.0 0.0 0.0 0.0 198.60984703886226 245.54057436440058 480.9 -1.5564950248225593 0.24831766841094768 -0.24831766841094774 -81.43445095162961 -248.726227348172 234.79046981689214 0.7560067700552341 -0.247521127512552 4.8710045287406444e-17 
1.976 1.260721817595629 -1.5707963267948966 -1.5707963267948966 0.0 1.5707963267948966 0.0 0.7874954084936208 0.0 0.0 0.0 0.0 0.0 -1.0 0.0 0.0 0.0 0.0 0.0 197.05112203614516 246.79323391109452 480.9 -1.5570622773407075 0.24335560206025025 -0.24335560206025028 -79.05480254988899 -246.73039556218816 232.42926981689214 0.7499404120431252 -0.24028815364707895 4.8220186567747504e-17 
1.984 1.2669897808635782 -1.5707963267948966 -1.5707963267948966 0.0 1.5707963267948966 0.0 0.7794954084936208 0.0 0.0 0.0 0.0 0.0 -1.0 0.0 0.0 0.0 0.0 0.0 195.50037044321007 248.0234871067005 480.9 -1.5576124571095324 0.23844325227562937 -0.23844325227562943 -76.7193878189019 -244.7095915753949 230.06806981689215 0.7437981506850909 -0.23318962862888112 4.7730327848088564e-17 
1.992 1.273193744131527 -1.5707963267948966 -1.5707963267948966 0.0 1.5707963267948966 0.0 0.7714954084936207 0.0 0.0 0.0 0.0 0.0 -1.0 0.0 0.0 0.0 0.0 0.0 193.957889399847 249.23158335081993 480.9 -1.5581459124398245 0.23358064119018548 -0.23358064119018554 -74.42797303374003 -242.66454032309787 227.70686981689215 0.7375821894319085 -0.226224842047842 4.724046912842962e-17 
2.0 1.279333707399476 -1.5707963267948966 -1.5707963267948966 0.0 1.5707963267948966 0.0 0.7634954084936207 0.0 0.0 0.0 0.0 0.0 -1.0 0.0 0.0 0.0 0.0 0.0 192.42397023564516 250.4177722901303 480.9 -1.5586629878921667 0.22876779025265936 -0.2287677902526594 -72.18031378073415 -240.59595398608465 225.34566981689218 0.7312946929668227 -0.21939305100527093 4.675061040877068e-17 
2.008 1.285409670667425 -1.5707963267948966 -1.5707963267948966 0.0 1.5707963267948966 0.0 0.7554954084936207 0.0 0.0 0.0 0.0 0.0 -1.0 0.0 0.0 0.0 0.0 0.0 190.89889853270842 251.582303707949 480.9 -1.5591640242868292 0.22400472024235155 -0.2240047202423516 -69.97615526446477 -238.50453200346277 222.98446981689213 0.7249377872445676 -0.21269348104700536 4.6260751689111737e-17 
2.016 1.291421633935374 -1.5707963267948966 -1.5707963267948966 0.0 1.5707963267948966 0.0 0.7474954084936207 0.0 0.0 0.0 0.0 0.0 -1.0 0.0 0.0 0.0 0.0 0.0 189.38295418908888 252.72542741602686 480.9 -1.5596493587133584 0.2192914512838279 -0.21929145128382793 -67.81523260976275 -236.3909610913643 220.6232698168922 0.7185135595482197 -0.20612532708134568 4.5770892969452797e-17 
2.024 1.297369597203323 -1.5707963267948966 -1.5707963267948966 0.0 1.5707963267948966 0.0 0.7394954084936207 0.0 0.0 0.0 0.0 0.0 -1.0 0.0 0.0 0.0 0.0 0.0 187.876411482884 253.8473931485491 480.9 -1.5601193245398635 0.21462800286141628 -0.21462800286141634 -65.69727115869249 -234.25591526735084 218.26206981689214 0.7120240585633764 -0.19968775428174004 4.528103424979385e-17 
2.032 1.3032535604712718 -1.5707963267948966 -1.5707963267948966 0.0 1.5707963267948966 0.0 0.7314954084936207 0.0 0.0 0.0 0.0 0.0 -1.0 0.0 0.0 0.0 0.0 0.0 186.37953913694315 254.94845045832434 480.9 -1.5605742514220082 0.2100143938334978 -0.21001439383349785 -63.621986762495595 -232.1000558803546 215.90086981689214 0.7054712944691629 -0.1933798989741507 4.479117553013491e-17 
2.04 1.309073523739221 -1.5707963267948966 -1.5707963267948966 0.0 1.5707963267948966 0.0 0.7234954084936207 0.0 0.0 0.0 0.0 0.0 -1.0 0.0 0.0 0.0 0.0 0.0 184.89260038413005 256.0288486151402 480.9 -1.5610144653117135 0.20545064244659322 -0.20545064244659325 -61.589086068474074 -229.92403164599574 213.53966981689214 0.6988572390455797 -0.1872008695090397 4.430131681047597e-17 
2.048 1.31482948700717 -1.5707963267948966 -1.5707963267948966 0.0 1.5707963267948966 0.0 0.7154954084936207 0.0 0.0 0.0 0.0 0.0 -1.0 0.0 0.0 0.0 0.0 0.0 183.41585303309057 257.0888365062624 480.9 -1.5614402884655794 0.2009367663492518 -0.20093676634925187 -59.59826680179928 -227.72847868711585 211.17846981689215 0.6921838257967047 -0.1811497471179309 4.381145809081703e-17 
2.056 1.320521450275119 -1.5707963267948966 -1.5707963267948966 0.0 1.5707963267948966 0.0 0.7074954084936207 0.0 0.0 0.0 0.0 0.0 -1.0 0.0 0.0 0.0 0.0 0.0 181.94954953447365 258.1286625390565 480.9 -1.5618520394530306 0.19647278260573878 -0.19647278260573883 -57.64921804223235 -225.51402057937253 208.81726981689218 0.6854529500892782 -0.17522558675450559 4.3321599371158083e-17 
2.064 1.326149413543068 -1.5707963267948966 -1.5707963267948966 0.0 1.5707963267948966 0.0 0.6994954084936207 0.0 0.0 0.0 0.0 0.0 -1.0 0.0 0.0 0.0 0.0 0.0 180.49393704755644 259.1485745457087 480.9 -1.562250033164193 0.19205870770953068 -0.19205870770953073 -55.741620495749636 -223.28126840174076 206.45606981689218 0.6786664693062029 -0.16942741792021163 4.2831740651499143e-17 
2.072 1.331713376811017 -1.5707963267948966 -1.5707963267948966 0.0 1.5707963267948966 0.0 0.6914954084936207 0.0 0.0 0.0 0.0 0.0 -1.0 0.0 0.0 0.0 0.0 0.0 179.04925750722512 260.14881969002164 480.9 -1.5626345808175075 0.18769455759661624 -0.1876945575966163 -53.87514676106631 -221.03082079177057 204.09486981689213 0.6718262030145002 -0.16375424547436568 4.23418819318402e-17 
2.08 1.3372133400789656 -1.5707963267948966 -1.5707963267948966 0.0 1.5707963267948966 0.0 0.6834954084936207 0.0 0.0 0.0 0.0 0.0 -1.0 0.0 0.0 0.0 0.0 0.0 177.6157476912636 261.1296443762626 480.9 -1.5630059899670847 0.18338034765860736 -0.18338034765860742 -52.04946159105724 -218.76326400545216 201.73366981689213 0.664933933147271 -0.15820505042874536 4.185202321218126e-17 
2.088 1.342649303346915 -1.5707963267948966 -1.5707963267948966 0.0 1.5707963267948966 0.0 0.6754954084936207 0.0 0.0 0.0 0.0 0.0 -1.0 0.0 0.0 0.0 0.0 0.0 176.19363928790324 262.09129416003924 480.9 -1.5633645645098126 0.1791160927556616 -0.17911609275566162 -50.26422214907564 -216.47917198154272 199.37246981689213 0.657991404199218 -0.15277879072667366 4.1362164492522316e-17 
2.096 1.3480212666148634 -1.5707963267948966 -1.5707963267948966 0.0 1.5707963267948966 0.0 0.6674954084936207 0.0 0.0 0.0 0.0 0.0 -1.0 0.0 0.0 0.0 0.0 0.0 174.78315896358993 263.03401366117737 480.9 -1.5637106046922142 0.17490180722922147 -0.1749018072292215 -48.51907826017543 -214.17910641021177 197.0112698168921 0.6510003234352942 -0.14747440200661222 4.0872305772863376e-17 
2.104 1.3533292298828126 -1.5707963267948966 -1.5707963267948966 0.0 1.5707963267948966 0.0 0.6594954084936206 0.0 0.0 0.0 0.0 0.0 -1.0 0.0 0.0 0.0 0.0 0.0 173.3845284309204 263.95804647857835 480.9 -1.5640444071170723 0.17073750491456485 -0.17073750491456488 -46.81367265724161 -211.8636168058649 194.6500698168921 0.6439623611120513 -0.1422907983502784 4.0382447053204436e-17 
2.112 1.3585731931507616 -1.5707963267948966 -1.5707963267948966 0.0 1.5707963267948966 0.0 0.6514954084936206 0.0 0.0 0.0 0.0 0.0 -1.0 0.0 0.0 0.0 0.0 0.0 171.99796451670977 264.86363510702756 480.9 -1.5643662647498129 0.16662319915318033 -0.16662319915318036 -45.14764122204318 -209.5332405840068 192.28886981689212 0.6368791507112668 -0.1372268730153288 3.9892588333545496e-17 
2.12 1.3637531564187106 -1.5707963267948966 -1.5707963267948966 0.0 1.5707963267948966 0.0 0.6434954084936206 0.0 0.0 0.0 0.0 0.0 -1.0 0.0 0.0 0.0 0.0 0.0 170.62367923014253 265.75102085593096 480.9 -1.5646764669246682 0.16255890280495777 -0.1625589028049578 -43.52061322121761 -207.18850314200992 189.92766981689215 0.6297522891854405 -0.13228149915263707 3.940272961388655e-17 
2.128 1.3688691196866594 -1.5707963267948966 -1.5707963267948966 0.0 1.5707963267948966 0.0 0.6354954084936206 0.0 0.0 0.0 0.0 0.0 -1.0 0.0 0.0 0.0 0.0 0.0 169.26187983096912 266.62044376995283 480.9 -1.564975299350613 0.15854462826020407 -0.1585446282602041 -41.9322115372053 -204.82991794365492 187.56646981689212 0.6225833372147566 -0.12745353050822275 3.891287089422761e-17 
2.136 1.3739210829546087 -1.5707963267948966 -1.5707963267948966 0.0 1.5707963267948966 0.0 0.6274954084936206 0.0 0.0 0.0 0.0 0.0 -1.0 0.0 0.0 0.0 0.0 0.0 167.91276889770626 267.4721425515291 480.9 -1.5652630441170863 0.15458038745148137 -0.1545803874514814 -40.382052894151194 -202.45798660731361 185.20526981689216 0.6153738194751174 -0.12274180210988203 3.842301217456867e-17 
2.144 1.3789090462225573 -1.5707963267948966 -1.5707963267948966 0.0 1.5707963267948966 0.0 0.6194954084936206 0.0 0.0 0.0 0.0 0.0 -1.0 0.0 0.0 0.0 0.0 0.0 166.57654439580307 268.30635448522844 480.9 -1.5655399796995009 0.15066619186527472 -0.15066619186527475 -38.86974807879578 -200.07319899764695 182.84406981689216 0.6081252249168599 -0.11814513093858899 3.793315345490973e-17 
2.152 1.3838330094905065 -1.5707963267948966 -1.5707963267948966 0.0 1.5707963267948966 0.0 0.6114954084936206 0.0 0.0 0.0 0.0 0.0 -1.0 0.0 0.0 0.0 0.0 0.0 165.25339974573112 269.12331536393793 480.9 -1.5658063809645486 0.1468020525534816 -0.14680205255348164 -37.39490215637639 -197.67603332069362 180.4828698168921 0.60083900705378 -0.11366231658473064 3.744329473525078e-17 
2.16 1.3886929727584556 -1.5707963267948966 -1.5707963267948966 0.0 1.5707963267948966 0.0 0.6034954084936206 0.0 0.0 0.0 0.0 0.0 -1.0 0.0 0.0 0.0 0.0 0.0 163.94352389096625 269.9232594168427 480.9 -1.5660625191753028 0.14298798014473788 -0.14298798014473788 -35.957114681568115 -195.26695622222766 178.1216698168921 0.5935165842620902 -0.10929214188926477 3.695343601559184e-17 
2.168 1.3934889360264047 -1.5707963267948966 -1.5707963267948966 0.0 1.5707963267948966 0.0 0.5954954084936206 0.0 0.0 0.0 0.0 0.0 -1.0 0.0 0.0 0.0 0.0 0.0 162.64710136582025 270.7064192391761 480.9 -1.5663086619961262 0.1392239848555689 -0.13922398485556892 -34.55597990448906 -192.84642288926503 175.7604698168921 0.5861593400889514 -0.10503337356987552 3.64635772959329e-17 
2.176 1.3982208992943534 -1.5707963267948966 -1.5707963267948966 0.0 1.5707963267948966 0.0 0.5874954084936206 0.0 0.0 0.0 0.0 0.0 -1.0 0.0 0.0 0.0 0.0 0.0 161.36431236309042 271.4730257237116 480.9 -1.566545073497391 0.1355100765013766 -0.13551007650137661 -33.19108697180218 -190.41487715460372 173.39926981689212 0.5787686235702241 -0.10088476283222543 3.597371857627396e-17 
2.184 1.4028888625623024 -1.5707963267948966 -1.5707963267948966 0.0 1.5707963267948966 0.0 0.5794954084936206 0.0 0.0 0.0 0.0 0.0 -1.0 0.0 0.0 0.0 0.0 0.0 160.09533280149046 272.2233079939703 480.9 -1.566772014160011 0.13184626450725856 -0.1318462645072586 -31.86202012294528 -187.972751604283 171.03806981689215 0.571345749557091 -0.09684504596639902 3.5483859856615015e-17 
2.192 1.407492825830251 -1.5707963267948966 -1.5707963267948966 0.0 1.5707963267948966 0.0 0.5714954084936206 0.0 0.0 0.0 0.0 0.0 -1.0 0.0 0.0 0.0 0.0 0.0 158.84033439283002 272.9574933391167 480.9 -1.5669897408797935 0.1282325579186647 -0.12823255791866472 -30.568358881524183 -185.52046768785016 168.67686981689212 0.5638919990512162 -0.09291294492864491 3.4994001136956075e-17 
2.2 1.4120327890982003 -1.5707963267948966 -1.5707963267948966 0.0 1.5707963267948966 0.0 0.5634954084936206 0.0 0.0 0.0 0.0 0.0 -1.0 0.0 0.0 0.0 0.0 0.0 157.5994847089086 273.6758071505161 480.9 -1.567198506971618 0.12466896541188745 -0.12466896541188746 -29.30967824190418 -183.05843583132744 166.3156698168921 0.5564086195481077 -0.08908716790852332 3.4504142417297135e-17 
2.208 1.4165087523661495 -1.5707963267948966 -1.5707963267948966 0.0 1.5707963267948966 0.0 0.5554954084936206 0.0 0.0 0.0 0.0 0.0 -1.0 0.0 0.0 0.0 0.0 0.0 156.3729472480938 274.3784728599255 480.9 -1.567398562173444 0.1211554953043945 -0.12115549530439453 -28.085548851040063 -180.5870555527718 163.95446981689213 0.5488968253883642 -0.0853664098815807 3.4014283697638195e-17 
2.216 1.4209207156340982 -1.5707963267948966 -1.5707963267948966 0.0 1.5707963267948966 0.0 0.5474954084936206 0.0 0.0 0.0 0.0 0.0 -1.0 0.0 0.0 0.0 0.0 0.0 155.1608815015504 275.0657118792923 480.9 -1.5675901526501517 0.11769215556499665 -0.11769215556499668 -26.89553718558247 -178.10671558032524 161.5932698168921 0.5413577981164901 -0.08174935314766706 3.352442497797925e-17 
2.224 1.425268678902047 -1.5707963267948966 -1.5707963267948966 0.0 1.5707963267948966 0.0 0.5394954084936205 0.0 0.0 0.0 0.0 0.0 -1.0 0.0 0.0 0.0 0.0 0.0 153.96344301909093 275.73774354213305 480.9 -1.5677735209972226 0.11427895382385732 -0.11427895382385735 -25.739205724303822 -175.61779397265457 159.23206981689208 0.5337926868469745 -0.0782346678550268 3.303456625832031e-17 
2.232 1.429552642169996 -1.5707963267948966 -1.5707963267948966 0.0 1.5707963267948966 0.0 0.5314954084936205 0.0 0.0 0.0 0.0 0.0 -1.0 0.0 0.0 0.0 0.0 0.0 152.7807834746194 276.39478504646473 480.9 -1.567948906244265 0.11091589738234524 -0.11091589738234527 -24.616113115887348 -173.1206582416827 156.87086981689208 0.5262026086373334 -0.07482101251029587 3.254470753866137e-17 
