Fleaurent/UniversalRobot/csv/robolib_movej_Synchron.csv
timestamp target_q_0 target_q_1 target_q_2 target_q_3 target_q_4 target_q_5 target_qd_0 target_qd_1 target_qd_2 target_qd_3 target_qd_4 target_qd_5 target_qdd_0 target_qdd_1 target_qdd_2 target_qdd_3 target_qdd_4 target_qdd_5 target_TCP_pose_0 target_TCP_pose_1 target_TCP_pose_2 target_TCP_pose_3 target_TCP_pose_4 target_TCP_pose_5 target_TCP_speed_0 target_TCP_speed_1 target_TCP_speed_2 target_TCP_speed_3 target_TCP_speed_4 target_TCP_speed_5
0.0 0.0 -1.5707963267948966 -1.5707963267948966 0.0 1.5707963267948966 0.0 0.0 0.0 0.0 0.0 0.0 0.0 1.0 0.6666666666666664 0.3333333333333332 0.0 0.0 0.0 295.15 -112.34999999999998 480.9 -1.2091995761561454 1.2091995761561456 -1.2091995761561458 0.0 0.0 0.0 0.0 0.0 0.0 
0.008 3.2e-05 -1.5707749934615631 -1.57078566012823 0.0 1.5707963267948966 0.0 0.008 0.005333333333333331 0.0026666666666666657 0.0 0.0 0.0 1.0 0.6666666666666664 0.3333333333333332 0.0 0.0 0.0 295.14566583110394 -112.34055539621338 480.9094447008554 -1.2091911404039255 1.2091524469065253 -1.2091911404039257 -1.083617780236693 2.361101891697661 2.3611504272355144 2.559999999563092e-07 -0.007999999995903997 0.008 
0.016 0.000128 -1.5707109934615633 -1.57075366012823 0.0 1.5707963267948966 0.0 0.016 0.010666666666666663 0.005333333333333331 0.0 0.0 0.0 1.0 0.6666666666666664 0.3333333333333332 0.0 0.0 0.0 295.13265969787136 -112.31222393972357 480.93777761360707 -1.209165826575134 1.2090110632539737 -1.2091658265751342 -2.168142164364273 4.721615017531503 4.7220033888704 2.047999994407594e-06 -0.015999999868927993 0.016 
0.024 0.000288 -1.5706043267948966 -1.5707003267948965 0.0 1.5707963267948966 0.0 0.024 0.015999999999999993 0.007999999999999997 0.0 0.0 0.0 1.0 0.6666666666666664 0.3333333333333332 0.0 0.0 0.0 295.1109707222185 -112.26501269746149 480.98499516823307 -1.2091236149552054 1.2087754374892468 -1.2091236149552056 -3.2544793685158817 7.080950031459979 7.082261274241693 6.91199990444851e-06 -0.023999999004672 0.024 
0.032 0.000512 -1.5704549934615633 -1.5706256601282298 0.0 1.5707963267948966 0.0 0.032 0.021333333333333326 0.010666666666666663 0.0 0.0 0.0 1.0 0.6666666666666664 0.3333333333333332 0.0 0.0 0.0 295.08058077917786 -112.19893345538017 481.0510914127616 -1.2090644726926643 1.2084455901030688 -1.2090644726926645 -4.343534832789361 9.438516427418614 9.44162618259119 1.6383999284172122e-05 -0.03199999580569608 0.032 
0.04 0.0008 -1.5702629934615633 -1.57052966012823 0.0 1.5707963267948966 0.0 0.04 0.026666666666666658 0.013333333333333329 0.0 0.0 0.0 1.0 0.6666666666666664 0.3333333333333332 0.0 0.0 0.0 295.0414645046626 -112.11400273005208 481.13605801037176 -1.2089883538083168 1.2080215497953124 -1.2089883538083168 -5.4362128319305105 11.793721960140454 11.79979977809136 3.1999996586666764e-05 -0.03999998720000067 0.04 
0.048 0.001152 -1.5700283267948965 -1.5704123267948966 0.0 1.5707963267948966 0.0 0.048 0.03199999999999999 0.015999999999999993 0.0 0.0 0.0 1.0 0.6666666666666664 0.3333333333333332 0.0 0.0 0.0 294.9935893063514 -112.01024178489634 481.2398842353324 -1.2088951992081247 1.2075033534878448 -1.2088951992081247 -6.5334160844583735 14.145972066976448 14.15648314495966 5.5295987769410324e-05 -0.047999968149507494 0.048 
0.056 0.0015680000000000002 -1.5697509934615632 -1.5702736601282299 0.0 1.5707963267948966 0.0 0.056 0.03733333333333332 0.01866666666666666 0.0 0.0 0.0 1.0 0.6666666666666664 0.3333333333333332 0.0 0.0 0.0 294.93691537770894 -111.88767665102608 481.36255696778403 -1.208784936699754 1.2068910463410198 -1.2087849366997543 -7.636045359714991 16.494669291051956 16.51137664269085 8.780796401886171e-05 -0.055999931158542085 0.056 
0.064 0.002048 -1.5694309934615631 -1.57011366012823 0.0 1.5707963267948966 0.0 0.064 0.04266666666666665 0.021333333333333326 0.0 0.0 0.0 1.0 0.6666666666666664 0.3333333333333332 0.0 0.0 0.0 294.87139571515917 -111.74633815270423 481.50406068736163 -1.208657481012803 1.2061846817738038 -1.2086574810128035 -8.744999082323332 18.839212706097772 18.864179761437057 0.00013107190837405015 -0.0639998657823189 0.064 
0.072 0.0025920000000000006 -1.5690683267948966 -1.5699323267948966 0.0 1.5707963267948966 0.0 0.07200000000000001 0.04799999999999999 0.023999999999999994 0.0 0.0 0.0 1.0 0.6666666666666664 0.3333333333333332 0.0 0.0 0.0 294.7969761384359 -111.58626193739266 481.66437746566294 -1.2085127338227057 1.205384321487513 -1.208512733822706 -9.86117293353913 21.17899734329729 21.2145909775657 0.00018662379102896593 -0.07199975813543139 0.07200000000000001 
0.08 0.0032 -1.5686629934615632 -1.5697296601282298 0.0 1.5707963267948966 0.0 0.08 0.053333333333333316 0.026666666666666658 0.0 0.0 0.0 1.0 0.6666666666666664 0.3333333333333332 0.0 0.0 0.0 294.7135953141356 -111.40748851037755 481.84348695756046 -1.208350583778309 1.2044900354931398 -1.2083505837783097 -10.9854594489843 23.513413620494692 23.562307609425172 0.00025599956309355694 -0.07999959040034951 0.08 
0.088 0.0038719999999999996 -1.5682149934615632 -1.5695056601282298 0.0 1.5707963267948966 0.0 0.088 0.05866666666666664 0.02933333333333332 0.0 0.0 0.0 1.0 0.6666666666666664 0.3333333333333332 0.0 0.0 0.0 294.62118478250574 -111.21006327395015 482.04136639136124 -1.208170906533132 1.2035019021422428 -1.2081709065331323 -12.118747612252317 25.841846774113616 25.907025673349178 0.0003407351485931456 -0.08799934033592813 0.088 
0.096 0.004608 -1.5677243267948966 -1.5692603267948966 0.0 1.5707963267948966 0.0 0.096 0.06399999999999997 0.03199999999999999 0.0 0.0 0.0 1.0 0.6666666666666664 0.3333333333333332 0.0 0.0 0.0 294.5196689875014 -110.99403657112056 482.2579905578156 -1.2079735647802876 1.2024200081613639 -1.2079735647802878 -13.261922443878934 28.163676294140057 28.24843973992999 0.0004423664344860825 -0.09599898078593144 0.096 
0.104 0.005408000000000001 -1.5671909934615633 -1.56899366012823 0.0 1.5707963267948966 0.0 0.10400000000000001 0.06933333333333332 0.03466666666666666 0.0 0.0 0.0 1.0 0.6666666666666664 0.3333333333333332 0.0 0.0 0.0 294.4089653101512 -110.75946373383792 482.49333179797816 -1.207758408291092 1.2012444486899503 -1.207758408291092 -14.41586458517464 30.478275362528965 30.58624279059211 0.0005624292584794689 -0.1039984791875785 0.10400000000000001 
0.112 0.006272000000000001 -1.5666149934615632 -1.5687056601282299 0.0 1.5707963267948966 0.0 0.112 0.07466666666666665 0.03733333333333332 0.0 0.0 0.0 1.0 0.6666666666666664 0.3333333333333332 0.0 0.0 0.0 294.28898410527404 -110.50640513568857 482.7473599899205 -1.2075252739573312 1.1999753273217304 -1.2075252739573314 -15.5814498764193 32.78501029539968 32.92012607449754 0.0007024593944227933 -0.11199779708011752 0.112 
0.12 0.0072 -1.5659963267948966 -1.5683963267948966 0.0 1.5707963267948966 0.0 0.12 0.07999999999999996 0.03999999999999998 0.0 0.0 0.0 1.0 0.6666666666666664 0.3333333333333332 0.0 0.0 0.0 294.1596287415951 -110.23492624904016 483.02004253430255 -1.207273985837213 1.1986127561495161 -1.207273985837213 -16.75954892892341 35.083239989391956 35.24977896581469 0.0008639925350593487 -0.11999688961343684 0.12 
0.128 0.008192 -1.5653349934615632 -1.56806566012823 0.0 1.5707963267948966 0.0 0.128 0.0853333333333333 0.04266666666666665 0.0 0.0 0.0 1.0 0.6666666666666664 0.3333333333333332 0.0 0.0 0.0 294.02079564531124 -109.94509770659708 483.31134433880345 -1.207004355204973 1.1971568558133723 -1.2070043552049732 -17.951026690465078 37.37231537256132 37.57488882138324 0.001048564271915323 -0.12799570505672309 0.128 
0.136 0.009248000000000001 -1.5646309934615632 -1.56771366012823 0.0 1.5707963267948966 0.0 0.136 0.09066666666666663 0.045333333333333316 0.0 0.0 0.0 1.0 0.6666666666666664 0.3333333333333332 0.0 0.0 0.0 293.87237434716087 -109.63699536732928 483.62122780141414 -1.206716180604162 1.195607755552125 -1.2067161806041622 -19.156742003616184 39.65157886019995 39.89514083880745 0.001257710072106482 -0.1359941843071773 0.136 
0.144 0.010368000000000002 -1.5638843267948965 -1.5673403267948967 0.0 1.5707963267948966 0.0 0.14400000000000002 0.09599999999999997 0.04799999999999999 0.0 0.0 0.0 1.0 0.6666666666666664 0.3333333333333332 0.0 0.0 0.0 293.7142475330576 -109.31070038673347 483.9496527925981 -1.2064092479045825 1.1939655932581346 -1.2064092479045831 -20.377547156477767 41.920363815978 42.21021791501178 0.0014929652518424208 -0.1439922603988033 0.14400000000000002 
0.152 0.011552 -1.5630949934615632 -1.56694566012823 0.0 1.5707963267948966 0.0 0.152 0.10133333333333329 0.050666666666666645 0.0 0.0 0.0 1.0 0.6666666666666664 0.3333333333333332 0.0 0.0 0.0 293.5462910983499 -108.9662992913826 484.2965766363214 -1.2060833303629055 1.192230515535306 -1.2060833303629057 -21.614287425349158 44.17799401880816 44.51980050529231 0.001755864946408391 -0.15198985801128295 0.152 
0.16 0.0128 -1.5622629934615633 -1.56652966012823 0.0 1.5707963267948966 0.0 0.16 0.10666666666666663 0.053333333333333316 0.0 0.0 0.0 1.0 0.6666666666666664 0.3333333333333332 0.0 0.0 0.0 293.36837420577285 -108.60388405771616 484.66195408995765 -1.20573818868693 1.1904026777602537 -1.20573818868693 -22.867800608862687 46.4237831358461 46.82356648289838 0.0020479440764047943 -0.15998689297895594 0.16 
0.168 0.014112000000000001 -1.5613883267948965 -1.5660923267948965 0.0 1.5707963267948966 0.0 0.168 0.11199999999999996 0.05599999999999998 0.0 0.0 0.0 1.0 0.6666666666666664 0.3333333333333332 0.0 0.0 0.0 293.1803593471629 -108.2235521950205 485.045737323072 -1.20537357110351 1.1884822441465774 -1.2053735711035105 -24.138916553122122 48.65703420204926 49.12119099917989 0.002370737310024471 -0.16798327179992312 0.168 
0.176 0.015487999999999998 -1.5604709934615633 -1.56563366012823 0.0 1.5707963267948966 0.0 0.176 0.11733333333333328 0.05866666666666664 0.0 0.0 0.0 1.0 0.6666666666666664 0.3333333333333332 0.0 0.0 0.0 292.98210240900914 -107.825406832545 485.44787589508815 -1.2049892134301303 1.1864693878121801 -1.2049892134301305 -25.42845666739014 50.87703910672617 51.41234634433568 0.0027257790211480566 -0.17597889114529572 0.176 
0.184 0.016928 -1.5595109934615632 -1.5651536601282299 0.0 1.5707963267948966 0.0 0.184 0.12266666666666662 0.06133333333333331 0.0 0.0 0.0 1.0 0.6666666666666664 0.3333333333333332 0.0 0.0 0.0 292.7734527419175 -107.40955681069649 485.86831673184514 -1.2045848391501284 1.1843642908495564 -1.2045848391501286 -26.737233429878522 53.083078087520015 53.696701808799645 0.00311460324303772 -0.18397363736861438 0.184 
0.192 0.018432 -1.5585083267948965 -1.5646523267948966 0.0 1.5707963267948966 0.0 0.192 0.12799999999999995 0.06399999999999997 0.0 0.0 0.0 1.0 0.6666666666666664 0.3333333333333332 0.0 0.0 0.0 292.5542532340711 -106.97611677625049 486.30700410104555 -1.2041601594915656 1.1821671443989943 -1.2041601594915663 -28.066049883201686 55.27441923228097 55.9739235453018 0.003538743617409752 -0.19196738601546415 0.192 
0.2 0.020000000000000004 -1.5574629934615631 -1.56412966012823 0.0 1.5707963267948966 0.0 0.2 0.13333333333333328 0.06666666666666664 0.0 0.0 0.0 1.0 0.6666666666666664 0.3333333333333332 0.0 0.0 0.0 292.3243403887683 -106.52520728151428 486.76387958660604 -1.2037148735097367 1.1798781487246035 -1.2037148735097374 -29.415699119065078 57.45031798929376 58.24367443164191 0.003999733338666615 -0.19996000133331548 0.2 
0.208 0.021632000000000005 -1.5563749934615632 -1.5635856601282299 0.0 1.5707963267948966 0.0 0.20800000000000002 0.13866666666666663 0.06933333333333332 0.0 0.0 0.0 1.0 0.6666666666666664 0.3333333333333332 0.0 0.0 0.0 292.08354440612874 -106.0569548873734 487.23888206191043 -1.203248668173308 1.1774975132931034 -1.2032486681733086 -30.786963751766777 59.61001668633942 60.50561393421517 0.0044991050930692006 -0.20795133578162345 0.20800000000000002 
0.216 0.023327999999999998 -1.5552443267948965 -1.5630203267948966 0.0 1.5707963267948966 0.0 0.216 0.14399999999999993 0.07199999999999997 0.0 0.0 0.0 1.0 0.6666666666666664 0.3333333333333332 0.0 0.0 0.0 291.83168926905705 -105.57149227014833 487.73194766197554 -1.20276121845409 1.1750254568552914 -1.2027612184540901 -32.180615380102566 61.75274405908266 62.759397972328685 0.005038390992630237 -0.21594122954221906 0.216 
0.224 0.025088000000000003 -1.5540709934615633 -1.5624336601282298 0.0 1.5707963267948966 0.0 0.224 0.1493333333333333 0.07466666666666665 0.0 0.0 0.0 1.0 0.6666666666666664 0.3333333333333332 0.0 0.0 0.0 291.568592833559 -105.06895833218537 488.24300975453457 -1.2022521874204275 1.1724622075301077 -1.2022521874204277 -33.59741403727463 63.87771478928954 65.00467878335002 0.005619122503510012 -0.2239295100300327 0.224 
0.232 0.026912000000000002 -1.5528549934615632 -1.5618256601282299 0.0 1.5707963267948966 0.0 0.232 0.15466666666666662 0.07733333333333331 0.0 0.0 0.0 1.0 0.6666666666666664 0.3333333333333332 0.0 0.0 0.0 291.2940669235077 -104.54949831610064 488.77199891004506 -1.2017212263342034 1.1698080028912137 -1.2017212263342039 -35.03810762841402 65.9841290533939 67.24110478872848 0.006242830368695748 -0.23191599140418853 0.232 
0.24 0.0288 -1.5515963267948967 -1.5611963267948965 0.0 1.5707963267948966 0.0 0.24 0.15999999999999992 0.07999999999999996 0.0 0.0 0.0 1.0 0.6666666666666664 0.3333333333333332 0.0 0.0 0.0 291.0079174299609 -104.01326392259242 489.31884287062854 -1.2011679747514505 1.1670630900560046 -1.2011679747514508 -36.503431355340844 68.07117208194497 69.46832046093228 0.006911044524746327 -0.2399004740795168 0.24 
0.248 0.030751999999999998 -1.5502949934615633 -1.56054566012823 0.0 1.5707963267948966 0.0 0.248 0.16533333333333328 0.08266666666666664 0.0 0.0 0.0 1.0 0.6666666666666664 0.3333333333333332 0.0 0.0 0.0 290.7099444151317 -103.46041343173235 489.8834665179496 -1.2005920606265559 1.1642277257769518 -1.200592060626556 -37.99410712819639 70.13801373048325 71.68596619134419 0.007625294012384267 -0.24788274423853038 0.248 
0.256 0.032768 -1.5489509934615633 -1.55987366012823 0.0 1.5707963267948966 0.0 0.256 0.1706666666666666 0.0853333333333333 0.0 0.0 0.0 1.0 0.6666666666666664 0.3333333333333332 0.0 0.0 0.0 290.3999422211201 -102.89111182764246 490.46579184004247 -1.1999931004200586 1.1613021765352016 -1.1999931004200586 -39.51084296359569 72.18380806240589 73.89367815916023 0.0083871068807172 -0.25586257334391715 0.256 
0.264 0.034848000000000004 -1.5475643267948966 -1.5591803267948965 0.0 1.5707963267948966 0.0 0.264 0.17599999999999993 0.08799999999999997 0.0 0.0 0.0 1.0 0.6666666666666664 0.3333333333333332 0.0 0.0 0.0 290.07769958351537 -102.30553092645903 491.06573789709194 -1.199370699210018 1.1582867186363235 -1.199370699210018 -41.05433236896235 74.20769294439937 76.09108820133716 0.009198010084871547 -0.2638397176516048 0.264 
0.272 0.036992000000000004 -1.5461349934615631 -1.5584656601282298 0.0 1.5707963267948966 0.0 0.272 0.18133333333333326 0.09066666666666663 0.0 0.0 0.0 1.0 0.6666666666666664 0.3333333333333332 0.0 0.0 0.0 289.74299974997814 -101.70384950748083 491.68322078617973 -1.1987244508069534 1.1551816383081204 -1.198724450806954 -42.62525371272167 76.20878965503115 78.27782368363442 0.010059529376821308 -0.27181391772445507 0.272 
0.28 0.0391840016747206 -1.5446736590117496 -1.557734992903323 0.0 1.5707963267948966 0.0 0.2743434418098265 0.1828956278732176 0.0914478139366088 0.0 0.0 0.0 0.0 0.0 0.0 0.0 0.0 0.0 289.398147369169 -101.0907208175604 492.31355671667995 -1.1980588142801853 1.152010364956628 -1.1980588142801856 -43.32840379628736 76.60856509001405 78.82908633223217 0.010747123226878461 -0.274132857217824 0.2743434418098265 
0.288 0.04137874920919921 -1.5432104939887639 -1.5570034103918302 0.0 1.5707963267948966 0.0 0.2743434418098265 0.1828956278732176 0.0914478139366088 0.0 0.0 0.0 0.0 0.0 0.0 0.0 0.0 0.0 289.05017868904474 -100.47888574036509 492.9436949255341 -1.197387370517708 1.1488384973147914 -1.197387370517708 -43.663572137624584 76.34995840196493 78.70540211170845 0.01134874927237021 -0.2741086097772459 0.2743434418098265 
0.296 0.04357349674367781 -1.5417473289657782 -1.5562718278803374 0.0 1.5707963267948966 0.0 0.2743434418098265 0.1828956278732176 0.0914478139366088 0.0 0.0 0.0 0.0 0.0 0.0 0.0 0.0 0.0 288.69953332917623 -99.86912540947341 493.5728421307165 -1.1967109600796229 1.145670019101077 -1.1967109600796229 -43.99757265119612 76.08987933570118 78.58133548471602 0.01195032065190355 -0.27408304197884675 0.2743434418098265 
0.304 0.04576824427815643 -1.5402841639427922 -1.5555402453688445 0.0 1.5707963267948966 0.0 0.2743434418098265 0.1828956278732176 0.0914478139366088 0.0 0.0 0.0 0.0 0.0 0.0 0.0 0.0 0.0 288.34622065810555 -99.2614515841547 494.20099527466726 -1.1960295928159124 1.142504939312167 -1.1960295928159126 -44.33039886042162 75.82833283508523 78.45688687445764 0.012551834467760405 -0.27405615394578453 0.2743434418098265 
0.312 0.04796299181263504 -1.5388209989198065 -1.5548086628573516 0.0 1.5707963267948966 0.0 0.2743434418098265 0.1828956278732176 0.0914478139366088 0.0 0.0 0.0 0.0 0.0 0.0 0.0 0.0 0.0 287.99025009610574 -98.65587598401322 494.8281513032191 -1.195343278573598 1.139343266900195 -1.1953432785735987 -44.66204430922553 75.56532387247685 78.3320567059836 0.013153287822499964 -0.27402794580757645 0.2743434418098265 
0.32 0.05015773934711366 -1.5373578338968208 -1.5540770803458588 0.0 1.5707963267948966 0.0 0.2743434418098265 0.1828956278732176 0.0914478139366088 0.0 0.0 0.0 0.0 0.0 0.0 0.0 0.0 0.0 287.6316311150155 -98.05241028876085 495.45430716561265 -1.1946520271966505 1.136185010772895 -1.1946520271966508 -44.992502562162414 75.30085744864833 78.20684540618973 0.013754677818972655 -0.2739984177000989 0.2743434418098265 
0.328 0.05235248688159227 -1.535894668873835 -1.553345497834366 0.0 1.5707963267948966 0.0 0.2743434418098265 0.1828956278732176 0.0914478139366088 0.0 0.0 0.0 0.0 0.0 0.0 0.0 0.0 0.0 287.2703732380745 -97.45106613798968 496.0794598145111 -1.193955848525899 1.133030179793751 -1.1939558485258992 -45.321767204542155 75.0349385926997 78.08125340381604 0.014356001560334095 -0.2739675697655861 0.2743434418098265 
0.336 0.054547234416070886 -1.5344315038508494 -1.5526139153228729 0.0 1.5707963267948966 0.0 0.2743434418098265 0.1828956278732176 0.0914478139366088 0.0 0.0 0.0 0.0 0.0 0.0 0.0 0.0 0.0 286.9064860397563 -96.8518551309462 496.7036062060149 -1.1932547523989454 1.1298787827821506 -1.1932547523989456 -45.64983184255436 74.76757236197277 77.9552811294448 0.014957256150059063 -0.27393540215263 0.2743434418098265 
0.344 0.0567419819505495 -1.5329683388278637 -1.55188233281138 0.0 1.5707963267948966 0.0 0.2743434418098265 0.1828956278732176 0.0914478139366088 0.0 0.0 0.0 0.0 0.0 0.0 0.0 0.0 0.0 286.5399791456013 -96.25478882630537 497.32674329967654 -1.192548748650076 1.1267308285135338 -1.1925487486500768 -45.97669010339295 74.4987638419651 77.82892901549901 0.015558438691955414 -0.2739019150161792 0.2743434418098265 
0.352 0.058936729485028094 -1.531505173804878 -1.5511507502998871 0.0 1.5707963267948966 0.0 0.2743434418098265 0.1828956278732176 0.0914478139366088 0.0 0.0 0.0 0.0 0.0 0.0 0.0 0.0 0.0 286.17086223204757 -95.65987874194583 497.9488680585153 -1.191837847110179 1.123586325719545 -1.191837847110179 -46.302335635379926 74.22851814624308 77.70219749624054 0.01615954629017806 -0.2738671085175384 0.2743434418098265 
0.36 0.061131477019506705 -1.5300420087818922 -1.5504191677883943 0.0 1.5707963267948966 0.0 0.2743434418098265 0.1828956278732176 0.0914478139366088 0.0 0.0 0.0 0.0 0.0 0.0 0.0 0.0 0.0 285.7991450262619 -95.06713635472573 498.5699774490317 -1.191122057606652 1.120445283088184 -1.1911220576066521 -46.62676210808908 73.9568404163546 77.57508700776853 0.016760576049242915 -0.2738309828243677 0.2743434418098265 
0.368 0.06332622455398532 -1.5285788437589063 -1.5496875852769014 0.0 1.5707963267948966 0.0 0.2743434418098265 0.1828956278732176 0.0914478139366088 0.0 0.0 0.0 0.0 0.0 0.0 0.0 0.0 0.0 285.4248373059688 -94.47657310025923 499.1900684412226 -1.190401389963323 1.117307709263953 -1.1904013899633235 -46.94996321246922 73.68373582174127 77.44759798801749 0.017361525074040835 -0.27379353811068124 0.2743434418098265 
0.376 0.06552097208846394 -1.5271156787359206 -1.5489560027654086 0.0 1.5707963267948966 0.0 0.2743434418098265 0.1828956278732176 0.0914478139366088 0.0 0.0 0.0 0.0 0.0 0.0 0.0 0.0 0.0 285.04794889927996 -93.8882003726936 499.80913800859577 -1.1896758540003636 1.1141736128480129 -1.1896758540003638 -47.27193266096701 73.40920955965002 77.31973087675591 0.017962390469851562 -0.2737547745568471 0.2743434418098265 
0.384 0.06771571962294255 -1.5256525137129349 -1.5482244202539157 0.0 1.5707963267948966 0.0 0.2743434418098265 0.1828956278732176 0.0914478139366088 0.0 0.0 0.0 0.0 0.0 0.0 0.0 0.0 0.0 284.66848968452024 -93.30202952448732 500.4271831281841 -1.1889454595342053 1.1110430023983289 -1.188945459534206 -47.59266418764954 73.13326685504398 77.19148611558407 0.018563169342357674 -0.27371469234958606 0.2743434418098265 
0.392 0.06991046715742116 -1.5241893486899492 -1.5474928377424229 0.0 1.5707963267948966 0.0 0.2743434418098265 0.1828956278732176 0.0914478139366088 0.0 0.0 0.0 0.0 0.0 0.0 0.0 0.0 0.0 284.2864695900555 -92.71807186618848 501.04420078056097 -1.1882102163774586 1.1079158864298215 -1.1882102163774586 -47.912151548326406 72.85591296051307 77.0628641479326 0.01916385879765852 -0.2736732916819707 0.2743434418098265 
0.4 0.07210521469189979 -1.5227261836669634 -1.54676125523093 0.0 1.5707963267948966 0.0 0.2743434418098265 0.1828956278732176 0.0914478139366088 0.0 0.0 0.0 0.0 0.0 0.0 0.0 0.0 0.0 283.9018985941178 -92.13633866621434 501.6601879498543 -1.1874701343388276 1.1047922734145195 -1.1874701343388279 -48.23038852067158 72.57715315618411 76.93386541906062 0.01976445594228418 -0.27363057275342445 0.2743434418098265 
0.408 0.07429996222637839 -1.5212630186439777 -1.5460296727194371 0.0 1.5707963267948966 0.0 0.2743434418098265 0.1828956278732176 0.0914478139366088 0.0 0.0 0.0 0.0 0.0 0.0 0.0 0.0 0.0 283.5147867246298 -91.55684115063123 502.27514162376144 -1.1867252232230312 1.101672171781706 -1.1867252232230314 -48.54736890434469 72.29699274963001 76.80449037605398 0.02036495788320936 -0.27358653576972075 0.2743434418098265 
0.416 0.07649470976085701 -1.519799853620992 -1.5452980902079443 0.0 1.5707963267948966 0.0 0.2743434418098265 0.1828956278732176 0.0914478139366088 0.0 0.0 0.0 0.0 0.0 0.0 0.0 0.0 0.0 283.12514405902874 -90.97959050293547 502.88905879356366 -1.1859754928307218 1.0985555899180708 -1.1859754928307218 -48.86308652111208 72.01543707577886 76.67473946782346 0.02096536172786739 -0.2735411809429821 0.2743434418098265 
0.424 0.07868945729533561 -1.5183366885980063 -1.5445665076964514 0.0 1.5707963267948966 0.0 0.2743434418098265 0.1828956278732176 0.0914478139366088 0.0 0.0 0.0 0.0 0.0 0.0 0.0 0.0 0.0 282.7329807240886 -90.40459786383481 503.50193645414106 -1.185220952958403 1.0954425361678581 -1.185220952958403 -49.177535214967605 71.73249149682216 76.54461314510299 0.021565664584164077 -0.2734945084916787 0.2743434418098265 
0.432 0.08088420482981422 -1.5168735235750204 -1.5438349251849586 0.0 1.5707963267948966 0.0 0.2743434418098265 0.1828956278732176 0.0914478139366088 0.0 0.0 0.0 0.0 0.0 0.0 0.0 0.0 0.0 282.33830689574205 -89.83187433103072 504.1137716039867 -1.1844616133983525 1.092333018833018 -1.1844616133983528 -49.490708852252695 71.44816140212268 76.41411186044776 0.022165863560491716 -0.27344651864062786 0.2743434418098265 
0.44 0.08307895236429283 -1.5154103585520347 -1.5431033426734657 0.0 1.5707963267948966 0.0 0.2743434418098265 0.1828956278732176 0.0914478139366088 0.0 0.0 0.0 0.0 0.0 0.0 0.0 0.0 0.0 281.94113279890183 -89.26143095900139 504.7245612452213 -1.1836974839385448 1.0892270461733566 -1.1836974839385448 -49.802601321776294 71.1624522081219 76.28323606823275 0.022765955765742977 -0.2733972116209926 0.2743434418098265 
0.448 0.08527369989877145 -1.513947193529049 -1.5423717601619729 0.0 1.5707963267948966 0.0 0.2743434418098265 0.1828956278732176 0.0914478139366088 0.0 0.0 0.0 0.0 0.0 0.0 0.0 0.0 0.0 281.5414687072793 -88.6932787587855 505.33430238360796 -1.182928574362568 1.0861246264066813 -1.1829285743625682 -50.11320653493442 70.87536935824656 76.1519862246504 0.023365938309324822 -0.27334658767028064 0.2743434418098265 
0.456 0.08746844743325007 -1.5124840285060632 -1.5416401776504798 0.0 1.5707963267948966 0.0 0.2743434418098265 0.1828956278732176 0.0914478139366088 0.0 0.0 0.0 0.0 0.0 0.0 0.0 0.0 0.0 281.13932494320426 -88.12742869776663 505.9429920285666 -1.1821548944495506 1.0830257677089539 -1.1821548944495508 -50.42251842582928 70.586918322815 76.02036278770923 0.02396580830117246 -0.2732946470323432 0.2743434418098265 
0.464 0.08966319496772868 -1.5110208634830775 -1.540908595138987 0.0 1.5707963267948966 0.0 0.2743434418098265 0.1828956278732176 0.0914478139366088 0.0 0.0 0.0 0.0 0.0 0.0 0.0 0.0 0.0 280.7347118774423 -87.56389169945867 506.5506271931884 -1.181376453974083 1.0799304782144377 -1.1813764539740836 -50.73053095138788 70.29710459894298 75.88836621723175 0.024565562851763235 -0.2732413899573739 0.2743434418098265 
0.472 0.09185794250220729 -1.5095576984600918 -1.540177012627494 0.0 1.5707963267948966 0.0 0.2743434418098265 0.1828956278732176 0.0914478139366088 0.0 0.0 0.0 0.0 0.0 0.0 0.0 0.0 0.0 280.327639929012 -87.00267864329157 507.1572048942504 -1.180593262706143 1.0768387660158474 -1.1805932627061435 -51.037238091480454 70.00593371044869 75.75599697485275 0.025165199072130575 -0.2731868167019076 0.2743434418098265 
0.48 0.0940526900366859 -1.508094533437106 -1.5394454301160012 0.0 1.5707963267948966 0.0 0.2743434418098265 0.1828956278732176 0.0914478139366088 0.0 0.0 0.0 0.0 0.0 0.0 0.0 0.0 0.0 279.9181195650008 -86.44380036439836 507.76272215223 -1.1798053304110172 1.0737506391644962 -1.1798053304110174 -51.3426338490384 69.71341120775759 75.62325552401738 0.025764714073877905 -0.2731309275288189 0.2743434418098265 
0.488 0.0962474375711645 -1.5066313684141204 -1.5387138476045084 0.0 1.5707963267948966 0.0 0.2743434418098265 0.1828956278732176 0.0914478139366088 0.0 0.0 0.0 0.0 0.0 0.0 0.0 0.0 0.0 279.50616130038 -85.8872676534025 508.3671759913193 -1.1790126668492291 1.0706661056704463 -1.1790126668492291 -51.64671225017173 69.41954266780644 75.49014232997932 0.026364104969192517 -0.2730737227073213 0.2743434418098265 
0.496 0.09844218510564312 -1.5051682033911344 -1.5379822650930155 0.0 1.5707963267948966 0.0 0.2743434418098265 0.1828956278732176 0.0914478139366088 0.0 0.0 0.0 0.0 0.0 0.0 0.0 0.0 0.0 279.0917756978187 -85.33309125620623 508.9705634394399 -1.1782152817764624 1.0675851735026545 -1.1782152817764626 -51.94946734428636 69.12433369394698 75.35665785979882 0.02696336887085955 -0.2730152025129655 0.2743434418098265 
0.504 0.10063693264012173 -1.5037050383681487 -1.5372506825815226 0.0 1.5707963267948966 0.0 0.2743434418098265 0.1828956278732176 0.0914478139366088 0.0 0.0 0.0 0.0 0.0 0.0 0.0 0.0 0.0 278.67497336749796 -84.78128187377963 509.5728815282566 -1.1774131849434917 1.0645078505891248 -1.1774131849434921 -52.250893204200686 68.82778991584917 75.2228025823411 0.02756250289227583 -0.2729553672276383 0.2743434418098265 
0.512 0.10283168017460034 -1.502241873345163 -1.5365191000700298 0.0 1.5707963267948966 0.0 0.2743434418098265 0.1828956278732176 0.0914478139366088 0.0 0.0 0.0 0.0 0.0 0.0 0.0 0.0 0.0 278.25576496692133 -84.23185016195056 510.1741272931928 -1.176606386096105 1.0614341448170521 -1.1766063860961051 -52.550983926262006 68.52991698940347 75.0885769682741 0.028161504147463823 -0.2728942171395612 0.2743434418098265 
0.52 0.10502642770907895 -1.5007787083221773 -1.535787517558537 0.0 1.5707963267948966 0.0 0.2743434418098265 0.1828956278732176 0.0914478139366088 0.0 0.0 0.0 0.0 0.0 0.0 0.0 0.0 0.0 277.8341612007275 -83.68480673119507 510.7742977734444 -1.1757948949750328 1.0583640640329712 -1.175794894975033 -52.849733630462474 68.2307205966233 74.95398149006674 0.02876036975108551 -0.27283175254328895 0.2743434418098265 
0.528 0.10722117524355758 -1.4993155432991916 -1.535055935047044 0.0 1.5707963267948966 0.0 0.2743434418098265 0.1828956278732176 0.0914478139366088 0.0 0.0 0.0 0.0 0.0 0.0 0.0 0.0 0.0 277.4101728205004 -83.14016214642899 511.37339001199405 -1.1749787213158787 1.0552976160429064 -1.1749787213158789 -53.14713646055457 67.93020644554636 74.8190166219872 0.02935909681845631 -0.2727679737397081 0.2743434418098265 
0.536 0.10941592277803619 -1.4978523782762059 -1.5343243525355512 0.0 1.5707963267948966 0.0 0.2743434418098265 0.1828956278732176 0.0914478139366088 0.0 0.0 0.0 0.0 0.0 0.0 0.0 0.0 0.0 276.98381062457804 -82.59792692680017 511.9714010556258 -1.174157874849046 1.052234808612518 -1.1741578748490462 -53.44318658416614 67.6283802701358 74.68368284010062 0.029957682465558938 -0.27270288103603585 0.2743434418098265 
0.544 0.1116106703125148 -1.4963892132532202 -1.5335927700240584 0.0 1.5707963267948966 0.0 0.2743434418098265 0.1828956278732176 0.0914478139366088 0.0 0.0 0.0 0.0 0.0 0.0 0.0 0.0 0.0 276.55508545786216 -82.05811154548122 512.5683279549396 -1.173332365299668 1.0491756494672477 -1.173332365299668 -53.737878192915396 67.32524783018081 74.54798062226763 0.030556123809057322 -0.27263647474581815 0.2743434418098265 
0.552 0.11380541784699341 -1.4949260482302342 -1.5328611875125655 0.0 1.5707963267948966 0.0 0.2743434418098265 0.1828956278732176 0.0914478139366088 0.0 0.0 0.0 0.0 0.0 0.0 0.0 0.0 0.0 276.1240082116245 -81.52072642946364 513.1641677643652 -1.172502202387538 1.0461201462924683 -1.1725022023875382 -54.031205502524706 67.02081491119645 74.411910448142 0.0311544179663105 -0.2725687551889284 0.2743434418098265 
0.56 0.11600016538147202 -1.4934628832072485 -1.5321296050010726 0.0 1.5707963267948966 0.0 0.2743434418098265 0.1828956278732176 0.0914478139366088 0.0 0.0 0.0 0.0 0.0 0.0 0.0 0.0 0.0 275.69058982331507 -80.98578195935207 513.7589175421768 -1.1716673958270423 1.0430683067336306 -1.1716673958270425 -54.32316275293496 66.71508732432366 74.27547279916905 0.031752562055386485 -0.27249972269156614 0.2743434418098265 
0.568 0.11819491291595065 -1.4919997181842628 -1.5313980224895798 0.0 1.5707963267948966 0.0 0.2743434418098265 0.1828956278732176 0.0914478139366088 0.0 0.0 0.0 0.0 0.0 0.0 0.0 0.0 0.0 275.2548412763663 -80.45328846915996 514.3525743505074 -1.1708279553270882 1.0400201383964076 -1.1708279553270884 -54.61374420841862 66.40807090622769 74.13866815858339 0.03235055319507617 -0.27242937758625474 0.2743434418098265 
0.576 0.12038966045042926 -1.490536553161277 -1.530666439978087 0.0 1.5707963267948966 0.0 0.2743434418098265 0.1828956278732176 0.0914478139366088 0.0 0.0 0.0 0.0 0.0 0.0 0.0 0.0 0.0 274.8167735999991 -79.92325624610568 514.9451352553631 -1.1699838905910398 1.0369756488468445 -1.16998389059104 -54.90294415769311 66.09977151899713 74.00149701140724 0.03294838850490716 -0.2723577202118407 0.2743434418098265 
0.584 0.12258440798490784 -1.4890733881382914 -1.529934857466594 0.0 1.5707963267948966 0.0 0.2743434418098265 0.1828956278732176 0.0914478139366088 0.0 0.0 0.0 0.0 0.0 0.0 0.0 0.0 0.0 274.37639786902656 -79.39569553040951 515.5365973266371 -1.1691352113166482 1.0339348456115027 -1.1691352113166482 -55.19075691403309 65.79019505004173 73.8639598444483 0.0335460651051577 -0.2722847509134915 0.2743434418098265 
0.592 0.12477915551938645 -1.4876102231153057 -1.529203274955101 0.0 1.5707963267948966 0.0 0.2743434418098265 0.1828956278732176 0.0914478139366088 0.0 0.0 0.0 0.0 0.0 0.0 0.0 0.0 0.0 273.93372520365676 -78.87061651509153 516.1269576381243 -1.1682819271959861 1.0308977361776077 -1.1682819271959863 -55.47717681538279 65.47934741198995 73.72605714629779 0.034143580116870555 -0.27221047004269405 0.2743434418098265 
0.6 0.12697390305386508 -1.48614705809232 -1.5284716924436081 0.0 1.5707963267948966 0.0 0.2743434418098265 0.1828956278732176 0.0914478139366088 0.0 0.0 0.0 0.0 0.0 0.0 0.0 0.0 0.0 273.48876676929535 -78.34802934577019 516.7162132675355 -1.1674240479153815 1.027864327993193 -1.1674240479153817 -55.7621982244678 65.16723454258609 73.58778940732863 0.03474093066186679 -0.27213487795725294 0.2743434418098265 
0.608 0.1291686505883437 -1.4846838930693342 -1.5277401099321153 0.0 1.5707963267948966 0.0 0.2743434418098265 0.1828956278732176 0.0914478139366088 0.0 0.0 0.0 0.0 0.0 0.0 0.0 0.0 0.0 273.04153377634657 -77.82794412046194 517.3043612965116 -1.1665615831553533 1.0248346284672483 -1.1665615831553533 -56.04581552890628 64.85386240458676 73.44915711969315 0.03533811386275972 -0.27205797502128887 0.2743434418098265 
0.616 0.1313633981228223 -1.4832207280463483 -1.5270085274206224 0.0 1.5707963267948966 0.0 0.2743434418098265 0.1828956278732176 0.0914478139366088 0.0 0.0 0.0 0.0 0.0 0.0 0.0 0.0 0.0 272.5920374800138 -77.31037088938147 517.8913988106378 -1.1656945425905434 1.0218086449698633 -1.1656945425905436 -56.3280231413199 64.53923698565697 73.31016077732141 0.035935126842968755 -0.2719797616052366 0.2743434418098265 
0.624 0.1335581456573009 -1.4817575630233626 -1.5262769449091296 0.0 1.5707963267948966 0.0 0.2743434418098265 0.1828956278732176 0.0914478139366088 0.0 0.0 0.0 0.0 0.0 0.0 0.0 0.0 0.0 272.14028918009905 -76.79531965474287 518.4773228994579 -1.1648229358896576 1.0187863848323753 -1.164822935889658 -56.60881549944431 64.22336429826568 73.17080087591893 0.036531966726733214 -0.2719002380858436 0.2743434418098265 
0.632 0.13575289319177952 -1.4802943980003769 -1.5255453623976367 0.0 1.5707963267948966 0.0 0.2743434418098265 0.1828956278732176 0.0914478139366088 0.0 0.0 0.0 0.0 0.0 0.0 0.0 0.0 0.0 271.68630022080185 -76.28280037056152 519.0621306564883 -1.1639467727153976 1.0157678553475114 -1.1639467727153978 -56.8881870662391 63.90625037958094 73.03107791296493 0.037128630639126255 -0.2718194048461679 0.2743434418098265 
0.64 0.13794764072625815 -1.4788312329773912 -1.5248137798861439 0.0 1.5707963267948966 0.0 0.2743434418098265 0.1828956278732176 0.0914478139366088 0.0 0.0 0.0 0.0 0.0 0.0 0.0 0.0 0.0 271.23008199051634 -75.77282294245714 519.6458191792323 -1.1630660627244 1.0127530637695357 -1.1630660627244003 -57.16613232999735 63.587901291364346 72.89099238771003 0.03772511570606861 -0.27173726227557626 0.2743434418098265 
0.648 0.14014238826073677 -1.4773680679544055 -1.524082197374651 0.0 1.5707963267948966 0.0 0.2743434418098265 0.1828956278732176 0.0914478139366088 0.0 0.0 0.0 0.0 0.0 0.0 0.0 0.0 0.0 270.771645921629 -75.26539722745729 520.2283855691948 -1.1621808155671742 1.0097420173143936 -1.1621808155671745 -57.44264580445503 63.26832311986526 72.75054480117444 0.038321419054342554 -0.2716538107697425 0.2743434418098265 
0.656 0.14233713579521537 -1.4759049029314197 -1.5233506148631581 0.0 1.5707963267948966 0.0 0.2743434418098265 0.1828956278732176 0.0914478139366088 0.0 0.0 0.0 0.0 0.0 0.0 0.0 0.0 0.0 270.3110034903141 -74.76053303380188 520.8098269318949 -1.1612910408880397 1.0067347231598573 -1.1612910408880397 -57.71772202889916 62.94752197571442 72.6097356561458 0.038917537811605625 -0.27156905073064536 0.2743434418098265 
0.664 0.14453188332969397 -1.474441737908434 -1.5226190323516653 0.0 1.5707963267948966 0.0 0.2743434418098265 0.1828956278732176 0.0914478139366088 0.0 0.0 0.0 0.0 0.0 0.0 0.0 0.0 0.0 269.8481662163291 -74.25824012074867 521.3901403768823 -1.1603967483250648 1.0037311884456668 -1.1603967483250648 -57.99135556827667 62.62550399381706 72.4685654571772 0.03951346910640459 -0.2714829825665668 0.2743434418098265 
0.672 0.1467266308641726 -1.4729785728854483 -1.5218874498401724 0.0 1.5707963267948966 0.0 0.2743434418098265 0.1828956278732176 0.0914478139366088 0.0 0.0 0.0 0.0 0.0 0.0 0.0 0.0 0.0 269.3831456628089 -73.75852819837941 521.9693230177493 -1.159497947510007 1.0007314202736788 -1.159497947510007 -58.26354101330171 62.30227533324552 72.32703471058501 0.04010921006818917 -0.27139560669208973 0.2743434418098265 
0.68 0.14892137839865122 -1.4715154078624624 -1.5211558673286796 0.0 1.5707963267948966 0.0 0.2743434418098265 0.1828956278732176 0.0914478139366088 0.0 0.0 0.0 0.0 0.0 0.0 0.0 0.0 0.0 268.91595343605917 -73.26140692740697 522.5473719721462 -1.1585946480682534 0.9977354257080072 -1.1585946480682536 -58.534272980563316 61.97784217713151 72.18514392444696 0.040704757827325876 -0.2713069235280964 0.2743434418098265 
0.688 0.15111612593312984 -1.4700522428394767 -1.5204242848171867 0.0 1.5707963267948966 0.0 0.2743434418098265 0.1828956278732176 0.0914478139366088 0.0 0.0 0.0 0.0 0.0 0.0 0.0 0.0 0.0 268.4466011853493 -72.7668859189833 523.1242843617944 -1.157686859618759 0.9947432117751682 -1.1576868596187593 -58.80354611263199 61.652210732557805 72.04289360860002 0.04130010951511191 -0.271216933501766 0.2743434418098265 
0.696 0.15331087346760844 -1.468589077816491 -1.5196927023056939 0.0 1.5707963267948966 0.0 0.2743434418098265 0.1828956278732176 0.0914478139366088 0.0 0.0 0.0 0.0 0.0 0.0 0.0 0.0 0.0 267.9751006027035 -72.27497473450825 523.7000573125018 -1.1567745917739907 0.9917547854642236 -1.1567745917739907 -59.07135507816653 61.325387230449415 71.90028427463817 0.041895262263788924 -0.27112563704657283 0.2743434418098265 
0.704 0.15550562100208704 -1.4671259127935052 -1.518961119794201 0.0 1.5707963267948966 0.0 0.2743434418098265 0.1828956278732176 0.0914478139366088 0.0 0.0 0.0 0.0 0.0 0.0 0.0 0.0 0.0 267.5014634226921 -71.78568288543924 524.2746879541758 -1.1558578541398665 0.9887701537269236 -1.1558578541398667 -59.337694572019785 60.997377925464384 71.75731643591055 0.0424902132065568 -0.2710330346022841 0.2743434418098265 
0.712 0.15770036853656563 -1.4656627477705195 -1.5182295372827082 0.0 1.5707963267948966 0.0 0.2743434418098265 0.1828956278732176 0.0914478139366088 0.0 0.0 0.0 0.0 0.0 0.0 0.0 0.0 0.0 267.0257014222217 -71.29901983310184 524.848173420837 -1.1549366563156989 0.9857893234778504 -1.154936656315699 -59.60255931534407 60.668189095884124 71.61399060751918 0.04308495947758754 -0.270939126614958 0.2743434418098265 
0.72 0.15989511607104423 -1.4641995827475338 -1.517497954771215 0.0 1.5707963267948966 0.0 0.2743434418098265 0.1828956278732176 0.0914478139366088 0.0 0.0 0.0 0.0 0.0 0.0 0.0 0.0 0.0 266.5478264203236 -70.81499498850131 525.4205108506351 -1.154011007894139 0.9828123015945609 -1.1540110078941392 -59.865944055696566 60.33782704350304 71.47030730631684 0.04367949821203904 -0.27084391353694115 0.2743434418098265 
0.728 0.16208986360552285 -1.462736417724548 -1.5167663722597222 0.0 1.5707963267948966 0.0 0.2743434418098265 0.1828956278732176 0.0914478139366088 0.0 0.0 0.0 0.0 0.0 0.0 0.0 0.0 0.0 266.0678502779433 -70.33361771213478 525.9916973858603 -1.153080918461117 0.9798390949177287 -1.1530809184611173 -60.12784356714363 60.0062980935182 71.32626705090516 0.04427382654606887 -0.270747395826867 0.2743434418098265 
0.736 0.16428461114000148 -1.4612732527015624 -1.5160347897482294 0.0 1.5707963267948966 0.0 0.2743434418098265 0.1828956278732176 0.0914478139366088 0.0 0.0 0.0 0.0 0.0 0.0 0.0 0.0 0.0 265.58578489772697 -69.85489731380471 526.5617301729591 -1.15214639759579 0.9768697102512877 -1.1521463975957904 -60.38825265036495 59.67360859441799 71.18187036163224 0.04486794161684807 -0.27064957394965306 0.2743434418098265 
0.744 0.1664793586744801 -1.4598100876785765 -1.5153032072367365 0.0 1.5707963267948966 0.0 0.2743434418098265 0.1828956278732176 0.0914478139366088 0.0 0.0 0.0 0.0 0.0 0.0 0.0 0.0 0.0 265.1016422238086 -69.3788430524327 527.1306063625481 -1.1512074548704827 0.9739041543625724 -1.1512074548704831 -60.64716613275752 59.33976491787055 71.03711776059063 0.045461840562574955 -0.2705504483764989 0.2743434418098265 
0.752 0.16867410620895873 -1.4583469226555907 -1.5145716247252436 0.0 1.5707963267948966 0.0 0.2743434418098265 0.1828956278732176 0.0914478139366088 0.0 0.0 0.0 0.0 0.0 0.0 0.0 0.0 0.0 264.6154342415962 -68.90546413587472 527.6983231094274 -1.1502640998506357 0.9709424339824625 -1.150264099850636 -60.904578868538614 59.00477345861195 70.8920097716153 0.04605552052248889 -0.2704500195848841 0.2743434418098265 
0.76 0.1708688537434373 -1.456883757632605 -1.5138400422137508 0.0 1.5707963267948966 0.0 0.2743434418098265 0.1828956278732176 0.0914478139366088 0.0 0.0 0.0 0.0 0.0 0.0 0.0 0.0 0.0 264.1271729775557 -68.434769720737 528.2648775725943 -1.1493163420947479 0.96798455580552 -1.1493163420947483 -61.160485738848344 58.66864063433335 70.74654692028122 0.046648978636884095 -0.27034828805856553 0.2743434418098265 
0.768 0.17306360127791592 -1.4554205926096193 -1.513108459702258 0.0 1.5707963267948966 0.0 0.2743434418098265 0.1828956278732176 0.0914478139366088 0.0 0.0 0.0 0.0 0.0 0.0 0.0 0.0 0.0 263.63687049899653 -67.9667689121927 528.8302669152581 -1.1483641911543272 0.965030526490136 -1.1483641911543274 -61.41488165185227 58.331372885568385 70.60072973390143 0.04724221204712341 -0.2702452542875753 0.2743434418098265 
0.776 0.17525834881239455 -1.4539574275866336 -1.512376877190765 0.0 1.5707963267948966 0.0 0.2743434418098265 0.1828956278732176 0.0914478139366088 0.0 0.0 0.0 0.0 0.0 0.0 0.0 0.0 0.0 263.1445389138539 -67.50147076379983 529.3944883048538 -1.1474076565738327 0.9620803526586673 -1.147407656573833 -61.66776154284311 57.992976675579506 70.45455874152478 0.04783521789565201 -0.2701409187682182 0.2743434418098265 
0.784 0.17745309634687317 -1.4524942625636479 -1.5116452946792722 0.0 1.5707963267948966 0.0 0.2743434418098265 0.1828956278732176 0.0914478139366088 0.0 0.0 0.0 0.0 0.0 0.0 0.0 0.0 0.0 262.6501903704721 -67.0388842773197 529.9575389130551 -1.146446747890625 0.9591340408975801 -1.146446747890625 -61.91912037434189 57.65345849024435 70.30803447393373 0.04842799332601126 -0.27003528200306975 0.2743434418098265 
0.792 0.1796478438813518 -1.4510310975406622 -1.5109137121677794 0.0 1.5707963267948966 0.0 0.2743434418098265 0.1828956278732176 0.0914478139366088 0.0 0.0 0.0 0.0 0.0 0.0 0.0 0.0 0.0 262.15383705738594 -66.57901840253648 530.5194159157893 -1.1454814746349133 0.9561915977575898 -1.1454814746349133 -62.16895313619883 57.31282483794125 70.16115746364225 0.049020535482852415 -0.2699283445009731 0.2743434418098265 
0.8 0.18184259141583037 -1.4495679325176765 -1.5101821296562865 0.0 1.5707963267948966 0.0 0.2743434418098265 0.1828956278732176 0.0914478139366088 0.0 0.0 0.0 0.0 0.0 0.0 0.0 0.0 0.0 261.6554912031017 -66.1218820370778 531.0801164932507 -1.1445118463297024 0.9532530297538001 -1.1445118463297024 -62.41725484569389 56.971082249434545 70.01392824489355 0.049612841511950355 -0.26982010677703705 0.2743434418098265 
0.808 0.184037338950309 -1.4481047674946905 -1.5094505471447937 0.0 1.5707963267948966 0.0 0.2743434418098265 0.1828956278732176 0.0914478139366088 0.0 0.0 0.0 0.0 0.0 0.0 0.0 0.0 0.0 261.1551650758774 -65.66748402623597 531.6396378299141 -1.1435378724907441 0.9503183433658452 -1.1435378724907441 -62.66402054763636 56.6282372777594 69.86634735365789 0.050204908560217434 -0.26971056935263366 0.2743434418098265 
0.816 0.18623208648478762 -1.4466416024717048 -1.5087189646333008 0.0 1.5707963267948966 0.0 0.2743434418098265 0.1828956278732176 0.0914478139366088 0.0 0.0 0.0 0.0 0.0 0.0 0.0 0.0 0.0 260.6528709835022 -65.21583316279023 532.1979771145496 -1.1425595626264853 0.9473875450380287 -1.1425595626264853 -62.90924531446447 56.28429649810617 69.7184153276304 0.05079673377571711 -0.26959973275539517 0.2743434418098265 
0.824 0.18842683401926624 -1.445178437448719 -1.507987382121808 0.0 1.5707963267948966 0.0 0.2743434418098265 0.1828956278732176 0.0914478139366088 0.0 0.0 0.0 0.0 0.0 0.0 0.0 0.0 0.0 260.1486212730749 -64.7669381868302 532.7551315402352 -1.1415769262380173 0.9444606411794625 -1.1415769262380173 -63.1529242463441 55.939266507704204 69.5701327062288 0.051388314307677735 -0.2694875975192122 0.2743434418098265 
0.832 0.19062158155374487 -1.4437152724257334 -1.507255799610315 0.0 1.5707963267948966 0.0 0.2743434418098265 0.1828956278732176 0.0914478139366088 0.0 0.0 0.0 0.0 0.0 0.0 0.0 0.0 0.0 259.6424283307818 -64.32080778557982 533.3110983043712 -1.1405899728190285 0.9415376381642075 -1.1405899728190285 -63.39505247126735 55.59315392570551 69.42150003059132 0.051979647306506296 -0.26937416418423055 0.2743434418098265 
0.84 0.19281632908822344 -1.4422521074027477 -1.5065242170988222 0.0 1.5707963267948966 0.0 0.2743434418098265 0.1828956278732176 0.0914478139366088 0.0 0.0 0.0 0.0 0.0 0.0 0.0 0.0 0.0 259.13430458167335 -63.87745059322255 533.8658746086941 -1.139598711855754 0.9386185423314124 -1.139598711855754 -63.635625145150385 55.24596539306753 69.27251784357424 0.052570729923802094 -0.2692594332968489 0.2743434418098265 
0.848 0.19501107662270206 -1.440788942379762 -1.5057926345873291 0.0 1.5707963267948966 0.0 0.2743434418098265 0.1828956278732176 0.0914478139366088 0.0 0.0 0.0 0.0 0.0 0.0 0.0 0.0 0.0 258.62426248944075 -63.4368751907273 534.4194576592902 -1.1386031528269256 0.9357033599854506 -1.1386031528269258 -63.874637451930965 54.89770757243589 69.12318668974974 0.053161559312370536 -0.2691434054097163 0.2743434418098265 
0.856 0.19720582415718063 -1.4393257773567762 -1.5050610520758363 0.0 1.5707963267948966 0.0 0.2743434418098265 0.1828956278732176 0.0914478139366088 0.0 0.0 0.0 0.0 0.0 0.0 0.0 0.0 0.0 258.11231455619173 -62.99909010567558 534.9718446666086 -1.1376033052037289 0.9327920973960624 -1.1376033052037289 -64.11208460366504 54.54838714802669 68.97350711540386 0.05375213262623678 -0.26902608108172904 0.2743434418098265 
0.864 0.19940057169165926 -1.4378626123337905 -1.5043294695643434 0.0 1.5707963267948966 0.0 0.2743434418098265 0.1828956278732176 0.0914478139366088 0.0 0.0 0.0 0.0 0.0 0.0 0.0 0.0 0.0 257.5984733222241 -62.56410381208908 535.5230328454763 -1.1365991784497496 0.9298847607984897 -1.1365991784497498 -64.34796184062374 54.19801082550792 68.82347966853384 0.054342447020659504 -0.26890746087802847 0.2743434418098265 
0.872 0.20159531922613788 -1.4363994473108046 -1.5035978870528506 0.0 1.5707963267948966 0.0 0.2743434418098265 0.1828956278732176 0.0914478139366088 0.0 0.0 0.0 0.0 0.0 0.0 0.0 0.0 0.0 257.08275136580073 -62.13192473025896 536.0730194151108 -1.135590782020932 0.9269813563936162 -1.1355907820209323 -64.58226443138881 53.84658533188099 68.67310489884616 0.054932499652144556 -0.268787545369998 0.2743434418098265 
0.88 0.2037900667606165 -1.4349362822878189 -1.5028663045413577 0.0 1.5707963267948966 0.0 0.2743434418098265 0.1828956278732176 0.0914478139366088 0.0 0.0 0.0 0.0 0.0 0.0 0.0 0.0 0.0 256.5651613029222 -61.70256122657525 536.621801599134 -1.1345781253655303 0.924081890348105 -1.1345781253655305 -64.81498767294833 53.49411741536155 68.52238335775417 0.05552228767845867 -0.2686663351352604 0.2743434418098265 
0.888 0.20598481429509513 -1.4334731172648332 -1.5021347220298649 0.0 1.5707963267948966 0.0 0.2743434418098265 0.1828956278732176 0.0914478139366088 0.0 0.0 0.0 0.0 0.0 0.0 0.0 0.0 0.0 256.04571578709937 -61.276021613357905 537.169376625586 -1.1335612179240613 0.9211863687945343 -1.1335612179240615 -65.04612689079156 53.1406138452599 68.37131559837579 0.05611180825864316 -0.26854383075767513 0.2743434418098265 
0.896 0.2081795618295737 -1.4320099522418475 -1.501403139518372 0.0 1.5707963267948966 0.0 0.2743434418098265 0.1828956278732176 0.0914478139366088 0.0 0.0 0.0 0.0 0.0 0.0 0.0 0.0 0.0 255.52442750912448 -60.85231414868839 537.7157417269386 -1.1325400691292622 0.9182947978315368 -1.1325400691292624 -65.27567743900335 52.786081411861005 68.21990217553116 0.05670105855302763 -0.26842003282733523 0.2743434418098265 
0.904 0.21037430936405233 -1.4305467872188617 -1.5006715570068792 0.0 1.5707963267948966 0.0 0.2743434418098265 0.1828956278732176 0.0914478139366088 0.0 0.0 0.0 0.0 0.0 0.0 0.0 0.0 0.0 255.00130919684284 -60.431447036242396 538.2608941401091 -1.1315146884060447 0.915407183523936 -1.131514688406045 -65.50363470035816 52.43052692630418 68.06814364574052 0.05729003572324362 -0.26829494194056486 0.2743434418098265 
0.912 0.21256905689853095 -1.429083622195876 -1.4999399744953863 0.0 1.5707963267948966 0.0 0.2743434418098265 0.1828956278732176 0.0914478139366088 0.0 0.0 0.0 0.0 0.0 0.0 0.0 0.0 0.0 254.47637361492218 -60.013428425123465 538.8048311064737 -1.1304850851714496 0.9125235319028825 -1.1304850851714496 -65.72999408641336 52.07395722046218 67.91604056722164 0.05787873693223826 -0.2681685586999161 0.2743434418098265 
0.92 0.21476380443300958 -1.4276204571728903 -1.4992083919838934 0.0 1.5707963267948966 0.0 0.2743434418098265 0.1828956278732176 0.0914478139366088 0.0 0.0 0.0 0.0 0.0 0.0 0.0 0.0 0.0 253.9496335646225 -59.59826640969761 539.3475498718809 -1.1294512688346032 0.90964384896599 -1.1294512688346032 -65.95475103760225 51.71637914681998 67.76359349988775 0.058467159344288006 -0.26804088371416634 0.2743434418098265 
0.928 0.2169585519674882 -1.4261572921499046 -1.4984768094724006 0.0 1.5707963267948966 0.0 0.2743434418098265 0.1828956278732176 0.0914478139366088 0.0 0.0 0.0 0.0 0.0 0.0 0.0 0.0 0.0 253.4211018835644 -59.18596902942899 539.8890476866658 -1.128413248796676 0.9067681406774724 -1.1284132487966758 -66.17790102332641 51.357799578353095 67.61080300534502 0.059055300125012186 -0.267911917598315 0.2743434418098265 
0.936 0.21915329950196677 -1.4246941271269187 -1.4977452269609077 0.0 1.5707963267948966 0.0 0.2743434418098265 0.1828956278732176 0.0914478139366088 0.0 0.0 0.0 0.0 0.0 0.0 0.0 0.0 0.0 252.8907914454971 -58.77654426871641 540.4293218056625 -1.127371034450837 0.903896412968279 -1.1273710344508372 -66.39943954204759 50.99822540840566 67.45766964689037 0.05964315644138679 -0.26778166097358097 0.2743434418098265 
0.944 0.2213480470364454 -1.423230962103933 -1.4970136444494149 0.0 1.5707963267948966 0.0 0.2743434418098265 0.1828956278732176 0.0914478139366088 0.0 0.0 0.0 0.0 0.0 0.0 0.0 0.0 0.0 252.35871516006586 -58.37000005673069 540.9683694882189 -1.1263246351822143 0.9010286717362312 -1.1263246351822143 -66.61936212137904 50.63766355056779 67.30419398950906 0.06023072546175803 -0.2676501144673993 0.2743434418098265 
0.952 0.22354279457092402 -1.4217677970809472 -1.496282061937922 0.0 1.5707963267948966 0.0 0.2743434418098265 0.1828956278732176 0.0914478139366088 0.0 0.0 0.0 0.0 0.0 0.0 0.0 0.0 0.0 251.82488597257776 -57.96634426725355 541.5061879982086 -1.1252740603678504 0.8981649228461556 -1.1252740603678506 -66.83766431817638 50.27612093855275 67.15037659987235 0.06081800435585598 -0.2675172787134182 0.2743434418098265 
0.96 0.2257375421054026 -1.4203046320579615 -1.4955504794264292 0.0 1.5707963267948966 0.0 0.2743434418098265 0.1828956278732176 0.0914478139366088 0.0 0.0 0.0 0.0 0.0 0.0 0.0 0.0 0.0 251.2893168637679 -57.565584718516845 542.042774604046 -1.124219319376663 0.8953051721300205 -1.124219319376663 -67.05434171862797 49.91360452607371 66.99621804633503 0.06140499029480824 -0.2673831543514963 0.2743434418098265 
0.968 0.2279322896398812 -1.4188414670349758 -1.494818896914936 0.0 1.5707963267948966 0.0 0.2743434418098265 0.1828956278732176 0.0914478139366088 0.0 0.0 0.0 0.0 0.0 0.0 0.0 0.0 0.0 250.7520208495643 -57.16772917304313 542.5781265786995 -1.1231604215694029 0.8924494253870704 -1.1231604215694029 -67.26938993834491 49.55012128671993 66.84171889893331 0.06199168045115356 -0.2672477420276992 0.2743434418098265 
0.976 0.23012703717435984 -1.41737830201199 -1.4940873144034432 0.0 1.5707963267948966 0.0 0.2743434418098265 0.1828956278732176 0.0914478139366088 0.0 0.0 0.0 0.0 0.0 0.0 0.0 0.0 0.0 250.213010980852 -56.77278533748714 543.1122411997032 -1.122097376298615 0.8895976883839611 -1.122097376298615 -67.48280462244973 49.18567821383278 66.68687972938216 0.06257807199885543 -0.26711104239429645 0.2743434418098265 
0.984 0.23232178470883846 -1.4159151369890044 -1.4933557318919504 0.0 1.5707963267948966 0.0 0.2743434418098265 0.1828956278732176 0.0914478139366088 0.0 0.0 0.0 0.0 0.0 0.0 0.0 0.0 0.0 249.67230034323677 -56.380760862478375 543.6451157491728 -1.1210301929085966 0.886749966854892 -1.1210301929085968 -67.69458144566593 48.820282320381224 66.53170111107313 0.06316416211331574 -0.26697305610975874 0.2743434418098265 
0.992 0.2345165322433171 -1.4144519719660187 -1.4926241493804575 0.0 1.5707963267948966 0.0 0.2743434418098265 0.1828956278732176 0.0914478139366088 0.0 0.0 0.0 0.0 0.0 0.0 0.0 0.0 0.0 249.12990205680796 -55.99166334246435 544.1767475138171 -1.1199588807353587 0.8839062665017416 -1.1199588807353589 -67.90471611240561 48.4539406388369 66.37618361907185 0.0637499479713883 -0.266833783838754 0.2743434418098265 
1.0 0.23671127977779566 -1.4129888069430327 -1.4918925668689647 0.0 1.5707963267948966 0.0 0.2743434418098265 0.1828956278732176 0.0914478139366088 0.0 0.0 0.0 0.0 0.0 0.0 0.0 0.0 0.0 248.58582927590032 -55.60550031555536 544.7071337849526 -1.118883449106588 0.8810665929942 -1.1188834491065882 -68.1132043568576 48.08666022104876 66.22032783011562 0.06433542675139256 -0.266693226252145 0.2743434418098265 
1.008 0.23890602731227428 -1.411525641920047 -1.4911609843574718 0.0 1.5707963267948966 0.0 0.2743434418098265 0.1828956278732176 0.0914478139366088 0.0 0.0 0.0 0.0 0.0 0.0 0.0 0.0 0.0 248.04009518885613 -55.222279263369664 545.236271858516 -1.1178039073416073 0.8782309519699029 -1.1178039073416075 -68.32004194307432 47.71844813811758 66.06413432261115 0.06492059563312713 -0.26655138402698564 0.2743434418098265 
1.016 0.2411007748467529 -1.4100624768970613 -1.490429401845979 0.0 1.5707963267948966 0.0 0.2743434418098265 0.1828956278732176 0.0914478139366088 0.0 0.0 0.0 0.0 0.0 0.0 0.0 0.0 0.0 247.4927130177851 -54.84200761088027 545.7641590350783 -1.116720264751338 0.8753993490345648 -1.1167202647513381 -68.52522466505863 47.34931148026968 65.90760367663191 0.06550545179788336 -0.26640825784651795 0.2743434418098265 
1.024 0.24329552238123153 -1.4085993118740756 -1.489697819334486 0.0 1.5707963267948966 0.0 0.2743434418098265 0.1828956278732176 0.0914478139366088 0.0 0.0 0.0 0.0 0.0 0.0 0.0 0.0 0.0 246.9436960183251 -54.46469272626219 546.2907926198574 -1.1156325306382613 0.87257178976211 -1.1156325306382615 -68.72874834685001 46.97925735673056 65.75073647391596 0.0660899924284589 -0.26626384840016837 0.2743434418098265 
1.032 0.24549026991571016 -1.40713614685109 -1.4889662368229932 0.0 1.5707963267948966 0.0 0.2743434418098265 0.1828956278732176 0.0914478139366088 0.0 0.0 0.0 0.0 0.0 0.0 0.0 0.0 0.0 246.393057479401 -54.09034192074114 546.8161699227319 -1.114540714296384 0.8697482796948077 -1.1145407142963841 -68.93060884260984 46.60829289559803 65.5935332978632 0.06667421470917134 -0.266118156383545 0.2743434418098265 
1.04 0.24768501745018873 -1.4056729818281042 -1.4882346543115004 0.0 1.5707963267948966 0.0 0.2743434418098265 0.1828956278732176 0.0914478139366088 0.0 0.0 0.0 0.0 0.0 0.0 0.0 0.0 0.0 245.84081072298386 -53.71896244844295 547.3402882582542 -1.1134448250111981 0.8669288243434009 -1.1134448250111983 -69.13080203670681 46.23642524371501 65.43599473353332 0.06725811582587173 -0.2659711824984339 0.2743434418098265 
1.048 0.24987976498466735 -1.4042098168051185 -1.4875030718000075 0.0 1.5707963267948966 0.0 0.2743434418098265 0.1828956278732176 0.0914478139366088 0.0 0.0 0.0 0.0 0.0 0.0 0.0 0.0 0.0 245.28696910384838 -53.35056150624412 547.863144945664 -1.1123448720596485 0.8641134291872405 -1.1123448720596485 -69.3293238438012 45.863661566541815 65.27812136764292 0.06784169296595816 -0.2658229274527957 0.2743434418098265 
1.056 0.252074512519146 -1.4027466517821328 -1.4867714892885147 0.0 1.5707963267948966 0.0 0.2743434418098265 0.1828956278732176 0.0914478139366088 0.0 0.0 0.0 0.0 0.0 0.0 0.0 0.0 0.0 244.731546009331 -52.98514623362348 548.3847373089012 -1.111240864710093 0.8613020996744162 -1.1112408647100933 -69.52617020892897 45.49000904802837 65.11991378856354 0.0684249433183892 -0.2656733919607623 0.2743434418098265 
1.064 0.2542692600536246 -1.401283486759147 -1.4860399067770218 0.0 1.5707963267948966 0.0 0.2743434418098265 0.1828956278732176 0.0914478139366088 0.0 0.0 0.0 0.0 0.0 0.0 0.0 0.0 0.0 244.1745548590856 -52.6227237125147 548.9050626766192 -1.1101328122222724 0.8584948412218879 -1.1101328122222724 -69.72133710758506 45.11547489048556 64.9613725863187 0.06900786407369768 -0.2655225767426334 0.2743434418098265 
1.072 0.2564640075881032 -1.399820321736161 -1.485308324265529 0.0 1.5707963267948966 0.0 0.2743434418098265 0.1828956278732176 0.0914478139366088 0.0 0.0 0.0 0.0 0.0 0.0 0.0 0.0 0.0 243.6160091048401 -52.26330096715995 549.4241183821982 -1.1090207238472698 0.8556916592156152 -1.1090207238472698 -69.91482054580638 44.74006631445664 64.80249835258172 0.06959045242400391 -0.26537048252487316 0.2743434418098265 
1.08 0.2586587551225818 -1.3983571567131754 -1.484576741754036 0.0 1.5707963267948966 0.0 0.2743434418098265 0.1828956278732176 0.0914478139366088 0.0 0.0 0.0 0.0 0.0 0.0 0.0 0.0 0.0 243.05592223015196 -51.9068849639646 549.9419017637586 -1.107904608827481 0.8528925590106905 -1.1079046088274813 -70.10661656025414 44.36379055858824 64.64329168067326 0.07017270556302946 -0.2652171100401065 0.2743434418098265 
1.088 0.2608535026570604 -1.3968939916901897 -1.4838451592425432 0.0 1.5707963267948966 0.0 0.2743434418098265 0.1828956278732176 0.0914478139366088 0.0 0.0 0.0 0.0 0.0 0.0 0.0 0.0 0.0 242.49430775016253 -51.5534826113527 550.4584101641736 -1.106784476396578 0.8500975459314665 -1.106784476396578 -70.29672121829569 43.98665487950058 64.4837531655587 0.07075462068611058 -0.2650624600271155 0.2743434418098265 
1.096 0.26304825019153905 -1.395430826667204 -1.4831135767310504 0.0 1.5707963267948966 0.0 0.2743434418098265 0.1828956278732176 0.0914478139366088 0.0 0.0 0.0 0.0 0.0 0.0 0.0 0.0 0.0 241.93117921135075 -51.20310075962412 550.973640931083 -1.1056603357794756 0.847306625271688 -1.1056603357794756 -70.48513061808556 43.60866655165779 64.3238834038456 0.07133619499021168 -0.2649065332308361 0.2743434418098265 
1.104 0.26524299772601767 -1.3939676616442183 -1.4823819942195573 0.0 1.5707963267948966 0.0 0.2743434418098265 0.1828956278732176 0.0914478139366088 0.0 0.0 0.0 0.0 0.0 0.0 0.0 0.0 0.0 241.3665501912872 -50.85574620081195 551.4875914169062 -1.1045321961923 0.8445198022946213 -1.1045321961923005 -70.67184088864653 43.22983286723765 64.1636829937814 0.07191742567393891 -0.2647493304023545 0.2743434418098265 
1.112 0.2674377452604963 -1.3925044966212325 -1.4816504117080644 0.0 1.5707963267948966 0.0 0.2743434418098265 0.1828956278732176 0.0914478139366088 0.0 0.0 0.0 0.0 0.0 0.0 0.0 0.0 0.0 240.8004342983865 -50.51142566854139 552.0002589788542 -1.1034000668423556 0.8417370822331831 -1.1034000668423556 -70.85684818994923 42.85016113600112 64.0031525352507 0.07249830993755353 -0.2645908522989032 0.2743434418098265 
1.12 0.26963249279497487 -1.3910413315982466 -1.4809188291965716 0.0 1.5707963267948966 0.0 0.2743434418098265 0.1828956278732176 0.0914478139366088 0.0 0.0 0.0 0.0 0.0 0.0 0.0 0.0 0.0 240.23284517165942 -50.17014583788978 552.5116409789448 -1.10226395692809 0.8389584702900698 -1.1022639569280905 -71.0401487129924 42.469658685161136 63.8422926297729 0.07307884498298559 -0.2644310996838578 0.2743434418098265 
1.128 0.2718272403294535 -1.389578166575261 -1.4801872466850787 0.0 1.5707963267948966 0.0 0.2743434418098265 0.1828956278732176 0.0914478139366088 0.0 0.0 0.0 0.0 0.0 0.0 0.0 0.0 0.0 239.66379648046444 -49.831913325247214 553.0217347840137 -1.101123875639068 0.8361839716378863 -1.1011238756390682 -71.22173867988133 42.088332859251565 63.68110388049952 0.07365902801384719 -0.2642700733267331 0.2743434418098265 
1.136 0.2740219878639321 -1.3881150015522752 -1.4794556641735859 0.0 1.5707963267948966 0.0 0.2743434418098265 0.1828956278732176 0.0914478139366088 0.0 0.0 0.0 0.0 0.0 0.0 0.0 0.0 0.0 239.0933019242584 -49.49673468817886 553.5305377657286 -1.0999798321559342 0.8334135914192743 -1.0999798321559344 -71.40161434390669 41.70619101999537 63.51958689221179 0.07423885623544613 -0.2641077740031792 0.2743434418098265 
1.144 0.27621673539841074 -1.3866518365292895 -1.478724081662093 0.0 1.5707963267948966 0.0 0.2743434418098265 0.1828956278732176 0.0914478139366088 0.0 0.0 0.0 0.0 0.0 0.0 0.0 0.0 0.0 238.52137523234686 -49.16461642528763 554.038047300602 -1.0988318356503861 0.8306473347470406 -1.0988318356503861 -71.57977198962232 41.32324054617265 63.35774227131803 0.07481832685479922 -0.2639442024949781 0.2743434418098265 
1.152 0.27841148293288936 -1.3851886715063038 -1.4779924991506002 0.0 1.5707963267948966 0.0 0.2743434418098265 0.1828956278732176 0.0914478139366088 0.0 0.0 0.0 0.0 0.0 0.0 0.0 0.0 0.0 237.94803016363372 -48.83556497607852 554.544260770004 -1.0976798952851423 0.8278852067042853 -1.0976798952851423 -71.75620793292268 40.93948883348833 63.19557062585117 0.0753974370806459 -0.26377935959004 0.2743434418098265 
1.16 0.2806062304673679 -1.383725506483318 -1.4772609166391073 0.0 1.5707963267948966 0.0 0.2743434418098265 0.1828956278732176 0.0914478139366088 0.0 0.0 0.0 0.0 0.0 0.0 0.0 0.0 0.0 237.3732805063699 -48.509586720823606 555.0491755601756 -1.0965240202139126 0.825127212344528 -1.0965240202139126 -71.9309185211195 40.55494329443929 63.03307256546601 0.07597618412346152 -0.263613246082399 0.2743434418098265 
1.168 0.2828009780018465 -1.3822623414603323 -1.4765293341276144 0.0 1.5707963267948966 0.0 0.2743434418098265 0.1828956278732176 0.0914478139366088 0.0 0.0 0.0 0.0 0.0 0.0 0.0 0.0 0.0 236.79714007790204 -48.186687980428204 555.5527890622415 -1.0953642195813682 0.8223733566918363 -1.0953642195813684 -72.10390013301821 40.16961135818145 62.87024870143689 0.0765545651954709 -0.26344586277220977 0.2743434418098265 
1.176 0.28499572553632513 -1.3807991764373466 -1.4757977516161216 0.0 1.5707963267948966 0.0 0.2743434418098265 0.1828956278732176 0.0914478139366088 0.0 0.0 0.0 0.0 0.0 0.0 0.0 0.0 0.0 236.21962272442025 -47.86687501629822 556.0550986722232 -1.094200502523113 0.8196236447409525 -1.094200502523113 -72.27514917899353 39.78350047039632 62.70709964665501 0.07713257751066167 -0.2632772104657434 0.2743434418098265 
1.184 0.28719047307080375 -1.379336011414361 -1.4750661691046287 0.0 1.5707963267948966 0.0 0.2743434418098265 0.1828956278732176 0.0914478139366088 0.0 0.0 0.0 0.0 0.0 0.0 0.0 0.0 0.0 235.64074232070482 -47.5501540302085 556.5561017910513 -1.0930328781656544 0.8168780814574197 -1.0930328781656544 -72.44466210106448 39.39661809315721 62.54362601562575 0.07771021828479778 -0.2631072899753838 0.2743434418098265 
1.192 0.2893852206052824 -1.3778728463913752 -1.4743345865931359 0.0 1.5707963267948966 0.0 0.2743434418098265 0.1828956278732176 0.0914478139366088 0.0 0.0 0.0 0.0 0.0 0.0 0.0 0.0 0.0 235.06051276987313 -47.23653116417213 557.0557958245793 -1.0918613556263743 0.8141366717777077 -1.091861355626374 -72.61243537296897 39.00897170479513 62.37982842446617 0.07828748473543282 -0.26293610211962326 0.2743434418098265 
1.2 0.291579968139761 -1.3764096813683893 -1.473603004081643 0.0 1.5707963267948966 0.0 0.2743434418098265 0.1828956278732176 0.0914478139366088 0.0 0.0 0.0 0.0 0.0 0.0 0.0 0.0 0.0 234.47894800312574 -46.92601250031102 557.5541781835962 -1.090685944013503 0.8113994206093409 -1.0906859440135033 -72.77846550023807 38.620568799764456 62.21570749090248 0.07886437408192347 -0.2627636477230593 0.2743434418098265 
1.208 0.2937747156742396 -1.3749465163454035 -1.4728714215701502 0.0 1.5707963267948966 0.0 0.2743434418098265 0.1828956278732176 0.0914478139366088 0.0 0.0 0.0 0.0 0.0 0.0 0.0 0.0 0.0 233.89606197949144 -46.618604060727264 558.0512462838387 -1.08950665242609 0.8086663328310211 -1.08950665242609 -72.94274902026886 38.23141688850812 62.051263834267324 0.07944088354544288 -0.26258992761639005 0.2743434418098265 
1.216 0.2959694632087182 -1.3734833513224178 -1.4721398390586573 0.0 1.5707963267948966 0.0 0.2743434418098265 0.1828956278732176 0.0914478139366088 0.0 0.0 0.0 0.0 0.0 0.0 0.0 0.0 0.0 233.31186868557205 -46.31431180737607 558.5469975460053 -1.0883234899539778 0.8059374132927557 -1.0883234899539778 -73.10528250239776 37.84152349732241 61.88649807549713 0.0800170103489941 -0.2624149426364104 0.2743434418098265 
1.224 0.2981642107431968 -1.3720201862994321 -1.4714082565471642 0.0 1.5707963267948966 0.0 0.2743434418098265 0.1828956278732176 0.0914478139366088 0.0 0.0 0.0 0.0 0.0 0.0 0.0 0.0 0.0 232.7263821352867 -46.013141641939264 559.0414293957676 -1.0871364656777736 0.8032126668159798 -1.087136465677774 -73.26606254797244 37.45089616822172 61.721410837129596 0.08059275171742339 -0.2622386936260081 0.2743434418098265 
1.232 0.30035895827767545 -1.3705570212764464 -1.4706766740356714 0.0 1.5707963267948966 0.0 0.2743434418098265 0.1828956278732176 0.0914478139366088 0.0 0.0 0.0 0.0 0.0 0.0 0.0 0.0 0.0 232.13961636961568 -45.715099405700066 559.5345392637847 -1.085945588668826 0.8004920981936835 -1.085945588668826 -73.4250857904238 37.05954245880268 61.55600274330101 0.08116810487743364 -0.2620611814341596 0.2743434418098265 
1.24 0.3025537058121541 -1.3690938562534607 -1.4699450915241785 0.0 1.5707963267948966 0.0 0.2743434418098265 0.1828956278732176 0.0914478139366088 0.0 0.0 0.0 0.0 0.0 0.0 0.0 0.0 0.0 231.55158545634293 -45.42019087941918 560.0263245857144 -1.084750867989195 0.7977757121905346 -1.084750867989195 -73.58234889533675 36.66746994210811 61.39027441974359 0.0817430670575977 -0.26188240691592607 0.2743434418098265 
1.248 0.30474845334663264 -1.367630691230475 -1.4692135090126857 0.0 1.5707963267948966 0.0 0.2743434418098265 0.1828956278732176 0.0914478139366088 0.0 0.0 0.0 0.0 0.0 0.0 0.0 0.0 0.0 230.96230348979915 -45.12842178321149 560.5167828022273 -1.08355231269163 0.7950635135430034 -1.0835523126916302 -73.73784856052104 36.27468620649066 61.22422649378288 0.08231763548837169 -0.2617023709324491 0.2743434418098265 
1.256 0.30694320088111127 -1.366167526207489 -1.4684819265011928 0.0 1.5707963267948966 0.0 0.2743434418098265 0.1828956278732176 0.0914478139366088 0.0 0.0 0.0 0.0 0.0 0.0 0.0 0.0 0.0 230.37178459060306 -44.8397977764244 561.0059113590188 -1.082349931819543 0.7923555069594852 -1.0823499318195433 -73.89158151608103 35.881198855475944 61.05785959433497 0.08289180740210847 -0.2615210743509466 0.2743434418098265 
1.264 0.3091379484155899 -1.3647043611845033 -1.4677503439897 0.0 1.5707963267948966 0.0 0.2743434418098265 0.1828956278732176 0.0914478139366088 0.0 0.0 0.0 0.0 0.0 0.0 0.0 0.0 0.0 229.78004290540377 -44.554324457516785 561.493707706822 -1.081143734406984 0.7896516971204267 -1.0811437344069843 -74.04354452448514 35.48701550762577 60.891174351904134 0.08346558003307084 -0.26133851804470887 0.2743434418098265 
1.272 0.3113326959500685 -1.3632411961615176 -1.467018761478207 0.0 1.5707963267948966 0.0 0.2743434418098265 0.1828956278732176 0.0914478139366088 0.0 0.0 0.0 0.0 0.0 0.0 0.0 0.0 0.0 229.1870926066203 -44.27200736393936 561.9801693014201 -1.0799337294786169 0.786952088678445 -1.079933729478617 -74.19373438063452 35.09214379640052 60.72417139857974 0.08403895061744489 -0.26115470289309406 0.2743434418098265 
1.28 0.31352744348454714 -1.361778031138532 -1.4662871789667142 0.0 1.5707963267948966 0.0 0.2743434418098265 0.1828956278732176 0.0914478139366088 0.0 0.0 0.0 0.0 0.0 0.0 0.0 0.0 0.0 228.59294789218274 -43.99285197201607 562.4652936036597 -1.0787199260496942 0.7842566862584531 -1.0787199260496945 -74.34214791193139 34.69659137002158 60.55685136803388 0.08461191639335341 -0.2609696297815241 0.2743434418098265 
1.288 0.3157221910190257 -1.3603148661155462 -1.4655555964552214 0.0 1.5707963267948966 0.0 0.2743434418098265 0.1828956278732176 0.0914478139366088 0.0 0.0 0.0 0.0 0.0 0.0 0.0 0.0 0.0 227.99762298527196 -43.71686369682645 562.9490780794632 -1.0775023331260367 0.7815654944577823 -1.0775023331260367 -74.48878197834667 34.300365891333456 60.38921489551865 0.08518447460086903 -0.2607832996014804 0.2743434418098265 
1.296 0.31791693855350434 -1.3588517010925605 -1.4648240139437285 0.0 1.5707963267948966 0.0 0.2743434418098265 0.1828956278732176 0.0914478139366088 0.0 0.0 0.0 0.0 0.0 0.0 0.0 0.0 0.0 227.40113213405823 -43.44404789208928 563.4315201998409 -1.0762809597040062 0.7788785178463029 -1.0762809597040062 -74.63363347248676 33.903475037665345 60.221262617863275 0.08575662248202766 -0.2605957132504995 0.2743434418098265 
1.304 0.32011168608798296 -1.3573885360695748 -1.4640924314322357 0.0 1.5707963267948966 0.0 0.2743434418098265 0.1828956278732176 0.0914478139366088 0.0 0.0 0.0 0.0 0.0 0.0 0.0 0.0 0.0 226.80348961144034 -43.174409850047184 563.9126174409042 -1.0750558147704845 0.7761957609665463 -1.0750558147704845 -74.77669931966035 33.505926500692624 60.05299517347159 0.0863283572808417 -0.260406871632169 0.2743434418098265 
1.312 0.3223064336224616 -1.355925371046589 -1.4633608489207428 0.0 1.5707963267948966 0.0 0.2743434418098265 0.1828956278732176 0.0914478139366088 0.0 0.0 0.0 0.0 0.0 0.0 0.0 0.0 0.0 226.2047097147837 -42.907954801352545 564.3923672838782 -1.0738269073028528 0.7735172283338283 -1.0738269073028526 -74.91797647794395 33.107727986298 59.88441320231928 0.08689967624331334 -0.2602167756561227 0.2743434418098265 
1.32 0.3245011811569402 -1.3544622060236033 -1.46262926640925 0.0 1.5707963267948966 0.0 0.2743434418098265 0.1828956278732176 0.0914478139366088 0.0 0.0 0.0 0.0 0.0 0.0 0.0 0.0 0.0 225.6048067656575 -42.64468791495426 564.8707672151139 -1.0725942462689655 0.7708429244363674 -1.0725942462689653 -75.05746193824737 32.70888721443215 59.71551734595107 0.08747057661744778 -0.2600254262380369 0.2743434418098265 
1.328 0.3266959286914188 -1.3529990410006174 -1.461897683897757 0.0 1.5707963267948966 0.0 0.2743434418098265 0.1828956278732176 0.0914478139366088 0.0 0.0 0.0 0.0 0.0 0.0 0.0 0.0 0.0 225.00379510957234 -42.38461429798579 565.347814726101 -1.0713578406271327 0.7681728537354081 -1.0713578406271327 -75.19515272437829 32.30941191897445 59.546308247478194 0.08804105565326659 -0.2598328242996254 0.2743434418098265 
1.336 0.3288906762258974 -1.3515358759776317 -1.4611661013862642 0.0 1.5707963267948966 0.0 0.2743434418098265 0.1828956278732176 0.0914478139366088 0.0 0.0 0.0 0.0 0.0 0.0 0.0 0.0 0.0 224.40168911571675 -42.12773899565434 565.8235073134804 -1.070117699326096 0.7655070206653396 -1.0701176993260957 -75.33104589310636 31.909309847593057 59.376786551575506 0.08861111060282083 -0.2596389707686353 0.2743434418098265 
1.344 0.33108542376037603 -1.350072710954646 -1.4604345188747714 0.0 1.5707963267948966 0.0 0.2743434418098265 0.1828956278732176 0.0914478139366088 0.0 0.0 0.0 0.0 0.0 0.0 0.0 0.0 0.0 223.79850317669258 -41.874066991131116 566.2978424790563 -1.068873831305008 0.7628454296338171 -1.0688738313050077 -75.46513853422663 31.508588761604855 59.2069529044787 0.08918073872020439 -0.2594438665788425 0.2743434418098265 
1.352 0.33328017129485465 -1.3486095459316603 -1.4597029363632783 0.0 1.5707963267948966 0.0 0.2743434418098265 0.1828956278732176 0.0914478139366088 0.0 0.0 0.0 0.0 0.0 0.0 0.0 0.0 0.0 223.1942517082513 -41.623603205442606 566.7708177298096 -1.0676262454934125 0.7601880850218812 -1.0676262454934125 -75.59742777062256 31.10725643583507 59.03680795398175 0.08974993726156714 -0.2592475126700473 0.2743434418098265 
1.36 0.3354749188293333 -1.3471463809086746 -1.4589713538517854 0.0 1.5707963267948966 0.0 0.2743434418098265 0.1828956278732176 0.0914478139366088 0.0 0.0 0.0 0.0 0.0 0.0 0.0 0.0 0.0 222.58894914902874 -41.37635249736316 567.242430577909 -1.0663749508112244 0.7575349911840771 -1.0663749508112244 -75.72791075832815 30.705320658476744 58.86635234943401 0.09031870348512823 -0.2590499099880698 0.2743434418098265 
1.368 0.33766966636381185 -1.3456832158856888 -1.4582397713402926 0.0 1.5707963267948966 0.0 0.2743434418098265 0.1828956278732176 0.0914478139366088 0.0 0.0 0.0 0.0 0.0 0.0 0.0 0.0 0.0 221.9826099602796 -41.13231966330859 567.7126785407252 -1.065119956168709 0.7548861524485747 -1.065119956168709 -75.85658468658985 30.30278923094955 58.69558674173747 0.09088703465118916 -0.25885105948474524 0.2743434418098265 
1.376 0.3398644138982905 -1.344220050862703 -1.4575081888287997 0.0 1.5707963267948966 0.0 0.2743434418098265 0.1828956278732176 0.0914478139366088 0.0 0.0 0.0 0.0 0.0 0.0 0.0 0.0 0.0 221.37524862561133 -40.89150943723094 568.1815591408416 -1.0638612704664618 0.7522415731172862 -1.0638612704664623 -75.98344677792744 29.899669967758726 58.52451178334398 0.09145492802214718 -0.2586509621179196 0.2743434418098265 
1.384 0.3420591614327691 -1.3427568858397172 -1.4567766063173069 0.0 1.5707963267948966 0.0 0.2743434418098265 0.1828956278732176 0.0914478139366088 0.0 0.0 0.0 0.0 0.0 0.0 0.0 0.0 0.0 220.7668796507185 -40.653926490514195 568.6490699060674 -1.0625989025953917 0.7496012574659858 -1.062598902595392 -76.10849428819454 29.495970696353723 58.353128128252585 0.09202238086250827 -0.25844961885144474 0.2743434418098265 
1.392 0.3442539089672477 -1.3412937208167315 -1.456045023805814 0.0 1.5707963267948966 0.0 0.2743434418098265 0.1828956278732176 0.0914478139366088 0.0 0.0 0.0 0.0 0.0 0.0 0.0 0.0 0.0 220.1575175631147 -40.4195754318716 569.1152083694503 -1.0613328614366997 0.7469652097444274 -1.0613328614366997 -76.23172450663867 29.091699256986068 58.181436432006535 0.09258939043890047 -0.25824703065517407 0.2743434418098265 
1.4 0.34644865650172635 -1.3398305557937458 -1.4553134412943212 0.0 1.5707963267948966 0.0 0.2743434418098265 0.1828956278732176 0.0914478139366088 0.0 0.0 0.0 0.0 0.0 0.0 0.0 0.0 0.0 219.54717691186625 -40.18846080724364 569.5799720692885 -1.0600631558618616 0.7443334341764622 -1.0600631558618618 -76.35313475596037 28.686863502567643 58.00943735169071 0.09315595402008692 -0.2580431985049578 0.2743434418098265 
1.408 0.34864340403620486 -1.33836739077076 -1.4545818587828283 0.0 1.5707963267948966 0.0 0.2743434418098265 0.1828956278732176 0.0914478139366088 0.0 0.0 0.0 0.0 0.0 0.0 0.0 0.0 0.0 218.93587226732348 -39.96058709969731 570.0433585491428 -1.05878979473261 0.7417059349601564 -1.05878979473261 -76.47272239237192 28.281471298528118 57.83713154592863 0.09372206887697909 -0.25783812338263784 0.2743434418098265 
1.416 0.3508381515706835 -1.3369042257477743 -1.4538502762713355 0.0 1.5707963267948966 0.0 0.2743434418098265 0.1828956278732176 0.0914478139366088 0.0 0.0 0.0 0.0 0.0 0.0 0.0 0.0 0.0 218.323618220853 -39.735958729326455 570.5053653578492 -1.057512786900916 0.7390827162679089 -1.057512786900916 -76.59048480565546 27.875530522672502 57.66451967487975 0.09428773228265006 -0.2576318062760437 0.2743434418098265 
1.424 0.3530328991051621 -1.3354410607247886 -1.4531186937598426 0.0 1.5707963267948966 0.0 0.2743434418098265 0.1828956278732176 0.0914478139366088 0.0 0.0 0.0 0.0 0.0 0.0 0.0 0.0 0.0 217.7104293845686 -39.514580053153665 570.9659900495311 -1.0562321412089724 0.7364637822465677 -1.0562321412089724 -76.70641941922037 27.469049065038245 57.491602400236644 0.09485294151234729 -0.25742424817898724 0.2743434418098265 
1.432 0.35522764663964074 -1.333977895701803 -1.4523871112483497 0.0 1.5707963267948966 0.0 0.2743434418098265 0.1828956278732176 0.0914478139366088 0.0 0.0 0.0 0.0 0.0 0.0 0.0 0.0 0.0 217.0963203910622 -39.29645536503263 571.4252301836118 -1.0549478664891758 0.7338491370175463 -1.0549478664891756 -76.8205236901602 27.062034827752083 57.31838038522212 0.0954176938435061 -0.2572154500912582 0.2743434418098265 
1.44 0.35742239417411936 -1.3325147306788172 -1.4516555287368569 0.0 1.5707963267948966 0.0 0.2743434418098265 0.1828956278732176 0.0914478139366088 0.0 0.0 0.0 0.0 0.0 0.0 0.0 0.0 0.0 216.48130589313382 -39.08158889555223 571.8830833248262 -1.0536599715641097 0.7312387846769399 -1.0536599715641097 -76.9327951093089 26.654495724886665 57.14485429458646 0.09598198655576264 -0.2570054130186191 0.2743434418098265 
1.448 0.35961714170859793 -1.3310515656558315 -1.450923946225364 0.0 1.5707963267948966 0.0 0.2743434418098265 0.1828956278732176 0.0914478139366088 0.0 0.0 0.0 0.0 0.0 0.0 0.0 0.0 0.0 215.865400563522 -38.86998481194134 572.3395470432333 -1.0523684652465313 0.7286327292956432 -1.0523684652465308 -77.04323120129646 26.246439682316954 56.971024794604574 0.09654581693096698 -0.2567941379728007 0.2743434418098265 
1.456 0.36181188924307656 -1.3295884006328456 -1.4501923637138712 0.0 1.5707963267948966 0.0 0.2743434418098265 0.1828956278732176 0.0914478139366088 0.0 0.0 0.0 0.0 0.0 0.0 0.0 0.0 0.0 215.2486190946325 -38.661647217975315 572.794618914229 -1.051073356339349 0.7260309749194618 -1.051073356339349 -77.15182952460398 25.837874637576142 56.79689255307303 0.09710918225319622 -0.25658162597149686 0.2743434418098265 
1.464 0.3640066367775552 -1.3281252356098598 -1.4494607812023783 0.0 1.5707963267948966 0.0 0.2743434418098265 0.1828956278732176 0.0914478139366088 0.0 0.0 0.0 0.0 0.0 0.0 0.0 0.0 0.0 214.63097619826812 -38.45658015388283 573.2482965185566 -1.0497746536356136 0.7234335255692321 -1.0497746536356136 -77.25858767161783 25.428808539711866 56.62245823930746 0.09767207980876762 -0.2563678780383598 0.2743434418098265 
1.472 0.3662013843120338 -1.3266620705868741 -1.4487291986908855 0.0 1.5707963267948966 0.0 0.2743434418098265 0.1828956278732176 0.0914478139366088 0.0 0.0 0.0 0.0 0.0 0.0 0.0 0.0 0.0 214.0124866053562 -38.254787596254815 573.7005774423205 -1.0484723659184985 0.7208403852409332 -1.0484723659184985 -77.3635032686838 25.019249349141344 56.44772252413935 0.09823450688625161 -0.25615289520299506 0.2743434418098265 
1.48 0.36839613184651243 -1.3251989055638884 -1.4479976161793924 0.0 1.5707963267948966 0.0 0.2743434418098265 0.1828956278732176 0.0914478139366088 0.0 0.0 0.0 0.0 0.0 0.0 0.0 0.0 0.0 213.39316506567778 -38.056273457953736 574.1514592769985 -1.0471665019612861 0.7182515579058018 -1.0471665019612864 -77.46657397616015 24.60920503750699 56.272686079913505 0.09879646077648488 -0.2559366785009567 0.2743434418098265 
1.488 0.370590879380991 -1.3237357405409027 -1.4472660336678995 0.0 1.5707963267948966 0.0 0.2743434418098265 0.1828956278732176 0.0914478139366088 0.0 0.0 0.0 0.0 0.0 0.0 0.0 0.0 0.0 212.77302634759445 -37.861041588024534 574.6009396194519 -1.0458570705273524 0.7156670475104475 -1.0458570705273524 -77.56779748846999 24.19868358753148 56.09734958048494 0.09935793877258337 -0.25571922897374216 0.2743434418098265 
1.496 0.3727856269154696 -1.322272575517917 -1.4465344511564067 0.0 1.5707963267948966 0.0 0.2743434418098265 0.1828956278732176 0.0914478139366088 0.0 0.0 0.0 0.0 0.0 0.0 0.0 0.0 0.0 212.15208523777625 -37.66909577160668 575.0490160719398 -1.0445440803701544 0.7130868579769665 -1.0445440803701544 -77.66717153415354 23.78769299287256 55.92171370121613 0.09991893816995545 -0.25550054766878727 0.2743434418098265 
1.504 0.37498037444994825 -1.3208094104949313 -1.4458028686449138 0.0 1.5707963267948966 0.0 0.2743434418098265 0.1828956278732176 0.0914478139366088 0.0 0.0 0.0 0.0 0.0 0.0 0.0 0.0 0.0 211.53035654092818 -37.480439729846836 575.49568624213 -1.0432275402332134 0.7105109932030542 -1.0432275402332134 -77.76469387591919 23.376241257977696 55.74577911897407 0.10047945626631483 -0.25528063563946113 0.2743434418098265 
1.512 0.3771751219844269 -1.3193462454719453 -1.445071286133421 0.0 1.5707963267948966 0.0 0.2743434418098265 0.1828956278732176 0.0914478139366088 0.0 0.0 0.0 0.0 0.0 0.0 0.0 0.0 0.0 210.90785507951654 -37.295077119813705 575.940947743111 -1.041907458850102 0.7079394570621188 -1.0419074588501023 -77.86036231069434 22.964336397938347 55.56954651212732 0.10103949036169353 -0.25505949394506144 0.2743434418098265 
1.52 0.3793698695189055 -1.3178830804489596 -1.444339703621928 0.0 1.5707963267948966 0.0 0.2743434418098265 0.1828956278732176 0.0914478139366088 0.0 0.0 0.0 0.0 0.0 0.0 0.0 0.0 0.0 210.28459569349553 -37.113011534412905 576.3847981934047 -1.040583844944434 0.7053722534033957 -1.040583844944434 -77.9541746696755 22.551986438344265 55.39301656054326 0.10159903775845508 -0.2548371236508088 0.2743434418098265 
1.528 0.38156461705338407 -1.316419915425974 -1.4436081211104352 0.0 1.5707963267948966 0.0 0.2743434418098265 0.1828956278732176 0.0914478139366088 0.0 0.0 0.0 0.0 0.0 0.0 0.0 0.0 0.0 209.66059324003226 -36.93424650230405 576.8272352169773 -1.039256707229845 0.7028093860520577 -1.039256707229845 -78.04612881837764 22.139199415137288 55.216189945585015 0.1021580957613073 -0.25461352582784197 0.2743434418098265 
1.536 0.3837593645878627 -1.3149567504029882 -1.4428765385989424 0.0 1.5707963267948966 0.0 0.2743434418098265 0.1828956278732176 0.0914478139366088 0.0 0.0 0.0 0.0 0.0 0.0 0.0 0.0 0.0 209.0358625932323 -36.75878548781819 577.2682564432524 -1.0379260544099853 0.7002508588093284 -1.0379260544099853 -78.13622265668312 21.725983374465002 55.03906735010856 0.10271666167731548 -0.2543887015532127 0.2743434418098265 
1.544 0.3859541121223413 -1.3134935853800025 -1.4421449560874495 0.0 1.5707963267948966 0.0 0.2743434418098265 0.1828956278732176 0.0914478139366088 0.0 0.0 0.0 0.0 0.0 0.0 0.0 0.0 0.0 208.41041864386463 -36.58663189087683 577.7078595071224 -1.0365918951785038 0.6976966754525945 -1.0365918951785038 -78.22445411888994 21.31234637253425 54.861649458459894 0.10327473281591512 -0.2541626519098802 0.2743434418098265 
1.552 0.38814885965681994 -1.3120304203570168 -1.4414133735759567 0.0 1.5707963267948966 0.0 0.2743434418098265 0.1828956278732176 0.0914478139366088 0.0 0.0 0.0 0.0 0.0 0.0 0.0 0.0 0.0 207.78427629908606 -36.41778904691219 578.1460420489601 -1.0352542382190382 0.6951468397355169 -1.0352542382190382 -78.31082117375921 20.89829647546438 54.68393695647201 0.10383230648892511 -0.2539353779867065 0.2743434418098265 
1.56 0.39034360719129857 -1.310567255334031 -1.4406817910644638 0.0 1.5707963267948966 0.0 0.2743434418098265 0.1828956278732176 0.0914478139366088 0.0 0.0 0.0 0.0 0.0 0.0 0.0 0.0 0.0 207.15745048216507 -36.252260226788245 578.582801714631 -1.0339130922052013 0.6926013553881417 -1.0339130922052011 -78.3953218245622 20.48384175914009 54.50593053146197 0.1043893800105606 -0.25370688087845067 0.2743434418098265 
1.568 0.39253835472577714 -1.3091040903110454 -1.439950208552971 0.0 1.5707963267948966 0.0 0.2743434418098265 0.1828956278732176 0.0914478139366088 0.0 0.0 0.0 0.0 0.0 0.0 0.0 0.0 0.0 206.52995613220608 -36.09004863672346 579.0181361555054 -1.0325684658005705 0.6900602261170117 -1.0325684658005705 -78.47795410912666 20.068990309064407 54.327630872228 0.10494595069744586 -0.25347716168576384 0.2743434418098265 
1.576 0.39473310226025576 -1.3076409252880596 -1.439218626041478 0.0 1.5707963267948966 0.0 0.2743434418098265 0.1828956278732176 0.0914478139366088 0.0 0.0 0.0 0.0 0.0 0.0 0.0 0.0 0.0 205.90180820387238 -35.9311574182141 579.4520430284693 -1.0312203676586766 0.6875234556052767 -1.0312203676586762 -78.5587160998825 19.653750220211162 54.1490386690465 0.10550201586862731 -0.2532462215151837 0.2743434418098265 
1.584 0.3969278497947344 -1.3061777602650737 -1.4384870435299852 0.0 1.5707963267948966 0.0 0.2743434418098265 0.1828956278732176 0.0914478139366088 0.0 0.0 0.0 0.0 0.0 0.0 0.0 0.0 0.0 205.27302166710894 -35.77558964795954 579.8845199959375 -1.0298688064229908 0.684991047512803 -1.029868806422991 -78.6376059039069 19.23812959687718 53.97015461366897 0.1060575728455864 -0.2530140614791295 0.2743434418098265 
1.592 0.399122597329213 -1.304714595242088 -1.4377554610184924 0.0 1.5707963267948966 0.0 0.2743434418098265 0.1828956278732176 0.0914478139366088 0.0 0.0 0.0 0.0 0.0 0.0 0.0 0.0 0.0 204.64361150686608 -35.623348337787604 580.315564725864 -1.0285137907269186 0.6824630054762851 -1.0285137907269184 -78.7146216629687 18.822136552534836 53.790979399319326 0.10661261895225252 -0.25278068269589626 0.2743434418098265 
1.6 0.40131734486369164 -1.3032514302191023 -1.4370238785069995 0.0 1.5707963267948966 0.0 0.2743434418098265 0.1828956278732176 0.0914478139366088 0.0 0.0 0.0 0.0 0.0 0.0 0.0 0.0 0.0 204.01359272282045 -35.474436434582444 580.745174891755 -1.027155329193784 0.6799393331093536 -1.027155329193784 -78.78976155357236 18.40577920968348 53.61151372069064 0.10716715151501585 -0.2525460862896498 0.2743434418098265 
1.608 0.4035120923981702 -1.3017882651961166 -1.4362922959955065 0.0 1.5707963267948966 0.0 0.2743434418098265 0.1828956278732176 0.0914478139366088 0.0 0.0 0.0 0.0 0.0 0.0 0.0 0.0 0.0 203.38298032909785 -35.328856820212444 581.1733481726801 -1.025793430436823 0.6774200340026846 -1.025793430436823 -78.86302378700096 17.98906569970156 53.43175827394225 0.10772116786274025 -0.2523102733904209 0.2743434418098265 
1.616 0.40570683993264883 -1.3003251001731309 -1.4355607134840136 0.0 1.5707963267948966 0.0 0.2743434418098265 0.1828956278732176 0.0914478139366088 0.0 0.0 0.0 0.0 0.0 0.0 0.0 0.0 0.0 202.7517893539944 -35.186612311460046 581.6000822532833 -1.0244281030591729 0.6749051117241098 -1.024428103059173 -78.9344066093587 17.572004162697926 53.25171375669681 0.10827466532677621 -0.25207324513410023 0.2743434418098265 
1.624 0.40790158746712746 -1.2988619351501451 -1.4348291309725207 0.0 1.5707963267948966 0.0 0.2743434418098265 0.1828956278732176 0.0914478139366088 0.0 0.0 0.0 0.0 0.0 0.0 0.0 0.0 0.0 202.12003483969812 -35.047705659952264 582.0253748237966 -1.0230593556538625 0.6723945698187243 -1.0230593556538625 -79.00390830161328 17.154602747363157 53.071380868037224 0.10882764124097358 -0.25183500266243286 0.2743434418098265 
1.632 0.4100963350016061 -1.2973987701271592 -1.4340975484610279 0.0 1.5707963267948966 0.0 0.2743434418098265 0.1828956278732176 0.0914478139366088 0.0 0.0 0.0 0.0 0.0 0.0 0.0 0.0 0.0 201.48773184200957 -34.91213955209287 582.4492235800495 -1.0216871968038035 0.6698884118089938 -1.0216871968038035 -79.07152717963652 16.73686961082083 52.890760308503715 0.10938009294169451 -0.25159554712301224 0.2743434418098265 
1.64 0.4122910825360847 -1.2959356051041735 -1.433365965949535 0.0 1.5707963267948966 0.0 0.2743434418098265 0.1828956278732176 0.0914478139366088 0.0 0.0 0.0 0.0 0.0 0.0 0.0 0.0 0.0 200.85489543006278 -34.779916608995315 582.8716262234822 -1.0203116350817807 0.667386641194865 -1.0203116350817807 -79.13726159424544 16.31881291847836 52.70985278009073 0.10993201776782618 -0.25135487966927544 0.2743434418098265 
1.648 0.4144858300705633 -1.2944724400811878 -1.4326343834380422 0.0 1.5707963267948966 0.0 0.2743434418098265 0.1828956278732176 0.0914478139366088 0.0 0.0 0.0 0.0 0.0 0.0 0.0 0.0 0.0 200.22154068604507 -34.65103938641727 583.2925804611564 -1.018932679050445 0.664889261453871 -1.018932679050445 -79.20110993124221 15.900440843877629 52.528658986243954 0.11048341306079373 -0.2511130014604971 0.2743434418098265 
1.656 0.4166805776050419 -1.293009275058202 -1.4319028009265493 0.0 1.5707963267948966 0.0 0.2743434418098265 0.1828956278732176 0.0914478139366088 0.0 0.0 0.0 0.0 0.0 0.0 0.0 0.0 0.0 199.58768270491748 -34.52551037469594 583.7120840057671 -1.0175503372623027 0.6623962760412389 -1.017550337262303 -79.26307061145333 15.481761568545704 52.3471796318573 0.11103427616457309 -0.2508699136617839 0.2743434418098265 
1.664 0.4188753251395205 -1.2915461100352164 -1.4311712184150565 0.0 1.5707963267948966 0.0 0.2743434418098265 0.1828956278732176 0.0914478139366088 0.0 0.0 0.0 0.0 0.0 0.0 0.0 0.0 0.0 198.95333659413407 -34.40333199868488 584.1301345756547 -1.0161646182597102 0.6599076883899976 -1.0161646182597102 -79.32314209076863 15.062783281845086 52.165415423269835 0.11158460442570353 -0.2506256174440691 0.2743434418098265 
1.672 0.4210700726739991 -1.2900829450122306 -1.4304396359035636 0.0 1.5707963267948966 0.0 0.2743434418098265 0.1828956278732176 0.0914478139366088 0.0 0.0 0.0 0.0 0.0 0.0 0.0 0.0 0.0 198.31851747336145 -34.2845066176919 584.5467298948156 -1.0147755305748645 0.657423501911084 -1.0147755305748645 -79.38132286017911 14.643514180823914 51.98336706826276 0.1121343951933007 -0.25038011398410664 0.2743434418098265 
1.68 0.4232648202084777 -1.288619779989245 -1.4297080533920707 0.0 1.5707963267948966 0.0 0.2743434418098265 0.1828956278732176 0.0914478139366088 0.0 0.0 0.0 0.0 0.0 0.0 0.0 0.0 0.0 197.68324047419776 -34.16903652541828 584.9618676929142 -1.013383082729796 0.6549437199934488 -1.013383082729796 -79.43761144581447 14.223962470065985 51.80103527605634 0.1126836458190694 -0.25013340446446597 0.2743434418098265 
1.688 0.4254595677429563 -1.2871566149662592 -1.4289764708805779 0.0 1.5707963267948966 0.0 0.2743434418098265 0.1828956278732176 0.0914478139366088 0.0 0.0 0.0 0.0 0.0 0.0 0.0 0.0 0.0 197.04752073989144 -34.056923949898895 585.3755457052948 -1.0119872832363612 0.6524683460041624 -1.011987283236361 -79.49200640898003 13.804136361540529 51.618420757306865 0.11323235365731606 -0.24988549007352567 0.2743434418098265 
1.696 0.4276543152774349 -1.2856934499432735 -1.428244888369085 0.0 1.5707963267948966 0.0 0.2743434418098265 0.1828956278732176 0.0914478139366088 0.0 0.0 0.0 0.0 0.0 0.0 0.0 0.0 0.0 196.41137342505976 -33.94817105344376 585.7877616729925 -1.0105881405962365 0.6499973832885212 -1.0105881405962363 -79.54450634619276 13.384044074451865 51.43552422410366 0.11378051606496181 -0.2496363720054683 0.2743434418098265 
1.704 0.42984906281191354 -1.2842302849202878 -1.4275133058575922 0.0 1.5707963267948966 0.0 0.2743434418098265 0.1828956278732176 0.0914478139366088 0.0 0.0 0.0 0.0 0.0 0.0 0.0 0.0 0.0 195.7748136954067 -33.84277993258101 586.1985133427445 -1.009185663300911 0.6475308351701526 -1.0091856633009109 -79.59510988921681 12.963693835088868 51.252346389965794 0.11432813040155507 -0.24938605146027434 0.2743434418098265 
1.712 0.43204381034639217 -1.282767119897302 -1.4267817233460993 0.0 1.5707963267948966 0.0 0.2743434418098265 0.1828956278732176 0.0914478139366088 0.0 0.0 0.0 0.0 0.0 0.0 0.0 0.0 0.0 195.1378567274412 -33.740752618000414 586.6077984670026 -1.0077798598316807 0.6450687049511195 -1.0077798598316803 -79.64381570509852 12.54309387667422 51.068887969839295 0.11487519402928417 -0.24913452964371663 0.2743434418098265 
1.72 0.4342385578808708 -1.2813039548743161 -1.4260501408346065 0.0 1.5707963267948966 0.0 0.2743434418098265 0.1828956278732176 0.0914478139366088 0.0 0.0 0.0 0.0 0.0 0.0 0.0 0.0 0.0 194.5005177081943 -33.64209107449894 587.0156148039429 -1.0063707386596403 0.6426109959120243 -1.00637073865964 -79.69062249620036 12.122252439213582 50.88514968009375 0.11542170431299023 -0.2488818077673542 0.2743434418098265 
1.728 0.43643330541534936 -1.2798407898513304 -1.4253185583231136 0.0 1.5707963267948966 0.0 0.2743434418098265 0.1828956278732176 0.0914478139366088 0.0 0.0 0.0 0.0 0.0 0.0 0.0 0.0 0.0 193.86281183493725 -33.54679720092669 587.421960117479 -1.0049583082456819 0.6401577113121157 -1.0049583082456819 -79.73552900023493 11.701177769344596 50.70113223851955 0.11596765862017978 -0.2486278870485269 0.2743434418098265 
1.736 0.438628052949828 -1.2783776248283447 -1.4245869758116205 0.0 1.5707963267948966 0.0 0.2743434418098265 0.1828956278732176 0.0914478139366088 0.0 0.0 0.0 0.0 0.0 0.0 0.0 0.0 0.0 193.2247543148976 -33.45487283013476 587.8268321772721 -1.0035425770404842 0.6377088543893891 -1.0035425770404842 -79.77853399029752 11.279878120185558 50.51683636432446 0.11651305432103745 -0.24837276871034913 0.2743434418098265 
1.744 0.4408228004843066 -1.276914459805359 -1.4238553933001277 0.0 1.5707963267948966 0.0 0.2743434418098265 0.1828956278732176 0.0914478139366088 0.0 0.0 0.0 0.0 0.0 0.0 0.0 0.0 0.0 192.58636036497683 -33.36631972892387 588.2302287587428 -1.0021235534845105 0.6352644283606931 -1.0021235534845105 -79.81963627489863 10.85836175118417 50.33226277813079 0.11705788878843865 -0.24811645398170418 0.2743434418098265 
1.752 0.44301754801878523 -1.2754512947823733 -1.4231238107886348 0.0 1.5707963267948966 0.0 0.2743434418098265 0.1828956278732176 0.0914478139366088 0.0 0.0 0.0 0.0 0.0 0.0 0.0 0.0 0.0 191.9476452114664 -33.28113959799424 588.6321476430822 -1.0007012460080036 0.632824436421831 -1.0007012460080036 -79.85883469799553 10.436636927965992 50.1474122019721 0.11760215939796209 -0.2478589440972383 0.2743434418098265 
1.76 0.44521229555326386 -1.2739881297593876 -1.422392228277142 0.0 1.5707963267948966 0.0 0.2743434418098265 0.1828956278732176 0.0914478139366088 0.0 0.0 0.0 0.0 0.0 0.0 0.0 0.0 0.0 191.3086240897643 -33.199334071897056 589.0325866172635 -0.9992756630309784 0.6303888817476648 -0.9992756630309781 -79.89612813902323 10.014711922182748 49.96228535929015 0.11814586352790263 -0.24760024029735472 0.2743434418098265 
1.768 0.44740704308774243 -1.2725249647364016 -1.421660645765649 0.0 1.5707963267948966 0.0 0.2743434418098265 0.1828956278732176 0.0914478139366088 0.0 0.0 0.0 0.0 0.0 0.0 0.0 0.0 0.0 190.66931224409078 -33.12090471898665 589.4315434740529 -0.9978468129632202 0.6279577674922161 -0.9978468129632202 -79.93151551292489 9.59259501136048 49.77688297493171 0.1186889985592838 -0.2473403438282075 0.2743434418098265 
1.776 0.44960179062222105 -1.271061799713416 -1.4209290632541562 0.0 1.5707963267948966 0.0 0.2743434418098265 0.1828956278732176 0.0914478139366088 0.0 0.0 0.0 0.0 0.0 0.0 0.0 0.0 0.0 190.029724927205 -33.04585304137394 589.8290160120212 -0.9964147042042806 0.6255310967887713 -0.9964147042042807 -79.96499577018159 9.170294478747728 49.59120577514564 0.11923156187587049 -0.2470792559416959 0.2743434418098265 
1.784 0.4517965381566997 -1.2695986346904302 -1.4201974807426634 0.0 1.5707963267948966 0.0 0.2743434418098265 0.1828956278732176 0.0914478139366088 0.0 0.0 0.0 0.0 0.0 0.0 0.0 0.0 0.0 189.38987740011936 -32.97418047488174 590.2250020355544 -0.9949793451434706 0.6231088727499802 -0.9949793451434706 -79.99656789684111 8.747818613163162 49.40525448757937 0.11977355086418133 -0.2468169778954579 0.2743434418098265 
1.792 0.4539912856911783 -1.2681354696674445 -1.4194658982311705 0.0 1.5707963267948966 0.0 0.2743434418098265 0.1828956278732176 0.0914478139366088 0.0 0.0 0.0 0.0 0.0 0.0 0.0 0.0 0.0 188.7497849318159 -32.90588838900039 590.6194993548656 -0.9935407441598599 0.6206910984679601 -0.9935407441598599 -80.0262309145466 8.325175708843574 49.219029841276146 0.1203149629135016 -0.2465535109528646 0.2743434418098265 
1.8 0.45618603322565693 -1.2666723046444588 -1.4187343157196777 0.0 1.5707963267948966 0.0 0.2743434418098265 0.1828956278732176 0.0914478139366088 0.0 0.0 0.0 0.0 0.0 0.0 0.0 0.0 0.0 188.10946279896098 -32.84097808684533 591.0125057860057 -0.992098909622272 0.6182777770143961 -0.992098909622272 -80.05398388056413 7.90237406529134 49.032532566671605 0.12085579541589557 -0.2462888563830138 0.2743434418098265 
1.808 0.4583807807601355 -1.265209139621473 -1.4180027332081848 0.0 1.5707963267948966 0.0 0.2743434418098265 0.1828956278732176 0.0914478139366088 0.0 0.0 0.0 0.0 0.0 0.0 0.0 0.0 0.0 187.46892628562017 -32.779450805115154 591.404019150875 -0.9906538498892805 0.6158689114406409 -0.9906538498892805 -80.07982588781009 7.47942198712186 48.84576339559074 0.1213960457662191 -0.24602301546072397 0.2743434418098265 
1.816 0.4605755282946141 -1.2637459745984874 -1.417271150696692 0.0 1.5707963267948966 0.0 0.2743434418098265 0.1828956278732176 0.0914478139366088 0.0 0.0 0.0 0.0 0.0 0.0 0.0 0.0 0.0 186.82819068297306 -32.72130771405187 591.7940372772331 -0.989205573309208 0.6134645047778179 -0.9892055733092078 -80.10375606487703 7.056327783911023 48.65872306124468 0.12193571136213237 -0.24575598946652824 0.2743434418098265 
1.824 0.46277027582909275 -1.2622828095755017 -1.416539568185199 0.0 1.5707963267948966 0.0 0.2743434418098265 0.1828956278732176 0.0914478139366088 0.0 0.0 0.0 0.0 0.0 0.0 0.0 0.0 0.0 186.1872712890277 -32.666549917401376 592.1825579987117 -0.987754088220121 0.6110645600369192 -0.9877540882201209 -80.12577357606014 6.633099770042271 48.47141229822755 0.12247478960411212 -0.24548777968666802 0.2743434418098265 
1.832 0.4649650233635714 -1.260819644552516 -1.4158079856737062 0.0 1.5707963267948966 0.0 0.2743434418098265 0.1828956278732176 0.0914478139366088 0.0 0.0 0.0 0.0 0.0 0.0 0.0 0.0 0.0 185.54618340833488 -32.6151784523759 592.569579154824 -0.9862994029498297 0.6086690802089069 -0.9862994029498294 -80.1458776213818 6.2097462645537504 48.283831842513244 0.1230132778954644 -0.24521838741308705 0.2743434418098265 
1.84 0.46715977089805 -1.25935647952953 -1.4150764031622134 0.0 1.5707963267948966 0.0 0.2743434418098265 0.1828956278732176 0.0914478139366088 0.0 0.0 0.0 0.0 0.0 0.0 0.0 0.0 0.0 184.90494235170226 -32.567194289617156 592.9550985909774 -0.984841525815884 0.606278068264812 -0.984841525815884 -80.16406743661649 5.786275590985234 48.0959824314523 0.12355117364233699 -0.24494781394342485 0.2743434418098265 
1.848 0.46935451843252857 -1.2578933145065443 -1.4143448206507205 0.0 1.5707963267948966 0.0 0.2743434418098265 0.1828956278732176 0.0914478139366088 0.0 0.0 0.0 0.0 0.0 0.0 0.0 0.0 0.0 184.26356343590825 -32.52259833316107 593.3391141584829 -0.9833804651255723 0.6038915271558339 -0.9833804651255723 -80.18034229331433 5.362696077224932 47.90786480376866 0.12408847425373187 -0.24467606058101093 0.2743434418098265 
1.856 0.4715492659670072 -1.2564301494835586 -1.4136132381392277 0.0 1.5707963267948966 0.0 0.2743434418098265 0.1828956278732176 0.0914478139366088 0.0 0.0 0.0 0.0 0.0 0.0 0.0 0.0 0.0 183.6220619834156 -32.48139142040354 593.7216237145669 -0.9819162291759209 0.60150945981344 -0.9819162291759206 -80.19470149882429 4.939016055356198 47.71947969955645 0.12462517714151783 -0.24440312863485786 0.2743434418098265 
1.864 0.4737440135014858 -1.2549669844605729 -1.4128816556277348 0.0 1.5707963267948966 0.0 0.2743434418098265 0.1828956278732176 0.0914478139366088 0.0 0.0 0.0 0.0 0.0 0.0 0.0 0.0 0.0 182.980453322085 -32.44357432206764 594.102625122382 -0.9804488262536886 0.5991318691494621 -0.9804488262536885 -80.20714439631674 4.515243861504146 47.530827860276844 0.1251612797204427 -0.2441290194196558 0.2743434418098265 
1.872 0.47593876103596444 -1.2535038194375872 -1.4121500731162417 0.0 1.5707963267948966 0.0 0.2743434418098265 0.1828956278732176 0.0914478139366088 0.0 0.0 0.0 0.0 0.0 0.0 0.0 0.0 0.0 182.3387527848884 -32.409147742171726 594.4821162510186 -0.9789782646353707 0.5967587580561983 -0.9789782646353707 -80.21767036480536 4.091387835681978 47.3419100287547 0.1256967794081461 -0.2438537342557654 0.2743434418098265 
1.88 0.47813350857044307 -1.2520406544146014 -1.4114184906047489 0.0 1.5707963267948966 0.0 0.2743434418098265 0.1828956278732176 0.0914478139366088 0.0 0.0 0.0 0.0 0.0 0.0 0.0 0.0 0.0 181.69697570962228 -32.37811231799898 594.8600949755139 -0.9775045525871934 0.5943901294065068 -0.9775045525871936 -80.22627881916804 3.6674563216376015 47.15272694917554 0.12623167362517168 -0.2435772744692118 0.2743434418098265 
1.888 0.48032825610492164 -1.2505774893916155 -1.410686908093256 0.0 1.5707963267948966 0.0 0.2743434418098265 0.1828956278732176 0.0914478139366088 0.0 0.0 0.0 0.0 0.0 0.0 0.0 0.0 0.0 181.05513743862042 -32.35046862006824 595.2365591768653 -0.9760276983651167 0.5920259860539077 -0.9760276983651168 -80.23296921016784 3.243457666699591 46.963279367082144 0.12676595979497948 -0.24329964139167826 0.2743434418098265 
1.896 0.48252300363940026 -1.2491143243686298 -1.4099553255817632 0.0 1.5707963267948966 0.0 0.2743434418098265 0.1828956278732176 0.0914478139366088 0.0 0.0 0.0 0.0 0.0 0.0 0.0 0.0 0.0 180.41325331846724 -32.32621715210582 595.6115067420388 -0.9745477102148311 0.5896663308326769 -0.9745477102148313 -80.23774102447243 2.8194002216236385 46.77356802937148 0.12729963534395855 -0.2430208363604997 0.2743434418098265 
1.904 0.4847177511738789 -1.247651159345644 -1.4092237430702703 0.0 1.5707963267948966 0.0 0.2743434418098265 0.1828956278732176 0.0914478139366088 0.0 0.0 0.0 0.0 0.0 0.0 0.0 0.0 0.0 179.77133869970976 -32.30535835101881 595.984935563982 -0.9730645963717578 0.5873111665579448 -0.9730645963717578 -80.2405937846736 2.3952923404382602 46.58359368429127 0.12783269770143932 -0.24274086071865614 0.2743434418098265 
1.912 0.4869124987083575 -1.2461879943226584 -1.4084921605587775 0.0 1.5707963267948966 0.0 0.2743434418098265 0.1828956278732176 0.0914478139366088 0.0 0.0 0.0 0.0 0.0 0.0 0.0 0.0 0.0 179.12940893657054 -32.287892586869596 596.3568435416333 -0.97157836506105 0.5849604960257929 -0.97157836506105 -80.24152704930566 1.971142380290921 46.39335708143686 0.12836514429970575 -0.24245971581476644 0.2743434418098265 
