Fleaurent/UniversalRobot/csv/robolib_movej_Dreieck.csv
timestamp target_q_0 target_q_1 target_q_2 target_q_3 target_q_4 target_q_5 target_qd_0 target_qd_1 target_qd_2 target_qd_3 target_qd_4 target_qd_5 target_qdd_0 target_qdd_1 target_qdd_2 target_qdd_3 target_qdd_4 target_qdd_5 target_TCP_pose_0 target_TCP_pose_1 target_TCP_pose_2 target_TCP_pose_3 target_TCP_pose_4 target_TCP_pose_5 target_TCP_speed_0 target_TCP_speed_1 target_TCP_speed_2 target_TCP_speed_3 target_TCP_speed_4 target_TCP_speed_5
0.0 0.0 -1.5707963267948966 -1.5707963267948966 0.0 1.5707963267948966 0.0 0.0 0.0 0.0 0.0 0.0 0.0 1.0 0.0 0.0 0.0 0.0 0.0 295.15 -112.34999999999998 480.9 -1.2091995761561454 1.2091995761561456 -1.2091995761561458 0.0 0.0 0.0 0.0 0.0 0.0 
0.008 3.2e-05 -1.5707963267948966 -1.5707963267948966 0.0 1.5707963267948966 0.0 0.008 0.0 0.0 0.0 0.0 0.0 1.0 0.0 0.0 0.0 0.0 0.0 295.1535950488826 -112.34055514247841 480.9 -1.2092147055764364 1.2091760113249628 -1.209176011324963 0.8987244411398273 2.361228760391061 0.0 0.0 0.0 0.008 
0.016 0.000128 -1.5707963267948966 -1.5707963267948966 0.0 1.5707963267948966 0.0 0.016 0.0 0.0 0.0 0.0 0.0 1.0 0.0 0.0 0.0 0.0 0.0 295.1643783820919 -112.31221987973194 480.9 -1.2092600917893326 1.209105316402997 -1.2091053164029972 1.7969955180757111 4.722630054113471 0.0 0.0 0.0 0.016 
0.024 0.000288 -1.5707963267948966 -1.5707963267948966 0.0 1.5707963267948966 0.0 0.024 0.0 0.0 0.0 0.0 0.0 1.0 0.0 0.0 0.0 0.0 0.0 295.182344559092 -112.2649921417959 480.9 -1.2093357286510245 1.2089874901051165 -1.2089874901051167 2.6943598114031015 7.0843762694182075 0.0 0.0 0.0 0.024 
0.032 0.000512 -1.5707963267948966 -1.5707963267948966 0.0 1.5707963267948966 0.0 0.032 0.0 0.0 0.0 0.0 0.0 1.0 0.0 0.0 0.0 0.0 0.0 295.2074845115868 -112.19886848066349 480.9 -1.2094416059222521 1.2088225302898576 -1.2088225302898579 3.5903637913812316 9.446639504370777 0.0 0.0 0.0 0.032 
0.04 0.0008 -1.5707963267948966 -1.5707963267948966 0.0 1.5707963267948966 0.0 0.04 0.0 0.0 0.0 0.0 0.0 1.0 0.0 0.0 0.0 0.0 0.0 295.23978554241785 -112.11384407318803 480.9 -1.209577709268942 1.2086104339600623 -1.2086104339600627 4.484553762927521 11.809591421696714 0.0 0.0 0.0 0.04 
0.048 0.001152 -1.5707963267948966 -1.5707963267948966 0.0 1.5707963267948966 0.0 0.048 0.0 0.0 0.0 0.0 0.0 1.0 0.0 0.0 0.0 0.0 0.0 295.2792313240216 -112.00991272514642 480.9 -1.2097440202630958 1.2083511972637653 -1.2083511972637655 5.376475810807029 14.173403103553039 0.0 0.0 0.0 0.048 
0.056 0.0015680000000000002 -1.5707963267948966 -1.5707963267948966 0.0 1.5707963267948966 0.0 0.056 0.0 0.0 0.0 0.0 0.0 1.0 0.0 0.0 0.0 0.0 0.0 295.32580189645034 -111.88706687646494 480.9 -1.2099405163839287 1.208044815495334 -1.2080448154953343 6.265675745082037 16.53824490620122 0.0 0.0 0.0 0.056 
0.064 0.002048 -1.5707963267948966 -1.5707963267948966 0.0 1.5707963267948966 0.0 0.064 0.0 0.0 0.0 0.0 0.0 1.0 0.0 0.0 0.0 0.0 0.0 295.379473664957 -111.74529760760825 480.9 -1.21016717101927 1.2076912830968698 -1.20769128309687 7.151699046886928 18.90428631455725 0.0 0.0 0.0 0.064 
0.072 0.0025920000000000006 -1.5707963267948966 -1.5707963267948966 0.0 1.5707963267948966 0.0 0.07200000000000001 0.0 0.0 0.0 0.0 0.0 1.0 0.0 0.0 0.0 0.0 0.0 295.4402193971484 -111.58459464713222 480.9 -1.2104239534672074 1.2072905936598501 -1.2072905936598504 8.03409081459352 21.271695796594685 0.0 0.0 0.0 0.07200000000000001 
0.08 0.0032 -1.5707963267948966 -1.5707963267948966 0.0 1.5707963267948966 0.0 0.08 0.0 0.0 0.0 0.0 0.0 1.0 0.0 0.0 0.0 0.0 0.0 295.50800821970904 -111.40494638040256 480.9 -1.2107108289379842 1.2068427399270305 -1.206842739927031 8.912395710432206 23.640640657576725 0.0 0.0 0.0 0.08 
0.088 0.0038719999999999996 -1.5707963267948966 -1.5707963267948966 0.0 1.5707963267948966 0.0 0.088 0.0 0.0 0.0 0.0 0.0 1.0 0.0 0.0 0.0 0.0 0.0 295.5828056147004 -111.20633985948024 480.9 -1.2110277585561553 1.206347713794597 -1.2063477137945973 9.78615790763426 26.011286894093637 0.0 0.0 0.0 0.088 
0.096 0.004608 -1.5707963267948966 -1.5707963267948966 0.0 1.5707963267948966 0.0 0.096 0.0 0.0 0.0 0.0 0.0 1.0 0.0 0.0 0.0 0.0 0.0 295.6645734154394 -110.98876081417534 480.9 -1.2113746993629853 1.2058055063145694 -1.2058055063145698 10.654921038160833 28.383799047882185 0.0 0.0 0.0 0.096 
0.104 0.005408000000000001 -1.5707963267948966 -1.5707963267948966 0.0 1.5707963267948966 0.0 0.10400000000000001 0.0 0.0 0.0 0.0 0.0 1.0 0.0 0.0 0.0 0.0 0.0 295.75326980196127 -110.75219366427145 480.9 -1.211751604319099 1.2052161076974512 -1.2052161076974515 11.518228141084231 30.758340059403974 0.0 0.0 0.0 0.10400000000000001 
0.112 0.006272000000000001 -1.5707963267948966 -1.5707963267948966 0.0 1.5707963267948966 0.0 0.112 0.0 0.0 0.0 0.0 0.0 1.0 0.0 0.0 0.0 0.0 0.0 295.8488492960722 -110.49662153292248 480.9 -1.212158422307384 1.204579507315135 -1.2045795073151353 12.375621611687318 33.13507112116009 0.0 0.0 0.0 0.112 
0.12 0.0072 -1.5707963267948966 -1.5707963267948966 0.0 1.5707963267948966 0.0 0.12 0.0 0.0 0.0 0.0 0.0 1.0 0.0 0.0 0.0 0.0 0.0 295.95126275599847 -110.22202626122389 480.9 -1.212595098136135 1.203895693704051 -1.2038956937040513 13.226643151346867 35.514151530719815 0.0 0.0 0.0 0.12 
0.128 0.008192 -1.5707963267948966 -1.5707963267948966 0.0 1.5707963267948966 0.0 0.128 0.0 0.0 0.0 0.0 0.0 1.0 0.0 0.0 0.0 0.0 0.0 296.06045737063687 -109.92838842396122 480.9 -1.2130615725424498 1.2031646545685644 -1.2031646545685646 14.070833718267037 37.89573854344152 0.0 0.0 0.0 0.128 
0.136 0.009248000000000001 -1.5707963267948966 -1.5707963267948966 0.0 1.5707963267948966 0.0 0.136 0.0 0.0 0.0 0.0 0.0 1.0 0.0 0.0 0.0 0.0 0.0 296.17637665341584 -109.61568734653784 480.9 -1.2135577821958687 1.202386376784623 -1.2023863767846232 14.907733479129147 40.279987224864556 0.0 0.0 0.0 0.136 
0.144 0.010368000000000002 -1.5707963267948966 -1.5707963267948966 0.0 1.5707963267948966 0.0 0.14400000000000002 0.0 0.0 0.0 0.0 0.0 1.0 0.0 0.0 0.0 0.0 0.0 296.2989604357729 -109.28390112308516 480.9 -1.2140836597022584 1.201560846403644 -1.2015608464036442 15.736881761724264 42.667050302751306 0.0 0.0 0.0 0.14400000000000002 
0.152 0.011552 -1.5707963267948966 -1.5707963267948966 0.0 1.5707963267948966 0.0 0.152 0.0 0.0 0.0 0.0 0.0 1.0 0.0 0.0 0.0 0.0 0.0 296.4281448602577 -108.93300663575795 480.9 -1.2146391336079376 1.2006880486566487 -1.200688048656649 16.557817008635208 45.05707801875917 0.0 0.0 0.0 0.152 
0.16 0.0128 -1.5707963267948966 -1.5707963267948966 0.0 1.5707963267948966 0.0 0.16 0.0 0.0 0.0 0.0 0.0 1.0 0.0 0.0 0.0 0.0 0.0 296.5638623732683 -108.56297957521768 480.9 -1.2152241284040484 1.1997679679586404 -1.1997679679586406 17.37007673203483 47.45021797972293 0.0 0.0 0.0 0.16 
0.168 0.014112000000000001 -1.5707963267948966 -1.5707963267948966 0.0 1.5707963267948966 0.0 0.168 0.0 0.0 0.0 0.0 0.0 1.0 0.0 0.0 0.0 0.0 0.0 296.70604171743196 -108.1737944623074 480.9 -1.2158385645311605 1.1988005879132215 -1.1988005879132217 18.173197469667645 49.84661500852857 0.0 0.0 0.0 0.168 
0.176 0.015487999999999998 -1.5707963267948966 -1.5707963267948966 0.0 1.5707963267948966 0.0 0.176 0.0 0.0 0.0 0.0 0.0 1.0 0.0 0.0 0.0 0.0 0.0 296.8546079236366 -107.7654246709212 480.9 -1.21648235838412 1.1977858913174522 -1.1977858913174524 18.966714742082132 52.24641099456004 0.0 0.0 0.0 0.176 
0.184 0.016928 -1.5707963267948966 -1.5707963267948966 0.0 1.5707963267948966 0.0 0.184 0.0 0.0 0.0 0.0 0.0 1.0 0.0 0.0 0.0 0.0 0.0 297.0094823027274 -107.33784245207201 480.9 -1.2171554223171324 1.1967238601669474 -1.1967238601669477 19.75016301118125 54.649744743701845 0.0 0.0 0.0 0.184 
0.192 0.018432 -1.5707963267948966 -1.5707963267948966 0.0 1.5707963267948966 0.0 0.192 0.0 0.0 0.0 0.0 0.0 1.0 0.0 0.0 0.0 0.0 0.0 297.1705824368763 -106.891018959161 480.9 -1.217857664649078 1.195614475661211 -1.1956144756612113 20.52307564015891 57.056751827880255 0.0 0.0 0.0 0.192 
0.2 0.020000000000000004 -1.5707963267948966 -1.5707963267948966 0.0 1.5707963267948966 0.0 0.2 0.0 0.0 0.0 0.0 0.0 1.0 0.0 0.0 0.0 0.0 0.0 297.3378221706364 -106.42492427445274 480.9 -1.2185889896690676 1.194457718209207 -1.1944577182092075 21.28498485489055 59.46756443412728 0.0 0.0 0.0 0.2 
0.208 0.021632000000000005 -1.5707963267948966 -1.5707963267948966 0.0 1.5707963267948966 0.0 0.20800000000000002 0.0 0.0 0.0 0.0 0.0 1.0 0.0 0.0 0.0 0.0 0.0 297.51111160169467 -105.93952743675972 480.9 -1.2193492976422196 1.1932535674351608 -1.193253567435161 22.035421706846023 61.8823112131525 0.0 0.0 0.0 0.20800000000000002 
0.216 0.023327999999999998 -1.5707963267948966 -1.5707963267948966 0.0 1.5707963267948966 0.0 0.216 0.0 0.0 0.0 0.0 0.0 1.0 0.0 0.0 0.0 0.0 0.0 297.69035707133327 -105.4347964703403 480.9 -1.2201384848156724 1.192002002184595 -1.1920020021845952 22.773916037593505 64.30111712740799 0.0 0.0 0.0 0.216 
0.224 0.025088000000000003 -1.5707963267948966 -1.5707963267948966 0.0 1.5707963267948966 0.0 0.224 0.0 0.0 0.0 0.0 0.0 1.0 0.0 0.0 0.0 0.0 0.0 297.8754611546139 -104.91069841501428 480.9 -1.2209564434248221 1.1907030005305959 -1.190703000530596 23.499996444963198 66.72410329863351 0.0 0.0 0.0 0.224 
0.232 0.026912000000000002 -1.5707963267948966 -1.5707963267948966 0.0 1.5707963267948966 0.0 0.232 0.0 0.0 0.0 0.0 0.0 1.0 0.0 0.0 0.0 0.0 0.0 298.0663226502984 -104.36719935750016 480.9 -1.2218030616997861 1.1893565397803083 -1.1893565397803085 24.213190250940038 69.15138685486923 0.0 0.0 0.0 0.232 
0.24 0.0288 -1.5707963267948966 -1.5707963267948966 0.0 1.5707963267948966 0.0 0.24 0.0 0.0 0.0 0.0 0.0 1.0 0.0 0.0 0.0 0.0 0.0 298.2628365705195 -103.80426446397853 480.9 -1.2226782238720857 1.187962596481655 -1.1879625964816551 24.913023471354844 71.58308077692467 0.0 0.0 0.0 0.24 
0.248 0.030751999999999998 -1.5707963267948966 -1.5707963267948966 0.0 1.5707963267948966 0.0 0.248 0.0 0.0 0.0 0.0 0.0 1.0 0.0 0.0 0.0 0.0 0.0 298.46489413021624 -103.2218580138858 480.9 -1.2235818101815525 1.1865211464302812 -1.1865211464302814 25.599020787443678 74.01929374429362 0.0 0.0 0.0 0.248 
0.256 0.032768 -1.5707963267948966 -1.5707963267948966 0.0 1.5707963267948966 0.0 0.256 0.0 0.0 0.0 0.0 0.0 1.0 0.0 0.0 0.0 0.0 0.0 298.6723827363506 -102.61994343494302 480.9 -1.2245136968834491 1.1850321646767241 -1.1850321646767243 26.270705519345416 76.46012998050576 0.0 0.0 0.0 0.256 
0.264 0.034848000000000004 -1.5707963267948966 -1.5707963267948966 0.0 1.5707963267948966 0.0 0.264 0.0 0.0 0.0 0.0 0.0 1.0 0.0 0.0 0.0 0.0 0.0 298.8851859769186 -101.99848333942413 480.9 -1.2254737562558078 1.1834956255337983 -1.1834956255337985 26.92759960160797 78.90568909790652 0.0 0.0 0.0 0.264 
0.272 0.036992000000000004 -1.5707963267948966 -1.5707963267948966 0.0 1.5707963267948966 0.0 0.272 0.0 0.0 0.0 0.0 0.0 1.0 0.0 0.0 0.0 0.0 0.0 299.10318360977504 -101.35743956166809 480.9 -1.2264618566069785 1.1819115025842022 -1.1819115025842024 27.56922356077372 81.35606594185882 0.0 0.0 0.0 0.272 
0.28 0.039200000000000006 -1.5707963267948966 -1.5707963267948966 0.0 1.5707963267948966 0.0 0.28 0.0 0.0 0.0 0.0 0.0 1.0 0.0 0.0 0.0 0.0 0.0 299.32625155128665 -100.69677319684001 480.9 -1.227477862283392 1.180279768688341 -1.1802797686883413 28.195096495115205 83.81135043436026 0.0 0.0 0.0 0.28 
0.288 0.04147200000000001 -1.5707963267948966 -1.5707963267948966 0.0 1.5707963267948966 0.0 0.28800000000000003 0.0 0.0 0.0 0.0 0.0 1.0 0.0 0.0 0.0 0.0 0.0 299.5542618648326 -100.01644464094551 480.9 -1.228521633677521 1.1786003959923594 -1.1786003959923597 28.80473605659231 86.2716274170718 0.0 0.0 0.0 0.28800000000000003 
0.296 0.04380799999999999 -1.5707963267948966 -1.5707963267948966 0.0 1.5707963267948966 0.0 0.296 0.0 0.0 0.0 0.0 0.0 1.0 0.0 0.0 0.0 0.0 0.0 299.78708274916875 -99.3164136321033 480.9 -1.229593027236055 1.1768733559363898 -1.17687335593639 29.397658435102578 88.73697649375394 0.0 0.0 0.0 0.296 
0.304 0.046208 -1.5707963267948966 -1.5707963267948966 0.0 1.5707963267948966 0.0 0.304 0.0 0.0 0.0 0.0 0.0 1.0 0.0 0.0 0.0 0.0 0.0 300.0245785266769 -98.59663929308057 480.9 -1.230691895468271 1.1750986192630084 -1.1750986192630086 29.973378345096492 91.20747187210978 0.0 0.0 0.0 0.304 
0.312 0.048672 -1.5707963267948966 -1.5707963267948966 0.0 1.5707963267948966 0.0 0.312 0.0 0.0 0.0 0.0 0.0 1.0 0.0 0.0 0.0 0.0 0.0 300.26660963151534 -97.85708017509612 480.9 -1.2318180869546018 1.1732761560258933 -1.1732761560258935 30.531409014629986 93.68318220503278 0.0 0.0 0.0 0.312 
0.32 0.0512 -1.5707963267948966 -1.5707963267948966 0.0 1.5707963267948966 0.0 0.32 0.0 0.0 0.0 0.0 0.0 1.0 0.0 0.0 0.0 0.0 0.0 300.51303259769185 -97.09769430289576 480.9 -1.2329714463554022 1.1714059355986934 -1.1714059355986937 31.071262176926645 96.1641704312614 0.0 0.0 0.0 0.32 
0.328 0.053792000000000006 -1.5707963267948966 -1.5707963267948966 0.0 1.5707963267948966 0.0 0.328 0.0 0.0 0.0 0.0 0.0 1.0 0.0 0.0 0.0 0.0 0.0 300.76370004708065 -96.31843922110498 480.9 -1.2341518144199064 1.1694879266840952 -1.1694879266840954 31.592448064522436 98.65049361544246 0.0 0.0 0.0 0.328 
0.336 0.056448000000000005 -1.5707963267948966 -1.5707963267948966 0.0 1.5707963267948966 0.0 0.336 0.0 0.0 0.0 0.0 0.0 1.0 0.0 0.0 0.0 0.0 0.0 301.0184606774018 -95.51927204186333 480.9 -1.2353590279953721 1.1675220973230866 -1.1675220973230869 32.09447540606608 101.142202787607 0.0 0.0 0.0 0.336 
0.344 0.05916800000000001 -1.5707963267948966 -1.5707963267948966 0.0 1.5707963267948966 0.0 0.34400000000000003 0.0 0.0 0.0 0.0 0.0 1.0 0.0 0.0 0.0 0.0 0.0 301.2771592501865 -94.7001494937454 480.9 -1.2365929200364143 1.1655084149044206 -1.1655084149044208 32.57685142584842 103.63934278206418 0.0 0.0 0.0 0.34400000000000003 
0.352 0.06195199999999999 -1.5707963267948966 -1.5707963267948966 0.0 1.5707963267948966 0.0 0.352 0.0 0.0 0.0 0.0 0.0 1.0 0.0 0.0 0.0 0.0 0.0 301.5396365787498 -93.86102797197294 480.9 -1.2378533196145127 1.163446846174269 -1.1634468461742693 33.03908184613447 106.14195207571993 0.0 0.0 0.0 0.352 
0.36 0.0648 -1.5707963267948966 -1.5707963267948966 0.0 1.5707963267948966 0.0 0.36 0.0 0.0 0.0 0.0 0.0 1.0 0.0 0.0 0.0 0.0 0.0 301.8057295161929 -93.00186358992268 480.9 -1.2391400519277098 1.1613373572460712 -1.1613373572460715 33.48067089237216 108.65006262582945 0.0 0.0 0.0 0.36 
0.368 0.067712 -1.5707963267948966 -1.5707963267948966 0.0 1.5707963267948966 0.0 0.368 0.0 0.0 0.0 0.0 0.0 1.0 0.0 0.0 0.0 0.0 0.0 302.0752709434597 -92.12261223193445 480.9 -1.240452938310473 1.159179913610567 -1.1591799136105674 33.90112130135188 111.16369970719317 0.0 0.0 0.0 0.368 
0.376 0.070688 -1.5707963267948966 -1.5707963267948966 0.0 1.5707963267948966 0.0 0.376 0.0 0.0 0.0 0.0 0.0 1.0 0.0 0.0 0.0 0.0 0.0 302.3480897574701 -91.22322960742385 480.9 -1.2417917962437328 1.1569744801460164 -1.156974480146017 34.299934332391366 113.68288174880877 0.0 0.0 0.0 0.376 
0.384 0.073728 -1.5707963267948966 -1.5707963267948966 0.0 1.5707963267948966 0.0 0.384 0.0 0.0 0.0 0.0 0.0 1.0 0.0 0.0 0.0 0.0 0.0 302.62401085935505 -90.30367130630366 480.9 -1.2431564393650893 1.1547210211286019 -1.154721021128602 34.676609781620606 116.20762016999234 0.0 0.0 0.0 0.384 
0.392 0.07683200000000001 -1.5707963267948966 -1.5707963267948966 0.0 1.5707963267948966 0.0 0.392 0.0 0.0 0.0 0.0 0.0 1.0 0.0 0.0 0.0 0.0 0.0 302.902855142819 -89.36389285571877 480.9 -1.244546677479181 1.1524195002430102 -1.1524195002430104 35.03064599944176 118.73791921598506 0.0 0.0 0.0 0.392 
0.4 0.08000000000000002 -1.5707963267948966 -1.5707963267948966 0.0 1.5707963267948966 0.0 0.4 0.0 0.0 0.0 0.0 0.0 1.0 0.0 0.0 0.0 0.0 0.0 303.1844394826546 -88.40384977809795 480.9 -1.245962316568212 1.1500698805931906 -1.1500698805931908 35.361539911239184 121.27377579306186 0.0 0.0 0.0 0.4 
0.408 0.08323200000000001 -1.5707963267948966 -1.5707963267948966 0.0 1.5707963267948966 0.0 0.40800000000000003 0.0 0.0 0.0 0.0 0.0 1.0 0.0 0.0 0.0 0.0 0.0 303.4685767234366 -87.42349765052661 480.9 -1.247403158802641 1.1476721247132875 -1.1476721247132877 35.66878704141486 123.81517930316215 0.0 0.0 0.0 0.40800000000000003 
0.416 0.08652800000000002 -1.5707963267948966 -1.5707963267948966 0.0 1.5707963267948966 0.0 0.41600000000000004 0.0 0.0 0.0 0.0 0.0 1.0 0.0 0.0 0.0 0.0 0.0 303.7550756684213 -86.42279216544465 480.9 -1.2488690025520166 1.145226194578745 -1.1452261945787452 35.95188154082498 126.36211147806327 0.0 0.0 0.0 0.41600000000000004 
0.424 0.089888 -1.5707963267948966 -1.5707963267948966 0.0 1.5707963267948966 0.0 0.424 0.0 0.0 0.0 0.0 0.0 1.0 0.0 0.0 0.0 0.0 0.0 304.04374106867937 -85.40168919267246 480.9 -1.2503596423959624 1.1427320516175752 -1.1427320516175754 36.210316217693126 128.91454621312005 0.0 0.0 0.0 0.424 
0.432 0.09331199999999999 -1.5707963267948966 -1.5707963267948966 0.0 1.5707963267948966 0.0 0.432 0.0 0.0 0.0 0.0 0.0 1.0 0.0 0.0 0.0 0.0 0.0 304.3343736124907 -84.36014484276872 480.9 -1.2518748691353065 1.140189656721796 -1.1401896567217962 36.44358257207609 131.472449400596 0.0 0.0 0.0 0.432 
0.44 0.0968 -1.5707963267948966 -1.5707963267948966 0.0 1.5707963267948966 0.0 0.44 0.0 0.0 0.0 0.0 0.0 1.0 0.0 0.0 0.0 0.0 0.0 304.6267699150285 -83.29811553172306 480.9 -1.2534144698033538 1.1375989702590303 -1.1375989702590306 36.65117083395815 134.03577876261252 0.0 0.0 0.0 0.44 
0.448 0.10035200000000001 -1.5707963267948966 -1.5707963267948966 0.0 1.5707963267948966 0.0 0.448 0.0 0.0 0.0 0.0 0.0 1.0 0.0 0.0 0.0 0.0 0.0 304.9207225083637 -82.21555804698657 480.9 -1.254978227677287 1.1349599520842613 -1.1349599520842617 36.83257000504999 136.60448368374696 0.0 0.0 0.0 0.448 
0.456 0.103968 -1.5707963267948966 -1.5707963267948966 0.0 1.5707963267948966 0.0 0.456 0.0 0.0 0.0 0.0 0.0 1.0 0.0 0.0 0.0 0.0 0.0 305.21601983181864 -81.11242961484298 480.9 -1.256565922289704 1.132272561551745 -1.1322725615517453 36.9872679043684 139.17850504330931 0.0 0.0 0.0 0.456 
0.464 0.10764800000000001 -1.5707963267948966 -1.5707963267948966 0.0 1.5707963267948966 0.0 0.464 0.0 0.0 0.0 0.0 0.0 1.0 0.0 0.0 0.0 0.0 0.0 305.5124462227003 -79.9886879691225 480.9 -1.2581773294402823 1.129536757527078 -1.1295367575270783 37.11475121767284 141.75777504733296 0.0 0.0 0.0 0.464 
0.472 0.11139200000000002 -1.5707963267948966 -1.5707963267948966 0.0 1.5707963267948966 0.0 0.47200000000000003 0.0 0.0 0.0 0.0 0.0 1.0 0.0 0.0 0.0 0.0 0.0 305.8097819074453 -78.84429142126089 480.9 -1.2598122212075618 1.1267524983994113 -1.1267524983994115 37.21450555083514 144.3422170603142 0.0 0.0 0.0 0.47200000000000003 
0.48 0.1152 -1.5707963267948966 -1.5707963267948966 0.0 1.5707963267948966 0.0 0.48 0.0 0.0 0.0 0.0 0.0 1.0 0.0 0.0 0.0 0.0 0.0 306.1078029932077 -77.67919893170574 480.9 -1.2614703659608488 1.1239197420938114 -1.1239197420938116 37.286015487218755 146.9317454367397 0.0 0.0 0.0 0.48 
0.488 0.119072 -1.5707963267948966 -1.5707963267948966 0.0 1.5707963267948966 0.0 0.488 0.0 0.0 0.0 0.0 0.0 1.0 0.0 0.0 0.0 0.0 0.0 306.4062814599219 -76.49337018267077 480.9 -1.2631515283722325 1.1210384460837686 -1.1210384460837688 37.32876464914334 149.5262653524419 0.0 0.0 0.0 0.488 
0.496 0.12300799999999999 -1.5707963267948966 -1.5707963267948966 0.0 1.5707963267948966 0.0 0.496 0.0 0.0 0.0 0.0 0.0 1.0 0.0 0.0 0.0 0.0 0.0 306.704985152874 -75.28676565224029 480.9 -1.26485546942871 1.1181085674038405 -1.1181085674038407 37.342235763511184 152.12567263582548 0.0 0.0 0.0 0.496 
0.504 0.127008 -1.5707963267948966 -1.5707963267948966 0.0 1.5707963267948966 0.0 0.504 0.0 0.0 0.0 0.0 0.0 1.0 0.0 0.0 0.0 0.0 0.0 307.00367777581505 -74.05934668982387 480.9 -1.2665819464444141 1.1151300626624359 -1.1151300626624363 37.32591073167123 154.7298535990108 0.0 0.0 0.0 0.504 
0.512 0.131072 -1.5707963267948966 -1.5707963267948966 0.0 1.5707963267948966 0.0 0.512 0.0 0.0 0.0 0.0 0.0 1.0 0.0 0.0 0.0 0.0 0.0 307.3021188846506 -72.81107559296223 480.9 -1.268330713072941 1.1121028880547332 -1.1121028880547335 37.27927070359666 157.33868486894113 0.0 0.0 0.0 0.512 
0.52 0.13520000000000001 -1.5707963267948966 -1.5707963267948966 0.0 1.5707963267948966 0.0 0.52 0.0 0.0 0.0 0.0 0.0 1.0 0.0 0.0 0.0 0.0 0.0 307.6000638817408 -71.54191568548418 480.9 -1.2701015193197747 1.1090269993757274 -1.1090269993757278 37.20179615645178 159.95203321850522 0.0 0.0 0.0 0.52 
0.528 0.13939200000000002 -1.5707963267948966 -1.5707963267948966 0.0 1.5707963267948966 0.0 0.528 0.0 0.0 0.0 0.0 0.0 1.0 0.0 0.0 0.0 0.0 0.0 307.8972640108474 -70.25183139701446 480.9 -1.271894111554794 1.1059023520334073 -1.1059023520334075 37.09296697762363 162.56975539772742 0.0 0.0 0.0 0.528 
0.536 0.14364800000000003 -1.5707963267948966 -1.5707963267948966 0.0 1.5707963267948966 0.0 0.536 0.0 0.0 0.0 0.0 0.0 1.0 0.0 0.0 0.0 0.0 0.0 308.193466352762 -68.94078834383129 480.9 -1.2737082325248719 1.1027289010620551 -1.1027289010620553 36.95226255229357 165.19169796508044 0.0 0.0 0.0 0.536 
0.544 0.14796800000000002 -1.5707963267948966 -1.5707963267948966 0.0 1.5707963267948966 0.0 0.544 0.0 0.0 0.0 0.0 0.0 1.0 0.0 0.0 0.0 0.0 0.0 308.48841382165506 -67.60875341107318 480.9 -1.2755436213665516 1.0995066011356742 -1.0995066011356744 36.77916185562381 167.81769711898036 0.0 0.0 0.0 0.544 
0.552 0.15235200000000002 -1.5707963267948966 -1.5707963267948966 0.0 1.5707963267948966 0.0 0.552 0.0 0.0 0.0 0.0 0.0 1.0 0.0 0.0 0.0 0.0 0.0 308.7818451621793 -66.25569483629245 480.9 -1.2774000136187915 1.0962354065815236 -1.0962354065815239 36.573143549633436 170.44757852952299 0.0 0.0 0.0 0.552 
0.56 0.15680000000000002 -1.5707963267948966 -1.5707963267948966 0.0 1.5707963267948966 0.0 0.56 0.0 0.0 0.0 0.0 0.0 1.0 0.0 0.0 0.0 0.0 0.0 309.07349494736843 -64.88158229435392 480.9 -1.2792771412357875 1.0929152713937798 -1.09291527139378 36.3336860848382 173.08115717052632 0.0 0.0 0.0 0.56 
0.568 0.16131200000000004 -1.5707963267948966 -1.5707963267948966 0.0 1.5707963267948966 0.0 0.5680000000000001 0.0 0.0 0.0 0.0 0.0 1.0 0.0 0.0 0.0 0.0 0.0 309.36309357736735 -63.48638698367569 480.9 -1.2811747325998544 1.089546149247304 -1.0895461492473042 36.0602678067278 175.71823715194466 0.0 0.0 0.0 0.5680000000000001 
0.576 0.16588800000000004 -1.5707963267948966 -1.5707963267948966 0.0 1.5707963267948966 0.0 0.5760000000000001 0.0 0.0 0.0 0.0 0.0 1.0 0.0 0.0 0.0 0.0 0.0 309.65036727903464 -62.07008171380913 480.9 -1.283092512534367 1.086127993511522 -1.0861279935115224 35.75236706715406 178.35861155272397 0.0 0.0 0.0 0.5760000000000001 
0.584 0.17052799999999999 -1.5707963267948966 -1.5707963267948966 0.0 1.5707963267948966 0.0 0.584 0.0 0.0 0.0 0.0 0.0 1.0 0.0 0.0 0.0 0.0 0.0 309.9350381064552 -60.63264099435358 480.9 -1.2850302023167552 1.0826607572644071 -1.0826607572644074 35.40946234070249 181.0020622541698 0.0 0.0 0.0 0.584 
0.592 0.17523199999999997 -1.5707963267948966 -1.5707963267948966 0.0 1.5707963267948966 0.0 0.592 0.0 0.0 0.0 0.0 0.0 1.0 0.0 0.0 0.0 0.0 0.0 310.21682394240463 -59.17404112520218 480.9 -1.2869875196915488 1.0791443933065696 -1.0791443933065699 35.03103234611969 183.64835977390354 0.0 0.0 0.0 0.592 
0.6 0.18 -1.5707963267948966 -1.5707963267948966 0.0 1.5707963267948966 0.0 0.6 0.0 0.0 0.0 0.0 0.0 1.0 0.0 0.0 0.0 0.0 0.0 310.49543850080534 -57.694260288113426 480.9 -1.2889641788834592 1.0755788541754445 -1.0755788541754447 34.61655617286805 186.2972631004832 0.0 0.0 0.0 0.6 
0.608 0.184832 -1.5707963267948966 -1.5707963267948966 0.0 1.5707963267948966 0.0 0.608 0.0 0.0 0.0 0.0 0.0 1.0 0.0 0.0 0.0 0.0 0.0 310.7705913302158 -56.19327863960257 480.9 -1.290959890610505 1.0719640921595757 -1.0719640921595759 34.16551341287836 188.9485195287712 0.0 0.0 0.0 0.608 
0.616 0.189728 -1.5707963267948966 -1.5707963267948966 0.0 1.5707963267948966 0.0 0.616 0.0 0.0 0.0 0.0 0.0 1.0 0.0 0.0 0.0 0.0 0.0 311.04198781839443 -54.67107840514705 480.9 -1.2929743620971663 1.0683000593129957 -1.0683000593129959 33.67738429757058 191.60186449613096 0.0 0.0 0.0 0.616 
0.624 0.194688 -1.5707963267948966 -1.5707963267948966 0.0 1.5707963267948966 0.0 0.624 0.0 0.0 0.0 0.0 0.0 1.0 0.0 0.0 0.0 0.0 0.0 311.30932919798215 -53.12764397469877 480.9 -1.2950072970875648 1.064586707469696 -1.0645867074696962 33.15164984021203 194.25702141954085 0.0 0.0 0.0 0.624 
0.632 0.199712 -1.5707963267948966 -1.5707963267948966 0.0 1.5707963267948966 0.0 0.632 0.0 0.0 0.0 0.0 0.0 1.0 0.0 0.0 0.0 0.0 0.0 311.57231255334386 -51.5629619994952 480.9 -1.2970583958586641 1.0608239882581854 -1.0608239882581856 32.587791983680965 196.91370153371332 0.0 0.0 0.0 0.632 
0.64 0.2048 -1.5707963267948966 -1.5707963267948966 0.0 1.5707963267948966 0.0 0.64 0.0 0.0 0.0 0.0 0.0 1.0 0.0 0.0 0.0 0.0 0.0 311.83063082861486 -49.97702149016153 480.9 -1.299127355233488 1.0570118531161334 -1.0570118531161337 31.98529375370338 199.5716037303135 0.0 0.0 0.0 0.64 
0.648 0.209952 -1.5707963267948966 -1.5707963267948966 0.0 1.5707963267948966 0.0 0.648 0.0 0.0 0.0 0.0 0.0 1.0 0.0 0.0 0.0 0.0 0.0 312.08397283699526 -48.3698139160942 480.9 -1.3012138685943437 1.0531502533050965 -1.053150253305097 31.343639417629046 202.23041439837294 0.0 0.0 0.0 0.648 
0.656 0.21516800000000003 -1.5707963267948966 -1.5707963267948966 0.0 1.5707963267948966 0.0 0.656 0.0 0.0 0.0 0.0 0.0 1.0 0.0 0.0 0.0 0.0 0.0 312.3320232713363 -46.741333306116 480.9 -1.3033176258960528 1.0492391399253238 -1.049239139925324 30.662314648812096 204.88980726599664 0.0 0.0 0.0 0.656 
0.664 0.22044800000000003 -1.5707963267948966 -1.5707963267948966 0.0 1.5707963267948966 0.0 0.664 0.0 0.0 0.0 0.0 0.0 1.0 0.0 0.0 0.0 0.0 0.0 312.57446271606506 -45.09157635039213 480.9 -1.3054383136791738 1.0452784639306374 -1.0452784639306376 29.940806696660378 207.5494432434672 0.0 0.0 0.0 0.664 
0.672 0.22579200000000002 -1.5707963267948966 -1.5707963267948966 0.0 1.5707963267948966 0.0 0.672 0.0 0.0 0.0 0.0 0.0 1.0 0.0 0.0 0.0 0.0 0.0 312.8109676604921 -43.42054250359524 480.9 -1.307575615083226 1.0412681761433915 -1.0412681761433917 29.178604562416005 210.2089702678507 0.0 0.0 0.0 0.672 
0.68 0.23120000000000004 -1.5707963267948966 -1.5707963267948966 0.0 1.5707963267948966 0.0 0.68 0.0 0.0 0.0 0.0 0.0 1.0 0.0 0.0 0.0 0.0 0.0 313.0412105135488 -41.72823408930752 480.9 -1.3097292098598872 1.0372082272694958 -1.0372082272694962 28.375199180729116 212.86802314921317 0.0 0.0 0.0 0.68 
0.688 0.23667200000000005 -1.5707963267948966 -1.5707963267948966 0.0 1.5707963267948966 0.0 0.6880000000000001 0.0 0.0 0.0 0.0 0.0 1.0 0.0 0.0 0.0 0.0 0.0 313.26485961999964 -40.01465640564612 480.9 -1.3118987743861812 1.0330985679135136 -1.0330985679135138 27.530083607084535 215.52622341855977 0.0 0.0 0.0 0.6880000000000001 
0.696 0.24220800000000003 -1.5707963267948966 -1.5707963267948966 0.0 1.5707963267948966 0.0 0.6960000000000001 0.0 0.0 0.0 0.0 0.0 1.0 0.0 0.0 0.0 0.0 0.0 313.48157927817925 -38.27981783209776 480.9 -1.3140839816776364 1.0289391485938213 -1.0289391485938215 26.642753211140047 218.18317917761277 0.0 0.0 0.0 0.6960000000000001 
0.704 0.24780799999999997 -1.5707963267948966 -1.5707963267948966 0.0 1.5707963267948966 0.0 0.704 0.0 0.0 0.0 0.0 0.0 1.0 0.0 0.0 0.0 0.0 0.0 313.6910297592985 -36.52372993754742 480.9 -1.3162845014014093 1.0247299197578326 -1.0247299197578328 25.712705876033382 220.83848495054613 0.0 0.0 0.0 0.704 
0.712 0.253472 -1.5707963267948966 -1.5707963267948966 0.0 1.5707963267948966 0.0 0.712 0.0 0.0 0.0 0.0 0.0 1.0 0.0 0.0 0.0 0.0 0.0 313.8928673283695 -34.746407589484825 480.9 -1.3184999998893734 1.0204708317972837 -1.020470831797284 24.739442203713192 223.49172153779907 0.0 0.0 0.0 0.712 
0.72 0.2592 -1.5707963267948966 -1.5707963267948966 0.0 1.5707963267948966 0.0 0.72 0.0 0.0 0.0 0.0 0.0 1.0 0.0 0.0 0.0 0.0 0.0 314.08674426679806 -32.947869064371886 480.9 -1.3207301401511626 1.0161618350635744 -1.0161618350635746 23.722465726347757 226.1424558720946 0.0 0.0 0.0 0.72 
0.728 0.26497265103853884 -1.5707963267948966 -1.5707963267948966 0.0 1.5707963267948966 0.0 0.7192025091165353 0.0 0.0 0.0 0.0 0.0 -1.0 0.0 0.0 0.0 0.0 0.0 314.27170654075525 -31.134216996118425 480.9 -1.3229671017855493 1.0118174445877266 -1.011817444587727 22.39180698298705 226.02499988844662 0.0 0.0 0.0 0.7192025091165353 
0.736 0.27069427111147115 -1.5707963267948966 -1.5707963267948966 0.0 1.5707963267948966 0.0 0.7112025091165353 0.0 0.0 0.0 0.0 0.0 -1.0 0.0 0.0 0.0 0.0 0.0 314.4446995973484 -29.33557388450617 480.9 -1.3251738343391288 1.0075096821444578 -1.007509682144458 20.863533753034293 223.63385933202937 0.0 0.0 0.0 0.7112025091165353 
0.744 0.2763518911844034 -1.5707963267948966 -1.5707963267948966 0.0 1.5707963267948966 0.0 0.7032025091165353 0.0 0.0 0.0 0.0 0.0 -1.0 0.0 0.0 0.0 0.0 0.0 314.60563577951496 -27.556105235812574 480.9 -1.327345659028822 1.003248375313765 -1.0032483753137653 19.377522343302697 221.23147246235774 0.0 0.0 0.0 0.7032025091165353 
0.752 0.2819455112573357 -1.5707963267948966 -1.5707963267948966 0.0 1.5707963267948966 0.0 0.6952025091165352 0.0 0.0 0.0 0.0 0.0 -1.0 0.0 0.0 0.0 0.0 0.0 314.75485158926256 -25.795898918651446 480.9 -1.3294829300472628 0.999033592087036 -0.9990335920870365 17.933373653163002 218.818362581458 0.0 0.0 0.0 0.6952025091165352 
0.76 0.287475131330268 -1.5707963267948966 -1.5707963267948966 0.0 1.5707963267948966 0.0 0.6872025091165352 0.0 0.0 0.0 0.0 0.0 -1.0 0.0 0.0 0.0 0.0 0.0 314.892680313023 -24.055038667196417 480.9 -1.3315859970171628 0.9948653991102787 -0.9948653991102789 16.530682928992654 216.3950400135404 0.0 0.0 0.0 0.6872025091165352 
0.768 0.29294075140320025 -1.5707963267948966 -1.5707963267948966 0.0 1.5707963267948966 0.0 0.6792025091165352 0.0 0.0 0.0 0.0 0.0 -1.0 0.0 0.0 0.0 0.0 0.0 315.0194519773741 -22.333604184611215 480.9 -1.3336552050141421 0.9907438617065052 -0.9907438617065054 15.169039999803488 213.96200220354837 0.0 0.0 0.0 0.6792025091165352 
0.776 0.2983423714761325 -1.5707963267948966 -1.5707963267948966 0.0 1.5707963267948966 0.0 0.6712025091165352 0.0 0.0 0.0 0.0 0.0 -1.0 0.0 0.0 0.0 0.0 0.0 315.13549330662556 -20.631671245678447 480.9 -1.3356908945890877 0.9866690438976826 -0.9866690438976828 13.848029507366846 211.51973381908417 0.0 0.0 0.0 0.6712025091165352 
0.784 0.30367999154906483 -1.5707963267948966 -1.5707963267948966 0.0 1.5707963267948966 0.0 0.6632025091165352 0.0 0.0 0.0 0.0 0.0 -1.0 0.0 0.0 0.0 0.0 0.0 315.24112768222267 -18.94931179859982 480.9 -1.3376934017900441 0.9826410084262595 -0.9826410084262599 12.567231130862965 209.06870685557612 0.0 0.0 0.0 0.6632025091165352 
0.792 0.3089536116219971 -1.5707963267948966 -1.5707963267948966 0.0 1.5707963267948966 0.0 0.6552025091165352 0.0 0.0 0.0 0.0 0.0 -1.0 0.0 0.0 0.0 0.0 0.0 315.3366751039265 -17.286594065942342 480.9 -1.3396630581836453 0.9786598167762739 -0.9786598167762741 11.326219806084431 206.6093807445583 0.0 0.0 0.0 0.6552025091165352 
0.8 0.3141632316949294 -1.5707963267948966 -1.5707963267948966 0.0 1.5707963267948966 0.0 0.6472025091165352 0.0 0.0 0.0 0.0 0.0 -1.0 0.0 0.0 0.0 0.0 0.0 315.4224521527252 -15.643582644706392 480.9 -1.3416001908760937 0.9747255291940536 -0.9747255291940539 10.12456593922586 204.14220246493403 0.0 0.0 0.0 0.6472025091165352 
0.808 0.3193088517678617 -1.5707963267948966 -1.5707963267948966 0.0 1.5707963267948966 0.0 0.6392025091165352 0.0 0.0 0.0 0.0 0.0 -1.0 0.0 0.0 0.0 0.0 0.0 315.4987719554346 -14.020338605492192 480.9 -1.3435051225336962 0.9708382047085129 -0.9708382047085131 8.961835615294033 201.66760665709936 0.0 0.0 0.0 0.6392025091165352 
0.816 0.324390471840794 -1.5707963267948966 -1.5707963267948966 0.0 1.5707963267948966 0.0 0.6312025091165352 0.0 0.0 0.0 0.0 0.0 -1.0 0.0 0.0 0.0 0.0 0.0 315.5659441509445 -12.416919590742221 480.9 -1.3453781714029622 0.9669979011510534 -0.9669979011510537 7.837590801174751 199.1860157398046 0.0 0.0 0.0 0.6312025091165352 
0.824 0.3294080919137263 -1.5707963267948966 -1.5707963267948966 0.0 1.5707963267948966 0.0 0.6232025091165352 0.0 0.0 0.0 0.0 0.0 -1.0 0.0 0.0 0.0 0.0 0.0 315.6242748580683 -10.833379912038072 480.9 -1.3472196513302759 0.9632046751750782 -0.9632046751750785 6.751389543394796 196.69784002963513 0.0 0.0 0.0 0.6232025091165352 
0.832 0.33436171198665854 -1.5707963267948966 -1.5707963267948966 0.0 1.5707963267948966 0.0 0.6152025091165352 0.0 0.0 0.0 0.0 0.0 -1.0 0.0 0.0 0.0 0.0 0.0 315.6740666449535 -9.269770646431443 480.9 -1.3490298717811435 0.9594585822751246 -0.9594585822751248 5.70278616061943 194.20347786299573 0.0 0.0 0.0 0.6152025091165352 
0.84 0.33925133205959074 -1.5707963267948966 -1.5707963267948966 0.0 1.5707963267948966 0.0 0.6072025091165353 0.0 0.0 0.0 0.0 0.0 -1.0 0.0 0.0 0.0 0.0 0.0 315.71561850001154 -7.726139731789861 480.9 -1.3508091378590252 0.9557596768056195 -0.9557596768056197 4.691331430927758 191.70331572048585 0.0 0.0 0.0 0.6072025091165353 
0.848 0.34407695213252304 -1.5707963267948966 -1.5707963267948966 0.0 1.5707963267948966 0.0 0.5992025091165353 0.0 0.0 0.0 0.0 0.0 -1.0 0.0 0.0 0.0 0.0 0.0 315.7492258043249 -6.202532061137678 480.9 -1.352557750323764 0.95210801199927 -0.9521080119992702 3.716572773909452 189.19772835355496 0.0 0.0 0.0 0.5992025091165353 
0.856 0.3488385722054553 -1.5707963267948966 -1.5707963267948966 0.0 1.5707963267948966 0.0 0.5912025091165353 0.0 0.0 0.0 0.0 0.0 -1.0 0.0 0.0 0.0 0.0 0.0 315.7751803054902 -4.698989575975585 480.9 -1.3542760056096073 0.9485036399850867 -0.9485036399850869 2.77805442762921 186.68707891333216 0.0 0.0 0.0 0.5912025091165353 
0.864 0.3535361922783876 -1.5707963267948966 -1.5707963267948966 0.0 1.5707963267948966 0.0 0.5832025091165353 0.0 0.0 0.0 0.0 0.0 -1.0 0.0 0.0 0.0 0.0 0.0 315.79377009285736 -3.2155513585608624 480.9 -1.3559641958428414 0.9449466118060571 -0.9449466118060573 1.8753176205057787 184.17171908152469 0.0 0.0 0.0 0.5832025091165353 
0.872 0.3581698123513199 -1.5707963267948966 -1.5707963267948966 0.0 1.5707963267948966 0.0 0.5752025091165353 0.0 0.0 0.0 0.0 0.0 -1.0 0.0 0.0 0.0 0.0 0.0 315.8052795741226 -1.7522537231325686 480.9 -1.3576226088590306 0.9414369774364614 -0.9414369774364616 1.007900738154644 181.65198920328422 0.0 0.0 0.0 0.5752025091165353 
0.88 0.3627394324242522 -1.5707963267948966 -1.5707963267948966 0.0 1.5707963267948966 0.0 0.5672025091165352 0.0 0.0 0.0 0.0 0.0 -1.0 0.0 0.0 0.0 0.0 0.0 315.80998945323734 -0.30913030606629377 480.9 -1.3592515282198832 0.93797478579885 -0.9379747857988502 0.1753394852447643 179.12821842194276 0.0 0.0 0.0 0.5672025091165352 
0.888 0.3672450524971845 -1.5707963267948966 -1.5707963267948966 0.0 1.5707963267948966 0.0 0.5592025091165352 0.0 0.0 0.0 0.0 0.0 -1.0 0.0 0.0 0.0 0.0 0.0 315.80817670959095 1.113787845056276 480.9 -1.3608512332297378 0.9345600847806785 -0.9345600847806788 -0.6228329575789683 176.6007248155214 0.0 0.0 0.0 0.5592025091165352 
0.896 0.3716866725701168 -1.5707963267948966 -1.5707963267948966 0.0 1.5707963267948966 0.0 0.5512025091165352 0.0 0.0 0.0 0.0 0.0 -1.0 0.0 0.0 0.0 0.0 0.0 315.8001145784304 2.516472183476459 480.9 -1.3624219989516835 0.931192921250608 -0.9311929212506083 -1.3870857816541904 174.06981553492014 0.0 0.0 0.0 0.5512025091165352 
0.904 0.376064292643049 -1.5707963267948966 -1.5707963267948966 0.0 1.5707963267948966 0.0 0.5432025091165352 0.0 0.0 0.0 0.0 0.0 -1.0 0.0 0.0 0.0 0.0 0.0 315.7860725324765 3.898896576399679 480.9 -1.3639640962233182 0.9278733410744805 -0.9278733410744807 -2.1178904030861747 171.53578694369742 0.0 0.0 0.0 0.5432025091165352 
0.912 0.38037791271598137 -1.5707963267948966 -1.5707963267948966 0.0 1.5707963267948966 0.0 0.5352025091165352 0.0 0.0 0.0 0.0 0.0 -1.0 0.0 0.0 0.0 0.0 0.0 315.7663162646984 5.261037219260945 480.9 -1.3654777916721486 0.9246013891309687 -0.9246013891309689 -2.8157203203039374 168.99892475935198 0.0 0.0 0.0 0.5352025091165352 
0.92 0.38462753278891365 -1.5707963267948966 -1.5707963267948966 0.0 1.5707963267948966 0.0 0.5272025091165352 0.0 0.0 0.0 0.0 0.0 -1.0 0.0 0.0 0.0 0.0 0.0 315.7411076722092 6.602872551126193 480.9 -1.3669633477306455 0.9213771093269071 -0.9213771093269074 -3.481050976330427 166.45950419602278 0.0 0.0 0.0 0.5272025091165352 
0.928 0.3888131528618459 -1.5707963267948966 -1.5707963267948966 0.0 1.5707963267948966 0.0 0.5192025091165352 0.0 0.0 0.0 0.0 0.0 -1.0 0.0 0.0 0.0 0.0 0.0 315.7107048412444 7.92438317124078 480.9 -1.3684210226509486 0.9182005446123107 -0.9182005446123109 -4.114359625709059 163.91779010852397 0.0 0.0 0.0 0.5192025091165352 
0.936 0.39293477293477824 -1.5707963267948966 -1.5707963267948966 0.0 1.5707963267948966 0.0 0.5112025091165352 0.0 0.0 0.0 0.0 0.0 -1.0 0.0 0.0 0.0 0.0 0.0 315.6753620331872 9.225551756735118 480.9 -1.3698510705192375 0.9150717369950851 -0.9150717369950854 -4.716125206027452 161.37403713763592 0.0 0.0 0.0 0.5112025091165352 
0.944 0.3969923930077105 -1.5707963267948966 -1.5707963267948966 0.0 1.5707963267948966 0.0 0.5032025091165352 0.0 0.0 0.0 0.0 0.0 -1.0 0.0 0.0 0.0 0.0 0.0 315.63532967160216 10.50636298149762 480.9 -1.3712537412697683 0.9119907275554306 -0.9119907275554309 -5.286828213978684 158.82848985657498 0.0 0.0 0.0 0.5032025091165352 
0.952 0.4009860130806428 -1.5707963267948966 -1.5707963267948966 0.0 1.5707963267948966 0.0 0.4952025091165352 0.0 0.0 0.0 0.0 0.0 -1.0 0.0 0.0 0.0 0.0 0.0 315.5908543302439 11.766803436223721 480.9 -1.3726292806985836 0.9089575564599492 -0.9089575564599495 -5.826950585899055 156.28138291856774 0.0 0.0 0.0 0.4952025091165352 
0.96 0.404915633153575 -1.5707963267948966 -1.5707963267948966 0.0 1.5707963267948966 0.0 0.4872025091165353 0.0 0.0 0.0 0.0 0.0 -1.0 0.0 0.0 0.0 0.0 0.0 315.54217872200263 13.006861549649688 480.9 -1.3739779304769015 0.9059722629754541 -0.9059722629754544 -6.336975582720714 153.7329412054579 0.0 0.0 0.0 0.4872025091165353 
0.968 0.40878125322650727 -1.5707963267948966 -1.5707963267948966 0.0 1.5707963267948966 0.0 0.4792025091165353 0.0 0.0 0.0 0.0 0.0 -1.0 0.0 0.0 0.0 0.0 0.0 315.48954168875287 14.22652751097937 480.9 -1.375299928164184 0.9030348854824882 -0.9030348854824884 -6.817387679276732 151.18337997727613 0.0 0.0 0.0 0.4792025091165353 
0.976 0.41258287329943955 -1.5707963267948966 -1.5707963267948966 0.0 1.5707963267948966 0.0 0.4712025091165353 0.0 0.0 0.0 0.0 0.0 -1.0 0.0 0.0 0.0 0.0 0.0 315.43317819207135 15.425793193510852 480.9 -1.3765955072209022 0.9001454614885566 -0.9001454614885568 -7.268672457895085 148.6329050227072 0.0 0.0 0.0 0.4712025091165353 
0.984 0.4163204933723718 -1.5707963267948966 -1.5707963267948966 0.0 1.5707963267948966 0.0 0.46320250911653527 0.0 0.0 0.0 0.0 0.0 -1.0 0.0 0.0 0.0 0.0 0.0 315.37331930478797 16.604652079470302 480.9 -1.377864897020988 0.8973040276410753 -0.8973040276410755 -7.691316506217738 146.08171281038804 0.0 0.0 0.0 0.46320250911653527 
0.992 0.4199941134453041 -1.5707963267948966 -1.5707963267948966 0.0 1.5707963267948966 0.0 0.45520250911653526 0.0 0.0 0.0 0.0 0.0 -1.0 0.0 0.0 0.0 0.0 0.0 315.3101922033384 17.763099186059495 480.9 -1.3791083228639878 0.8945106197400399 -0.8945106197400401 -8.085807319180168 143.52999064097662 0.0 0.0 0.0 0.45520250911653526 
1.0 0.42360373351823644 -1.5707963267948966 -1.5707963267948966 0.0 1.5707963267948966 0.0 0.44720250911653525 0.0 0.0 0.0 0.0 0.0 -1.0 0.0 0.0 0.0 0.0 0.0 315.24402016088413 18.90113099272264 480.9 -1.380326005986922 0.8917652727504203 -0.8917652727504205 -8.452633205085872 140.97791679993102 0.0 0.0 0.0 0.44720250911653525 
1.008 0.42714935359116873 -1.5707963267948966 -1.5707963267948966 0.0 1.5707963267948966 0.0 0.43920250911653524 0.0 0.0 0.0 0.0 0.0 -1.0 0.0 0.0 0.0 0.0 0.0 315.1750225411677 20.018745369637937 480.9 -1.3815181635758493 0.8890680208142817 -0.8890680208142819 -8.792283195710004 138.42566071094143 0.0 0.0 0.0 0.43920250911653524 
1.016 0.43063097366410097 -1.5707963267948966 -1.5707963267948966 0.0 1.5707963267948966 0.0 0.43120250911653524 0.0 0.0 0.0 0.0 0.0 -1.0 0.0 0.0 0.0 0.0 0.0 315.10341479307135 21.11594150743934 480.9 -1.3826850087771478 0.8864188972626389 -0.8864188972626391 -9.105246960365838 135.87338308996073 0.0 0.0 0.0 0.43120250911653524 
1.024 0.43404859373703325 -1.5707963267948966 -1.5707963267948966 0.0 1.5707963267948966 0.0 0.42320250911653523 0.0 0.0 0.0 0.0 0.0 -1.0 0.0 0.0 0.0 0.0 0.0 315.0294084458473 22.192719848172604 480.9 -1.3838267507085136 0.8838179346270443 -0.8838179346270444 -9.392014723866978 133.3212360997804 0.0 0.0 0.0 0.42320250911653523 
1.032 0.4374022138099656 -1.5707963267948966 -1.5707963267948966 0.0 1.5707963267948966 0.0 0.4152025091165352 0.0 0.0 0.0 0.0 0.0 -1.0 0.0 0.0 0.0 0.0 0.0 314.9532111049894 23.249082017489837 480.9 -1.3849435944696797 0.881265164650915 -0.8812651646509152 -9.6530771883179 130.7693635051014 0.0 0.0 0.0 0.4152025091165352 
1.04 0.4406918338828979 -1.5707963267948966 -1.5707963267948966 0.0 1.5707963267948966 0.0 0.4072025091165352 0.0 0.0 0.0 0.0 0.0 -1.0 0.0 0.0 0.0 0.0 0.0 314.8750264487146 24.28503075808674 480.9 -1.386035741152866 0.878760618300602 -0.8787606183006021 -9.888925458665154 128.21790082805197 0.0 0.0 0.0 0.4072025091165352 
1.048 0.44391745395583015 -1.5707963267948966 -1.5707963267948966 0.0 1.5707963267948966 0.0 0.3992025091165352 0.0 0.0 0.0 0.0 0.0 -1.0 0.0 0.0 0.0 0.0 0.0 314.79505422502643 25.300569864385217 480.9 -1.3871033878529575 0.8763043257762024 -0.8763043257762025 -10.100050971940776 125.6669755041063 0.0 0.0 0.0 0.3992025091165352 
1.056 0.44707907402876246 -1.5707963267948966 -1.5707963267948966 0.0 1.5707963267948966 0.0 0.3912025091165352 0.0 0.0 0.0 0.0 0.0 -1.0 0.0 0.0 0.0 0.0 0.0 314.7134902493284 26.295704118465302 480.9 -1.3881467276774195 0.8738963165221216 -0.8738963165221217 -10.286945430129634 123.11670703835951 0.0 0.0 0.0 0.3912025091165352 
1.064 0.4501766941016947 -1.5707963267948966 -1.5707963267948966 0.0 1.5707963267948966 0.0 0.3832025091165352 0.0 0.0 0.0 0.0 0.0 -1.0 0.0 0.0 0.0 0.0 0.0 314.6305264025615 27.270439227248026 480.9 -1.3891659497559543 0.8715366192373859 -0.871536619237386 -10.45010073659143 120.56720716211784 0.0 0.0 0.0 0.3832025091165352 
1.072 0.453210314174627 -1.5707963267948966 -1.5707963267948966 0.0 1.5707963267948966 0.0 0.3752025091165352 0.0 0.0 0.0 0.0 0.0 -1.0 0.0 0.0 0.0 0.0 0.0 314.54635062983596 28.224781760932633 480.9 -1.3901612392498972 0.8692252618857055 -0.8692252618857056 -10.590008935968543 118.0185799897639 0.0 0.0 0.0 0.3752025091165352 
1.08 0.4561799342475593 -1.5707963267948966 -1.5707963267948966 0.0 1.5707963267948966 0.0 0.3672025091165352 0.0 0.0 0.0 0.0 0.0 -1.0 0.0 0.0 0.0 0.0 0.0 314.4611469395296 29.158739092689256 480.9 -1.391132777361367 0.8669622717052999 -0.8669622717053 -10.707162157509897 115.47092217585873 0.0 0.0 0.0 0.3672025091165352 
1.088 0.4590855543204916 -1.5707963267948966 -1.5707963267948966 0.0 1.5707963267948966 0.0 0.3592025091165352 0.0 0.0 0.0 0.0 0.0 -1.0 0.0 0.0 0.0 0.0 0.0 314.3750954028269 30.072319339609482 480.9 -1.3920807413421616 0.8647476752184767 -0.8647476752184768 -10.802052561741432 112.92432307244555 0.0 0.0 0.0 0.3592025091165352 
1.096 0.46192717439342385 -1.5707963267948966 -1.5707963267948966 0.0 1.5707963267948966 0.0 0.35120250911653517 0.0 0.0 0.0 0.0 0.0 -1.0 0.0 0.0 0.0 0.0 0.0 314.28837215367076 30.965531304916116 480.9 -1.3930053045024147 0.862581498240975 -0.8625814982409751 -10.875172290413158 110.37886488652056 0.0 0.0 0.0 0.35120250911653517 
1.104 0.46470479446635615 -1.5707963267948966 -1.5707963267948966 0.0 1.5707963267948966 0.0 0.34320250911653516 0.0 0.0 0.0 0.0 0.0 -1.0 0.0 0.0 0.0 0.0 0.0 314.2011493891024 31.838384421433023 480.9 -1.3939066362190091 0.860463765891074 -0.8604637658910741 -10.927013419652619 107.83462283763924 0.0 0.0 0.0 0.34320250911653516 
1.112 0.4674184145392884 -1.5707963267948966 -1.5707963267948966 0.0 1.5707963267948966 0.0 0.33520250911653515 0.0 0.0 0.0 0.0 0.0 -1.0 0.0 0.0 0.0 0.0 0.0 314.1135953699633 32.69088869631638 480.9 -1.394784901943752 0.8583945025984648 -0.8583945025984648 -10.958067916254628 105.29166531562777 0.0 0.0 0.0 0.33520250911653515 
1.12 0.4700680346122207 -1.5707963267948966 -1.5707963267948966 0.0 1.5707963267948966 0.0 0.32720250911653515 0.0 0.0 0.0 0.0 0.0 -1.0 0.0 0.0 0.0 0.0 0.0 314.0258744219345 33.52305465704808 480.9 -1.3956402632113205 0.8563737321128951 -0.8563737321128952 -10.96882759703688 102.75005403837093 0.0 0.0 0.0 0.32720250911653515 
1.128 0.47265365468515297 -1.5707963267948966 -1.5707963267948966 0.0 1.5707963267948966 0.0 0.31920250911653514 0.0 0.0 0.0 0.0 0.0 -1.0 0.0 0.0 0.0 0.0 0.0 313.9381469368886 34.334893298691426 480.9 -1.3964728776469733 0.8544014775125831 -0.8544014775125832 -10.95978409119081 100.20984420965033 0.0 0.0 0.0 0.31920250911653514 
1.136 0.47517527475808524 -1.5707963267948966 -1.5707963267948966 0.0 1.5707963267948966 0.0 0.31120250911653513 0.0 0.0 0.0 0.0 0.0 -1.0 0.0 0.0 0.0 0.0 0.0 313.8505693745322 35.126416032409665 480.9 -1.397282898974037 0.8524777612124049 -0.852477761212405 -10.931428805557175 97.6710846770076 0.0 0.0 0.0 0.31120250911653513 
1.144 0.4776328948310176 -1.5707963267948966 -1.5707963267948966 0.0 1.5707963267948966 0.0 0.3032025091165351 0.0 0.0 0.0 0.0 0.0 -1.0 0.0 0.0 0.0 0.0 0.0 313.7632942643136 35.89763463524782 480.9 -1.3980704770211705 0.85060260497186 -0.8506026049718601 -10.884252892755773 95.13381808960963 0.0 0.0 0.0 0.3032025091165351 
1.152 0.48002651490394976 -1.5707963267948966 -1.5707963267948966 0.0 1.5707963267948966 0.0 0.2952025091165351 0.0 0.0 0.0 0.0 0.0 -1.0 0.0 0.0 0.0 0.0 0.0 313.6764702075749 36.648561201176676 480.9 -1.3988357577294053 0.8487760299028109 -0.8487760299028109 -10.818747222098253 92.59808105609417 0.0 0.0 0.0 0.2952025091165351 
1.16 0.48235613497688207 -1.5707963267948966 -1.5707963267948966 0.0 1.5707963267948966 0.0 0.28720250911653533 0.0 0.0 0.0 0.0 0.0 -1.0 0.0 0.0 0.0 0.0 0.0 313.59024187992566 37.379208093400315 480.9 -1.3995788831589726 0.8469980564770058 -0.8469980564770059 -10.735402353213676 90.06390430237587 0.0 0.0 0.0 0.28720250911653533 
1.168 0.4846217550498143 -1.5707963267948966 -1.5707963267948966 0.0 1.5707963267948966 0.0 0.2792025091165353 0.0 0.0 0.0 0.0 0.0 -1.0 0.0 0.0 0.0 0.0 0.0 313.50475003381723 38.089587897924844 480.9 -1.4002999914959156 0.8452687045333831 -0.8452687045333832 -10.634708512315434 87.53131282939398 0.0 0.0 0.0 0.2792025091165353 
1.176 0.4868233751227466 -1.5707963267948966 -1.5707963267948966 0.0 1.5707963267948966 0.0 0.2712025091165353 0.0 0.0 0.0 0.0 0.0 -1.0 0.0 0.0 0.0 0.0 0.0 313.42013150129634 38.7797133783898 480.9 -1.400999217058486 0.8435879932851557 -0.8435879932851558 -10.517155571039387 85.00032607078602 0.0 0.0 0.0 0.2712025091165353 
1.184 0.48896099519567887 -1.5707963267948966 -1.5707963267948966 0.0 1.5707963267948966 0.0 0.2632025091165353 0.0 0.0 0.0 0.0 0.0 -1.0 0.0 0.0 0.0 0.0 0.0 313.33651919691795 39.44959743215972 480.9 -1.4016766903033393 0.841955941326687 -0.841955941326687 -10.383233027781667 82.47095805047024 0.0 0.0 0.0 0.2632025091165353 
1.192 0.49103461526861114 -1.5707963267948966 -1.5707963267948966 0.0 1.5707963267948966 0.0 0.2552025091165353 0.0 0.0 0.0 0.0 0.0 -1.0 0.0 0.0 0.0 0.0 0.0 313.25404212079746 40.099253047676775 480.9 -1.4023325378315192 0.8403725666401476 -0.8403725666401477 -10.233429991465988 79.94321754012435 0.0 0.0 0.0 0.2552025091165353 
1.2 0.49304423534154346 -1.5707963267948966 -1.5707963267948966 0.0 1.5707963267948966 0.0 0.2472025091165353 0.0 0.0 0.0 0.0 0.0 -1.0 0.0 0.0 0.0 0.0 0.0 313.1728253617842 40.72869326307202 480.9 -1.4029668823942407 0.8388378866019663 -0.8388378866019665 -10.06823516766913 77.41710821654758 0.0 0.0 0.0 0.2472025091165353 
1.208 0.4949898554144757 -1.5707963267948966 -1.5707963267948966 0.0 1.5707963267948966 0.0 0.2392025091165353 0.0 0.0 0.0 0.0 0.0 -1.0 0.0 0.0 0.0 0.0 0.0 313.0929901007353 41.3379311260356 480.9 -1.4035798428984716 0.8373519179890686 -0.8373519179890687 -9.888136847034238 74.89262881889442 0.0 0.0 0.0 0.2392025091165353 
1.216 0.496871475487408 -1.5707963267948966 -1.5707963267948966 0.0 1.5707963267948966 0.0 0.23120250911653528 0.0 0.0 0.0 0.0 0.0 -1.0 0.0 0.0 0.0 0.0 0.0 313.0146536138746 41.926979654944056 480.9 -1.4041715344123211 0.8359146769849088 -0.835914676984909 -9.693622895900992 72.36977330577098 0.0 0.0 0.0 0.23120250911653528 
1.224 0.49868909556034025 -1.5707963267948966 -1.5707963267948966 0.0 1.5707963267948966 0.0 0.22320250911653527 0.0 0.0 0.0 0.0 0.0 -1.0 0.0 0.0 0.0 0.0 0.0 312.93792927621723 42.49585180124373 480.9 -1.404742068170223 0.8345261791852936 -0.8345261791852937 -9.485180749082035 69.84853101218455 0.0 0.0 0.0 0.22320250911653527 
1.232 0.5004427156332727 -1.5707963267948966 -1.5707963267948966 0.0 1.5707963267948966 0.0 0.21520250911653527 0.0 0.0 0.0 0.0 0.0 -1.0 0.0 0.0 0.0 0.0 0.0 312.8629265650436 43.044560413089485 480.9 -1.4052915515779372 0.8331864396040038 -0.833186439604004 -9.263297404715143 67.3288868063397 0.0 0.0 0.0 0.21520250911653527 
1.24 0.5021323357062049 -1.5707963267948966 -1.5707963267948966 0.0 1.5707963267948966 0.0 0.20720250911653526 0.0 0.0 0.0 0.0 0.0 -1.0 0.0 0.0 0.0 0.0 0.0 312.78975106340715 43.57311820023647 480.9 -1.405820088217354 0.8318954726782117 -0.8318954726782118 -9.028459421120367 64.81082124627441 0.0 0.0 0.0 0.20720250911653526 
1.248 0.5037579557791372 -1.5707963267948966 -1.5707963267948966 0.0 1.5707963267948966 0.0 0.19920250911653525 0.0 0.0 0.0 0.0 0.0 -1.0 0.0 0.0 0.0 0.0 0.0 312.7185044636584 44.08153770018549 480.9 -1.4063277778511079 0.8306532922736931 -0.8306532922736932 -8.781152915592093 62.294310736331184 0.0 0.0 0.0 0.19920250911653525 
1.256 0.5053195758520694 -1.5707963267948966 -1.5707963267948966 0.0 1.5707963267948966 0.0 0.19120250911653525 0.0 0.0 0.0 0.0 0.0 -1.0 0.0 0.0 0.0 0.0 0.0 312.6492845709721 44.56983124557807 480.9 -1.4068147164270117 0.8294599116898427 -0.8294599116898428 -8.521863565055078 59.77932768345951 0.0 0.0 0.0 0.19120250911653525 
1.264 0.5068171959250019 -1.5707963267948966 -1.5707963267948966 0.0 1.5707963267948966 0.0 0.18320250911653524 0.0 0.0 0.0 0.0 0.0 -1.0 0.0 0.0 0.0 0.0 0.0 312.58218530686156 45.038010932842475 480.9 -1.407280996082299 0.828315343664487 -0.8283153436644871 -8.251076608514687 57.265840653346814 0.0 0.0 0.0 0.18320250911653524 
1.272 0.508250815997934 -1.5707963267948966 -1.5707963267948966 0.0 1.5707963267948966 0.0 0.17520250911653523 0.0 0.0 0.0 0.0 0.0 -1.0 0.0 0.0 0.0 0.0 0.0 312.51729671266645 45.48608859208707 480.9 -1.4077267051476898 0.8272196003785012 -0.8272196003785012 -7.969276851230664 54.75381452637589 0.0 0.0 0.0 0.17520250911653523 
1.28 0.5096204360708664 -1.5707963267948966 -1.5707963267948966 0.0 1.5707963267948966 0.0 0.16720250911653523 0.0 0.0 0.0 0.0 0.0 -1.0 0.0 0.0 0.0 0.0 0.0 312.4547049530002 45.91407575824172 480.9 -1.408151928151272 0.8261726934602246 -0.8261726934602247 -7.676948670544701 52.24321065340834 0.0 0.0 0.0 0.16720250911653523 
1.288 0.5109260561437985 -1.5707963267948966 -1.5707963267948966 0.0 1.5707963267948966 0.0 0.15920250911653522 0.0 0.0 0.0 0.0 0.0 -1.0 0.0 0.0 0.0 0.0 0.0 312.3944923191453 46.32198364344355 480.9 -1.4085567458222035 0.8251746339896846 -0.8251746339896847 -7.374576023291318 49.73398701139412 0.0 0.0 0.0 0.15920250911653522 
1.296 0.5121676762167309 -1.5707963267948966 -1.5707963267948966 0.0 1.5707963267948966 0.0 0.1512025091165352 0.0 0.0 0.0 0.0 0.0 -1.0 0.0 0.0 0.0 0.0 0.0 312.33673723238206 46.709823110668104 480.9 -1.4089412350942403 0.8242254325026204 -0.8242254325026205 -7.062642454722541 47.22609835880811 0.0 0.0 0.0 0.1512025091165352 
1.304 0.5133452962896631 -1.5707963267948966 -1.5707963267948966 0.0 1.5707963267948966 0.0 0.1432025091165352 0.0 0.0 0.0 0.0 0.0 -1.0 0.0 0.0 0.0 0.0 0.0 312.28151424724115 47.077604648602154 480.9 -1.409305469109088 0.8233250989943178 -0.8233250989943179 -6.74163110887609 44.71949639091597 0.0 0.0 0.0 0.1432025091165352 
1.312 0.5144589163625954 -1.5707963267948966 -1.5707963267948966 0.0 1.5707963267948966 0.0 0.1352025091165352 0.0 0.0 0.0 0.0 0.0 -1.0 0.0 0.0 0.0 0.0 0.0 312.22889405466714 47.425338347759094 480.9 -1.4096495172195764 0.8224736429232443 -0.8224736429232444 -6.412024740317666 42.21412989487184 0.0 0.0 0.0 0.1352025091165352 
1.32 0.5155085364355277 -1.5707963267948966 -1.5707963267948966 0.0 1.5707963267948966 0.0 0.1272025091165352 0.0 0.0 0.0 0.0 0.0 -1.0 0.0 0.0 0.0 0.0 0.0 312.17894348508275 47.7530338778333 480.9 -1.4099734449926644 0.8216710732144978 -0.821671073214498 -6.074305727187305 39.709944904651564 0.0 0.0 0.0 0.1272025091165352 
1.328 0.51649415650846 -1.5707963267948966 -1.5707963267948966 0.0 1.5707963267948966 0.0 0.11920250911653518 0.0 0.0 0.0 0.0 0.0 -1.0 0.0 0.0 0.0 0.0 0.0 312.1317255113442 48.060700466294435 480.9 -1.410277314212273 0.8209173982630579 -0.820917398263058 -5.7289560854805295 37.20688485582586 0.0 0.0 0.0 0.11920250911653518 
1.336 0.5174157765813923 -1.5707963267948966 -1.5707963267948966 0.0 1.5707963267948966 0.0 0.11120250911653518 0.0 0.0 0.0 0.0 0.0 -1.0 0.0 0.0 0.0 0.0 0.0 312.08729925157706 48.34834687821848 480.9 -1.4105611828819506 0.8202126259368508 -0.8202126259368508 -5.3764574844944955 34.70489074017834 0.0 0.0 0.0 0.11120250911653518 
1.344 0.5182733966543246 -1.5707963267948966 -1.5707963267948966 0.0 1.5707963267948966 0.0 0.10320250911653517 0.0 0.0 0.0 0.0 0.0 -1.0 0.0 0.0 0.0 0.0 0.0 312.04571997188486 48.61598139735546 480.9 -1.4108251052273648 0.819556763579621 -0.8195567635796212 -5.017291263369882 32.20390126017423 0.0 0.0 0.0 0.10320250911653517 
1.352 0.5190670167272569 -1.5707963267948966 -1.5707963267948966 0.0 1.5707963267948966 0.0 0.09520250911653516 0.0 0.0 0.0 0.0 0.0 -1.0 0.0 0.0 0.0 0.0 0.0 312.00703908891995 48.863611808432324 480.9 -1.411069131698631 0.8189498180136147 -0.8189498180136148 -4.651938448659114 29.703852983286044 0.0 0.0 0.0 0.09520250911653516 
1.36 0.5197966368001892 -1.5707963267948966 -1.5707963267948966 0.0 1.5707963267948966 0.0 0.08720250911653515 0.0 0.0 0.0 0.0 0.0 -1.0 0.0 0.0 0.0 0.0 0.0 311.9713041723114 49.09124538068987 480.9 -1.4112933089724733 0.8183917955420729 -0.818391795542073 -4.280879772851673 27.204680496183347 0.0 0.0 0.0 0.08720250911653515 
1.368 0.5204622568731214 -1.5707963267948966 -1.5707963267948966 0.0 1.5707963267948966 0.0 0.07920250911653515 0.0 0.0 0.0 0.0 0.0 -1.0 0.0 0.0 0.0 0.0 0.0 311.93855894694036 49.29888885265251 480.9 -1.4114976799542214 0.817882701951539 -0.8178827019515391 -3.9045956937872632 24.70631655879388 0.0 0.0 0.0 0.07920250911653515 
1.376 0.5210638769460536 -1.5707963267948966 -1.5707963267948966 0.0 1.5707963267948966 0.0 0.07120250911653514 0.0 0.0 0.0 0.0 0.0 -1.0 0.0 0.0 0.0 0.0 0.0 311.90884329505633 49.48654841813046 480.9 -1.4116822837796394 0.8174225425139735 -0.8174225425139736 -3.523566414887792 22.208692258244177 0.0 0.0 0.0 0.07120250911653514 
1.384 0.521601497018986 -1.5707963267948966 -1.5707963267948966 0.0 1.5707963267948966 0.0 0.06320250911653513 0.0 0.0 0.0 0.0 0.0 -1.0 0.0 0.0 0.0 0.0 0.0 311.8821932582296 49.654229713452416 480.9 -1.4118471558165953 0.8170113219886872 -0.8170113219886873 -3.138271906139006 19.71173716268823 0.0 0.0 0.0 0.06320250911653513 
1.392 0.5220751170919182 -1.5707963267948966 -1.5707963267948966 0.0 1.5707963267948966 0.0 0.055202509116535126 0.0 0.0 0.0 0.0 0.0 -1.0 0.0 0.0 0.0 0.0 0.0 311.8586410391323 49.801937805928915 480.9 -1.411992327666567 0.8166490446240832 -0.8166490446240833 -2.7491919257529065 17.215379475032957 0.0 0.0 0.0 0.055202509116535126 
1.4 0.5224847371648507 -1.5707963267948966 -1.5707963267948966 0.0 1.5707963267948966 0.0 0.04720250911653512 0.0 0.0 0.0 0.0 0.0 -1.0 0.0 0.0 0.0 0.0 0.0 311.8382150031439 49.9296771835449 480.9 -1.4121178271659836 0.8163357141592138 -0.8163357141592139 -2.3568060424419333 14.719546186569938 0.0 0.0 0.0 0.04720250911653512 
1.408 0.5228303572377828 -1.5707963267948966 -1.5707963267948966 0.0 1.5707963267948966 0.0 0.03920250911653533 0.0 0.0 0.0 0.0 0.0 -1.0 0.0 0.0 0.0 0.0 0.0 311.8209396797762 50.037451745880894 480.9 -1.4122236783874071 0.8160713338251517 -0.8160713338251518 -1.9615936582360927 12.22416323052304 0.0 0.0 0.0 0.03920250911653533 
1.416 0.5231119773107151 -1.5707963267948966 -1.5707963267948966 0.0 1.5707963267948966 0.0 0.031202509116535326 0.0 0.0 0.0 0.0 0.0 -1.0 0.0 0.0 0.0 0.0 0.0 311.80683576391414 50.12526479626279 480.9 -1.4123099016405565 0.8158559063461742 -0.8158559063461743 -1.564034031774137 9.729155635521565 0.0 0.0 0.0 0.031202509116535326 
1.424 0.5233295973836473 -1.5707963267948966 -1.5707963267948966 0.0 1.5707963267948966 0.0 0.02320250911653532 0.0 0.0 0.0 0.0 0.0 -1.0 0.0 0.0 0.0 0.0 0.0 311.79592011686816 50.19311903513831 480.9 -1.4123765134731647 0.8156894339407633 -0.8156894339407634 -1.1646063020001391 7.2344476790101515 0.0 0.0 0.0 0.02320250911653532 
1.432 0.5234832174565797 -1.5707963267948966 -1.5707963267948966 0.0 1.5707963267948966 0.0 0.015202509116535312 0.0 0.0 0.0 0.0 0.0 -1.0 0.0 0.0 0.0 0.0 0.0 311.78820576723587 50.241016554681416 480.9 -1.4124235266716807 0.8155719183224184 -0.8155719183224185 -0.7637895121965458 4.739963040604591 0.0 0.0 0.0 0.015202509116535312 
1.44 0.5235728375295121 -1.5707963267948966 -1.5707963267948966 0.0 1.5707963267948966 0.0 0.007202509116535305 0.0 0.0 0.0 0.0 0.0 -1.0 0.0 0.0 0.0 0.0 0.0 311.78370191157046 50.2689588346225 480.9 -1.4124509502618114 0.8155033607002864 -0.8155033607002865 -0.36206263428510654 2.245624955405212 0.0 0.0 0.0 0.007202509116535305 
1.448 0.5235984576024442 -1.5707963267948966 -1.5707963267948966 0.0 1.5707963267948966 0.0 -0.0007974908834647021 0.0 0.0 0.0 0.0 0.0 -1.0 0.0 0.0 0.0 0.0 0.0 311.78241391485346 50.27694673930567 480.9 -1.4124587895089027 0.8154837617796055 -0.8154837617796056 0.040095406673036654 -0.24864363272171391 0.0 0.0 0.0 -0.0007974908834647021 
