Fleaurent/UniversalRobot/csv/robolib_movel_x400_Singular.csv
timestamp target_q_0 target_q_1 target_q_2 target_q_3 target_q_4 target_q_5 target_qd_0 target_qd_1 target_qd_2 target_qd_3 target_qd_4 target_qd_5 target_TCP_pose_0 target_TCP_pose_1 target_TCP_pose_2 target_TCP_pose_3 target_TCP_pose_4 target_TCP_pose_5 target_TCP_speed_0 target_TCP_speed_1 target_TCP_speed_2 target_TCP_speed_3 target_TCP_speed_4 target_TCP_speed_5 target_TCP_acc_0 target_TCP_acc_1 target_TCP_acc_2 target_TCP_acc_3 target_TCP_acc_4 target_TCP_acc_5
0.0 -0.5325564462264847 -1.595267091148341 -1.9351178277208148 0.3887636286132983 2.103514506141045 -0.00013977898740433916 0.0 0.0 0.0 0.0 0.0 0.0 200.0 -200.0 400.0 2.4186 -2.4185 2.4185 0.0 0.0 0.0 0.0 0.0 0.0 0.0 1000.0 0.0 0.0 0.0 0.0 
0.008 -0.5324208250519904 -1.5951391347010322 -1.9352496397794192 0.38876704455610067 2.103378884967877 -0.0001397678130313183 0.03390926398469943 0.03199345038398811 -0.032954957842290244 0.0009620885729645427 -0.03390926397036542 1.1444674141028234e-06 200.0 -199.968 400.0 2.4186 -2.4185 2.4185 0.0 8.0 0.0 0.0 0.0 0.0 0.0 1000.0 0.0 0.0 0.0 0.0 
0.016 -0.5320137704061803 -1.594755231905445 -1.9356449891760668 0.38877935482496184 2.102971830326041 -0.00013973430032161943 0.06786634161784875 0.06399529352909722 -0.06588824415812193 0.0018940780812988335 -0.0678663415908395 2.22197845711987e-06 200.0 -199.872 400.0 2.4186 -2.4185 2.4185 0.0 16.0 0.0 0.0 0.0 0.0 0.0 1000.0 0.0 0.0 0.0 0.0 
0.024 -0.5313347083331683 -1.5941152822313018 -1.9363036155795625 0.38879780582576906 2.102292768259656 -0.00013967848055173741 0.10191912264052136 0.09601389738041868 -0.09877811982265197 0.0027659265050727524 -0.10191912259930824 3.3622384207423352e-06 200.0 -199.712 400.0 2.4186 -2.4185 2.4185 0.0 24.0 0.0 0.0 0.0 0.0 0.0 1000.0 0.0 0.0 0.0 0.0 
0.032 -0.5303826802740335 -1.593219117564007 -1.9372250851244561 0.3888236592395753 2.1013407402098023 -0.00013960040601092495 0.13611589834721552 0.12805781474636413 -0.13160295170566447 0.0035473640257725064 -0.13611589829427706 4.401291130937535e-06 200.0 -199.488 400.0 2.4186 -2.4185 2.4185 0.0 32.0 0.0 0.0 0.0 0.0 0.0 1000.0 0.0 0.0 0.0 0.0 
0.04 -0.5291563401085577 -1.5920665013591735 -1.9384087904368557 0.38885476035343736 2.1001144000562677 -0.00013950015024530088 0.1705052842842596 0.16013561189964037 -0.16434099361842427 0.004208162418097944 -0.17050528421800337 5.50693664914974e-06 200.0 -199.2 400.0 2.4186 -2.4185 2.4185 0.0 40.0 0.0 0.0 0.0 0.0 0.0 1000.0 0.0 0.0 0.0 0.0 
0.048 -0.5276539499944155 -1.5906571274604255 -1.9398539506625834 0.3888913644424088 2.0986120099567325 -0.00013937780840255507 0.2051366450844721 0.19225616789944244 -0.19697065056770663 0.004717718836174526 -0.20513664500936657 6.425462168239841e-06 200.0 -198.848 400.0 2.4186 -2.4185 2.4185 0.0 48.0 0.0 0.0 0.0 0.0 0.0 1000.0 0.0 0.0 0.0 0.0 
0.056 -0.5258733749844704 -1.588990618581951 -1.941559611489708 0.3889309920624413 2.0968314349640638 -0.00013923349768025164 0.24005992218544728 0.22442840958551485 -0.2294701624703192 0.005045458210065014 -0.24005992210061836 7.379531922453983e-06 200.0 -198.432 400.0 2.4186 -2.4185 2.4185 0.0 56.0 0.0 0.0 0.0 0.0 0.0 1000.0 0.0 0.0 0.0 0.0 
0.064 -0.523812076397185 -1.5870665244577775 -1.9435246451552428 0.388972524636757 2.0947701363967344 -0.00013906735788166169 0.27532608372060985 0.2566616275965995 -0.2618178830932236 0.005160390655875758 -0.27532608362761135 8.264950355040182e-06 200.0 -197.952 400.0 2.4186 -2.4185 2.4185 0.0 64.0 0.0 0.0 0.0 0.0 0.0 1000.0 0.0 0.0 0.0 0.0 
0.072 -0.5214671039093517 -1.5848843196601865 -1.9457477504235776 0.38901418951279876 2.092425163931545 -0.00013887955208403998 0.3109871416613591 0.2889653815574382 -0.29399213602197943 0.005031263348547127 -0.3109871415624029 9.048659879650875e-06 200.0 -197.408 400.0 2.4186 -2.4185 2.4185 0.0 72.00000000000001 0.0 0.0 0.0 0.0 0.0 1000.0 0.0 0.0 0.0 0.0 
0.08 -0.518835086334501 -1.5824434010902837 -1.9482274525220014 0.3890532366336217 2.08979314638204 -0.00013867026742531434 0.34709624045374887 0.32134946877711046 -0.32597113542421347 0.004626616187501246 -0.3470962403455986 9.978724815759612e-06 200.0 -196.8 400.0 2.4186 -2.4185 2.4185 0.0 80.0 0.0 0.0 0.0 0.0 0.0 1000.0 0.0 0.0 0.0 0.0 
0.088 -0.5159122210442737 -1.5797430851442709 -1.9509621030165105 0.389089383580127 2.0868702811198685 -0.00013843971601629418 0.38370833715495595 0.35382443459869856 -0.35773345424596376 0.003914059639051041 -0.38370833705212826 1.0213386341567987e-05 200.0 -196.12800000000001 400.0 2.4186 -2.4185 2.4185 0.0 88.0 0.0 0.0 0.0 0.0 0.0 1000.0 0.0 0.0 0.0 0.0 
0.096 -0.512694261983897 -1.5767826045596904 -1.9539498796089336 0.38911723760659545 2.0836523220902716 -0.00013818813598674996 0.42087923422680085 0.3864005517287523 -0.3892569383476615 0.002861741223816895 -0.42087923411938355 1.091289225431599e-05 200.0 -195.392 400.0 2.4186 -2.4185 2.4185 0.0 96.0 0.0 0.0 0.0 0.0 0.0 1000.0 0.0 0.0 0.0 0.0 
0.104 -0.5091765062265203 -1.5735611049466274 -1.957188785834297 0.3891364405138882 2.080134566366417 -0.00013791579267507929 0.45866736886536413 0.41908933943489574 -0.42052019052014356 0.001436178387906254 -0.45866736876617703 1.092556832094398e-05 200.0 -194.59199999999998 400.0 2.4186 -2.4185 2.4185 0.0 104.00000000000001 0.0 0.0 0.0 0.0 0.0 1000.0 0.0 0.0 0.0 0.0 
0.112 -0.5053537790046518 -1.5700776410097377 -1.9606766506352624 0.389141412962255 2.076311839180827 -0.00013762297997278766 0.49713225125828325 0.45190198626527445 -0.4515009237507044 -0.0003954974660962962 -0.4971322511566063 1.1491895387151771e-05 200.0 -193.728 400.0 2.4186 -2.4185 2.4185 0.0 112.0 0.0 0.0 0.0 0.0 0.0 1000.0 0.0 0.0 0.0 0.0 
0.12 -0.5012204171502344 -1.566331172467998 -1.964411127788396 0.3891305638388465 2.0721784773654623 -0.00013731002183669762 0.536336383266475 0.48485095932064265 -0.4821775220144602 -0.002667827619577611 -0.5363363831688205 1.1671333179859435e-05 200.0 -192.8 400.0 2.4186 -2.4185 2.4185 0.0 120.0 0.0 0.0 0.0 0.0 0.0 1000.0 0.0 0.0 0.0 0.0 
0.128 -0.4967702508680176 -1.5623205596802339 -1.968389695154991 0.3891009973339994 2.0677283111250953 -0.00013697727398368463 0.5763445224929844 0.517949166900525 -0.5125281349572957 -0.0054158421196512626 -0.5763445224135382 1.08862759442977e-05 200.0 -191.808 400.0 2.4186 -2.4185 2.4185 0.0 128.0 0.0 0.0 0.0 0.0 0.0 1000.0 0.0 0.0 0.0 0.0 
0.136 -0.4919965837598399 -1.5580445589858982 -1.972609653727158 0.38904454556507595 2.062954644061586 -0.00013662512578485996 0.6172227433635779 0.5512089572193826 -0.542529632700521 -0.008673694180595258 -0.6172227432742469 1.191532486120246e-05 200.0 -190.752 400.0 2.4186 -2.4185 2.4185 0.0 136.0 0.0 0.0 0.0 0.0 0.0 1000.0 0.0 0.0 0.0 0.0 
0.144 -0.48689217101028337 -1.553501817772236 -1.9770681264378738 0.38896292747196615 2.057850231359542 -0.0001362540023785208 0.6590425961154817 0.5846456706218233 -0.5721610497269799 -0.012479607647316083 -0.6590425960475017 1.0711508611216255e-05 200.0 -189.632 400.0 2.4186 -2.4185 2.4185 0.0 144.00000000000003 0.0 0.0 0.0 0.0 0.0 1000.0 0.0 0.0 0.0 0.0 
0.152 -0.48144919563689115 -1.5486908692809447 -1.9817620567017107 0.38884337375609324 2.0524072560365303 -0.00013586436702390655 0.701874776161338 0.6182717961156102 -0.6013977675087674 -0.01686782947798001 -0.701874776061123 1.3383050520410018e-05 200.0 -188.448 400.0 2.4186 -2.4185 2.4185 0.0 152.0 0.0 0.0 0.0 0.0 0.0 1000.0 0.0 0.0 0.0 0.0 
0.16 -0.4756592427008588 -1.5436101271698053 -1.9866882066509717 0.3886996158191991 2.0466173031537767 -0.00013545672372090314 0.7458015797683825 0.6521077891306764 -0.6302220056877925 -0.021883452771168137 -0.7458015797546682 5.0880432069945315e-06 200.0 -187.2 400.0 2.4186 -2.4185 2.4185 0.0 160.0 0.0 0.0 0.0 0.0 0.0 1000.0 0.0 0.0 0.0 0.0 
0.168 -0.4695132713668544 -1.5382578798475897 -1.9918431550299889 0.388497108324354 2.0404713318759775 -0.00013503162012437384 0.7908934890829166 0.6861612674188765 -0.6586025497017127 -0.027554192483433805 -0.7908934890326634 9.998384138945118e-06 200.0 -185.888 400.0 2.4186 -2.4185 2.4185 0.0 168.0 0.0 0.0 0.0 0.0 0.0 1000.0 0.0 0.0 0.0 0.0 
0.176 -0.46300158469356134 -1.5326322846039206 -1.9972232947083508 0.38825712473750684 2.0339596452618554 -0.00013458965078585956 0.8372435402909402 0.7204568939998964 -0.6865236057466692 -0.03393086277406897 -0.8372435402768529 5.428795140920655e-06 200.0 -184.512 400.0 2.4186 -2.4185 2.4185 0.0 176.0 0.0 0.0 0.0 0.0 0.0 1000.0 0.0 0.0 0.0 0.0 
0.184 -0.4561137970297455 -1.5267313615598126 -2.0028248297718387 0.3879349189004131 2.0270718576602116 -0.00013413146076005523 0.884924955010286 0.7549993232466066 -0.7139491225774993 -0.04103777042994298 -0.8849249546478923 2.8211578513514533e-05 200.0 -183.072 400.0 2.4186 -2.4185 2.4185 0.0 184.0 0.0 0.0 0.0 0.0 0.0 1000.0 0.0 0.0 0.0 0.0 
0.192 -0.44883879888438827 -1.5205529874694443 -2.0086437721478587 0.3874779349309767 2.019796859580065 -0.00013365774961885448 0.9340083352956767 0.789788373938677 -0.7408377136534077 -0.04889387992639682 -0.9340083278613696 0.00013081062314219044 200.0 -181.56799999999998 400.0 2.4186 -2.4185 2.4185 0.0 192.0 0.0 0.0 0.0 0.0 0.0 1000.0 0.0 0.0 0.0 0.0 
0.2 -0.4411647191339019 -1.5140948894095019 -2.014675937720117 0.38717817353982564 2.012122779897874 -0.00013316927592198 0.9847217433752239 0.8249532097981311 -0.7672676303368171 -0.05768557946131416 -0.9847217433752241 2.1126515779617852e-17 200.0 -180.0 400.0 2.4186 -2.4185 2.4185 0.0 200.0 0.0 0.0 0.0 0.0 0.0 0.0 0.0 0.0 0.0 0.0 
0.208 -0.4332384060701804 -1.507486984261904 -2.020794936253874 0.38677533508013395 2.0041964669041743 -0.00013267665364685968 0.996926485723621 0.8272811305071563 -0.7627126073607011 -0.06460822815227617 -0.9969264820311413 -9.454495805892292e-05 200.0 -178.4 400.0 2.4186 -2.4185 2.4185 0.0 200.0 0.0 0.0 0.0 0.0 0.0 0.0 0.0 0.0 0.0 0.0 
0.216 -0.42521401015643456 -1.500860565884619 -2.026877202968175 0.3861473714108934 1.9961720710607962 -0.00013219006255072834 1.0092416651764036 0.8295835060364942 -0.7580846204154935 -0.0714999171831321 -1.009241665173835 -2.4997684692461267e-06 200.0 -176.8 400.0 2.4186 -2.4185 2.4185 0.0 200.0 0.0 0.0 0.0 0.0 0.0 0.0 0.0 0.0 0.0 0.0 
0.224 -0.4170900012000667 -1.4942153132214482 -2.032922636241991 0.38555814656259346 1.98804806217515 -0.00013170966105258253 1.0217938082561249 0.8319624974852277 -0.753477182808971 -0.07849113528016143 -1.0217938081717552 -1.4363012945545085e-05 200.0 -175.2 400.0 2.4186 -2.4185 2.4185 0.0 200.0 0.0 0.0 0.0 0.0 0.0 0.0 0.0 0.0 0.0 0.0 
0.232 -0.4088648262602588 -1.4875509087082222 -2.0389311264062817 0.3849029881266546 1.9798228873064279 -0.00013123561310894046 1.0345367544068527 0.8343770911462097 -0.7488519854425029 -0.08553120751856155 -1.0345367543110857 -1.5342126192316548e-05 200.0 -173.6 400.0 2.4186 -2.4185 2.4185 0.0 200.0 0.0 0.0 0.0 0.0 0.0 0.0 0.0 0.0 0.0 0.0 
0.24 -0.40053690962476374 -1.4808670385078533 -2.044902555759438 0.3841894113527715 1.9714949707423912 -0.00013076808845511456 1.047477081012662 0.8368298954210698 -0.7442108675615666 -0.09262456146089192 -1.047477080931211 -1.4186475648492128e-05 200.0 -172.0 400.0 2.4186 -2.4185 2.4185 0.0 200.0 0.0 0.0 0.0 0.0 0.0 0.0 0.0 0.0 0.0 0.0 
0.248 -0.3921046528151926 -1.47416339276135 -2.0508367985815528 0.3834249910819052 1.963062714004662 -0.00013030726285905407 1.060621728933346 0.8393236611769593 -0.7395557233257812 -0.09977559613338334 -1.0606217287718032 -2.0032984476202098e-05 200.0 -170.4 400.0 2.4186 -2.4185 2.4185 0.0 200.0 0.0 0.0 0.0 0.0 0.0 0.0 0.0 0.0 0.0 0.0 
0.256 -0.38356643462319795 -1.4674396658554674 -2.056733721147689 0.38260005819813214 1.954524495884903 -0.00012985331838851724 1.0739688402758696 0.8418540885269868 -0.7348822166912715 -0.10698025118703795 -1.0739688400753342 -2.2381935546874902e-05 200.0 -168.8 400.0 2.4186 -2.4185 2.4185 0.0 200.0 0.0 0.0 0.0 0.0 0.0 0.0 0.0 0.0 0.0 0.0 
0.264 -0.37492061118012665 -1.4606955567077486 -2.062593181740331 0.38171691865303403 1.9458786725144723 -0.00012940644369238694 1.0875226258310504 0.8444217026525419 -0.7301903403693963 -0.11424028292319553 -1.0875226255950323 -2.4350104324266106e-05 200.0 -167.2 400.0 2.4186 -2.4185 2.4185 0.0 200.0 0.0 0.0 0.0 0.0 0.0 0.0 0.0 0.0 0.0 0.0 
0.272 -0.3661655160628716 -1.4539307690697112 -2.06841503066119 0.38077642531748745 1.9371235774702744 -0.0001289668342969973 1.1012866023161778 0.8470264263655568 -0.725479569623571 -0.12155669223750996 -1.101286602017773 -2.7458970328113622e-05 200.0 -165.6 400.0 2.4186 -2.4185 2.4185 0.0 200.0 0.0 0.0 0.0 0.0 0.0 0.0 0.0 0.0 0.0 0.0 
0.28 -0.35729946043883 -1.447145011848996 -2.07419911024257 0.3797772927061196 1.928257521919717 -0.00012853469291840256 1.1152631186917417 0.8496672462445527 -0.7207486041277208 -0.12892939941399603 -1.1152631183198634 -3.0744178716524736e-05 200.0 -164.0 400.0 2.4186 -2.4185 2.4185 0.0 200.0 0.0 0.0 0.0 0.0 0.0 0.0 0.0 0.0 0.0 0.0 
0.288 -0.34832073325305757 -1.4403379994513394 -2.0799452548584534 0.37871870740877345 1.919278794807868 -0.0001281102297915819 1.1294547322533413 0.8523432946761382 -0.7159963158504993 -0.13635851217686698 -1.1294547318072146 -3.3775405044034345e-05 200.0 -162.4 400.0 2.4186 -2.4185 2.4185 0.0 200.0 0.0 0.0 0.0 0.0 0.0 0.0 0.0 0.0 0.0 0.0 
0.296 -0.339227601460907 -1.4335094521432614 -2.0856532909355217 0.37760125805686107 1.9101856630900929 -0.00012769366301764636 1.1438647810435718 0.8550542709005907 -0.7112220936955205 -0.14384476436328544 -1.1438647804879514 -3.780934233816985e-05 200.0 -160.8 400.0 2.4186 -2.4185 2.4185 0.0 200.0 0.0 0.0 0.0 0.0 0.0 0.0 0.0 0.0 0.0 0.0 
0.304 -0.33001831030963436 -1.4266590964364179 -2.091323036964297 0.3764235479224407 1.9009763720136605 -0.00012728521893018915 1.158495418569802 0.857798958636003 -0.7064245996838431 -0.1513878855785457 -1.1584954178975062 -4.1721373404848426e-05 200.0 -159.2 400.0 2.4186 -2.4185 2.4185 0.0 200.0 0.0 0.0 0.0 0.0 0.0 0.0 0.0 0.0 0.0 0.0 
0.312 -0.32069108367268395 -1.4197866654946207 -2.0969543035106 0.37518464204333735 1.8916491454520297 -0.00012688513248200283 1.1733489899297003 0.8605762782042314 -0.7016026649012131 -0.1589877787365342 -1.1733489891555107 -4.4916020186905175e-05 200.0 -157.6 400.0 2.4186 -2.4185 2.4185 0.0 200.0 0.0 0.0 0.0 0.0 0.0 0.0 0.0 0.0 0.0 0.0 
0.32 -0.31124412444057814 -1.412891899564571 -2.1025468932275406 0.37388533450207095 1.8822021862957348 -0.00012649364765347594 1.1884288555968614 0.8633858788203065 -0.696755762239412 -0.16664510993860487 -1.1884288546839865 -4.893438518479674e-05 200.0 -156.0 400.0 2.4186 -2.4185 2.4185 0.0 200.0 0.0 0.0 0.0 0.0 0.0 0.0 0.0 0.0 0.0 0.0 
0.328 -0.30167561497259054 -1.405974546431418 -2.1081006008682346 0.37252419535152015 1.8726336769040666 -0.0001261110178840769 1.2037369463310335 0.8662263443309073 -0.6918825434290028 -0.1743594300171987 -1.2037369452843683 -5.257460461016311e-05 200.0 -154.4 400.0 2.4186 -2.4185 2.4185 0.0 200.0 0.0 0.0 0.0 0.0 0.0 0.0 0.0 0.0 0.0 0.0 
0.336 -0.2919837176136113 -1.399034361900311 -2.1136152132994734 0.37110154649612914 1.8629417796219274 -0.00012573750652843623 1.219276228073106 0.8690970003179443 -0.6869823119208414 -0.18213105226663728 -1.2192762268590844 -5.681752514283107e-05 200.0 -152.8 400.0 2.4186 -2.4185 2.4185 0.0 200.0 0.0 0.0 0.0 0.0 0.0 0.0 0.0 0.0 0.0 0.0 
0.344 -0.28216657528090616 -1.3920711103051797 -2.119090509516551 0.369616291775114 1.8531246373666004 -0.0001253733873386522 1.2350486739934843 0.8719964472643169 -0.6820538451559965 -0.18995955691156816 -1.235048672610411 -6.0858785640303104e-05 200.0 -151.2 400.0 2.4186 -2.4185 2.4185 0.0 200.0 0.0 0.0 0.0 0.0 0.0 0.0 0.0 0.0 0.0 0.0 
0.352 -0.2722223121257157 -1.3850845650460415 -2.1245262606594837 0.36806826795216585 1.843180374289342 -0.00012501894497456316 1.251056776592414 0.8749236522560359 -0.6770962697814232 -0.19784488862981808 -1.2510567750225927 -6.507178544198634e-05 200.0 -149.6 400.0 2.4186 -2.4185 2.4185 0.0 200.0 0.0 0.0 0.0 0.0 0.0 0.0 0.0 0.0 0.0 0.0 
0.36 -0.2621490342749577 -1.3780745091562123 -2.12992223003084 0.3664568998439408 1.8331070965170868 -0.00012467447554386423 1.2673026550715933 0.8778773134963166 -0.6721085602078563 -0.20578672425610253 -1.2673026533041212 -6.930223260265443e-05 200.0 -148.0 400.0 2.4186 -2.4185 2.4185 0.0 200.0 0.0 0.0 0.0 0.0 0.0 0.0 0.0 0.0 0.0 0.0 
0.368 -0.25194483065858764 -1.371040735900873 -2.135278173115419 0.3647818250379826 1.822902892979809 -0.00012434028717408637 1.28378846444053 0.880856153797104 -0.6670897722915888 -0.2137847576690392 -1.2837884624583722 -7.366834901439121e-05 200.0 -146.4 400.0 2.4186 -2.4185 2.4185 0.0 200.0 0.0 0.0 0.0 0.0 0.0 0.0 0.0 0.0 0.0 0.0 
0.376 -0.24160777392849142 -1.3639830494085277 -2.140593837602018 0.3630427946841408 1.8125658363294113 -0.0001240167006186103 1.300516326881757 0.8838588729739546 -0.6620390069024014 -0.2218386465643204 -1.3005163246517473 -7.844127800793035e-05 200.0 -144.8 400.0 2.4186 -2.4185 2.4185 0.0 200.0 0.0 0.0 0.0 0.0 0.0 0.0 0.0 0.0 0.0 0.0 
0.384 -0.2311359214751303 -1.3569012653369856 -2.1458689634075205 0.36123887698986823 1.8020939839563748 -0.00012370404989905714 1.3174877226378434 0.8868837390096757 -0.6569551082421324 -0.22994765180315663 -1.3174877201623398 -8.297403539039021e-05 200.0 -143.2 400.0 2.4186 -2.4185 2.4185 0.0 200.0 0.0 0.0 0.0 0.0 0.0 0.0 0.0 0.0 0.0 0.0 
0.392 -0.22052731654848845 -1.3497952115755756 -2.151103282703572 0.35937011460090984 1.791485379110704 -0.00012340268298657593 1.3347047060536612 0.8899294196857368 -0.6518372910962958 -0.23811137423692175 -1.3347047032967385 -8.79190053429811e-05 200.0 -141.6 400.0 2.4186 -2.4185 2.4185 0.0 200.0 0.0 0.0 0.0 0.0 0.0 0.0 0.0 0.0 0.0 0.0 
0.4 -0.20977998949026366 -1.3426647289854334 -2.1562965199460797 0.35743567351048666 1.780738052134117 -0.00012311296252474842 1.3521685018067313 0.8929940368735151 -0.6466844395508289 -0.24632892402711898 -1.3521684987647034 -9.273721220932824e-05 200.0 -140.0 400.0 2.4186 -2.4185 2.4185 0.0 200.0 0.0 0.0 0.0 0.0 0.0 0.0 0.0 0.0 0.0 0.0 
0.408 -0.19889195908460255 -1.3355096721797932 -2.161448391907809 0.3554354855471744 1.7698500218107815 -0.0001228352665970445 1.369880748715471 0.8960760063673388 -0.6414957309996762 -0.2545996398535956 -1.3698807453520625 -9.79281362046964e-05 200.0 -138.4 400.0 2.4186 -2.4185 2.4185 0.0 200.0 0.0 0.0 0.0 0.0 0.0 0.0 0.0 0.0 0.0 0.0 
0.416 -0.1878612340350998 -1.328329910346335 -2.166558607714333 0.3533688679507254 1.7588192968443164 -0.0001225699895419948 1.3878424005887953 0.8991733122023923 -0.6362701105534092 -0.2629224793429379 -1.3878423968905367 -0.00010313500742190308 200.0 -136.8 400.0 2.4186 -2.4185 2.4185 0.0 200.0 0.0 0.0 0.0 0.0 0.0 0.0 0.0 0.0 0.0 0.0 
0.424 -0.1766858145761807 -1.3211253281137878 -2.1716268688836107 0.35123537904214985 1.7476438774691687 -0.00012231754281949998 1.406054380321338 0.9022839472646127 -0.6310066171319715 -0.2712963862909795 -1.406054376278198 -0.00010831844886029334 200.0 -135.2 400.0 2.4186 -2.4185 2.4185 0.0 200.0 0.0 0.0 0.0 0.0 0.0 0.0 0.0 0.0 0.0 0.0 
0.432 -0.16536369422744124 -1.3138958264651048 -2.1766528693694656 0.34903487847682513 1.7363217572049598 -0.00012207835593197386 1.424517636412598 0.9054059493428357 -0.6257044080446775 -0.279720302054045 -1.424517631985801 -0.00011385984879990387 200.0 -133.6 400.0 2.4186 -2.4185 2.4185 0.0 200.0 0.0 0.0 0.0 0.0 0.0 0.0 0.0 0.0 0.0 0.0 
0.44 -0.15389286169995176 -1.306641323699697 -2.1816362956092434 0.34676682459999086 1.7248509247627868 -0.00012185287740431501 1.4432325217824404 0.9085370083106633 -0.6203624888983816 -0.2881928649989672 -1.4432325169469788 -0.00011955731129659052 200.0 -132.0 400.0 2.4186 -2.4185 2.4185 0.0 200.0 0.0 0.0 0.0 0.0 0.0 0.0 0.0 0.0 0.0 0.0 
0.448 -0.14227130296402213 -1.2993617564473683 -2.1865768265759398 0.3444307774453146 1.713229366112985 -0.00012164157582703099 1.4621991916584465 0.9116747311474521 -0.6149799067036869 -0.29671261583055575 -1.4621991863951254 -0.00012533388117600807 200.0 -130.4 400.0 2.4186 -2.4185 2.4185 0.0 200.0 0.0 0.0 0.0 0.0 0.0 0.0 0.0 0.0 0.0 0.0 
0.456 -0.13049700348840654 -1.2920570807367768 -2.191474133835075 0.34202648986328854 1.7014550667243369 -0.00012144494096719507 1.4814176759597908 0.9148166910770691 -0.6095557859428026 -0.3052780221799313 -1.4814176702330095 -0.00013137923810665485 200.0 -128.8 400.0 2.4186 -2.4185 2.4185 0.0 200.0 0.0 0.0 0.0 0.0 0.0 0.0 0.0 0.0 0.0 0.0 
0.464 -0.11856795066143722 -1.2847272731214394 -2.196327881606628 0.3395534545814898 1.6895260139852035 -0.00012126348495230385 1.5008874371366563 0.9179601590896209 -0.6040891531367593 -0.3138872904383405 -1.5008874309285891 -0.00013747874327558899 200.0 -127.19999999999999 400.0 2.4186 -2.4185 2.4185 0.0 200.0 0.0 0.0 0.0 0.0 0.0 0.0 0.0 0.0 0.0 0.0 
0.472 -0.10648213640512094 -1.2773723318665184 -2.201137726832297 0.3370114491147027 1.6774401998176236 -0.00012109774353252949 1.5206078525827513 0.921102410913386 -0.5985791485957785 -0.32253857090217347 -1.5206078458584147 -0.00014382111119721033 200.0 -125.6 400.0 2.4186 -2.4185 2.4185 0.0 200.0 0.0 0.0 0.0 0.0 0.0 0.0 0.0 0.0 0.0 0.0 
0.48 -0.0942375599937586 -1.26999227819984 -2.2059033192484256 0.33440010894593786 1.6651956234959295 -0.00012094827742732232 1.5405777854550824 0.9242404695541794 -0.5930248607789848 -0.3312297815653369 -1.5405777781827434 -0.00015035982295356998 200.0 -124.0 400.0 2.4186 -2.4185 2.4185 0.0 200.0 0.0 0.0 0.0 0.0 0.0 0.0 0.0 0.0 0.0 0.0 
0.488 -0.08183223108925608 -1.2625871576308785 -2.2106243014648537 0.3317190992938768 1.6527902946820607 -0.00012081567376282652 1.5607957151169325 0.9273711949700123 -0.5874253931852089 -0.33995866580716205 -1.5607957072670324 -0.0001570657959892574 200.0 -122.4 400.0 2.4186 -2.4185 2.4185 0.0 200.0 0.0 0.0 0.0 0.0 0.0 0.0 0.0 0.0 0.0 0.0 
0.496 -0.06926417300586074 -1.2551570413416822 -2.2153003090500367 0.3289681313269277 1.6402222366902999 -0.00012070054760712378 1.581259724805237 0.9304912846176208 -0.5817798710233916 -0.3487227869561511 -1.5812597163465245 -0.00016395180990289227 200.0 -120.80000000000001 400.0 2.4186 -2.4185 2.4185 0.0 200.0 0.0 0.0 0.0 0.0 0.0 0.0 0.0 0.0 0.0 0.0 
0.504 -0.05653142621768881 -1.2477020276540438 -2.2199309706227153 0.3261469398836989 1.6274894899948003 -0.00012060354361092442 1.601967447822471 0.9335972496876797 -0.5760874327828368 -0.3575195083301012 -1.6019674387212646 -0.00017103682731932875 200.0 -119.2 400.0 2.4186 -2.4185 2.4185 0.0 200.0 0.0 0.0 0.0 0.0 0.0 0.0 0.0 0.0 0.0 0.0 
0.512 -0.04363205212305532 -1.2402222435775418 -2.224515907950452 0.3232552943379412 1.6145901159939156 -0.00012052533776198622 1.6229160454301723 0.936685410856258 -0.5703472347777379 -0.36634598470132285 -1.6229160356478436 -0.0001783613504348916 200.0 -117.6 400.0 2.4186 -2.4185 2.4185 0.0 200.0 0.0 0.0 0.0 0.0 0.0 0.0 0.0 0.0 0.0 0.0 
0.52 -0.030564137080268505 -1.2327178464434334 -2.229054736055347 0.3202929476334371 1.601522201045994 -0.00012046663926226432 1.6441021130533597 0.9397518531170777 -0.5645584312356572 -0.3751991329863104 -1.6441021025531113 -0.0001859020695360463 200.0 -116.0 400.0 2.4186 -2.4185 2.4185 0.0 200.0 0.0 0.0 0.0 0.0 0.0 0.0 0.0 0.0 0.0 0.0 
0.528 -0.017325796730261134 -1.2251890256297928 -2.23354706332723 0.31725967497221275 1.5882838607920124 -0.00012042819253758742 1.6655216812704723 0.9427924366546204 -0.5587201897167928 -0.3840756328622588 -1.665521670018503 -0.00019362918837483514 200.0 -114.39999999999999 400.0 2.4186 -2.4185 2.4185 0.0 200.0 0.0 0.0 0.0 0.0 0.0 0.0 0.0 0.0 0.0 0.0 
0.536 -0.0039151806221260355 -1.2176360043837098 -2.237992491644648 0.31415529599732106 1.574873244781107 -0.000120410779390521 1.6871702008439418 0.945802797891281 -0.5528317001616686 -0.39297191939003573 -1.687170188806697 -0.0002015401591632038 200.0 -112.8 400.0 2.4186 -2.4185 2.4185 0.0 200.0 0.0 0.0 0.0 0.0 0.0 0.0 0.0 0.0 0.0 0.0 
0.544 0.009669522841606604 -1.210059041746856 -2.242390616503941 0.31097973030756654 1.5612885414158557 -0.00012041522130802909 1.7090425708094825 0.9487783740342627 -0.5468921973345215 -0.4018841824448543 -1.7090425579390383 -0.000209752834524332 200.0 -111.19999999999999 400.0 2.4186 -2.4185 2.4185 0.0 200.0 0.0 0.0 0.0 0.0 0.0 0.0 0.0 0.0 0.0 0.0 
0.552 0.02343008112236422 -1.2024584345912432 -2.246741027156718 0.3077328524131573 1.54752798323488 -0.00012044238193658392 1.7311329183322361 0.9517142892559003 -0.540900903336877 -0.41080830786490796 -1.731132904580848 -0.00021825844002049818 200.0 -109.6 400.0 2.4186 -2.4185 2.4185 0.0 200.0 0.0 0.0 0.0 0.0 0.0 0.0 0.0 0.0 0.0 0.0 
0.56 0.037368211907185866 -1.1948345197725834 -2.251043306756019 0.30441446440163045 1.5335898525511935 -0.00012049316973851408 1.753434501862285 0.9546053140581752 -0.5348570165310665 -0.4197398587720955 -1.7534344872068317 -0.0002268611173489594 200.0 -107.99999999999999 400.0 2.4186 -2.4185 2.4185 0.0 200.0 0.0 0.0 0.0 0.0 0.0 0.0 0.0 0.0 0.0 0.0 
0.568 0.05148557709539903 -1.1871876764092897 -2.2552970325114683 0.30102470540113835 1.5194724874655234 -0.00012056854084462987 1.7759401930049084 0.9574461385361465 -0.5287598756389382 -0.4286741614720099 -1.7759401773801504 -0.00023588920452285338 200.0 -106.39999999999999 400.0 2.4186 -2.4185 2.4185 0.0 200.0 0.0 0.0 0.0 0.0 0.0 0.0 0.0 0.0 0.0 0.0 
0.576 0.06578377639019806 -1.1795183282958763 -2.2595017758536895 0.2975634280071031 1.5051742882747328 -0.00012066950211953275 1.7986416121408944 0.9602309102275388 -0.5226087103150733 -0.4376061273449856 -1.7986415955125727 -0.00024510224097470186 200.0 -104.79999999999998 400.0 2.4186 -2.4185 2.4185 0.0 200.0 0.0 0.0 0.0 0.0 0.0 0.0 0.0 0.0 0.0 0.0 
0.584 0.0802643404740917 -1.1718269464602578 -2.263657102608273 0.2940307413443788 1.4906937242963738 -0.00012079711445751884 1.821529784484191 0.9629536017735446 -0.5164028587945005 -0.4465303675268507 -1.8215297667996226 -0.0002546391437943194 200.0 -103.2 400.0 2.4186 -2.4185 2.4185 0.0 200.0 0.0 0.0 0.0 0.0 0.0 0.0 0.0 0.0 0.0 0.0 
0.592 0.0949287237462344 -1.1641140518753268 -2.2677625731795543 0.29042671011922305 1.4760293411313559 -0.00012095249632862947 1.844594680038512 0.9656077720553814 -0.5101416473307152 -0.4554410980903839 -1.844594661247328 -0.0002644816987911958 200.0 -101.60000000000001 400.0 2.4186 -2.4185 2.4185 0.0 200.0 0.0 0.0 0.0 0.0 0.0 0.0 0.0 0.0 0.0 0.0 
0.6 0.10977829659864469 -1.156380218336099 -2.271817742744469 0.2867514451041786 1.461179768387728 -0.00012113682759620652 1.867825268782009 0.9681866071093642 -0.503824426496285 -0.4643321393094211 -1.8678252488371814 -0.0002746076888841386 200.0 -100.0 400.0 2.4186 -2.4185 2.4185 0.0 200.0 0.0 0.0 0.0 0.0 0.0 0.0 0.0 0.0 0.0 0.0 
0.608 0.12481433720726298 -1.148626075514763 -2.2758221614567193 0.283005154900668 1.4461437278896214 -0.00012135135362928635 1.8912095325792757 0.9706829352347383 -0.49745059212843384 -0.47319689871890447 -1.8912095114245469 -0.00028508306388381295 200.0 -98.4 400.0 2.4186 -2.4185 2.4185 0.0 200.0 0.0 0.0 0.0 0.0 0.0 0.0 0.0 0.0 0.0 0.0 
0.616 0.14003802281269162 -1.1408523122070764 -2.279775374661499 0.27918803263335157 1.4309200423965083 -0.00012159738973533252 1.9147342248417858 0.9730891115135695 -0.49101953949427724 -0.482028325475346 -1.9147342024309688 -0.00029584251866994417 200.0 -96.8 400.0 2.4186 -2.4185 2.4185 0.0 200.0 0.0 0.0 0.0 0.0 0.0 0.0 0.0 0.0 0.0 0.0 
0.624 0.1554504204642666 -1.1330596797848225 -2.283676923120977 0.27530040921146615 1.4155076448591335 -0.00012187632594117806 1.938385029878056 0.975397108570852 -0.48453072516294865 -0.4908189052780583 -1.9383850061525147 -0.0003069733519223706 200.0 -95.2 400.0 2.4186 -2.4185 2.4185 0.0 200.0 0.0 0.0 0.0 0.0 0.0 0.0 0.0 0.0 0.0 0.0 
0.632 0.17105247719989247 -1.1252489958703777 -2.287526343250753 0.2713426158453558 1.3999055882396763 -0.00012218963215264496 1.9621462719669536 0.9775983757472736 -0.47798361116985516 -0.499560609721874 -1.9621462468733541 -0.0003184452438261302 200.0 -93.6 400.0 2.4186 -2.4185 2.4185 0.0 200.0 0.0 0.0 0.0 0.0 0.0 0.0 0.0 0.0 0.0 0.0 
0.64 0.18684500963271367 -1.1174211482509562 -2.29132316736746 0.267315092957336 1.3841130559250807 -0.0001225388637261478 1.986001005220449 0.9796838922265327 -0.47137770887967806 -0.5082448769641132 -1.986000978697736 -0.0003303131026356974 200.0 -92.0 400.0 2.4186 -2.4185 2.4185 0.0 200.0 0.0 0.0 0.0 0.0 0.0 0.0 0.0 0.0 0.0 0.0 
0.648 0.20282869291430794 -1.1095770990517266 -2.2950669239476698 0.2632183235365515 1.3681293727638641 -0.00012292566748869045 2.0099308184160205 0.9816440753903222 -0.46471255158470826 -0.5168625689402664 -2.009930790403936 -0.00034257769513283936 200.0 -90.39999999999999 400.0 2.4186 -2.4185 2.4185 0.0 200.0 0.0 0.0 0.0 0.0 0.0 0.0 0.0 0.0 0.0 0.0 
0.656 0.21900404904256865 -1.1017178891888109 -2.298757137898253 0.2590528521164499 1.3519540167582327 -0.0001233517882460516 2.033915770301954 0.9834687549065824 -0.45798770170804415 -0.5254039369709373 -2.033915740746149 -0.0003552111357456353 200.0 -88.8 400.0 2.4186 -2.4185 2.4185 0.0 200.0 0.0 0.0 0.0 0.0 0.0 0.0 0.0 0.0 0.0 0.0 
0.664 0.23537143448083597 -1.0938446431251077 -2.3023933308382896 0.2548193519180293 1.335586631444951 -0.00012381907582264572 2.0579344132202757 0.9851471875777993 -0.45120277756357935 -0.5338585820810282 -2.0579343820559677 -0.00036828607771901797 200.0 -87.19999999999999 400.0 2.4186 -2.4185 2.4185 0.0 200.0 0.0 0.0 0.0 0.0 0.0 0.0 0.0 0.0 0.0 0.0 
0.672 0.2519310270530988 -1.085958573954069 -2.3059750213926367 0.25051853524216394 1.3190270390001446 -0.00012432949268055999 2.081963531035959 0.9866679323985469 -0.4443574161611458 -0.5422154081590774 -2.0819634982039714 -0.00038177945102931633 200.0 -85.6 400.0 2.4186 -2.4185 2.4185 0.0 200.0 0.0 0.0 0.0 0.0 0.0 0.0 0.0 0.0 0.0 0.0 
0.68 0.2686828120782656 -1.0780609888388497 -2.3095017254971966 0.24615124265418542 1.3022752541050233 -0.00012488512216962802 2.105978193459348 0.9880188776086836 -0.4374513086675998 -0.5504625749649532 -2.105978158892997 -0.00039574700877452603 200.0 -83.99999999999999 400.0 2.4186 -2.4185 2.4185 0.0 200.0 0.0 0.0 0.0 0.0 0.0 0.0 0.0 0.0 0.0 0.0 
0.688 0.28562656770448847 -1.070153294836797 -2.312972956715926 0.24171839526816274 1.2853314986115627 -0.00012548817746511995 2.1299515545907015 0.9891871430003742 -0.4304841799419258 -0.558587446442754 -2.1299515182217323 -0.0004102101580164997 200.0 -82.39999999999999 400.0 2.4186 -2.4185 2.4185 0.0 200.0 0.0 0.0 0.0 0.0 0.0 0.0 0.0 0.0 0.0 0.0 
0.696 0.30276184940244333 -1.0622370051419958 -2.3163882265695803 0.2372209982272735 1.2681962170492196 -0.00012614101125472293 2.153854734173321 0.9901590212421884 -0.42345578874214584 -0.5665765376083954 -2.1538546959400993 -0.0004251460997028704 200.0 -80.79999999999998 400.0 2.4186 -2.4185 2.4185 0.0 200.0 0.0 0.0 0.0 0.0 0.0 0.0 0.0 0.0 0.0 0.0 
0.704 0.32008797357418617 -1.0543137457815037 -2.319747044876153 0.2326602070643351 1.2508700930160832 -0.0001268461262419625 2.1776568248539183 0.9909199747381543 -0.416365953388254 -0.5744154478179608 -2.177656784686076 -0.0004406202138511045 200.0 -79.2 400.0 2.4186 -2.4185 2.4185 0.0 200.0 0.0 0.0 0.0 0.0 0.0 0.0 0.0 0.0 0.0 0.0 
0.712 0.3376040002318472 -1.0463852628040797 -2.3230489201029427 0.22803727235796067 1.2333540665001754 -0.00012760618653907777 2.201324646439688 0.9914545127263599 -0.4092145275725921 -0.5820888009672919 -2.2013246042674393 -0.0004566467757577569 200.0 -77.6 400.0 2.4186 -2.4185 2.4185 0.0 200.0 0.0 0.0 0.0 0.0 0.0 0.0 0.0 0.0 0.0 0.0 
0.72 0.3553087146978815 -1.0384534300035737 -2.3262933597301396 0.2233535722585307 1.2156493521792033 -0.00012842403002859745 2.22482266854122 0.9917461442755354 -0.40200141176692206 -0.5895801727598311 -2.2248226242953217 -0.00047324249850534054 200.0 -76.0 400.0 2.4186 -2.4185 2.4185 0.0 200.0 0.0 0.0 0.0 0.0 0.0 0.0 0.0 0.0 0.0 0.0 
0.728 0.37320060827600576 -1.0305202572226762 -2.3294798706257698 0.21861062225857797 1.1977574587496234 -0.00012930268177945226 2.2481128812458047 0.9917773039488709 -0.3947265550843197 -0.5968720133771469 -2.248112834856996 -0.0004904293308842255 200.0 -74.39999999999999 400.0 2.4186 -2.4185 2.4185 0.0 200.0 0.0 0.0 0.0 0.0 0.0 0.0 0.0 0.0 0.0 0.0 
0.736 0.3912778578392504 -1.022587899286446 -2.332607959431821 0.2138100783959378 1.1796802093385907 -0.00013024536861035364 2.2711546421928643 0.9915292636811089 -0.3873899541812839 -0.6039455656890453 -2.2711545935940745 -0.0005082198315013709 200.0 -72.8 400.0 2.4186 -2.4185 2.4185 0.0 200.0 0.0 0.0 0.0 0.0 0.0 0.0 0.0 0.0 0.0 0.0 
0.744 0.40953830427887294 -1.0146586656188625 -2.3356771329613024 0.20895379286127458 1.161419763055045 -0.0001312555349003041 2.2939046406202475 0.9909820918066177 -0.37999167311262183 -0.610780760292129 -2.293904589727077 -0.0005267302960125056 200.0 -71.19999999999999 400.0 2.4186 -2.4185 2.4185 0.0 200.0 0.0 0.0 0.0 0.0 0.0 0.0 0.0 0.0 0.0 0.0 
0.752 0.42797942975523506 -1.0067350305995437 -2.338686898605965 0.2040437058919795 1.1429786377388338 -0.00013233685975337815 2.316316458636816 0.9901144327060402 -0.37253179638865225 -0.6173561551918205 -2.316316405384304 -0.0005458873889706968 200.0 -69.6 400.0 2.4186 -2.4185 2.4185 0.0 200.0 0.0 0.0 0.0 0.0 0.0 0.0 0.0 0.0 0.0 0.0 
0.76 0.44659833368932356 -0.9988196447216371 -2.3416367647543526 0.19908199481579958 1.1243597339691977 -0.00013349327563218026 2.3383407387212363 0.9889035461313284 -0.36501048605226805 -0.6236487878266462 -2.3383406830357214 -0.0005657670449084041 200.0 -67.99999999999999 400.0 2.4186 -2.4185 2.4185 0.0 200.0 0.0 0.0 0.0 0.0 0.0 0.0 0.0 0.0 0.0 0.0 
0.768 0.4653917074314764 -0.9909153466156138 -2.3445262412198105 0.1940710105272032 1.1055663603960384 -0.00013472898858144354 2.359924833030866 0.9873251157626738 -0.35742795203999245 -0.6296340846284089 -2.3599247748376273 -0.0005864076601679789 200.0 -66.39999999999999 400.0 2.4186 -2.4185 2.4185 0.0 200.0 0.0 0.0 0.0 0.0 0.0 0.0 0.0 0.0 0.0 0.0 
0.776 0.48435580754233953 -0.9830251760071351 -2.347354839678023 0.18901331569494983 1.0866022604589674 -0.0001360485001698117 2.3810126878647404 0.9853531547323726 -0.34978446337062624 -0.6352857293107255 -2.3810126270834044 -0.0006078731630232433 200.0 -64.79999999999998 400.0 2.4186 -2.4185 2.4185 0.0 200.0 0.0 0.0 0.0 0.0 0.0 0.0 0.0 0.0 0.0 0.0 
0.784 0.5034864276203928 -0.9751523876800641 -2.350122074113609 0.18391166896278488 1.067471640559782 -0.00013745663128357765 2.401544576175139 0.9829598415784853 -0.3420803370853437 -0.6405755467475429 -2.4015445127311725 -0.00063017246394899 200.0 -63.19999999999999 400.0 2.4186 -2.4185 2.4185 0.0 200.0 0.0 0.0 0.0 0.0 0.0 0.0 0.0 0.0 0.0 0.0 
0.792 0.5227788686109287 -0.96730046651781 -2.352827461275245 0.17876908031328487 1.048179199753485 -0.00013895854791056114 2.421457010492994 0.9801154254913619 -0.3343159553025259 -0.6454733430992555 -2.421456944308161 -0.0006533653882017851 200.0 -61.59999999999998 400.0 2.4186 -2.4185 2.4185 0.0 200.0 0.0 0.0 0.0 0.0 0.0 0.0 0.0 0.0 0.0 0.0 
0.8 0.5422279075336363 -0.9594731436971777 -2.355470521138739 0.17358880183839132 1.0287301610207042 -0.00014055978905476446 2.4406824715604483 0.9767880486673995 -0.32649175574356065 -0.6499467691209612 -2.440682402557028 -0.0006774937369735316 200.0 -59.999999999999986 400.0 2.4186 -2.4185 2.4185 0.0 200.0 0.0 0.0 0.0 0.0 0.0 0.0 0.0 0.0 0.0 0.0 
0.808 0.5618277645706149 -0.9516744141082238 -2.358050777377408 0.16837435431049963 1.0091303041796822 -0.00014226629692215556 2.459149223306102 0.9729435984006113 -0.3186082360714003 -0.6539611572775873 -2.4591491514065074 -0.0007026044968872625 200.0 -58.39999999999998 400.0 2.4186 -2.4185 2.4185 0.0 200.0 0.0 0.0 0.0 0.0 0.0 0.0 0.0 0.0 0.0 0.0 
0.816 0.581572068464516 -0.9439085550707675 -2.3605677578391004 0.16312954879129427 0.9893860004881304 -0.00014408444951385853 2.4767811066649568 0.9685455439380819 -0.3106659555861977 -0.6574793526102064 -2.4767810317898435 -0.0007287572824756522 200.0 -56.79999999999998 400.0 2.4186 -2.4185 2.4185 0.0 200.0 0.0 0.0 0.0 0.0 0.0 0.0 0.0 0.0 0.0 0.0 
0.824 0.6014538201886337 -0.9361801464123847 -2.363020995029083 0.15785849929104412 0.9695042489731491 -0.00014602109575389478 2.493497297627235 0.9635547531825699 -0.30266553275605096 -0.6604615440623293 -2.493497219698313 -0.0007560014390449005 200.0 -55.199999999999974 400.0 2.4186 -2.4185 2.4185 0.0 200.0 0.0 0.0 0.0 0.0 0.0 0.0 0.0 0.0 0.0 0.0 
0.832 0.6214653548684941 -0.9284940919629845 -2.3654100265980276 0.15256566589716236 0.9494927145096322 -0.00014808359326278812 2.5092121560480756 0.9579293390992314 -0.2946076540164862 -0.662865066013641 -2.5092120749778015 -0.0007844399288892687 200.0 -53.59999999999998 400.0 2.4186 -2.4185 2.4185 0.0 200.0 0.0 0.0 0.0 0.0 0.0 0.0 0.0 0.0 0.0 0.0 
0.84 0.6415983019594269 -0.9208556425063135 -2.367734395834239 0.1472558262140824 0.929359767642703 -0.00015027984886381126 2.523834839785324 0.9516244109178608 -0.28649305395418817 -0.6646442601523814 -2.523834755499349 -0.0008140706712425206 200.0 -52.000000000000014 400.0 2.4186 -2.4185 2.4185 0.0 200.0 0.0 0.0 0.0 0.0 0.0 0.0 0.0 0.0 0.0 0.0 
0.848 0.6618435437187757 -0.9132704202074562 -2.3699936521592138 0.141934170602811 0.909114526115505 -0.00015261836187293408 2.5372693246057487 0.9445919777559254 -0.2783225429805756 -0.6657502283445355 -2.5372692370210874 -0.0008450012191661702 200.0 -50.400000000000006 400.0 2.4186 -2.4185 2.4185 0.0 200.0 0.0 0.0 0.0 0.0 0.0 0.0 0.0 0.0 0.0 0.0 
0.856 0.6821911720572806 -0.9057444445059644 -2.3721873516255845 0.13660629037733552 0.888766898017822 -0.00015510827017362573 2.5494140879254847 0.9367807205527492 -0.27009699252826463 -0.6661306828588934 -2.5494139969522362 -0.0008773345482887771 200.0 -48.80000000000001 400.0 2.4186 -2.4185 2.4185 0.0 200.0 0.0 0.0 0.0 0.0 0.0 0.0 0.0 0.0 0.0 0.0 
0.864 0.7026304439147173 -0.8982841594244775 -2.37431505741645 0.13127818665995905 0.8683276264104405 -0.0001577593990099548 2.5601618652286344 0.9281357948752331 -0.2618173280297102 -0.6657297988117807 -2.5601617707851902 -0.0009111043042424291 200.0 -47.20000000000002 400.0 2.4186 -2.4185 2.4185 0.0 200.0 0.0 0.0 0.0 0.0 0.0 0.0 0.0 0.0 0.0 0.0 
0.872 0.7231497353835137 -0.8908964621902227 -2.376376340345031 0.12595634151750268 0.8478083352015373 -0.00016058231234163613 2.569399658685941 0.9185987307249529 -0.25348454481994265 -0.6644880140393595 -2.569399560686036 -0.0009464106075779751 200.0 -45.60000000000002 400.0 2.4186 -2.4185 2.4185 0.0 200.0 0.0 0.0 0.0 0.0 0.0 0.0 0.0 0.0 0.0 0.0 
0.88 0.7437364949049778 -0.8835887329987218 -2.378370779353568 0.12064772169268645 0.8272215759504544 -0.0001635883664878423 2.57700855295539 0.9081072694200091 -0.2450996978063573 -0.6623419299683747 -2.5770084513130387 -0.0009833337230168613 200.0 -44.0 400.0 2.4186 -2.4185 2.4185 0.0 200.0 0.0 0.0 0.0 0.0 0.0 0.0 0.0 0.0 0.0 0.0 
0.888 0.7643771959904246 -0.8763688656621214 -2.380297962010324 0.11535983101280145 0.8065808751465777 -0.0001667897656370568 2.582863770523336 0.8965953021796702 -0.23666390891500388 -0.6592241941907041 -2.582863665142647 -0.0010220070662503341 200.0 -42.400000000000006 400.0 2.4186 -2.4185 2.4185 0.0 200.0 0.0 0.0 0.0 0.0 0.0 0.0 0.0 0.0 0.0 0.0 
0.896 0.7850572900790671 -0.8692452987753292 -2.3821574850035208 0.11010069625501684 0.7859007813514427 -0.00017019961861178813 2.586834556079816 0.8839927713936294 -0.22817834990388727 -0.6550635303624351 -2.586834446878357 -0.0010624545590185478 200.0 -40.80000000000001 400.0 2.4186 -2.4185 2.4185 0.0 200.0 0.0 0.0 0.0 0.0 0.0 0.0 0.0 0.0 0.0 0.0 
0.904 0.8057611603413052 -0.8622270468977264 -2.3839489546310233 0.1048789645661583 0.7651969113954565 -0.00017383199604294677 2.5887846110712958 0.8702257965010627 -0.21964426554189437 -0.6497846817795533 -2.5887844979554013 -0.0011048230523393223 200.0 -39.20000000000002 400.0 2.4186 -2.4185 2.4185 0.0 200.0 0.0 0.0 0.0 0.0 0.0 0.0 0.0 0.0 0.0 0.0 
0.912 0.8264720774753986 -0.8553237310829109 -2.385671987284555 0.09970388705312772 0.7444859945812233 -0.00017770198682251866 2.5885722348523084 0.8552167406278545 -0.21106295550555298 -0.6433086116597302 -2.5885721177271277 -0.0011492137091264258 200.0 -37.599999999999994 400.0 2.4186 -2.4185 2.4185 0.0 200.0 0.0 0.0 0.0 0.0 0.0 0.0 0.0 0.0 0.0 0.0 
0.92 0.8471721588321235 -0.8485456078903524 -2.3873262099272097 0.09458536140844309 0.7237859135588927 -0.00018182575235884475 2.586050887550802 0.8388844818517215 -0.20243577820161845 -0.635552740976769 -2.586050766320987 -0.0011957265736956858 200.0 -36.0 400.0 2.4186 -2.4185 2.4185 0.0 200.0 0.0 0.0 0.0 0.0 0.0 0.0 0.0 0.0 0.0 0.0 
0.928 0.8678423325393525 -0.8419035957785055 -2.3889112605630625 0.08953395733522429 0.7031157402015816 -0.00018622057675191228 2.581069928260851 0.8211448183854003 -0.1937641491662528 -0.6264313615218875 -2.581069802832572 -0.0012444530568842837 200.0 -34.400000000000006 400.0 2.4186 -2.4185 2.4185 0.0 200.0 0.0 0.0 0.0 0.0 0.0 0.0 0.0 0.0 0.0 0.0 
0.936 0.888462308687394 -0.8354092975080647 -2.3904267886976536 0.08456095475803638 0.6824957644200388 -0.00019090491053504698 2.573475711770492 0.8019110870989619 -0.18504954479320654 -0.6158562052476939 -2.573475582041183 -0.0012955358107816387 200.0 -32.80000000000001 400.0 2.4186 -2.4185 2.4185 0.0 200.0 0.0 0.0 0.0 0.0 0.0 0.0 0.0 0.0 0.0 0.0 
0.944 0.9090105600733022 -0.829075016878674 -2.3918724557881985 0.07967832219456739 0.6619475134183345 -0.00019589840509750615 2.5631127871483286 0.7810949362183451 -0.1762934882044986 -0.6037373530332265 -2.563112653027985 -0.001349010469370777 200.0 -31.19999999999999 400.0 2.4186 -2.4185 2.4185 0.0 200.0 0.0 0.0 0.0 0.0 0.0 0.0 0.0 0.0 0.0 0.0 
0.952 0.9294643154790363 -0.822913767788588 -2.393247935682393 0.07489878296991925 0.6414937584157067 -0.0002012219343200613 2.5498259237578447 0.7586075045679663 -0.16749756603900698 -0.5899842219254939 -2.549825785144324 -0.0014050332909307218 200.0 -29.599999999999994 400.0 2.4186 -2.4185 2.4185 0.0 200.0 0.0 0.0 0.0 0.0 0.0 0.0 0.0 0.0 0.0 0.0 
0.96 0.949799568956671 -0.8169392732564669 -2.3945529150447995 0.0702357662097044 0.6211585053613452 -0.000206897599343159 2.5334621334320886 0.7343607708946802 -0.1586634111054945 -0.5745070872388083 -2.533461990226091 -0.0014636812056978313 200.0 -28.0 400.0 2.4186 -2.4185 2.4185 0.0 200.0 0.0 0.0 0.0 0.0 0.0 0.0 0.0 0.0 0.0 0.0 
0.968 0.9699911090849598 -0.8111659516973617 -2.395787093769866 0.06570341321564444 0.6009669656778307 -0.00021294871177849882 2.513873521392323 0.7082693576842639 -0.14979270700836486 -0.5572188240176351 -2.5138733734965717 -0.0015250279688534226 200.0 -26.400000000000006 400.0 2.4186 -2.4185 2.4185 0.0 200.0 0.0 0.0 0.0 0.0 0.0 0.0 0.0 0.0 0.0 0.0 
0.976 0.9900125726024499 -0.8056088874303349 -2.396950185380789 0.061316549859674385 0.5809455026280202 -0.00021939975012056674 2.490920632149509 0.6802527041245686 -0.14088718659269964 -0.5380370785508148 -2.490920479466708 -0.0015891480691107107 200.0 -24.799999999999983 400.0 2.4186 -2.4185 2.4185 0.0 200.0 0.0 0.0 0.0 0.0 0.0 0.0 0.0 0.0 0.0 0.0 
0.984 1.0098365271535155 -0.8002837821538575 -2.398041917413565 0.05709062942454901 0.5611215485690022 -0.00022627628368535009 2.464476350480352 0.6502376434349313 -0.13194862747098451 -0.5168868876180036 -2.464476192919084 -0.0016560724355336627 200.0 -23.19999999999999 400.0 2.4186 -2.4185 2.4185 0.0 200.0 0.0 0.0 0.0 0.0 0.0 0.0 0.0 0.0 0.0 0.0 
0.992 1.0294345880278097 -0.7952068840102169 -2.399062031785774 0.05304167633753876 0.5415234882126437 -0.00023360485819105803 2.4344305230513448 0.6181614332148961 -0.12297885393310033 -0.49370365705904434 -2.4344303605196513 -0.001725849108871078 200.0 -21.599999999999994 400.0 2.4186 -2.4185 2.4185 0.0 200.0 0.0 0.0 0.0 0.0 0.0 0.0 0.0 0.0 0.0 0.0 
1.0 1.0487775736367415 -0.790394890936291 -2.400010285149798 0.049186167805888026 0.5221805031491037 -0.00024141283721237388 2.4006949733008485 0.5839751363768974 -0.11397972925028242 -0.4684366416663585 -2.400694805719357 -0.0017984364937299688 200.0 -20.0 400.0 2.4186 -2.4185 2.4185 0.0 200.0 0.0 0.0 0.0 0.0 0.0 0.0 0.0 0.0 0.0 0.0 
1.008 1.06783570394663 -0.7858648253383036 -2.4008864492304403 0.045540932264077405 0.5031223734136644 -0.00024972819431249926 2.3632092135421336 0.5476473958233958 -0.10495315975897768 -0.4410526278207678 -2.3632090408365394 -0.0018738080210274391 200.0 -18.399999999999977 400.0 2.4186 -2.4185 2.4185 0.0 200.0 0.0 0.0 0.0 0.0 0.0 0.0 0.0 0.0 0.0 0.0 
1.016 1.0865788450689142 -0.7816338778073271 -2.401690311147025 0.04212298420280547 0.4843792328965098 -0.00025857925181616026 2.3219463108650693 0.5091683928626819 -0.09590109033452743 -0.4115399348913294 -2.3219461329666085 -0.0019519068288079656 200.0 -16.799999999999983 400.0 2.4186 -2.4185 2.4185 0.0 200.0 0.0 0.0 0.0 0.0 0.0 0.0 0.0 0.0 0.0 0.0 
1.024 1.1049768015987333 -0.7777192186759749 -2.4024216737202844 0.038949315843727295 0.4659812770041244 -0.0002679943640461693 2.2769187695367537 0.4685538605660232 -0.0868254986261903 -0.37991252859591207 -2.276918586401003 -0.0020325405663106067 200.0 -15.199999999999989 400.0 2.4186 -2.4185 2.4185 0.0 200.0 0.0 0.0 0.0 0.0 0.0 0.0 0.0 0.0 0.0 0.0 
1.032 1.1229996560359918 -0.7741377777458274 -2.4030803557644207 0.03603671962600208 0.44795842323820545 -0.00027800154547799914 2.2281844719957045 0.4258490090236307 -0.07772840200981243 -0.3462137549286494 -2.22818428358255 -0.0021155905485697483 200.0 -13.599999999999994 400.0 2.4186 -2.4185 2.4185 0.0 200.0 0.0 0.0 0.0 0.0 0.0 0.0 0.0 0.0 0.0 0.0 
1.04 1.1406181517227867 -0.7709059944872863 -2.4036661923647458 0.033401492118954934 0.43033992825821976 -0.00028862804766797653 2.175851529148053 0.38113192679491165 -0.0686118467298046 -0.31051996075300975 -2.17585133544366 -0.0022007774133534623 200.0 -11.999999999999972 400.0 2.4186 -2.4185 2.4185 0.0 200.0 0.0 0.0 0.0 0.0 0.0 0.0 0.0 0.0 0.0 0.0 
1.048 1.1578041122846248 -0.7680395433634981 -2.4041790351412335 0.0310591970330667 0.41315396844014984 -0.0002998998928691861 2.1200824353947363 0.33451632860189895 -0.05947791313109723 -0.2729430650164562 -2.12008223639879 -0.00228785251027561 200.0 -10.399999999999977 400.0 2.4186 -2.4185 2.4185 0.0 200.0 0.0 0.0 0.0 0.0 0.0 0.0 0.0 0.0 0.0 0.0 
1.056 1.1745308867812263 -0.7655530415140372 -2.4046187524980986 0.0290243473063736 0.39642719472566645 -0.00031184137671690874 2.0610963233522823 0.2861531717068778 -0.05032870955635825 -0.23363229697775773 -2.0610961190881896 -0.002376468817565802 200.0 -8.799999999999983 400.0 2.4186 -2.4185 2.4185 0.0 200.0 0.0 0.0 0.0 0.0 0.0 0.0 0.0 0.0 0.0 0.0 
1.064 1.1907738059892794 -0.7634597486243786 -2.4049852298591476 0.027310108621683593 0.3801842763393419 -0.0003244745568485103 1.9991693185437782 0.23623092152054206 -0.04116637180703181 -0.19277444293933627 -1.9991691090648818 -0.0024662028625714928 200.0 -7.199999999999989 400.0 2.4186 -2.4185 2.4185 0.0 200.0 0.0 0.0 0.0 0.0 0.0 0.0 0.0 0.0 0.0 0.0 
1.072 1.206510631894068 -0.7617712711027629 -2.4052783698881828 0.025928021872465568 0.36444745129700334 -0.0003378187482997393 1.934632543514366 0.18497418601678003 -0.031993063144764994 -0.15059238119121354 -1.9346323288925493 -0.0025566610011039047 200.0 -5.599999999999966 400.0 2.4186 -2.4185 2.4185 0.0 200.0 0.0 0.0 0.0 0.0 0.0 0.0 0.0 0.0 0.0 0.0 
1.08 1.221721980059809 -0.7604972843437166 -2.40549809269313 0.024887696837014417 0.34923610403535327 -0.00035189004939611425 1.8678672673789514 0.13264053410835083 -0.022810969366595758 -0.10734203649039953 -1.8678670477185226 -0.0026473363600357284 200.0 -3.9999999999999716 400.0 2.4186 -2.4185 2.4185 0.0 200.0 0.0 0.0 0.0 0.0 0.0 0.0 0.0 0.0 0.0 0.0 
1.088 1.2363916935646648 -0.7596452875444042 -2.4056443360119473 0.024196593157166824 0.33456639147694067 -0.0003667009230573401 1.7992976533955163 0.07951554272077105 -0.013622298793063918 -0.06330728245703406 -1.7992974288221826 -0.002737762813273367 200.0 -2.3999999999999773 400.0 2.4186 -2.4185 2.4185 0.0 200.0 0.0 0.0 0.0 0.0 0.0 0.0 0.0 0.0 0.0 0.0 
1.096 1.250507147999686 -0.7592204049989921 -2.405717055377759 0.023859797893418744 0.3204509380312046 -0.00038225985750884337 1.7293808520919638 0.025906171197928613 -0.004429278122676173 -0.01879342601940951 -1.7293806227623714 -0.0028274001837341445 200.0 -0.799999999999983 400.0 2.4186 -2.4185 2.4185 0.0 200.0 0.0 0.0 0.0 0.0 0.0 0.0 0.0 0.0 0.0 0.0 
1.104 1.2640594698084078 -0.7592252459118245 -2.4057162242601664 0.023879908214329948 0.3068986172548513 -0.00039857112714697585 1.6585953351399416 -0.02786718146594486 0.0047658497069902935 0.0258808670309802 -1.6585951012296392 -0.0029157745708354326 200.0 0.8000000000000398 400.0 2.4186 -2.4185 2.4185 0.0 200.0 0.0 0.0 0.0 0.0 0.0 0.0 0.0 0.0 0.0 0.0 
1.112 1.277043654876734 -0.7596598316160592 -2.405641834179395 0.024256935717075656 0.2939144332619766 -0.00041563466886065416 1.5874277561533356 -0.08147949542952855 0.01396082947402166 0.07039228371770506 -1.5874275178644233 -0.003002367708177106 200.0 2.400000000000034 400.0 2.4186 -2.4185 2.4185 0.0 200.0 0.0 0.0 0.0 0.0 0.0 0.0 0.0 0.0 0.0 0.0 
1.12 1.2894585803681557 -0.7605215949359061 -2.405493894789858 0.02498832260212902 0.2814995088888321 -0.0004334460819494242 1.516359520898607 -0.13461024800155283 0.02315339732582437 0.11442208032346098 -1.516359278451723 -0.0030867231954481117 200.0 4.000000000000028 400.0 2.4186 -2.4185 2.4185 0.0 200.0 0.0 0.0 0.0 0.0 0.0 0.0 0.0 0.0 0.0 0.0 
1.128 1.301306909685958 -0.7618054517336343 -2.405272433929975 0.02606901349813917 0.2696511807316437 -0.0004519967516684119 1.4458537087098415 -0.186952241708284 0.03234128569069816 0.15766491955429326 -1.4458534623358335 -0.0031684593684791476 200.0 5.600000000000023 400.0 2.4186 -2.4185 2.4185 0.0 200.0 0.0 0.0 0.0 0.0 0.0 0.0 0.0 0.0 0.0 0.0 
1.136 1.312594897338184 -0.7635039399807075 -2.404977497635535 0.0274915768233579 0.2583631942816423 -0.00047127408831635996 1.376343188865438 -0.23821956254052612 0.04152222672760996 0.19983674158281697 -1.3763429388119959 -0.0032471814284884123 200.0 7.2000000000000455 400.0 2.4186 -2.4185 2.4185 0.0 200.0 0.0 0.0 0.0 0.0 0.0 0.0 0.0 0.0 0.0 0.0 
1.144 1.32333210658742 -0.7656074175305072 -2.4046091501146316 0.02924642233289587 0.24762598627531512 -0.000491261866606575 1.3082208056607731 -0.288154224583902 0.05069395818825331 0.2406815125813744 -1.3082205521821708 -0.0033225952035947615 200.0 8.80000000000004 400.0 2.4186 -2.4185 2.4185 0.0 200.0 0.0 0.0 0.0 0.0 0.0 0.0 0.0 0.0 0.0 0.0 
1.152 1.3335310574315604 -0.7681043065961601 -2.4041674736830223 0.03132203875424677 0.23742703671365614 -0.0005119406445974311 1.2418318774697144 -0.33653116049815596 0.05985422810007905 0.2799761767492388 -1.2418316208228604 -0.003394471639538245 200.0 10.400000000000034 400.0 2.4186 -2.4185 2.4185 0.0 200.0 0.0 0.0 0.0 0.0 0.0 0.0 0.0 0.0 0.0 0.0 
1.16 1.3432068252757492 -0.7709813710297961 -2.4036525686596617 0.03370527194576001 0.22775127019024816 -0.0005332882381898222 1.1774693623197567 -0.38316141302960577 0.06900079976758154 0.31753384612944124 -1.1774691027600663 -0.00346265029665487 200.0 12.0 400.0 2.4186 -2.4185 2.4185 0.0 200.0 0.0 0.0 0.0 0.0 0.0 0.0 0.0 0.0 0.0 0.0 
1.168 1.3523766115060738 -0.7742240119361434 -2.4030645532230204 0.036381616332682665 0.21858148531760188 -0.0005552802262550414 1.1153716368484288 -0.4278935320704306 0.07813145583690449 0.3532051683605334 -1.1153713746295741 -0.003527013789747774 200.0 13.599999999999994 400.0 2.4186 -2.4185 2.4185 0.0 200.0 0.0 0.0 0.0 0.0 0.0 0.0 0.0 0.0 0.0 0.0 
1.176 1.361059306225121 -0.7778165678210729 -2.4024035632295235 0.03933552137879115 0.20989879199163736 -0.0005778904626402986 1.0557227126690127 -0.4706133412514886 0.08724400370115673 0.3868781141650026 -1.0557224480383014 -0.0035875153751229803 200.0 15.199999999999989 400.0 2.4186 -2.4185 2.4185 0.0 200.0 0.0 0.0 0.0 0.0 0.0 0.0 0.0 0.0 0.0 0.0 
1.184 1.3692750610293172 -0.7817426071193982 -2.4016697519960513 0.04255068499078929 0.20168303861435713 -0.0006010915741666014 0.9986544766495393 -0.5112423158078292 0.0963362801624303 0.4184763464085469 -0.9986542098435393 -0.0036441751997861476 200.0 16.80000000000001 400.0 2.4186 -2.4185 2.4185 0.0 200.0 0.0 0.0 0.0 0.0 0.0 0.0 0.0 0.0 0.0 0.0 
1.192 1.3770448863818288 -0.785985203233623 -2.400863290048807 0.046010321948250166 0.19391321472098833 -0.0006248554277081595 0.9442505040241631 -0.5497348776775755 0.10540615416811791 0.44795647092319596 -0.9442502352699573 -0.0036970385194628297 200.0 18.400000000000006 400.0 2.4186 -2.4185 2.4185 0.0 200.0 0.0 0.0 0.0 0.0 0.0 0.0 0.0 0.0 0.0 0.0 
1.2 1.3843902843633586 -0.7905271848031723 -2.39998436484112 0.049697420767612854 0.18656781822918983 -0.0006491535539286989 0.8925510099178968 -0.586074958820468 0.11445153174877128 0.47530461876560454 -0.8925507394300015 -0.003746200835805501 200.0 20.0 400.0 2.4186 -2.4185 2.4185 0.0 200.0 0.0 0.0 0.0 0.0 0.0 0.0 0.0 0.0 0.0 0.0 
1.208 1.3913329238075782 -0.795351356509717 -2.399033180442799 0.053594964115506016 0.17962518030366778 -0.0006739575197251197 0.8435584343755795 -0.6202721256988197 0.12347035948326286 0.5005325559388785 -0.8435581623538561 -0.0037917969782184416 200.0 21.599999999999994 400.0 2.4186 -2.4185 2.4185 0.0 200.0 0.0 0.0 0.0 0.0 0.0 0.0 0.0 0.0 0.0 0.0 
1.216 1.3978943613833708 -0.8004406880793811 -2.398009957203618 0.05768611267221413 0.17306374427392646 -0.0006992392454970058 0.7972432718544988 -0.6523575378942739 0.13246062635272574 0.5236736080387778 -0.797242998486033 -0.0038339690528617935 200.0 23.19999999999999 400.0 2.4186 -2.4185 2.4185 0.0 200.0 0.0 0.0 0.0 0.0 0.0 0.0 0.0 0.0 0.0 0.0 
1.224 1.4040958092854814 -0.8057784711218274 -2.3969149313933826 0.06195436903660845 0.16686229794365073 -0.0007249712667719083 0.7535498502433619 -0.6823799826100324 0.14142036830272042 0.5447787164119611 -0.7535495756998132 -0.003872893661095384 200.0 24.80000000000001 400.0 2.4186 -2.4185 2.4185 0.0 200.0 0.0 0.0 0.0 0.0 0.0 0.0 0.0 0.0 0.0 0.0 
1.232 1.4099579479369768 -0.8113484449829222 -2.3957483548208502 0.06638369536400157 0.16100016088824537 -0.0007511269423577172 0.7124017709654124 -0.71040211470206 0.15034766868325888 0.563912634308432 -0.712401495406036 -0.003908738259055864 200.0 26.400000000000006 400.0 2.4186 -2.4185 2.4185 0.0 200.0 0.0 0.0 0.0 0.0 0.0 0.0 0.0 0.0 0.0 0.0 
1.24 1.4155007804973567 -0.8171348938786513 -2.394510494433592 0.07095861905548606 0.15545732994674363 -0.0007776806130608059 0.6737068995981811 -0.7364970527308096 0.1592406629130465 0.5811505524782727 -0.6737066231673579 -0.003941696266321123 200.0 28.0 400.0 2.4186 -2.4185 2.4185 0.0 200.0 0.0 0.0 0.0 0.0 0.0 0.0 0.0 0.0 0.0 0.0 
1.248 1.420743524951635 -0.8231227182634759 -2.3932016319006717 0.07566429858116264 0.1502145871327267 -0.0008046077161735993 0.6373617648921258 -0.7607453539730726 0.1680975391572315 0.5965750448280167 -0.6373614877205628 -0.003971958283376396 200.0 29.600000000000023 400.0 2.4186 -2.4185 2.4185 0.0 200.0 0.0 0.0 0.0 0.0 0.0 0.0 0.0 0.0 0.0 0.0 
1.256 1.4257045390339673 -0.8292974837317582 -2.3918220631798577 0.08048656915182839 0.1452535747106928 -0.0008318848615119388 0.6032553549394286 -0.7832324142280276 0.17691653921632805 0.610273452118931 -0.6032550771470856 -0.003999696978446385 200.0 31.200000000000017 400.0 2.4186 -2.4185 2.4185 0.0 200.0 0.0 0.0 0.0 0.0 0.0 0.0 0.0 0.0 0.0 0.0 
1.264 1.430401273106205 -0.8356454508309299 -2.390372098070922 0.0854119812018066 0.14055684231751914 -0.0008594898749015497 0.5712723210263209 -0.8040463029458209 0.18569596298566024 0.6223357480620416 -0.57127204272002 -0.00402510310850084 200.0 32.80000000000001 400.0 2.4186 -2.4185 2.4185 0.0 200.0 0.0 0.0 0.0 0.0 0.0 0.0 0.0 0.0 0.0 0.0 
1.272 1.434850246260824 -0.8421535890529039 -2.3888520597564513 0.09042780501548098 0.13610787085953896 -0.0008874018148012313 0.5412955872868981 -0.8232759689091352 0.19443416719616713 0.6328527064761327 -0.5412953085632897 -0.004048345422485778 200.0 34.400000000000006 400.0 2.4186 -2.4185 2.4185 0.0 200.0 0.0 0.0 0.0 0.0 0.0 0.0 0.0 0.0 0.0 0.0 
1.28 1.439067041254697 -0.8488095780306675 -2.3872622843315003 0.09552203729923514 0.13189107757874663 -0.0009156009673207734 0.5132084542289462 -0.8410098261723934 0.203129568594776 0.6419145067345964 -0.5132081751740973 -0.0040695936895092715 200.0 36.0 400.0 2.4186 -2.4185 2.4185 0.0 200.0 0.0 0.0 0.0 0.0 0.0 0.0 0.0 0.0 0.0 0.0 
1.288 1.4430663143274378 -0.8556017986533648 -2.385603120323333 0.10068338882885142 0.12789180623446875 -0.00094406882433607 0.4868962300766669 -0.8573346455404106 0.21178064417127074 0.6496096118292277 -0.4868959507673499 -0.004089005433230821 200.0 37.60000000000002 400.0 2.4186 -2.4185 2.4185 0.0 200.0 0.0 0.0 0.0 0.0 0.0 0.0 0.0 0.0 0.0 0.0 
1.296 1.4468618164557523 -0.8625193164663436 -2.383874928202447 0.10590126658858123 0.12409630584900429 -0.0009727880487937516 0.4622474656264296 -0.8723347228722632 0.22038593189815298 0.6560239329357491 -0.4622471861317113 -0.004106722949015534 200.0 39.20000000000002 400.0 2.4186 -2.4185 2.4185 0.0 200.0 0.0 0.0 0.0 0.0 0.0 0.0 0.0 0.0 0.0 0.0 
1.304 1.4504664231000246 -0.8695518593723017 -2.382078079886016 0.11116575621537717 0.12049170096104213 -0.001001742430683249 0.43915485629136614 -0.8860912863644337 0.22894403347594122 0.661240253501511 -0.43915457667144775 -0.004122893017074355 200.0 40.80000000000001 400.0 2.4186 -2.4185 2.4185 0.0 200.0 0.0 0.0 0.0 0.0 0.0 0.0 0.0 0.0 0.0 0.0 
1.312 1.4538921699821736 -0.876689791315501 -2.380212958234883 0.11646758696418402 0.11706595584779822 -0.0010309168365701172 0.41751585497881144 -0.8986820755286907 0.23745361220503075 0.6653377798512147 -0.41751557528801436 -0.004137636152432926 200.0 42.400000000000034 400.0 2.4186 -2.4185 2.4185 0.0 200.0 0.0 0.0 0.0 0.0 0.0 0.0 0.0 0.0 0.0 0.0 
1.32 1.4571502928767996 -0.8839240833251267 -2.3782799565451787 0.12179810984103012 0.11380783473385735 -0.0010602971550508287 0.39723307018929177 -0.9101810963919105 0.24591339631287265 0.6683919216102242 -0.39723279047511406 -0.004151075355035554 200.0 44.00000000000003 400.0 2.4186 -2.4185 2.4185 0.0 200.0 0.0 0.0 0.0 0.0 0.0 0.0 0.0 0.0 0.0 0.0 
1.328 1.4602512697915064 -0.8912462830224661 -2.376279478035637 0.127149262131383 0.11070685961087036 -0.0010898702400166601 0.3782144747630851 -0.9206584825577633 0.25432217786180467 0.6704741379573885 -0.3782141950674331 -0.00416332005850077 200.0 45.60000000000002 400.0 2.4186 -2.4185 2.4185 0.0 200.0 0.0 0.0 0.0 0.0 0.0 0.0 0.0 0.0 0.0 0.0 
1.336 1.463204864253854 -0.8986484834616446 -2.3742119353316737 0.1325135371327706 0.1077532669505754 -0.0011196238532061597 0.3603734776704136 -0.9301804599067688 0.26267881362262346 0.671651907230637 -0.3603731980300553 -0.0041744719166484775 200.0 47.20000000000002 400.0 2.4186 -2.4185 2.4185 0.0 200.0 0.0 0.0 0.0 0.0 0.0 0.0 0.0 0.0 0.0 0.0 
1.344 1.4660201687124848 -0.9061232919745157 -2.37207774994724 0.1378839518257302 0.10493796430367944 -0.0011495466071801276 0.34362888647360534 -0.9388093812297164 0.27098222506945974 0.6719887600202251 -0.3436286069208528 -0.0041846232102043775 200.0 48.80000000000001 400.0 2.4186 -2.4185 2.4185 0.0 200.0 0.0 0.0 0.0 0.0 0.0 0.0 0.0 0.0 0.0 0.0 
1.352 1.4687056473020113 -0.9136637995244823 -2.3698773517654885 0.14325401662512727 0.10225248753495456 -0.0011796279095660422 0.3279047900882194 -0.9466038169398086 0.27923139884083725 0.6715443731902823 -0.32790451065113113 -0.004193860599176275 200.0 50.400000000000034 400.0 2.4186 -2.4185 2.4185 0.0 200.0 0.0 0.0 0.0 0.0 0.0 0.0 0.0 0.0 0.0 0.0 
1.36 1.471269177419976 -0.9212635509381597 -2.3676111785192324 0.14861770316917822 0.09968895924629928 -0.0012098579091840526 0.313130381986641 -0.9536186807753267 0.28742538599158274 0.67037469081299 -0.31313010268999325 -0.004202259535948967 200.0 52.00000000000003 400.0 2.4186 -2.4185 2.4185 0.0 200.0 0.0 0.0 0.0 0.0 0.0 0.0 0.0 0.0 0.0 0.0 
1.368 1.4737180897249786 -0.9289165162741355 -2.3652796752721694 0.15396941846485568 0.09724004877858877 -0.0012402274444776524 0.2992397455562705 -0.9599053887757195 0.2955633031335837 0.668532093243736 -0.2992394664210561 -0.004209895524198234 200.0 53.60000000000002 400.0 2.4186 -2.4185 2.4185 0.0 200.0 0.0 0.0 0.0 0.0 0.0 0.0 0.0 0.0 0.0 0.0 
1.376 1.4760592062932951 -0.9366170635008548 -2.3628832939018194 0.1593039725561023 0.09489893405505907 -0.0012707279945221904 0.2861716100278963 -0.9655120250645525 0.30364433044411754 0.6660655513937843 -0.2861713310726632 -0.004216830509755124 200.0 55.200000000000045 400.0 2.4186 -2.4185 2.4185 0.0 200.0 0.0 0.0 0.0 0.0 0.0 0.0 0.0 0.0 0.0 0.0 
1.384 1.4782988767721077 -0.9443599325873109 -2.3604224925850854 0.16461655580652534 0.09265926542807801 -0.0013013516327671304 0.2738690949902856 -0.9704835275033994 0.31166771274296157 0.6630208236275891 -0.27386881623086407 -0.004223125226193244 200.0 56.80000000000004 400.0 2.4186 -2.4185 2.4185 0.0 200.0 0.0 0.0 0.0 0.0 0.0 0.0 0.0 0.0 0.0 0.0 
1.392 1.4804430124455235 -0.9521402110575004 -2.3578977352873225 0.16990271201507623 0.09051513161310511 -0.0013320909835781575 0.26227944611099585 -0.974861869752427 0.3196327582687896 0.6594406336622027 -0.26227916756097575 -0.00422883374856329 200.0 58.400000000000034 400.0 2.4186 -2.4185 2.4185 0.0 200.0 0.0 0.0 0.0 0.0 0.0 0.0 0.0 0.0 0.0 0.0 
1.4 1.4824971181889248 -0.9599533110196687 -2.355309491255751 0.17515831586016573 0.08846102773437481 -0.0013629391815770185 0.25135377198102793 -0.9786862462387252 0.3275388384664057 0.6553648590859817 -0.2513534936518269 -0.004234006813248484 200.0 60.00000000000003 400.0 2.4186 -2.4185 2.4185 0.0 200.0 0.0 0.0 0.0 0.0 0.0 0.0 0.0 0.0 0.0 0.0 
1.408 1.4844663223315355 -0.9677949476517522 -2.3526582345180334 0.18037954971515058 0.08649182546230655 -0.0013938898337274306 0.24104678496265192 -0.981993250746416 0.33538538684451097 0.6508307082451316 -0.24104650686399162 -0.004238688930066865 200.0 61.599999999999994 400.0 2.4186 -2.4185 2.4185 0.0 200.0 0.0 0.0 0.0 0.0 0.0 0.0 0.0 0.0 0.0 0.0 
1.416 1.486355404479286 -0.9756611191030498 -2.349944443386766 0.18556288395619802 0.08460274519059802 -0.001424936984079226 0.23131655082605376 -0.9848170514558025 0.34317189856371516 0.6458728988360338 -0.23131627296604598 -0.0042429215084136265 200.0 63.19999999999999 400.0 2.4186 -2.4185 2.4185 0.0 200.0 0.0 0.0 0.0 0.0 0.0 0.0 0.0 0.0 0.0 0.0 
1.424 1.4881688213727462 -0.9835480877572929 -2.34716859997062 0.19070505723022535 0.08278933017839267 -0.0014560750810585293 0.22212424835782568 -0.9871895567136562 0.35089792937434017 0.6405238237639972 -0.22212397074321977 -0.0042467418536250605 200.0 64.79999999999998 400.0 2.4186 -2.4185 2.4185 0.0 200.0 0.0 0.0 0.0 0.0 0.0 0.0 0.0 0.0 0.0 0.0 
1.432 1.4899107308700912 -0.9914523627924905 -2.344331189692805 0.19580305917197727 0.08104742256720512 -0.0014872989471760522 0.21343394122841594 -0.9891405736029121 0.3585630949323827 0.6348137125486306 -0.21343366386458557 -0.004250185302310683 200.0 66.4 400.0 2.4186 -2.4185 2.4185 0.0 200.0 0.0 0.0 0.0 0.0 0.0 0.0 0.0 0.0 0.0 0.0 
1.44 1.491585014154445 -0.999370683967034 -2.3414327008174847 0.200854112419107 0.07937314117363582 -0.0015186037510161816 0.20521236217331684 -0.9906979552635191 0.36616706925372694 0.6287707771074043 -0.20521208506467645 -0.004253282106825828 200.0 68.0 400.0 2.4186 -2.4185 2.4185 0.0 200.0 0.0 0.0 0.0 0.0 0.0 0.0 0.0 0.0 0.0 0.0 
1.448 1.4931952962699553 -1.0073000065586686 -2.338473623984741 0.20585565842205122 0.0777628609532769 -0.001549984981365816 0.1974287110475109 -0.9918877419183989 0.3737095841645896 0.6224213572638517 -0.19742843419743822 -0.004256061361334769 200.0 69.6 400.0 2.4186 -2.4185 2.4185 0.0 200.0 0.0 0.0 0.0 0.0 0.0 0.0 0.0 0.0 0.0 0.0 
1.456 1.4947449650925964 -1.0152374873822145 -2.3354544517546114 0.21080534209661428 0.07621319402990791 -0.001581438423341469 0.19005446556232466 -0.9927342901380529 0.38119042777581874 0.6157900494585038 -0.1900541889733771 -0.004258548897136524 200.0 71.19999999999999 400.0 2.4186 -2.4185 2.4185 0.0 200.0 0.0 0.0 0.0 0.0 0.0 0.0 0.0 0.0 0.0 0.0 
1.464 1.4962371888409176 -1.0231804718129012 -2.3323756781607075 0.21570099915611873 0.07472097218476506 -0.001612960136375711 0.18306320542962007 -0.9932603948924033 0.38860944357526556 0.6088998319221042 -0.1830629291034803 -0.004260769486452995 200.0 72.80000000000001 400.0 2.4186 -2.4185 2.4185 0.0 200.0 0.0 0.0 0.0 0.0 0.0 0.0 0.0 0.0 0.0 0.0 
1.472 1.4976749322293978 -1.0311264817442511 -2.329237798273845 0.2205406423147247 0.07328323070315558 -0.0016445464339286048 0.17643044869428276 -0.9934874006844008 0.3959665286190979 0.6017721746107071 -0.17643017263211402 -0.0042627438113284006 200.0 74.4 400.0 2.4186 -2.4185 2.4185 0.0 200.0 0.0 0.0 0.0 0.0 0.0 0.0 0.0 0.0 0.0 0.0 
1.48 1.4990609713632699 -1.039073204412376 -2.3260413077760913 0.22532245101786508 0.0718971934796464 -0.0016761938647952884 0.17013350068652258 -0.9934353071625209 0.40326163275994653 0.5944271491595882 -0.17013322488887378 -0.004264492029717923 200.0 76.0 400.0 2.4186 -2.4185 2.4185 0.0 200.0 0.0 0.0 0.0 0.0 0.0 0.0 0.0 0.0 0.0 0.0 
1.488 1.5003979074690876 -1.0470184820219397 -2.3227867025455815 0.2300447602027127 0.07056025928749984 -0.001707899195887802 0.1641513140744101 -0.9931228649661274 0.4104947571046134 0.5868835253336009 -0.16415103854125912 -0.004266032822589863 200.0 77.60000000000002 400.0 2.4186 -2.4185 2.4185 0.0 200.0 0.0 0.0 0.0 0.0 0.0 0.0 0.0 0.0 0.0 0.0 
1.496 1.5016881795501926 -1.0549603021127876 -2.319474478252404 0.2347060498903062 0.0692699891231937 -0.0017396593963762024 0.15846435976778292 -0.9925676643051409 0.4176659524672826 0.5791588604893698 -0.1584640844986802 -0.004267382716554047 200.0 79.19999999999999 400.0 2.4186 -2.4185 2.4185 0.0 200.0 0.0 0.0 0.0 0.0 0.0 0.0 0.0 0.0 0.0 0.0 
1.504 1.5029340760508676 -1.0628967886100873 -2.3161051299658193 0.23930493606421388 0.06802409454229336 -0.0017714716230813104 0.15305450805929247 -0.9917862172368234 0.42477531803519225 0.5712695839170373 -0.15305423305341992 -0.0042685568060850275 200.0 80.80000000000001 400.0 2.4186 -2.4185 2.4185 0.0 200.0 0.0 0.0 0.0 0.0 0.0 0.0 0.0 0.0 0.0 0.0 
1.512 1.5041377456075113 -1.070826193504736 -2.312679151773036 0.2438401620530133 0.06682042690824493 -0.0018033332070188273 0.14790491918516108 -0.9907940333714229 0.4318229999528336 0.5632310743143949 -0.14790464444135668 -0.004269569097550386 200.0 82.40000000000003 400.0 2.4186 -2.4185 2.4185 0.0 200.0 0.0 0.0 0.0 0.0 0.0 0.0 0.0 0.0 0.0 0.0 
1.52 1.505301206959757 -1.078746889114596 -2.3091970364097065 0.24831059027167068 0.06565696748125965 -0.0018352416410016355 0.14299994263295795 -0.9896056894084192 0.4388091897901514 0.5550577306627452 -0.14299966814977905 -0.004270432307943826 200.0 84.0 400.0 2.4186 -2.4185 2.4185 0.0 200.0 0.0 0.0 0.0 0.0 0.0 0.0 0.0 0.0 0.0 0.0 
1.528 1.5064263580891897 -1.08665736088086 -2.305659274902292 0.2527151949130295 0.06453181827964155 -0.0018671945682141873 0.13832502464123758 -0.9882348935597233 0.4457341231615457 0.5467630387194548 -0.13832475041693984 -0.0042711585469065285 200.0 85.60000000000002 400.0 2.4186 -2.4185 2.4185 0.0 200.0 0.0 0.0 0.0 0.0 0.0 0.0 0.0 0.0 0.0 0.0 
1.536 1.5075149846482423 -1.0945562006573568 -2.302066356222383 0.25705305441349857 0.0634431936508078 -0.0018991897716793544 0.1338666231167502 -0.9866945442407626 0.4525980780343227 0.5383596304802867 -0.13386634914939763 -0.0042717583873004205 200.0 87.19999999999999 400.0 2.4186 -2.4185 2.4185 0.0 200.0 0.0 0.0 0.0 0.0 0.0 0.0 0.0 0.0 0.0 0.0 
1.544 1.5085687677370299 -1.1024421004540033 -2.2984187669530463 0.26132334519499656 0.06238941249453342 -0.0019312251645443863 0.12961212959124233 -0.9849967848612291 0.45940137336472076 0.5298593411804357 -0.129611855878713 -0.004272241706905589 200.0 88.80000000000001 400.0 2.4186 -2.4185 2.4185 0.0 200.0 0.0 0.0 0.0 0.0 0.0 0.0 0.0 0.0 0.0 0.0 
1.552 1.5095892910813253 -1.1103138465987366 -2.2947169909672027 0.26552533542117684 0.06136889108492969 -0.0019632987811186585 0.12554979749756232 -0.9831530539576616 0.4661443675615659 0.5212732608792552 -0.12554952403757555 -0.004272617598106624 200.0 90.40000000000003 400.0 2.4186 -2.4185 2.4185 0.0 200.0 0.0 0.0 0.0 0.0 0.0 0.0 0.0 0.0 0.0 0.0 
1.56 1.5105780476606094 -1.118170314285226 -2.290961509118053 0.2696583791888485 0.06038013644240935 -0.0019954087686012744 0.12166867631362574 -0.9811741314504081 0.47282745696825496 0.5126117822322079 -0.12166840310377229 -0.004272894359490347 200.0 92.0 400.0 2.4186 -2.4185 2.4185 0.0 200.0 0.0 0.0 0.0 0.0 0.0 0.0 0.0 0.0 0.0 0.0 
1.568 1.5115364458311347 -1.126010462476382 -2.2871527989414857 0.27372191134326096 0.05942174021063585 -0.0020275533794415906 0.117958551113987 -0.9790701815311873 0.47945107445642426 0.5038846452891121 -0.11795827815170505 -0.004273079996222238 200.0 93.60000000000002 400.0 2.4186 -2.4185 2.4185 0.0 200.0 0.0 0.0 0.0 0.0 0.0 0.0 0.0 0.0 0.0 0.0 
1.576 1.5124658149852566 -1.1338333291362224 -2.283291334370414 0.2777154418579588 0.058492372997124176 -0.002059730964280972 0.1144098869764875 -0.9768507916192486 0.4860156877122587 0.49510097710433637 -0.11440961425917594 -0.004273181154015569 200.0 95.20000000000005 400.0 2.4186 -2.4185 2.4185 0.0 200.0 0.0 0.0 0.0 0.0 0.0 0.0 0.0 0.0 0.0 0.0 
1.584 1.513367410784829 -1.141638026764995 -2.2793775854609315 0.2816385517657394 0.057590779139972584 -0.0020919399654275345 0.11101377804049756 -0.9745250093528791 0.49252179804294866 0.4862693313368601 -0.11101350556545495 -0.004273204532633614 200.0 96.80000000000001 400.0 2.4186 -2.4185 2.4185 0.0 200.0 0.0 0.0 0.0 0.0 0.0 0.0 0.0 0.0 0.0 0.0 
1.592 1.5142424200033322 -1.149423738214571 -2.2754120181301665 0.285490888426414 0.05671577186558721 -0.0021241789108208797 0.1077619006079515 -0.9721013760276496 0.4989699388085231 0.47739772273334313 -0.10776162837238686 -0.004273156357832195 200.0 98.40000000000003 400.0 2.4186 -2.4185 2.4185 0.0 200.0 0.0 0.0 0.0 0.0 0.0 0.0 0.0 0.0 0.0 0.0 
1.6 1.515091965008454 -1.1571897127631217 -2.2713950939056877 0.2892721610870628 0.05586622880620845 -0.0021564464084463477 0.10464647004832248 -0.9695879575648448 0.5053606738831966 0.46849365919529823 -0.10464619804942471 -0.004273041937368555 200.0 100.0 400.0 2.4186 -2.4185 2.4185 0.0 200.0 0.0 0.0 0.0 0.0 0.0 0.0 0.0 0.0 0.0 0.0 
1.608 1.515917107914189 -1.164935262429867 -2.2673272696862874 0.2929821371759984 0.05504108784777007 -0.0021887411411625523 0.10166020122203409 -0.966992373571893 0.5116945963362706 0.4595641726458713 -0.10165992945698563 -0.004272866146009064 200.0 101.60000000000002 400.0 2.4186 -2.4185 2.4185 0.0 200.0 0.0 0.0 0.0 0.0 0.0 0.0 0.0 0.0 0.0 0.0 
1.616 1.5167188544290562 -1.1726597585123288 -2.26320899751395 0.2966206390196744 0.054239343281676455 -0.002221061861908696 0.09879627209343902 -0.9643218244272916 0.5179723272139704 0.45061584812408384 -0.09879600055933101 -0.004272634215013002 200.0 103.20000000000005 400.0 2.4186 -2.4185 2.4185 0.0 200.0 0.0 0.0 0.0 0.0 0.0 0.0 0.0 0.0 0.0 0.0 
1.624 1.5174981574247797 -1.1803626283300264 -2.2590407243568 0.3001875395036331 0.05346004223614408 -0.002253407389261082 0.09604829015278506 -0.9615831154766781 0.5241945138309606 0.4416548481251752 -0.09604801884673302 -0.004272350162930332 200.0 104.80000000000001 400.0 2.4186 -2.4185 2.4185 0.0 200.0 0.0 0.0 0.0 0.0 0.0 0.0 0.0 0.0 0.0 0.0 
1.632 1.5182559202477255 -1.1880433521599096 -2.254822891902798 0.3036827595466769 0.052702281364726496 -0.0022857766033108923 0.09341026163347503 -0.9587826807016068 0.5303618287459171 0.4326869387121981 -0.09340999055256088 -0.00427201821377667 200.0 106.40000000000003 400.0 2.4186 -2.4185 2.4185 0.0 200.0 0.0 0.0 0.0 0.0 0.0 0.0 0.0 0.0 0.0 0.0 
1.64 1.5189929997934906 -1.1957014603500675 -2.250555936363946 0.30710626443553224 0.051965203771791646 -0.002318168441837571 0.09087656306437675 -0.9559266037771134 0.536474968228872 0.4237175110858821 -0.09087629220571922 -0.00427164177301666 200.0 108.00000000000006 400.0 2.4186 -2.4185 2.4185 0.0 200.0 0.0 0.0 0.0 0.0 0.0 0.0 0.0 0.0 0.0 0.0 
1.648 1.5197102093633297 -1.2033365305993815 -2.246240288290744 0.3104580615315462 0.051247996156006836 -0.0023505818967545643 0.08844191514388518 -0.9530206385334654 0.5425346512453317 0.4147516041871706 -0.08844164450457422 -0.0042712245520528675 200.0 109.60000000000002 400.0 2.4186 -2.4185 2.4185 0.0 200.0 0.0 0.0 0.0 0.0 0.0 0.0 0.0 0.0 0.0 0.0 
1.656 1.5204083213195196 -1.2109481853918207 -2.241876372396633 0.3137381968454127 0.0505498861550387 -0.002383016010805771 0.08610135856807724 -0.9500702271279658 0.5485416179504667 0.4057939232008552 -0.086101088145255 -0.004270769390809688 200.0 111.20000000000005 400.0 2.4186 -2.4185 2.4185 0.0 200.0 0.0 0.0 0.0 0.0 0.0 0.0 0.0 0.0 0.0 0.0 
1.664 1.5210880695553328 -1.218536089575002 -2.237464607392146 0.3169467531765351 0.049870139875583294 -0.0024154698744932603 0.08385023182859647 -0.9470805179786385 0.5544966287874521 0.3968488596808534 -0.0838499616193807 -0.004270279547703543 200.0 112.80000000000001 400.0 2.4186 -2.4185 2.4185 0.0 200.0 0.0 0.0 0.0 0.0 0.0 0.0 0.0 0.0 0.0 0.0 
1.672 1.5217501517939764 -1.2260999480734989 -2.2330054058284783 0.32008384714616334 0.04920805959436235 -0.002447942623218337 0.08168415064445356 -0.9440563816737102 0.5604004631181545 0.3879205079424776 -0.08168388064597264 -0.00426975781038729 200.0 114.39999999999998 400.0 2.4186 -2.4185 2.4185 0.0 200.0 0.0 0.0 0.0 0.0 0.0 0.0 0.0 0.0 0.0 0.0 
1.68 1.522395231729648 -1.2336395037281478 -2.2284991739501843 0.32314962681066683 0.048562981617130845 -0.0024804334346191516 0.07959898900052803 -0.9410024261591311 0.5662539180712762 0.3790126813115519 -0.07959871920997123 -0.00426920640401141 200.0 116.0 400.0 2.4186 -2.4185 2.4185 0.0 200.0 0.0 0.0 0.0 0.0 0.0 0.0 0.0 0.0 0.0 0.0 
1.688 1.5230239410227826 -1.2411545352532893 -2.223946311556701 0.3261442698748034 0.04793427428341995 -0.0025129415260902645 0.07759086165598358 -0.9379230112710562 0.572057807617234 0.3701289282648957 -0.07759059207056565 -0.004268627673640568 200.0 117.60000000000002 400.0 2.4186 -2.4185 2.4185 0.0 200.0 0.0 0.0 0.0 0.0 0.0 0.0 0.0 0.0 0.0 0.0 
1.696 1.5236368811605485 -1.2486448553045466 -2.2193472118723934 0.329067981583665 0.04732133610602469 -0.0025454661524699704 0.0756561079494191 -0.9348222620736232 0.5778129615043552 0.36127254675924664 -0.07565583856635454 -0.004268024010265293 200.0 119.19999999999999 400.0 2.4186 -2.4185 2.4185 0.0 200.0 0.0 0.0 0.0 0.0 0.0 0.0 0.0 0.0 0.0 0.0 
1.704 1.524234625192752 -1.2561103086502916 -2.2147022614248026 0.33192099245488293 0.046723594035100666 -0.002578006603882808 0.07379127680705155 -0.931704081209172 0.58352022412652 0.35244659721651833 -0.07379100762359625 -0.004267397351799849 200.0 120.80000000000001 400.0 2.4186 -2.4185 2.4185 0.0 200.0 0.0 0.0 0.0 0.0 0.0 0.0 0.0 0.0 0.0 0.0 
1.712 1.5248177193524737 -1.2635507704404974 -2.210011839930803 0.3347035565835246 0.0461405018374895 -0.0026105622037256933 0.07199311289348183 -0.9285721607979491 0.5891804536165242 0.34365391559835823 -0.071992843906938 -0.004266749450608576 200.0 122.39999999999998 400.0 2.4186 -2.4185 2.4185 0.0 200.0 0.0 0.0 0.0 0.0 0.0 0.0 0.0 0.0 0.0 0.0 
1.72 1.5253866845699955 -1.2709661445671454 -2.205276320190329 0.33741595008122793 0.045571538582907994 -0.002643132306786739 0.07025854378806821 -0.9254299936493502 0.5947945209917662 0.33489712577466385 -0.07025827499575549 -0.004266082175840415 200.0 124.0 400.0 2.4186 -2.4185 2.4185 0.0 200.0 0.0 0.0 0.0 0.0 0.0 0.0 0.0 0.0 0.0 0.0 
1.728 1.5259420178878975 -1.2783563621107896 -2.2004960679873813 0.3400584690492414 0.04501620722874892 -0.0026757162974873 0.06858466807727656 -0.9222808834792944 0.6003633091182184 0.32617865020480663 -0.06858439947657496 -0.004265396939769998 200.0 125.60000000000002 400.0 2.4186 -2.4185 2.4185 0.0 200.0 0.0 0.0 0.0 0.0 0.0 0.0 0.0 0.0 0.0 0.0 
1.736 1.526484193784552 -1.2857213798682932 -2.1956714419979786 0.3426314284789165 0.044474033296582116 -0.002708313588237939 0.06696874435414611 -0.9191279550419315 0.6058877120452394 0.31750072146728553 -0.06696847594244848 -0.0042646954305178555 200.0 127.19999999999999 400.0 2.4186 -2.4185 2.4185 0.0 200.0 0.0 0.0 0.0 0.0 0.0 0.0 0.0 0.0 0.0 0.0 
1.744 1.5270136654126727 -1.2930611789570876 -2.190802793704743 0.34513516032970193 0.04394456363366482 -0.002740923617900037 0.06540818097348759 -0.915974163152232 0.611368634022538 0.3088653915976505 -0.06540791274823565 -0.004263978942911086 200.0 128.8 400.0 2.4186 -2.4185 2.4185 0.0 200.0 0.0 0.0 0.0 0.0 0.0 0.0 0.0 0.0 0.0 0.0 
1.752 1.5275308657590494 -1.3003757634916666 -2.1858904673178152 0.3475700124068579 0.0434273652531841 -0.0027735458503455016 0.06390052657475989 -0.9128223016262318 0.6168069888402634 0.30027454212870597 -0.0639002585334281 -0.0042632488182963064 200.0 130.40000000000003 400.0 2.4186 -2.4185 2.4185 0.0 200.0 0.0 0.0 0.0 0.0 0.0 0.0 0.0 0.0 0.0 0.0 
1.76 1.5280362087311052 -1.307665159328304 -2.1809347997017783 0.349936346876365 0.04292202424769418 -0.0028061797731075365 0.06244346126212389 -0.9096750114778497 0.6222036990360859 0.2917298928537391 -0.06244319340222987 -0.004262506217165313 200.0 132.0 400.0 2.4186 -2.4185 2.4185 0.0 200.0 0.0 0.0 0.0 0.0 0.0 0.0 0.0 0.0 0.0 0.0 
1.768 1.5285300901754786 -1.3149294128742768 -2.175936120308277 0.35223453895071577 0.04242814477049524 -0.0028388248961159625 0.06103478841323315 -0.9065347887302948 0.6275596951807499 0.28323301028581255 -0.061034520732359286 -0.00426175205195567 200.0 133.60000000000002 400.0 2.4186 -2.4185 2.4185 0.0 200.0 0.0 0.0 0.0 0.0 0.0 0.0 0.0 0.0 0.0 0.0 
1.776 1.5290128888334165 -1.3221685899581166 -2.1708947511140453 0.3544649761200427 0.04194534808035374 -0.00287148075051095 0.05967242708091923 -0.9034039920729835 0.6328759153873378 0.27478531642519927 -0.059672159576656295 -0.004260987606845563 200.0 135.2 400.0 2.4186 -2.4185 2.4185 0.0 200.0 0.0 0.0 0.0 0.0 0.0 0.0 0.0 0.0 0.0 0.0 
1.784 1.5294849672374076 -1.3293827747576552 -2.1658110065640135 0.35662805655306284 0.04147327164473726 -0.0029041468875300722 0.0583544048909442 -0.9002848496250114 0.6381533045107199 0.26638809564421867 -0.05835413756092205 -0.004260213857431633 200.0 136.8 400.0 2.4186 -2.4185 2.4185 0.0 200.0 0.0 0.0 0.0 0.0 0.0 0.0 0.0 0.0 0.0 0.0 
1.792 1.5299466725531272 -1.3365720687828306 -2.1606851935192193 0.3587241880676151 0.04101156829796409 -0.002936822877463157 0.05707885145044602 -0.8971794656263975 0.6433928135833133 0.2580425020181662 -0.05707858429235284 -0.0042594315457868135 200.0 138.40000000000003 400.0 2.4186 -2.4185 2.4185 0.0 200.0 0.0 0.0 0.0 0.0 0.0 0.0 0.0 0.0 0.0 0.0 
1.8 1.530398337370465 -1.3437365899104217 -2.155517611209217 0.3607537873346285 0.040559905450092006 -0.002969508308670461 0.05584399221430803 -0.8940898268772755 0.6485953993550082 0.249749566539068 -0.05584372522587359 -0.004258641494787691 200.0 140.0 400.0 2.4186 -2.4185 2.4185 0.0 200.0 0.0 0.0 0.0 0.0 0.0 0.0 0.0 0.0 0.0 0.0 
1.808 1.5308402804471166 -1.3508764714680632 -2.150308551188693 0.362717278971445 0.04011796434341022 -0.0030022027866598707 0.05464814276302725 -0.8910178087612644 0.6537620238047733 0.2415102036978793 -0.05464787594199586 -0.0042578446781831964 200.0 141.60000000000002 400.0 2.4186 -2.4185 2.4185 0.0 200.0 0.0 0.0 0.0 0.0 0.0 0.0 0.0 0.0 0.0 0.0 
1.816 1.5312728074079542 -1.357991861365044 -2.1450582972980143 0.3646150942546833 0.03968543935303566 -0.0030349059332189367 0.05348970345373084 -0.8879651807458194 0.6588936535225762 0.23332521708685108 -0.0534894367979003 -0.004257041703727659 200.0 143.20000000000005 400.0 2.4186 -2.4185 2.4185 0.0 200.0 0.0 0.0 0.0 0.0 0.0 0.0 0.0 0.0 0.0 0.0 
1.824 1.531696211403157 -1.3650829212675601 -2.1397671256274178 0.36644767048106974 0.039262037328754044 -0.003067617385598293 0.05236715444922902 -0.8849336119174002 0.6639912593566947 0.22519530560457168 -0.05236688795645008 -0.004256233130283262 200.0 144.8 400.0 2.4186 -2.4185 2.4185 0.0 200.0 0.0 0.0 0.0 0.0 0.0 0.0 0.0 0.0 0.0 0.0 
1.832 1.532110773727851 -1.372149825816225 -2.134435304484572 0.36821545034660463 0.038847476975441705 -0.00310033679574279 0.05127905107615594 -0.8819246762272982 0.6690558160832012 0.21712106929368558 -0.05127878474430084 -0.004255419729065429 200.0 146.40000000000003 400.0 2.4186 -2.4185 2.4185 0.0 200.0 0.0 0.0 0.0 0.0 0.0 0.0 0.0 0.0 0.0 0.0 
1.84 1.5325167644058142 -1.3791927618837643 -2.1290630943652458 0.36991888081825675 0.0384414882692866 -0.0031330638295673147 0.050224019473416405 -0.8789398572098946 0.6740883018989949 0.2091030140908442 -0.05022375330040415 -0.004254602007687947 200.0 148.0 400.0 2.4186 -2.4185 2.4185 0.0 200.0 0.0 0.0 0.0 0.0 0.0 0.0 0.0 0.0 0.0 0.0 
1.848 1.532914442739607 -1.3862119278709664 -2.1236507479268076 0.37155841260976064 0.03804381190769846 -0.0031657981662743598 0.04920075254227587 -0.8759805527509934 0.6790896981622311 0.20114155713716161 -0.049200486526065706 -0.004253780492653648 200.0 149.60000000000002 400.0 2.4186 -2.4185 2.4185 0.0 200.0 0.0 0.0 0.0 0.0 0.0 0.0 0.0 0.0 0.0 0.0 
1.856 1.533304057829319 -1.393207533039035 -2.1181985099643152 0.3731344994795749 0.037654198790616926 -0.0031985394977103246 0.04820800615331862 -0.8730480795220797 0.684060989081707 0.19323703151058527 -0.04820774029190308 -0.004252955716570677 200.0 151.20000000000005 400.0 2.4186 -2.4185 2.4185 0.0 200.0 0.0 0.0 0.0 0.0 0.0 0.0 0.0 0.0 0.0 0.0 
1.864 1.5336858490619694 -1.400179796876631 -2.112706617388927 0.37464759759853505 0.037272409530942664 -0.0032312875277587427 0.04724459559896858 -0.8701436772203818 0.6890031614498088 0.185389690762666 -0.04724432989036548 -0.004252128247576561 200.0 152.8 400.0 2.4186 -2.4185 2.4185 0.0 200.0 0.0 0.0 0.0 0.0 0.0 0.0 0.0 0.0 0.0 0.0 
1.872 1.5340600465734406 -1.4071289484999605 -2.107175299208394 0.37609816461840895 0.036898213992808876 -0.00326404197176708 0.04630939226473726 -0.867268512454893 0.6939172042807137 0.17759971277411205 -0.04630912670702878 -0.004251298296569144 200.0 154.40000000000003 400.0 2.4186 -2.4185 2.4185 0.0 200.0 0.0 0.0 0.0 0.0 0.0 0.0 0.0 0.0 0.0 0.0 
1.88 1.5344268716847012 -1.4140552260843706 -2.1016047765094 0.37748665967420925 0.0365313908552347 -0.003296802556005816 0.04540132053459424 -0.8644236828679717 0.6988041088165223 0.16986720462146132 -0.045401055125873314 -0.004250466468716781 200.0 156.00000000000006 400.0 2.4186 -2.4185 2.4185 0.0 200.0 0.0 0.0 0.0 0.0 0.0 0.0 0.0 0.0 0.0 0.0 
1.888 1.534786537313944 -1.4209588763259857 -2.0959952624414946 0.37881354232398934 0.03617172719999325 -0.003329569017157365 0.0445193548641209 -0.8616102205642808 0.7036648681515634 0.16219220574077475 -0.044519089602518776 -0.004249633121866417 200.0 157.60000000000002 400.0 2.4186 -2.4185 2.4185 0.0 200.0 0.0 0.0 0.0 0.0 0.0 0.0 0.0 0.0 0.0 0.0 
1.896 1.5351392483661508 -1.4278401539320171 -2.090346962202403 0.38007927204171743 0.03581901812212507 -0.003362341101832802 0.04366251705007887 -0.8588290956229829 0.708500477082545 0.1545746916239193 -0.043662251933787415 -0.004248798400628808 200.0 159.20000000000005 400.0 2.4186 -2.4185 2.4185 0.0 200.0 0.0 0.0 0.0 0.0 0.0 0.0 0.0 0.0 0.0 0.0 
1.904 1.5354852021014949 -1.4346993211384196 -2.0846600730244864 0.38128430823819537 0.03547306636139319 -0.003395118566115255 0.04282987368052247 -0.8560812196696657 0.7133119321713766 0.14701457796392645 -0.04282960870773706 -0.004247962872867961 200.0 160.8 400.0 2.4186 -2.4185 2.4185 0.0 200.0 0.0 0.0 0.0 0.0 0.0 0.0 0.0 0.0 0.0 0.0 
1.912 1.5358245884838837 -1.4415366472536761 -2.078934784162122 0.38242910914969563 0.035133681953913684 -0.0034279011751274955 0.04202053371581065 -0.8533674487764504 0.7181002314040773 0.13951172310792095 -0.042020268884773865 -0.004247126740747974 200.0 162.40000000000003 400.0 2.4186 -2.4185 2.4185 0.0 200.0 0.0 0.0 0.0 0.0 0.0 0.0 0.0 0.0 0.0 0.0 
1.92 1.5361575905108686 -1.4483524082275128 -2.073171276879801 0.3835141317427302 0.03480068190210835 -0.0034606887026230274 0.04123364623984059 -0.8506885866655378 0.7228663742449232 0.13206593163754382 -0.04123338154882938 -0.004246290271883873 200.0 164.0 400.0 2.4186 -2.4185 2.4185 0.0 200.0 0.0 0.0 0.0 0.0 0.0 0.0 0.0 0.0 0.0 0.0 
1.928 1.536484384526052 -1.4551468862434538 -2.0673697244407174 0.38453983126371494 0.034473889862367685 -0.003493480930598783 0.04046839833924466 -0.8480453876048002 0.7276113615752238 0.1246769572867856 -0.040468133786565 -0.004245453760184833 200.0 165.60000000000002 400.0 2.4186 -2.4185 2.4185 0.0 200.0 0.0 0.0 0.0 0.0 0.0 0.0 0.0 0.0 0.0 0.0 
1.936 1.53680514051505 -1.4619203693341383 -2.0615302920956595 0.3855066607563826 0.03415313584905514 -0.0035262776489280163 0.03972401310935164 -0.8454385591526318 0.7323361956375533 0.11734450564129674 -0.03972374869334414 -0.004244617424343655 200.0 167.2 400.0 2.4186 -2.4185 2.4185 0.0 200.0 0.0 0.0 0.0 0.0 0.0 0.0 0.0 0.0 0.0 0.0 
1.944 1.537120022386002 -1.4686731510184128 -2.055653137071987 0.38641507079730175 0.03383825595403886 -0.003559078655012688 0.03899974778334662 -0.8428687648644425 0.7370418800771382 0.11006823693415413 -0.03899948350237671 -0.004243781538449335 200.0 168.8 400.0 2.4186 -2.4185 2.4185 0.0 200.0 0.0 0.0 0.0 0.0 0.0 0.0 0.0 0.0 0.0 0.0 
1.952 1.537429188235545 -1.475405529959232 -2.0497384085625034 0.38726550898228984 0.03352909208064399 -0.0035918837534537913 0.038294891967199256 -0.8403366267696231 0.7417294199088359 0.1028477683708185 -0.038294627819672175 -0.004242946246727558 200.0 170.39999999999998 400.0 2.4186 -2.4185 2.4185 0.0 200.0 0.0 0.0 0.0 0.0 0.0 0.0 0.0 0.0 0.0 0.0 
1.96 1.537732790601111 -1.4821178096414767 -2.0437862477140265 0.38805841982546063 0.03322549169145211 -0.0036246927557384455 0.037608765986076306 -0.8378427279016857 0.74639982165179 0.09568267679495966 -0.03760850197041565 -0.004242111833920293 200.0 172.0 400.0 2.4186 -2.4185 2.4185 0.0 200.0 0.0 0.0 0.0 0.0 0.0 0.0 0.0 0.0 0.0 0.0 
1.968 1.5380309767003524 -1.488810298068818 -2.0377967876154695 0.3887942441387864 0.03292730756880059 -0.0036575054799432116 0.036940719317457384 -0.8353876145024263 0.75105409329144 0.08857250058206571 -0.03694045543212953 -0.0042412783764420574 200.0 173.60000000000002 400.0 2.4186 -2.4185 2.4185 0.0 200.0 0.0 0.0 0.0 0.0 0.0 0.0 0.0 0.0 0.0 0.0 
1.976 1.5383238886584483 -1.495483307478818 -2.0317701532852444 0.38947341901215315 0.03263439758745003 -0.003690321750452459 0.03629012912586585 -0.8329717983651378 0.7556932444770381 0.0815167421041103 -0.03628986536936305 -0.004240446061424402 200.0 175.2 400.0 2.4186 -2.4185 2.4185 0.0 200.0 0.0 0.0 0.0 0.0 0.0 0.0 0.0 0.0 0.0 0.0 
1.984 1.5386116637239826 -1.5021371540754966 -2.0257064616578004 0.39009637745220216 0.032346624498883626 -0.003723141397690463 0.03565639887552433 -0.8305957589361449 0.7603182866114453 0.07451486964852783 -0.03565613524636163 -0.004239615093808704 200.0 176.8 400.0 2.4186 -2.4185 2.4185 0.0 200.0 0.0 0.0 0.0 0.0 0.0 0.0 0.0 0.0 0.0 0.0 
1.992 1.5388944344740654 -1.5087721577786124 -2.019605821569124 0.39066354802301806 0.032063855725927376 -0.003755964257867569 0.035038957022300095 -0.8282599453236426 0.7649302329589207 0.06756631921619824 -0.03503869351902296 -0.004238785593133814 200.0 178.40000000000003 400.0 2.4186 -2.4185 2.4185 0.0 200.0 0.0 0.0 0.0 0.0 0.0 0.0 0.0 0.0 0.0 0.0 
2.0 1.539172329009296 -1.5153886419889728 -2.013468333741012 0.3911753546672294 0.03178596316798706 -0.003788790172738345 0.03443725578275165 -0.825964778286846 0.7695300988349326 0.06067049640262115 -0.034436992403934726 -0.004237957675333834 200.0 180.0 400.0 2.4186 -2.4185 2.4185 0.0 200.0 0.0 0.0 0.0 0.0 -0.0 -1000.0 -0.0 0.0 0.0 0.0 
2.008 1.5394400540893232 -1.5218551437034642 -2.0074179352643284 0.3916236150302028 0.031518240025889814 -0.0038209623855662463 0.03250785971426208 -0.7908051168168388 0.7430661384621554 0.05180462018176597 -0.03250760698638508 -0.004067662066470912 200.0 181.56799999999998 400.0 2.4186 -2.4185 2.4185 0.0 192.0 0.0 0.0 0.0 0.0 -0.0 -1000.0 -0.0 0.0 0.0 0.0 
2.016 1.5396926675379714 -1.5280415769240472 -2.0015813978069867 0.39200435812503454 0.031265628436162984 -0.003851823936340666 0.03065827130931455 -0.7559395477900613 0.7160651700435724 0.04376993612039525 -0.030658029217054565 -0.0038974631808764084 200.0 183.0719999999999 400.0 2.4186 -2.4185 2.4185 0.0 184.0 0.0 0.0 0.0 0.0 -0.0 -1000.0 -0.0 0.0 0.0 0.0 
2.024 1.5399307826627808 -1.5339502165657597 -1.995962917929989 0.39232405494300626 0.031027515091307366 -0.0038813744023578063 0.028882285964108304 -0.7213488955210626 0.6885520121297034 0.036522446073521155 -0.028882054493039926 -0.0037273567138552226 200.0 184.51200000000017 400.0 2.4186 -2.4185 2.4185 0.0 176.0 0.0 0.0 0.0 0.0 -0.0 -1000.0 -0.0 0.0 0.0 0.0 
2.032 1.5401549650759692 -1.5395831873924006 -1.9905664957600027 0.3925888299515812 0.030803334379062127 -0.003909613405581782 0.027174175827967658 -0.6870147856234935 0.6605509642935296 0.030019472166238133 -0.02717395496452294 -0.003557338384929769 200.0 185.88799999999992 400.0 2.4186 -2.4185 2.4185 0.0 168.0 0.0 0.0 0.0 0.0 -0.0 -1000.0 -0.0 0.0 0.0 0.0 
2.04 1.5403657363092678 -1.544942470379958 -1.9853959388692137 0.3928044713750116 0.03059256476767586 -0.003936540608176488 0.025528640952088323 -0.6529196331088969 0.6320858742290213 0.024219577835734855 -0.02552843068351429 -0.003387403976426015 200.0 187.2000000000001 400.0 2.4186 -2.4185 2.4185 0.0 160.0 0.0 0.0 0.0 0.0 -0.0 -1000.0 -0.0 0.0 0.0 0.0 
2.048 1.5405635770596244 -1.550029908964675 -1.9804548656419687 0.39297644064473625 0.030394725560199037 -0.0039621557084941195 0.02394076573496596 -0.6190466254953535 0.6031801989652921 0.01908248959448738 -0.023940566049304668 -0.0032175491992754417 200.0 188.4480000000002 400.0 2.4186 -2.4185 2.4185 0.0 152.0 0.0 0.0 0.0 0.0 -0.0 -1000.0 -0.0 0.0 0.0 0.0 
2.056 1.5407489301053963 -1.554847215139573 -1.975746708173752 0.39310988162087535 0.030209373978237444 -0.003986458437471675 0.022405979995161814 -0.5853797018880433 0.5738570606221978 0.014569020556769816 -0.022405790881207407 -0.00304776989212947 200.0 189.6320000000002 400.0 2.4186 -2.4185 2.4185 0.0 144.0 0.0 0.0 0.0 0.0 -0.0 -1000.0 -0.0 0.0 0.0 0.0 
2.064 1.540922202927618 -1.5593959753689333 -1.9712747147460847 0.3932096287260942 0.030036102540773796 -0.004009448555392079 0.020920024077336796 -0.5519035284354613 0.5441392967114727 0.01064099539402871 -0.02091984552461933 -0.0028780618192947144 200.0 190.75200000000018 400.0 2.4186 -2.4185 2.4185 0.0 136.0 0.0 0.0 0.0 0.0 -0.0 -1000.0 -0.0 0.0 0.0 0.0 
2.072 1.5410837700665887 -1.5636776562951191 -1.9670419519188824 0.39328021498035803 0.02987453670748073 -0.004031125848973021 0.01947891749656298 -0.5186034709851169 0.5140495055026635 0.007261177813029242 -0.019478749495313676 -0.0027084208571693347 200.0 191.8080000000001 400.0 2.4186 -2.4185 2.4185 0.0 128.0 0.0 0.0 0.0 0.0 -0.0 -1000.0 -0.0 0.0 0.0 0.0 
2.08 1.5412339752402389 -1.5676936102161299 -1.9630513062798118 0.3933258790523251 0.029724332760401158 -0.004051490128750025 0.018078930672226587 -0.48546556515532435 0.48361008646392156 0.004393200059459044 -0.01807877321336019 -0.002538842864960518 200.0 192.79999999999993 400.0 2.4186 -2.4185 2.4185 0.0 120.0 0.0 0.0 0.0 0.0 -0.0 -1000.0 -0.0 0.0 0.0 0.0 
2.088 1.541373133247467 -1.5714450803156605 -1.9593054858881882 0.3933505719771373 0.029585175900644658 -0.004070541226725737 0.01671655937544783 -0.45247648437502175 0.45284327619228687 0.002001495069136368 -0.016716412450541833 -0.0023693237247252056 200.0 193.72800000000012 400.0 2.4186 -2.4185 2.4185 0.0 112.0 0.0 0.0 0.0 0.0 -0.0 -1000.0 -0.0 0.0 0.0 0.0 
2.096 1.541501531676767 -1.574933205630235 -1.9558070214489804 0.39335796338247087 0.029456778539735624 -0.004088278994259841 0.015388501553540018 -0.41962350615711164 0.4217711800280715 5.123117686987115e-05 -0.015388365154810797 -0.0021998593897980968 200.0 194.59199999999984 400.0 2.4186 -2.4185 2.4185 0.0 104.0 0.0 0.0 0.0 0.0 -0.0 -1000.0 -0.0 0.0 0.0 0.0 
2.104 1.5416194324379662 -1.5781590257403897 -1.9525582672504442 0.39335144691285784 0.029338878767789782 -0.00410470330017772 0.01409163623631644 -0.3868944768157667 0.39041579954366934 -0.0014917507672053678 -0.014091510356609603 -0.002030445771222941 200.0 195.39199999999994 400.0 2.4186 -2.4185 2.4185 0.0 96.0 0.0 0.0 0.0 0.0 -0.0 -1000.0 -0.0 0.0 0.0 0.0 
2.112 1.541727073132688 -1.5811234851747704 -1.9495614018969847 0.3933341456247006 0.029231238983176176 -0.004119814029078317 0.012823004271752307 -0.3542777749955578 0.3587990563022452 -0.0026609974855409686 -0.01282288890451867 -0.0018610788782227757 200.0 196.12799999999996 400.0 2.4186 -2.4185 2.4185 0.0 88.0 0.0 0.0 0.0 0.0 -0.0 -1000.0 -0.0 0.0 0.0 0.0 
2.12 1.5418246682772245 -1.5838274375177512 -1.946818428866739 0.3933089164441368 0.02913364466968409 -0.004133611079824415 0.011579790656915633 -0.32176227402862656 0.3269428119638814 -0.0034895011314554714 -0.011579685796201146 -0.0016917547077081418 200.0 196.79999999999993 400.0 2.4186 -2.4185 2.4185 0.0 80.0 0.0 0.0 0.0 0.0 -0.0 -1000.0 -0.0 0.0 0.0 0.0 
2.128 1.5419124103897819 -1.5862716492125162 -1.9443311769214147 0.3932783545322873 0.029045903308994703 -0.004146094364200836 0.010359308267747615 -0.28933730342722497 0.29486888514432674 -0.004009754585288024 -0.010359213908176351 -0.001522469313318418 200.0 197.40799999999984 400.0 2.4186 -2.4185 2.4185 0.0 72.0 0.0 0.0 0.0 0.0 -0.0 -1000.0 -0.0 0.0 0.0 0.0 
2.136 1.541990470952533 -1.588456803052746 -1.9421013003938126 0.3932447968563664 0.028967843418964623 -0.004157263805726696 0.009158982803690579 -0.2569926095338648 0.26259906516892323 -0.004253804640459412 -0.009158898940459197 -0.0013532187221378333 200.0 197.9520000000001 400.0 2.4186 -2.4185 2.4185 0.0 64.0 0.0 0.0 0.0 0.0 -0.0 -1000.0 -0.0 0.0 0.0 0.0 
2.144 1.542059001257562 -1.5903835013570569 -1.9401302793764206 0.3932103258159536 0.028899313707543877 -0.004167119338611354 0.007976338790259822 -0.22471831555897764 0.23015512309997913 -0.00425330289512133 -0.00797626541912166 -0.0011839990319035068 200.0 198.4319999999999 400.0 2.4186 -2.4185 2.4185 0.0 56.0 0.0 0.0 0.0 0.0 -0.0 -1000.0 -0.0 0.0 0.0 0.0 
2.152 1.5421181331445568 -1.5920522688212215 -1.9384194198323121 0.3931767718984105 0.028840182335011438 -0.004175660906844414 0.0068089864898444475 -0.19250488097700968 0.1975588201694866 -0.004039554889905394 -0.006808923607106121 -0.0010148063089973711 200.0 198.84800000000007 400.0 2.4186 -2.4185 2.4185 0.0 48.0 0.0 0.0 0.0 0.0 -0.0 -1000.0 -0.0 0.0 0.0 0.0 
2.16 1.5421679796369938 -1.5934635550438987 -1.9369698536475095 0.39314571668535203 0.02879033627790079 -0.004182888463410345 0.00565460959440491 -0.16034306051126632 0.16483191403286124 -0.003643567259684158 -0.005654557196910506 -0.0008456367048435783 200.0 199.20000000000016 400.0 2.4186 -2.4185 2.4185 0.0 40.0 0.0 0.0 0.0 0.0 -0.0 -1000.0 -0.0 0.0 0.0 0.0 
2.168 1.5422086354825681 -1.594617736722346 -1.935782538641739 0.3931184945798125 0.028749680788510652 -0.0041888019696217854 0.00451095357435455 -0.12822386262747143 0.13199616295278396 -0.0030960935519085023 -0.004510911659486131 -0.000676486327054537 200.0 199.4880000000001 400.0 2.4186 -2.4185 2.4185 0.0 32.0 0.0 0.0 0.0 0.0 -0.0 -1000.0 -0.0 0.0 0.0 0.0 
2.176 1.5422401776026937 -1.5955151195151007 -1.934858258552365 0.39309619488579406 0.02871813894539465 -0.0041934013945650475 0.0033758145785015526 -0.09613850775704202 0.09907332834523583 -0.002427678479859684 -0.0033757831441720877 -0.0005073513082595678 200.0 199.71200000000005 400.0 2.4186 -2.4185 2.4185 0.0 24.0 0.0 0.0 0.0 0.0 -0.0 -1000.0 -0.0 0.0 0.0 0.0 
2.184 1.542262665455043 -1.596155939569199 -1.9341976230040392 0.39307966344910983 0.028695651290904404 -0.004196686714652614 0.0022470287791693986 -0.0640783862255113 0.06608517587510437 -0.00166870108294529 -0.0022470078238158923 -0.0003382278123153717 200.0 199.87199999999996 400.0 2.4186 -2.4185 2.4185 0.0 16.0 0.0 0.0 0.0 0.0 -0.0 -1000.0 -0.0 0.0 0.0 0.0 
2.192 1.542276141312311 -1.596540364709982 -1.9338010674743702 0.39306950349304826 0.02868217555236391 -0.004198657913279399 0.0011224620662225104 -0.0320350159492521 0.03305347538688405 -0.0008494170059651257 -0.0011224515888054302 -0.0001691119883406215 200.0 199.9679999999998 400.0 2.4186 -2.4185 2.4185 0.0 8.0 0.0 0.0 0.0 0.0 -0.0 -1000.0 -0.0 0.0 0.0 0.0 
2.2 1.5422806304596242 -1.5966684952920036 -1.9336688532636466 0.3930660766923013 0.028677686444634472 -0.004199314980579184 0.0 0.0 0.0 0.0 0.0 0.0 200.0 200.0 400.0 2.4186 -2.4185 2.4185 0.0 0.0 0.0 0.0 0.0 0.0 -0.0 -1000.0 -0.0 0.0 0.0 0.0 
