Fleaurent/UniversalRobot/csv/robolib_movej_Trapez_Zeit.csv
timestamp target_q_0 target_q_1 target_q_2 target_q_3 target_q_4 target_q_5 target_qd_0 target_qd_1 target_qd_2 target_qd_3 target_qd_4 target_qd_5 target_qdd_0 target_qdd_1 target_qdd_2 target_qdd_3 target_qdd_4 target_qdd_5 target_TCP_pose_0 target_TCP_pose_1 target_TCP_pose_2 target_TCP_pose_3 target_TCP_pose_4 target_TCP_pose_5 target_TCP_speed_0 target_TCP_speed_1 target_TCP_speed_2 target_TCP_speed_3 target_TCP_speed_4 target_TCP_speed_5
0.0 0.0 -1.5707963267948966 -1.5707963267948966 0.0 1.5707963267948966 0.0 0.0 0.0 0.0 0.0 0.0 0.0 1.0 0.0 0.0 0.0 0.0 0.0 295.15 -112.34999999999998 480.9 -1.2091995761561454 1.2091995761561456 -1.2091995761561458 0.0 0.0 0.0 0.0 0.0 0.0 
0.008 3.2e-05 -1.5707963267948966 -1.5707963267948966 0.0 1.5707963267948966 0.0 0.008 0.0 0.0 0.0 0.0 0.0 1.0 0.0 0.0 0.0 0.0 0.0 295.1535950488826 -112.34055514247841 480.9 -1.2092147055764364 1.2091760113249628 -1.209176011324963 -2.631999998652416 -8.422399998548118e-05 2.3612 2.559999999563093e-07 -0.007999999995904 4.898587196589413e-19 
0.016 0.000128 -1.5707963267948966 -1.5707963267948966 0.0 1.5707963267948966 0.0 0.016 0.0 0.0 0.0 0.0 0.0 1.0 0.0 0.0 0.0 0.0 0.0 295.1643783820919 -112.31221987973194 480.9 -1.2092600917893326 1.209105316402997 -1.2091053164029972 -5.263999956877312 -0.0006737919981598094 4.7223999999999995 2.0479999944075947e-06 -0.015999999868928 9.797174393178825e-19 
0.024 0.000288 -1.5707963267948966 -1.5707963267948966 0.0 1.5707963267948966 0.0 0.024 0.0 0.0 0.0 0.0 0.0 1.0 0.0 0.0 0.0 0.0 0.0 295.182344559092 -112.2649921417959 480.9 -1.2093357286510245 1.2089874901051165 -1.2089874901051167 -7.895999672537091 -0.002274047968563127 7.0836 6.911999904448513e-06 -0.023999999004672007 1.4695761589768239e-18 
0.032 0.000512 -1.5707963267948966 -1.5707963267948966 0.0 1.5707963267948966 0.0 0.032 0.0 0.0 0.0 0.0 0.0 1.0 0.0 0.0 0.0 0.0 0.0 295.2074845115868 -112.19886848066349 480.9 -1.2094416059222521 1.2088225302898576 -1.2088225302898579 -10.527998620074014 -0.005390335764492052 9.444799999999999 1.6383999284172125e-05 -0.03199999580569609 1.959434878635765e-18 
0.04 0.0008 -1.5707963267948966 -1.5707963267948966 0.0 1.5707963267948966 0.0 0.04 0.0 0.0 0.0 0.0 0.0 1.0 0.0 0.0 0.0 0.0 0.0 295.23978554241785 -112.11384407318803 480.9 -1.209577709268942 1.2086104339600623 -1.2086104339600627 -13.159995788800225 -0.010527998877012645 11.806 3.199999658666678e-05 -0.03999998720000068 2.4492935982947064e-18 
0.048 0.001152 -1.5707963267948966 -1.5707963267948966 0.0 1.5707963267948966 0.0 0.048 0.0 0.0 0.0 0.0 0.0 1.0 0.0 0.0 0.0 0.0 0.0 295.2792313240216 -112.00991272514642 480.9 -1.2097440202630958 1.2083511972637653 -1.2083511972637655 -15.791989521187975 -0.018192379976135136 14.167200000000001 5.5295987769410345e-05 -0.04799996814950752 2.9391523179536477e-18 
0.056 0.0015680000000000002 -1.5707963267948966 -1.5707963267948966 0.0 1.5707963267948966 0.0 0.056 0.0 0.0 0.0 0.0 0.0 1.0 0.0 0.0 0.0 0.0 0.0 295.32580189645034 -111.88706687646494 480.9 -1.2099405163839287 1.208044815495334 -1.2080448154953343 -18.42397735116035 -0.028888820162204495 16.528399999999994 8.780796401886173e-05 -0.055999931158542106 3.429011037612589e-18 
0.064 0.002048 -1.5707963267948966 -1.5707963267948966 0.0 1.5707963267948966 0.0 0.064 0.0 0.0 0.0 0.0 0.0 1.0 0.0 0.0 0.0 0.0 0.0 295.379473664957 -111.74529760760825 480.9 -1.21016717101927 1.2076912830968698 -1.20769128309687 -21.05595584238292 -0.043122657855061364 18.889599999999994 0.00013107190837405023 -0.06399986578231892 3.91886975727153e-18 
0.072 0.0025920000000000006 -1.5707963267948966 -1.5707963267948966 0.0 1.5707963267948966 0.0 0.07200000000000001 0.0 0.0 0.0 0.0 0.0 1.0 0.0 0.0 0.0 0.0 0.0 295.4402193971484 -111.58459464713222 480.9 -1.2104239534672074 1.2072905936598501 -1.2072905936598504 -23.687920426556936 -0.061399227248528504 21.2508 0.00018662379102896598 -0.07199975813543141 4.408728476930472e-18 
0.08 0.0032 -1.5707963267948966 -1.5707963267948966 0.0 1.5707963267948966 0.0 0.08 0.0 0.0 0.0 0.0 0.0 1.0 0.0 0.0 0.0 0.0 0.0 295.50800821970904 -111.40494638040256 480.9 -1.2107108289379842 1.2068427399270305 -1.206842739927031 -26.319865241714993 -0.08422385625777883 23.612 0.00025599956309355705 -0.07999959040034953 4.898587196589413e-18 
0.088 0.0038719999999999996 -1.5707963267948966 -1.5707963267948966 0.0 1.5707963267948966 0.0 0.088 0.0 0.0 0.0 0.0 0.0 1.0 0.0 0.0 0.0 0.0 0.0 295.5828056147004 -111.20633985948024 480.9 -1.2110277585561553 1.206347713794597 -1.2063477137945973 -28.951782970520366 -0.11210186388714335 25.973200000000002 0.00034073514859314576 -0.08799934033592816 5.388445916248354e-18 
0.096 0.004608 -1.5707963267948966 -1.5707963267948966 0.0 1.5707963267948966 0.0 0.096 0.0 0.0 0.0 0.0 0.0 1.0 0.0 0.0 0.0 0.0 0.0 295.6645734154394 -110.98876081417534 480.9 -1.2113746993629853 1.2058055063145694 -1.2058055063145698 -31.583664678571456 -0.14553855694591944 28.3344 0.00044236643448608266 -0.09599898078593148 5.8783046359072955e-18 
0.104 0.005408000000000001 -1.5707963267948966 -1.5707963267948966 0.0 1.5707963267948966 0.0 0.10400000000000001 0.0 0.0 0.0 0.0 0.0 1.0 0.0 0.0 0.0 0.0 0.0 295.75326980196127 -110.75219366427145 480.9 -1.211751604319099 1.2052161076974512 -1.2052161076974515 -34.21549965271334 -0.18503922603974343 30.6956 0.0005624292584794691 -0.10399847918757854 6.368163355566237e-18 
0.112 0.006272000000000001 -1.5707963267948966 -1.5707963267948966 0.0 1.5707963267948966 0.0 0.112 0.0 0.0 0.0 0.0 0.0 1.0 0.0 0.0 0.0 0.0 0.0 295.8488492960722 -110.49662153292248 480.9 -1.212158422307384 1.204579507315135 -1.2045795073151353 -36.84727523935867 -0.23110914076509698 33.05679999999999 0.0007024593944227934 -0.11199779708011755 6.858022075225178e-18 
0.12 0.0072 -1.5707963267948966 -1.5707963267948966 0.0 1.5707963267948966 0.0 0.12 0.0 0.0 0.0 0.0 0.0 1.0 0.0 0.0 0.0 0.0 0.0 295.95126275599847 -110.22202626122389 480.9 -1.212595098136135 1.203895693704051 -1.2038956937040513 -39.478976682820736 -0.2842535440345237 35.418 0.0008639925350593491 -0.1199968896134369 7.347880794884118e-18 
0.128 0.008192 -1.5707963267948966 -1.5707963267948966 0.0 1.5707963267948966 0.0 0.128 0.0 0.0 0.0 0.0 0.0 1.0 0.0 0.0 0.0 0.0 0.0 296.06045737063687 -109.92838842396122 480.9 -1.2130615725424498 1.2031646545685644 -1.2031646545685646 -42.11058696366191 -0.3449776454601391 37.779199999999996 0.0010485642719153235 -0.12799570505672314 7.83773951454306e-18 
0.136 0.009248000000000001 -1.5707963267948966 -1.5707963267948966 0.0 1.5707963267948966 0.0 0.136 0.0 0.0 0.0 0.0 0.0 1.0 0.0 0.0 0.0 0.0 0.0 296.17637665341584 -109.61568734653784 480.9 -1.2135577821958687 1.202386376784623 -1.2023863767846232 -44.74208663706135 -0.4137866137230303 40.1404 0.0012577100721064827 -0.13599418430717736 8.327598234202002e-18 
0.144 0.010368000000000002 -1.5707963267948966 -1.5707963267948966 0.0 1.5707963267948966 0.0 0.14400000000000002 0.0 0.0 0.0 0.0 0.0 1.0 0.0 0.0 0.0 0.0 0.0 296.2989604357729 -109.28390112308516 480.9 -1.2140836597022584 1.201560846403644 -1.2015608464036442 -47.373453671206306 -0.491185567856154 42.5016 0.0014929652518424214 -0.14399226039880336 8.817456953860944e-18 
0.152 0.011552 -1.5707963267948966 -1.5707963267948966 0.0 1.5707963267948966 0.0 0.152 0.0 0.0 0.0 0.0 0.0 1.0 0.0 0.0 0.0 0.0 0.0 296.4281448602577 -108.93300663575795 480.9 -1.2146391336079376 1.2006880486566487 -1.200688048656649 -50.00466328571211 -0.5776795673683581 44.86280000000001 0.001755864946408392 -0.15198985801128304 9.307315673519884e-18 
0.16 0.0128 -1.5707963267948966 -1.5707963267948966 0.0 1.5707963267948966 0.0 0.16 0.0 0.0 0.0 0.0 0.0 1.0 0.0 0.0 0.0 0.0 0.0 296.5638623732683 -108.56297957521768 480.9 -1.2152241284040484 1.1997679679586404 -1.1997679679586406 -52.63568779007652 -0.6737736011371748 47.22399999999998 0.0020479440764047947 -0.159986892978956 9.797174393178826e-18 
0.168 0.014112000000000001 -1.5707963267948966 -1.5707963267948966 0.0 1.5707963267948966 0.0 0.168 0.0 0.0 0.0 0.0 0.0 1.0 0.0 0.0 0.0 0.0 0.0 296.70604171743196 -108.1737944623074 480.9 -1.2158385645311605 1.1988005879132215 -1.1988005879132217 -55.266496422174725 -0.7799725749980484 49.58520000000001 0.002370737310024472 -0.16798327179992317 1.0287033112837767e-17 
0.176 0.015487999999999998 -1.5707963267948966 -1.5707963267948966 0.0 1.5707963267948966 0.0 0.176 0.0 0.0 0.0 0.0 0.0 1.0 0.0 0.0 0.0 0.0 0.0 296.8546079236366 -107.7654246709212 480.9 -1.21648235838412 1.1977858913174522 -1.1977858913174524 -57.89705518680232 -0.896781297957708 51.946400000000004 0.002725779021148058 -0.1759788911452958 1.0776891832496707e-17 
0.184 0.016928 -1.5707963267948966 -1.5707963267948966 0.0 1.5707963267948966 0.0 0.184 0.0 0.0 0.0 0.0 0.0 1.0 0.0 0.0 0.0 0.0 0.0 297.0094823027274 -107.33784245207201 480.9 -1.2171554223171324 1.1967238601669474 -1.1967238601669477 -60.52732669427415 -1.024704466959407 54.307599999999994 0.003114603243037721 -0.18397363736861447 1.1266750552155649e-17 
0.192 0.018432 -1.5707963267948966 -1.5707963267948966 0.0 1.5707963267948966 0.0 0.192 0.0 0.0 0.0 0.0 0.0 1.0 0.0 0.0 0.0 0.0 0.0 297.1705824368763 -106.891018959161 480.9 -1.217857664649078 1.195614475661211 -1.1956144756612113 -63.157269999087724 -1.1642466501278055 56.668800000000005 0.0035387436174097535 -0.19196738601546423 1.1756609271814591e-17 
0.2 0.020000000000000004 -1.5707963267948966 -1.5707963267948966 0.0 1.5707963267948966 0.0 0.2 0.0 0.0 0.0 0.0 0.0 1.0 0.0 0.0 0.0 0.0 0.0 297.3378221706364 -106.42492427445274 480.9 -1.2185889896690676 1.194457718209207 -1.1944577182092075 -65.78684043866082 -1.3159122684213136 59.03 0.0039997333386666166 -0.19996000133331557 1.2246467991473533e-17 
0.208 0.021632000000000005 -1.5707963267948966 -1.5707963267948966 0.0 1.5707963267948966 0.0 0.20800000000000002 0.0 0.0 0.0 0.0 0.0 1.0 0.0 0.0 0.0 0.0 0.0 297.51111160169467 -105.93952743675972 480.9 -1.2193492976422196 1.1932535674351608 -1.193253567435161 -68.41598947215414 -1.4802055756197636 61.3912 0.004499105093069202 -0.2079513357816235 1.2736326711132474e-17 
0.216 0.023327999999999998 -1.5707963267948966 -1.5707963267948966 0.0 1.5707963267948966 0.0 0.216 0.0 0.0 0.0 0.0 0.0 1.0 0.0 0.0 0.0 0.0 0.0 297.69035707133327 -105.4347964703403 480.9 -1.2201384848156724 1.192002002184595 -1.1920020021845952 -71.0446645193901 -1.6576306365753446 63.752399999999994 0.005038390992630239 -0.21594122954221914 1.3226185430791415e-17 
0.224 0.025088000000000003 -1.5707963267948966 -1.5707963267948966 0.0 1.5707963267948966 0.0 0.224 0.0 0.0 0.0 0.0 0.0 1.0 0.0 0.0 0.0 0.0 0.0 297.8754611546139 -104.91069841501428 480.9 -1.2209564434248221 1.1907030005305959 -1.190703000530596 -73.67280879988078 -1.8486913036547907 66.11359999999999 0.005619122503510014 -0.22392951003003278 1.3716044150450356e-17 
0.232 0.026912000000000002 -1.5707963267948966 -1.5707963267948966 0.0 1.5707963267948966 0.0 0.232 0.0 0.0 0.0 0.0 0.0 1.0 0.0 0.0 0.0 0.0 0.0 298.0663226502984 -104.36719935750016 480.9 -1.2218030616997861 1.1893565397803083 -1.1893565397803085 -76.30036117197805 -2.053891191300898 68.4748 0.006242830368695751 -0.23191599140418862 1.4205902870109297e-17 
0.24 0.0288 -1.5707963267948966 -1.5707963267948966 0.0 1.5707963267948966 0.0 0.24 0.0 0.0 0.0 0.0 0.0 1.0 0.0 0.0 0.0 0.0 0.0 298.2628365705195 -103.80426446397853 480.9 -1.2226782238720857 1.187962596481655 -1.1879625964816551 -78.92725597216106 -2.2737336486415383 70.836 0.0069110445247463305 -0.23990047407951692 1.4695761589768237e-17 
0.248 0.030751999999999998 -1.5707963267948966 -1.5707963267948966 0.0 1.5707963267948966 0.0 0.248 0.0 0.0 0.0 0.0 0.0 1.0 0.0 0.0 0.0 0.0 0.0 298.46489413021624 -103.2218580138858 480.9 -1.2235818101815525 1.1865211464302812 -1.1865211464302814 -81.55342285447652 -2.50872173007442 73.1972 0.007625294012384268 -0.24788274423853046 1.518562030942718e-17 
0.256 0.032768 -1.5707963267948966 -1.5707963267948966 0.0 1.5707963267948966 0.0 0.256 0.0 0.0 0.0 0.0 0.0 1.0 0.0 0.0 0.0 0.0 0.0 298.6723827363506 -102.61994343494302 480.9 -1.2245136968834491 1.1850321646767241 -1.1850321646767243 -84.17878663014876 -2.7593581637559557 75.55839999999999 0.008387106880717204 -0.25586257334391727 1.567547902908612e-17 
0.264 0.034848000000000004 -1.5707963267948966 -1.5707963267948966 0.0 1.5707963267948966 0.0 0.264 0.0 0.0 0.0 0.0 0.0 1.0 0.0 0.0 0.0 0.0 0.0 298.8851859769186 -101.99848333942413 480.9 -1.2254737562558078 1.1834956255337983 -1.1834956255337985 -86.80326710737802 -3.0261453179227353 77.9196 0.00919801008487155 -0.2638397176516049 1.6165337748745064e-17 
0.272 0.036992000000000004 -1.5707963267948966 -1.5707963267948966 0.0 1.5707963267948966 0.0 0.272 0.0 0.0 0.0 0.0 0.0 1.0 0.0 0.0 0.0 0.0 0.0 299.10318360977504 -101.35743956166809 480.9 -1.2264618566069785 1.1819115025842022 -1.1819115025842024 -89.42677893134575 -3.3095851649742074 80.2808 0.010059529376821313 -0.2718139177244552 1.6655196468404004e-17 
0.28 0.0391840016747206 -1.5707963267948966 -1.5707963267948966 0.0 1.5707963267948966 0.0 0.2743434418098265 0.0 0.0 0.0 0.0 0.0 0.0 0.0 0.0 0.0 0.0 0.0 299.3246405332488 -100.7015619026903 480.9 -1.2274705064958296 1.1802915927890807 -1.180291592789081 -90.18971002466414 -3.53580354164301 80.97246685017029 0.010747123226878466 -0.2741328572178241 1.679869089397361e-17 
0.288 0.04137874920919921 -1.5707963267948966 -1.5707963267948966 0.0 1.5707963267948966 0.0 0.2743434418098265 0.0 0.0 0.0 0.0 0.0 0.0 0.0 0.0 0.0 0.0 0.0 299.54493394987173 -100.04437787785467 480.9 -1.228478827264019 1.1786693301156386 -1.1786693301156388 -90.18173261671394 -3.733738510609796 80.97246685017029 0.011348749272370215 -0.27410860977724605 1.679869089397361e-17 
0.296 0.04357349674367781 -1.5707963267948966 -1.5707963267948966 0.0 1.5707963267948966 0.0 0.2743434418098265 0.0 0.0 0.0 0.0 0.0 0.0 0.0 0.0 0.0 0.0 0.0 299.763784484067 -99.38671194777393 480.9 -1.229485555068668 1.17704674424165 -1.1770467442416501 -90.17332081104061 -3.9316554944762654 80.97246685017028 0.011950320651903556 -0.27408304197884686 1.679869089397361e-17 
0.304 0.04576824427815643 -1.5707963267948966 -1.5707963267948966 0.0 1.5707963267948966 0.0 0.2743434418098265 0.0 0.0 0.0 0.0 0.0 0.0 0.0 0.0 0.0 0.0 0.0 299.9811910816504 -98.72856728036885 480.9 -1.2304906905706925 1.1754238358306544 -1.1754238358306546 -90.16447464816315 -4.129553539893171 80.97246685017029 0.012551834467760412 -0.27405615394578464 1.679869089397361e-17 
0.312 0.04796299181263504 -1.5707963267948966 -1.5707963267948966 0.0 1.5707963267948966 0.0 0.2743434418098265 0.0 0.0 0.0 0.0 0.0 0.0 0.0 0.0 0.0 0.0 0.0 300.1971526953928 -98.0699470458662 480.9 -1.231494234429866 1.1738006055452033 -1.1738006055452035 -90.15519417069271 -4.327431693602485 80.97246685017029 0.013153287822499967 -0.2740279458075766 1.679869089397361e-17 
0.32 0.05015773934711366 -1.5707963267948966 -1.5707963267948966 0.0 1.5707963267948966 0.0 0.2743434418098265 0.0 0.0 0.0 0.0 0.0 0.0 0.0 0.0 0.0 0.0 0.0 300.4116682850255 -97.41085441678355 480.9 -1.2324961873048201 1.1721770540468597 -1.17217705404686 -90.14547942333257 -4.525289002442 80.97246685017029 0.01375467781897266 -0.27399841770009903 1.679869089397361e-17 
0.328 0.05235248688159227 -1.5707963267948966 -1.5707963267948966 0.0 1.5707963267948966 0.0 0.2743434418098265 0.0 0.0 0.0 0.0 0.0 0.0 0.0 0.0 0.0 0.0 0.0 300.62473681724515 -96.75129256791394 480.9 -1.233496549853044 1.1705531819962018 -1.170553181996202 -90.13533045287787 -4.723124513349916 80.97246685017029 0.014356001560334104 -0.2739675697655862 1.679869089397361e-17 
0.336 0.054547234416070886 -1.5707963267948966 -1.5707963267948966 0.0 1.5707963267948966 0.0 0.2743434418098265 0.0 0.0 0.0 0.0 0.0 0.0 0.0 0.0 0.0 0.0 0.0 300.8363572657188 -96.0912646763106 480.9 -1.2344953227308872 1.1689289900528252 -1.1689289900528255 -90.1247473082153 -4.920937273369429 80.97246685017029 0.01495725615005907 -0.2739354021526301 1.679869089397361e-17 
0.344 0.0567419819505495 -1.5707963267948966 -1.5707963267948966 0.0 1.5707963267948966 0.0 0.2743434418098265 0.0 0.0 0.0 0.0 0.0 0.0 0.0 0.0 0.0 0.0 0.0 301.04652861108883 -95.43077392127168 480.9 -1.2354925065935594 1.1673044788753466 -1.167304478875347 -90.11373004032299 -5.118726329653329 80.9724668501703 0.015558438691955423 -0.27390191501617933 1.679869089397361e-17 
0.352 0.058936729485028094 -1.5707963267948966 -1.5707963267948966 0.0 1.5707963267948966 0.0 0.2743434418098265 0.0 0.0 0.0 0.0 0.0 0.0 0.0 0.0 0.0 0.0 0.0 301.2552498409777 -94.76982348432483 480.9 -1.2364881020951304 1.165679649121403 -1.1656796491214032 -90.1022787022702 -5.316490729468579 80.97246685017029 0.016159546290178066 -0.2738671085175386 1.679869089397361e-17 
0.36 0.061131477019506705 -1.5707963267948966 -1.5707963267948966 0.0 1.5707963267948966 0.0 0.2743434418098265 0.0 0.0 0.0 0.0 0.0 0.0 0.0 0.0 0.0 0.0 0.0 301.46251994999307 -94.10841654921205 480.9 -1.2374821098885331 1.1640545014476587 -1.1640545014476589 -90.09039334921701 -5.514229520200916 80.97246685017029 0.01676057604924292 -0.2738309828243678 1.679869089397361e-17 
0.368 0.06332622455398532 -1.5707963267948966 -1.5707963267948966 0.0 1.5707963267948966 0.0 0.2743434418098265 0.0 0.0 0.0 0.0 0.0 0.0 0.0 0.0 0.0 0.0 0.0 301.6683379397325 -93.44655630187415 480.9 -1.2384745306255611 1.1624290365098024 -1.1624290365098027 -90.07807403841416 -5.711941749359432 80.97246685017029 0.017361525074040842 -0.27379353811068136 1.679869089397361e-17 
0.376 0.06552097208846394 -1.5707963267948966 -1.5707963267948966 0.0 1.5707963267948966 0.0 0.2743434418098265 0.0 0.0 0.0 0.0 0.0 0.0 0.0 0.0 0.0 0.0 0.0 301.87270281878824 -92.78424593043559 480.9 -1.2394653649568723 1.1608032549625547 -1.1608032549625549 -90.06532082920273 -5.909626464581161 80.97246685017029 0.01796239046985157 -0.2737547745568472 1.679869089397361e-17 
0.384 0.06771571962294255 -1.5707963267948966 -1.5707963267948966 0.0 1.5707963267948966 0.0 0.2743434418098265 0.0 0.0 0.0 0.0 0.0 0.0 0.0 0.0 0.0 0.0 0.0 302.075613602752 -92.12148862518902 480.9 -1.2404546135319872 1.1591771574596665 -1.1591771574596668 -90.05213378301386 -6.107282713635673 80.97246685017029 0.018563169342357685 -0.2737146923495862 1.679869089397361e-17 
0.392 0.06991046715742116 -1.5707963267948966 -1.5707963267948966 0.0 1.5707963267948966 0.0 0.2743434418098265 0.0 0.0 0.0 0.0 0.0 0.0 0.0 0.0 0.0 0.0 0.0 302.27706931422 -91.45828757857984 480.9 -1.2414422769992932 1.1575507446539246 -1.1575507446539248 -90.03851296336839 -6.304909544429652 80.97246685017028 0.019163858797658532 -0.2736732916819708 1.679869089397361e-17 
0.4 0.07210521469189979 -1.5707963267948966 -1.5707963267948966 0.0 1.5707963267948966 0.0 0.2743434418098265 0.0 0.0 0.0 0.0 0.0 0.0 0.0 0.0 0.0 0.0 0.0 302.4770689827971 -90.79464598519108 480.9 -1.2424283560060412 1.1559240171971508 -1.155924017197151 -90.02445843587668 -6.502506005011494 80.97246685017028 0.019764455942284192 -0.27363057275342456 1.679869089397361e-17 
0.408 0.07429996222637839 -1.5707963267948966 -1.5707963267948966 0.0 1.5707963267948966 0.0 0.2743434418098265 0.0 0.0 0.0 0.0 0.0 0.0 0.0 0.0 0.0 0.0 0.0 302.675611645102 -90.1305670417277 480.9 -1.243412851198348 1.154296975740207 -1.1542969757402073 -90.00997026823818 -6.700071143575879 80.97246685017029 0.02036495788320937 -0.2735865357697209 1.679869089397361e-17 
0.416 0.07649470976085701 -1.5707963267948966 -1.5707963267948966 0.0 1.5707963267948966 0.0 0.2743434418098265 0.0 0.0 0.0 0.0 0.0 0.0 0.0 0.0 0.0 0.0 0.0 302.87269634477155 -89.46605394700144 480.9 -1.2443957632211988 1.1526696209329967 -1.152669620932997 -89.99504853024115 -6.8976040084683685 80.97246685017028 0.020965361727867397 -0.2735411809429822 1.679869089397361e-17 
0.424 0.07868945729533561 -1.5707963267948966 -1.5707963267948966 0.0 1.5707963267948966 0.0 0.2743434418098265 0.0 0.0 0.0 0.0 0.0 0.0 0.0 0.0 0.0 0.0 0.0 303.06832213246565 -88.80110990191523 480.9 -1.2453770927184455 1.1510419534244667 -1.151041953424467 -89.97969329376234 -7.095103648189979 80.9724668501703 0.021565664584164083 -0.27349450849167883 1.679869089397361e-17 
0.432 0.08088420482981422 -1.5707963267948966 -1.5707963267948966 0.0 1.5707963267948966 0.0 0.2743434418098265 0.0 0.0 0.0 0.0 0.0 0.0 0.0 0.0 0.0 0.0 0.0 303.2624880658714 -88.13573810944787 480.9 -1.2463568403328087 1.14941397386261 -1.1494139738626103 -89.9639046327666 -7.2925691114017726 80.97246685017029 0.022165863560491723 -0.273446518640628 1.679869089397361e-17 
0.44 0.08307895236429283 -1.5707963267948966 -1.5707963267948966 0.0 1.5707963267948966 0.0 0.2743434418098265 0.0 0.0 0.0 0.0 0.0 0.0 0.0 0.0 0.0 0.0 0.0 303.45519320970817 -87.46994177463864 480.9 -1.247335006705877 1.1477856828944681 -1.1477856828944684 -89.94768262330662 -7.4899994469294375 80.9724668501703 0.022765955765742984 -0.2733972116209928 1.679869089397361e-17 
0.448 0.08527369989877145 -1.5707963267948966 -1.5707963267948966 0.0 1.5707963267948966 0.0 0.2743434418098265 0.0 0.0 0.0 0.0 0.0 0.0 0.0 0.0 0.0 0.0 0.0 303.6464366357316 -86.80372410457176 480.9 -1.2483115924781099 1.1461570811661337 -1.146157081166134 -89.93102734352237 -7.687393703767865 80.97246685017029 0.023365938309324832 -0.27334658767028075 1.679869089397361e-17 
0.456 0.08746844743325007 -1.5707963267948966 -1.5707963267948966 0.0 1.5707963267948966 0.0 0.2743434418098265 0.0 0.0 0.0 0.0 0.0 0.0 0.0 0.0 0.0 0.0 0.0 303.83621742273846 -86.13708830836096 480.9 -1.2492865982888384 1.1445281693227531 -1.1445281693227534 -89.91393887364096 -7.884750931085737 80.97246685017029 0.023965808301172467 -0.2732946470323433 1.679869089397361e-17 
0.464 0.08966319496772868 -1.5707963267948966 -1.5707963267948966 0.0 1.5707963267948966 0.0 0.2743434418098265 0.0 0.0 0.0 0.0 0.0 0.0 0.0 0.0 0.0 0.0 0.0 304.0245346565709 -85.47003759713411 480.9 -1.2502600247762625 1.142898948008527 -1.1428989480085274 -89.89641729597604 -8.082070178230103 80.9724668501703 0.024565562851763246 -0.273241389957374 1.679869089397361e-17 
0.472 0.09185794250220729 -1.5707963267948966 -1.5707963267948966 0.0 1.5707963267948966 0.0 0.2743434418098265 0.0 0.0 0.0 0.0 0.0 0.0 0.0 0.0 0.0 0.0 0.0 304.21138743012074 -84.80257518401764 480.9 -1.2512318725774554 1.1412694178667149 -1.141269417866715 -89.87846269492763 -8.27935049473096 80.97246685017029 0.02516519907213059 -0.2731868167019077 1.679869089397361e-17 
0.48 0.0940526900366859 -1.5707963267948966 -1.5707963267948966 0.0 1.5707963267948966 0.0 0.2743434418098265 0.0 0.0 0.0 0.0 0.0 0.0 0.0 0.0 0.0 0.0 0.0 304.39677484333413 -84.13470428412111 480.9 -1.2522021423283651 1.1396395795396366 -1.1396395795396368 -89.86007515698145 -8.476590930305829 80.97246685017028 0.025764714073877915 -0.273130927528819 1.679869089397361e-17 
0.488 0.0962474375711645 -1.5707963267948966 -1.5707963267948966 0.0 1.5707963267948966 0.0 0.2743434418098265 0.0 0.0 0.0 0.0 0.0 0.0 0.0 0.0 0.0 0.0 0.0 304.5806960032158 -83.4664281145218 480.9 -1.2531708346638095 1.138009433668674 -1.1380094336686741 -89.84125477070874 -8.673790534864336 80.97246685017029 0.026364104969192528 -0.2730737227073214 1.679869089397361e-17 
0.496 0.09844218510564312 -1.5707963267948966 -1.5707963267948966 0.0 1.5707963267948966 0.0 0.2743434418098265 0.0 0.0 0.0 0.0 0.0 0.0 0.0 0.0 0.0 0.0 0.0 304.763150023833 -82.79774989424904 480.9 -1.254137950217483 1.136378980894273 -1.1363789808942732 -89.82200162676568 -8.87094835851279 80.97246685017028 0.026963368870859563 -0.27301520251296557 1.679869089397361e-17 
0.504 0.10063693264012173 -1.5707963267948966 -1.5707963267948966 0.0 1.5707963267948966 0.0 0.2743434418098265 0.0 0.0 0.0 0.0 0.0 0.0 0.0 0.0 0.0 0.0 0.0 304.94413602632045 -82.12867284426889 480.9 -1.2551034896219553 1.1347482218559497 -1.13474822185595 -89.80231581789305 -9.068063451558746 80.97246685017029 0.02756250289227584 -0.2729553672276384 1.679869089397361e-17 
0.512 0.10283168017460034 -1.5707963267948966 -1.5707963267948966 0.0 1.5707963267948966 0.0 0.2743434418098265 0.0 0.0 0.0 0.0 0.0 0.0 0.0 0.0 0.0 0.0 0.0 305.1236531388839 -81.45920018746845 480.9 -1.256067453508671 1.1331171571922867 -1.1331171571922871 -89.78219743891567 -9.265134864515595 80.9724668501703 0.028161504147463833 -0.2728942171395613 1.679869089397361e-17 
0.52 0.10502642770907895 -1.5707963267948966 -1.5707963267948966 0.0 1.5707963267948966 0.0 0.2743434418098265 0.0 0.0 0.0 0.0 0.0 0.0 0.0 0.0 0.0 0.0 0.0 305.30170049680464 -80.7893351486405 480.9 -1.2570298425079516 1.1314857875409394 -1.1314857875409396 -89.7616465867421 -9.462161648107132 80.97246685017029 0.028760369751085525 -0.27283175254328906 1.679869089397361e-17 
0.528 0.10722117524355758 -1.5707963267948966 -1.5707963267948966 0.0 1.5707963267948966 0.0 0.2743434418098265 0.0 0.0 0.0 0.0 0.0 0.0 0.0 0.0 0.0 0.0 0.0 305.47827724244394 -80.11908095446786 480.9 -1.257990657248995 1.1298541135386373 -1.1298541135386375 -89.74066336036402 -9.659142853272124 80.9724668501703 0.029359096818456325 -0.27276797373970824 1.679869089397361e-17 
0.536 0.10941592277803619 -1.5707963267948966 -1.5707963267948966 0.0 1.5707963267948966 0.0 0.2743434418098265 0.0 0.0 0.0 0.0 0.0 0.0 0.0 0.0 0.0 0.0 0.0 305.65338252524634 -79.44844083350789 480.9 -1.2589498983598797 1.1282221358211868 -1.1282221358211872 -89.71924786085584 -9.856077531168888 80.97246685017029 0.02995768246555895 -0.272702881036036 1.679869089397361e-17 
0.544 0.1116106703125148 -1.5707963267948966 -1.5707963267948966 0.0 1.5707963267948966 0.0 0.2743434418098265 0.0 0.0 0.0 0.0 0.0 0.0 0.0 0.0 0.0 0.0 0.0 305.8270155017449 -78.77741801617691 480.9 -1.2599075664675594 1.1265898550234728 -1.126589855023473 -89.69740019137421 -10.052964733179856 80.97246685017028 0.030556123809057333 -0.2726364747458183 1.679869089397361e-17 
0.552 0.11380541784699341 -1.5707963267948966 -1.5707963267948966 0.0 1.5707963267948966 0.0 0.2743434418098265 0.0 0.0 0.0 0.0 0.0 0.0 0.0 0.0 0.0 0.0 0.0 305.99917533556425 -78.10601573473467 480.9 -1.2608636621978695 1.1249572717794598 -1.12495727177946 -89.6751204571575 -10.249803510916152 80.9724668501703 0.031154417966310514 -0.2725687551889286 1.679869089397361e-17 
0.56 0.11600016538147202 -1.5707963267948966 -1.5707963267948966 0.0 1.5707963267948966 0.0 0.2743434418098265 0.0 0.0 0.0 0.0 0.0 0.0 0.0 0.0 0.0 0.0 0.0 306.16986119742506 -77.43423722326877 480.9 -1.2618181861755264 1.1233243867221983 -1.1233243867221985 -89.6524087655253 -10.446592916222153 80.97246685017029 0.0317525620553865 -0.27249972269156625 1.679869089397361e-17 
0.568 0.11819491291595065 -1.5707963267948966 -1.5707963267948966 0.0 1.5707963267948966 0.0 0.2743434418098265 0.0 0.0 0.0 0.0 0.0 0.0 0.0 0.0 0.0 0.0 0.0 306.33907226514816 -76.76208571767904 480.9 -1.262771139024125 1.1216912004838213 -1.121691200483822 -89.62926522587784 -10.643332001180058 80.97246685017029 0.03235055319507618 -0.27242937758625485 1.679869089397361e-17 
0.576 0.12038966045042926 -1.5707963267948966 -1.5707963267948966 0.0 1.5707963267948966 0.0 0.2743434418098265 0.0 0.0 0.0 0.0 0.0 0.0 0.0 0.0 0.0 0.0 0.0 306.5068077236583 -76.08956445566203 480.9 -1.263722521366144 1.1200577136955525 -1.1200577136955527 -89.60568994969563 -10.840019818114456 80.9724668501703 0.03294838850490718 -0.2723577202118408 1.679869089397361e-17 
0.584 0.12258440798490784 -1.5707963267948966 -1.5707963267948966 0.0 1.5707963267948966 0.0 0.2743434418098265 0.0 0.0 0.0 0.0 0.0 0.0 0.0 0.0 0.0 0.0 0.0 306.673066764988 -75.41667667669537 480.9 -1.2646723338229433 1.1184239269877032 -1.1184239269877034 -89.58168305053874 -11.036655419596885 80.97246685017029 0.03354606510515772 -0.27228475091349164 1.679869089397361e-17 
0.592 0.12477915551938645 -1.5707963267948966 -1.5707963267948966 0.0 1.5707963267948966 0.0 0.2743434418098265 0.0 0.0 0.0 0.0 0.0 0.0 0.0 0.0 0.0 0.0 0.0 306.8378485882816 -74.74342562202219 480.9 -1.265620577014768 1.1167898409896795 -1.11678984098968 -89.55724464404638 -11.23323785845041 80.97246685017029 0.03414358011687057 -0.27221047004269416 1.679869089397361e-17 
0.6 0.12697390305386508 -1.5707963267948966 -1.5707963267948966 0.0 1.5707963267948966 0.0 0.2743434418098265 0.0 0.0 0.0 0.0 0.0 0.0 0.0 0.0 0.0 0.0 0.0 307.00115239979914 -74.06981453463541 480.9 -1.2665672515607433 1.115155456329979 -1.1151554563299793 -89.53237484793625 -11.429766187754172 80.9724668501703 0.0347409306618668 -0.2721348779572531 1.679869089397361e-17 
0.608 0.1291686505883437 -1.5707963267948966 -1.5707963267948966 0.0 1.5707963267948966 0.0 0.2743434418098265 0.0 0.0 0.0 0.0 0.0 0.0 0.0 0.0 0.0 0.0 0.0 307.1629774129201 -73.39584665926229 480.9 -1.2675123580788836 1.1135207736361994 -1.1135207736361996 -89.50707378200407 -11.626239460847948 80.97246685017029 0.03533811386275974 -0.272057975021289 1.679869089397361e-17 
0.616 0.1313633981228223 -1.5707963267948966 -1.5707963267948966 0.0 1.5707963267948966 0.0 0.2743434418098265 0.0 0.0 0.0 0.0 0.0 0.0 0.0 0.0 0.0 0.0 0.0 307.32332284814703 -72.72152524234868 480.9 -1.268455897186085 1.111885793535035 -1.1118857935350352 -89.48134156812289 -11.82265673133672 80.97246685017029 0.03593512684296877 -0.27197976160523674 1.679869089397361e-17 
0.624 0.1335581456573009 -1.5707963267948966 -1.5707963267948966 0.0 1.5707963267948966 0.0 0.2743434418098265 0.0 0.0 0.0 0.0 0.0 0.0 0.0 0.0 0.0 0.0 0.0 307.4821879331098 -72.04685353204334 480.9 -1.2693978694981323 1.1102505166522831 -1.1102505166522834 -89.45517833024259 -12.01901705309523 80.97246685017028 0.036531966726733235 -0.27190023808584374 1.679869089397361e-17 
0.632 0.13575289319177952 -1.5707963267948966 -1.5707963267948966 0.0 1.5707963267948966 0.0 0.2743434418098265 0.0 0.0 0.0 0.0 0.0 0.0 0.0 0.0 0.0 0.0 0.0 307.63957190256883 -71.37183477818247 480.9 -1.270338275629696 1.1086149436128434 -1.1086149436128436 -89.42858419438929 -12.215319480272537 80.9724668501703 0.03712863063912627 -0.271819404846168 1.679869089397361e-17 
0.64 0.13794764072625815 -1.5707963267948966 -1.5707963267948966 0.0 1.5707963267948966 0.0 0.2743434418098265 0.0 0.0 0.0 0.0 0.0 0.0 0.0 0.0 0.0 0.0 0.0 307.7954739984188 -70.69647223227389 480.9 -1.2712771161943337 1.1069790750407225 -1.106979075040723 -89.40155928866463 -12.411563067296571 80.97246685017029 0.037725115706068624 -0.2717372622755764 1.679869089397361e-17 
0.648 0.14014238826073677 -1.5707963267948966 -1.5707963267948966 0.0 1.5707963267948966 0.0 0.2743434418098265 0.0 0.0 0.0 0.0 0.0 0.0 0.0 0.0 0.0 0.0 0.0 307.9498934696927 -70.02076914748146 480.9 -1.2722143918044935 1.1053429115590345 -1.1053429115590347 -89.37410374324533 -12.6077468688787 80.97246685017029 0.03832141905434257 -0.27165381076974265 1.679869089397361e-17 
0.656 0.14233713579521537 -1.5707963267948966 -1.5707963267948966 0.0 1.5707963267948966 0.0 0.2743434418098265 0.0 0.0 0.0 0.0 0.0 0.0 0.0 0.0 0.0 0.0 0.0 308.1028295725651 -69.34472877860934 480.9 -1.2731501030715109 1.1037064537900043 -1.1037064537900045 -89.34621769038237 -12.803869940018252 80.9724668501703 0.038917537811605646 -0.2715690507306455 1.679869089397361e-17 
0.664 0.14453188332969397 -1.5707963267948966 -1.5707963267948966 0.0 1.5707963267948966 0.0 0.2743434418098265 0.0 0.0 0.0 0.0 0.0 0.0 0.0 0.0 0.0 0.0 0.0 308.25428157035583 -68.66835438208642 480.9 -1.2740842506056107 1.102069702354968 -1.1020697023549682 -89.3179012644005 -12.999931336007108 80.9724668501703 0.0395134691064046 -0.2714829825665669 1.679869089397361e-17 
0.672 0.1467266308641726 -1.5707963267948966 -1.5707963267948966 0.0 1.5707963267948966 0.0 0.2743434418098265 0.0 0.0 0.0 0.0 0.0 0.0 0.0 0.0 0.0 0.0 0.0 308.4042487335334 -67.99164921595052 480.9 -1.275016835015909 1.1004326578743768 -1.100432657874377 -89.28915460169756 -13.195930112434235 80.97246685017029 0.04010921006818918 -0.2713956066920899 1.679869089397361e-17 
0.68 0.14892137839865122 -1.5707963267948966 -1.5707963267948966 0.0 1.5707963267948966 0.0 0.2743434418098265 0.0 0.0 0.0 0.0 0.0 0.0 0.0 0.0 0.0 0.0 0.0 308.55273033971883 -67.31461653983278 480.9 -1.2759478569104148 1.0987953209678005 -1.0987953209678007 -89.25997784074374 -13.391865325190214 80.97246685017029 0.040704757827325896 -0.27130692352809654 1.679869089397361e-17 
0.688 0.15111612593312984 -1.5707963267948966 -1.5707963267948966 0.0 1.5707963267948966 0.0 0.2743434418098265 0.0 0.0 0.0 0.0 0.0 0.0 0.0 0.0 0.0 0.0 0.0 308.699725673689 -66.63725961494195 480.9 -1.2768773168960266 1.0971576922539263 -1.0971576922539266 -89.23037112208105 -13.587736030471822 80.9724668501703 0.041300109515111934 -0.2712169335017661 1.679869089397361e-17 
0.696 0.15331087346760844 -1.5707963267948966 -1.5707963267948966 0.0 1.5707963267948966 0.0 0.2743434418098265 0.0 0.0 0.0 0.0 0.0 0.0 0.0 0.0 0.0 0.0 0.0 308.84523402737966 -65.95958170404862 480.9 -1.277805215578536 1.0955197723505625 -1.0955197723505627 -89.2003345883225 -13.783541284786555 80.97246685017028 0.04189526226378894 -0.27112563704657294 1.679869089397361e-17 
0.704 0.15550562100208704 -1.5707963267948966 -1.5707963267948966 0.0 1.5707963267948966 0.0 0.2743434418098265 0.0 0.0 0.0 0.0 0.0 0.0 0.0 0.0 0.0 0.0 0.0 308.98925469988967 -65.28158607146955 480.9 -1.2787315535626307 1.093881561874643 -1.0938815618746431 -89.16986838415151 -13.979280144957185 80.97246685017029 0.04249021320655681 -0.27103303460228423 1.679869089397361e-17 
0.712 0.15770036853656563 -1.5707963267948966 -1.5707963267948966 0.0 1.5707963267948966 0.0 0.2743434418098265 0.0 0.0 0.0 0.0 0.0 0.0 0.0 0.0 0.0 0.0 0.0 309.1317869974837 -64.60327598305194 480.9 -1.2796563314518898 1.0922430614422252 -1.0922430614422254 -89.13897265632123 -14.174951668126301 80.97246685017029 0.04308495947758756 -0.2709391266149581 1.679869089397361e-17 
0.72 0.15989511607104423 -1.5707963267948966 -1.5707963267948966 0.0 1.5707963267948966 0.0 0.2743434418098265 0.0 0.0 0.0 0.0 0.0 0.0 0.0 0.0 0.0 0.0 0.0 309.27283023359564 -63.92465470615768 480.9 -1.280579549848788 1.0906042716684956 -1.0906042716684958 -89.10764755365368 -14.370554911760845 80.97246685017028 0.043679498212039064 -0.2708439135369413 1.679869089397361e-17 
0.728 0.16208986360552285 -1.5707963267948966 -1.5707963267948966 0.0 1.5707963267948966 0.0 0.2743434418098265 0.0 0.0 0.0 0.0 0.0 0.0 0.0 0.0 0.0 0.0 0.0 309.4123837288325 -63.24572550964767 480.9 -1.2815012093546962 1.0889651931677702 -1.0889651931677704 -89.07589322703929 -14.56608893365666 80.97246685017029 0.044273826546068894 -0.27074739582686713 1.679869089397361e-17 
0.736 0.16428461114000148 -1.5707963267948966 -1.5707963267948966 0.0 1.5707963267948966 0.0 0.2743434418098265 0.0 0.0 0.0 0.0 0.0 0.0 0.0 0.0 0.0 0.0 0.0 309.5504468109768 -62.56649166386599 480.9 -1.2824213105698825 1.087325826553498 -1.0873258265534984 -89.0437098294359 -14.761552791943013 80.97246685017029 0.04486794161684809 -0.27064957394965317 1.679869089397361e-17 
0.744 0.1664793586744801 -1.5707963267948966 -1.5707963267948966 0.0 1.5707963267948966 0.0 0.2743434418098265 0.0 0.0 0.0 0.0 0.0 0.0 0.0 0.0 0.0 0.0 0.0 309.68701881499044 -61.88695644062423 480.9 -1.2833398540935097 1.0856861724382614 -1.0856861724382616 -89.01109751586819 -14.956945545087159 80.97246685017028 0.04546184056257497 -0.27055044837649905 1.679869089397361e-17 
0.752 0.16867410620895873 -1.5707963267948966 -1.5707963267948966 0.0 1.5707963267948966 0.0 0.2743434418098265 0.0 0.0 0.0 0.0 0.0 0.0 0.0 0.0 0.0 0.0 0.0 309.8220990830178 -61.20712311318566 480.9 -1.2842568405236416 1.0840462314337809 -1.084046231433781 -88.97805644342691 -15.152266251898846 80.97246685017029 0.046055520522488916 -0.27045001958488424 1.679869089397361e-17 
0.76 0.1708688537434373 -1.5707963267948966 -1.5707963267948966 0.0 1.5707963267948966 0.0 0.2743434418098265 0.0 0.0 0.0 0.0 0.0 0.0 0.0 0.0 0.0 0.0 0.0 309.95568696438875 -60.526994956249524 480.9 -1.2851722704572377 1.082406004150914 -1.0824060041509143 -88.9445867712681 -15.347513971534868 80.9724668501703 0.046648978636884116 -0.27034828805856564 1.679869089397361e-17 
0.768 0.17306360127791592 -1.5707963267948966 -1.5707963267948966 0.0 1.5707963267948966 0.0 0.2743434418098265 0.0 0.0 0.0 0.0 0.0 0.0 0.0 0.0 0.0 0.0 0.0 310.0877818156217 -59.84657524593514 480.9 -1.286086144490159 1.0807654911996603 -1.0807654911996605 -88.91068866061231 -15.542687763503602 80.9724668501703 0.04724221204712343 -0.2702452542875754 1.679869089397361e-17 
0.776 0.17525834881239455 -1.5707963267948966 -1.5707963267948966 0.0 1.5707963267948966 0.0 0.2743434418098265 0.0 0.0 0.0 0.0 0.0 0.0 0.0 0.0 0.0 0.0 0.0 310.21838300042714 -59.165867259766344 480.9 -1.2869984632171658 1.079124693189163 -1.0791246931891632 -88.87636227474384 -15.737786687669514 80.97246685017029 0.04783521789565204 -0.2701409187682184 1.679869089397361e-17 
0.784 0.17745309634687317 -1.5707963267948966 -1.5707963267948966 0.0 1.5707963267948966 0.0 0.2743434418098265 0.0 0.0 0.0 0.0 0.0 0.0 0.0 0.0 0.0 0.0 0.0 310.34748988971023 -58.48487427665553 480.9 -1.2879092272319188 1.0774836107277088 -1.077483610727709 -88.84160777900999 -15.932809804257708 80.97246685017029 0.04842799332601129 -0.27003528200306987 1.679869089397361e-17 
0.792 0.1796478438813518 -1.5707963267948966 -1.5707963267948966 0.0 1.5707963267948966 0.0 0.2743434418098265 0.0 0.0 0.0 0.0 0.0 0.0 0.0 0.0 0.0 0.0 0.0 310.4751018615741 -57.803599576887834 480.9 -1.288818437126981 1.0758422444227336 -1.075842244422734 -88.80642534082018 -16.127756173858444 80.97246685017029 0.049020535482852436 -0.2699283445009732 1.679869089397361e-17 
0.8 0.18184259141583037 -1.5707963267948966 -1.5707963267948966 0.0 1.5707963267948966 0.0 0.2743434418098265 0.0 0.0 0.0 0.0 0.0 0.0 0.0 0.0 0.0 0.0 0.0 310.60121830132266 -57.12204644210547 480.9 -1.289726093493817 1.0742005948808218 -1.074200594880822 -88.77081512964524 -16.322624857431666 80.97246685017028 0.049612841511950376 -0.2698201067770372 1.679869089397361e-17 
0.808 0.184037338950309 -1.5707963267948966 -1.5707963267948966 0.0 1.5707963267948966 0.0 0.2743434418098265 0.0 0.0 0.0 0.0 0.0 0.0 0.0 0.0 0.0 0.0 0.0 310.725838601464 -56.44021815529184 480.9 -1.2906321969227945 1.0725586627077093 -1.0725586627077095 -88.73477731701651 -16.517414916311537 80.97246685017029 0.050204908560217455 -0.26971056935263377 1.679869089397361e-17 
0.816 0.18623208648478762 -1.5707963267948966 -1.5707963267948966 0.0 1.5707963267948966 0.0 0.2743434418098265 0.0 0.0 0.0 0.0 0.0 0.0 0.0 0.0 0.0 0.0 0.0 310.8489621617125 -55.75811800075565 480.9 -1.2915367480031854 1.070916448508287 -1.0709164485082872 -88.69831207652506 -16.71212541221093 80.97246685017028 0.05079673377571713 -0.26959973275539534 1.679869089397361e-17 
0.824 0.18842683401926624 -1.5707963267948966 -1.5707963267948966 0.0 1.5707963267948966 0.0 0.2743434418098265 0.0 0.0 0.0 0.0 0.0 0.0 0.0 0.0 0.0 0.0 0.0 310.9705883889926 -55.07574926411531 480.9 -1.2924397473231664 1.0692739528866007 -1.0692739528866009 -88.66141958382086 -16.906755407225976 80.97246685017029 0.05138831430767776 -0.26948759751921236 1.679869089397361e-17 
0.832 0.19062158155374487 -1.5707963267948966 -1.5707963267948966 0.0 1.5707963267948966 0.0 0.2743434418098265 0.0 0.0 0.0 0.0 0.0 0.0 0.0 0.0 0.0 0.0 0.0 311.0907166974411 -54.393115232282824 480.9 -1.2933411954698175 1.0676311764458544 -1.0676311764458546 -88.6241000166119 -17.101303963840575 80.97246685017029 0.05197964730650632 -0.26937416418423066 1.679869089397361e-17 
0.84 0.19281632908822344 -1.5707963267948966 -1.5707963267948966 0.0 1.5707963267948966 0.0 0.2743434418098265 0.0 0.0 0.0 0.0 0.0 0.0 0.0 0.0 0.0 0.0 0.0 311.2093465084102 -53.71021919344825 480.9 -1.2942410930291255 1.0659881197884125 -1.0659881197884127 -88.58635355466335 -17.29577014493089 80.97246685017029 0.052570729923802115 -0.2692594332968491 1.679869089397361e-17 
0.848 0.19501107662270206 -1.5707963267948966 -1.5707963267948966 0.0 1.5707963267948966 0.0 0.2743434418098265 0.0 0.0 0.0 0.0 0.0 0.0 0.0 0.0 0.0 0.0 0.0 311.32647725047013 -53.02706443706354 480.9 -1.295139440585986 1.064344783515802 -1.0643447835158024 -88.5481803797967 -17.49015301376991 80.97246685017029 0.053161559312370564 -0.26914340540971643 1.679869089397361e-17 
0.856 0.19720582415718063 -1.5707963267948966 -1.5707963267948966 0.0 1.5707963267948966 0.0 0.2743434418098265 0.0 0.0 0.0 0.0 0.0 0.0 0.0 0.0 0.0 0.0 0.0 311.4421083594121 -52.34365425382704 480.9 -1.2960362387241984 1.0627011682287142 -1.0627011682287144 -88.50958067588888 -17.684451634031905 80.97246685017028 0.05375213262623681 -0.26902608108172915 1.679869089397361e-17 
0.864 0.19940057169165926 -1.5707963267948966 -1.5707963267948966 0.0 1.5707963267948966 0.0 0.2743434418098265 0.0 0.0 0.0 0.0 0.0 0.0 0.0 0.0 0.0 0.0 0.0 311.556239278251 -51.65999193566731 480.9 -1.2969314880264724 1.0610572745270062 -1.0610572745270064 -88.4705546288714 -17.87866506979698 80.9724668501703 0.05434244702065953 -0.2689074608780286 1.679869089397361e-17 
0.872 0.20159531922613788 -1.5707963267948966 -1.5707963267948966 0.0 1.5707963267948966 0.0 0.2743434418098265 0.0 0.0 0.0 0.0 0.0 0.0 0.0 0.0 0.0 0.0 0.0 311.66886945722774 -50.97608077572751 480.9 -1.2978251890744257 1.0594131030097045 -1.0594131030097047 -88.43110242672938 -18.072792385555562 80.97246685017029 0.05493249965214458 -0.2687875453699981 1.679869089397361e-17 
0.88 0.2037900667606165 -1.5707963267948966 -1.5707963267948966 0.0 1.5707963267948966 0.0 0.2743434418098265 0.0 0.0 0.0 0.0 0.0 0.0 0.0 0.0 0.0 0.0 0.0 311.7799983538126 -50.29192406834943 480.9 -1.2987173424485858 1.0577686542750064 -1.0577686542750067 -88.39122425950072 -18.266832646212904 80.97246685017029 0.05552228767845869 -0.26866633513526056 1.679869089397361e-17 
0.888 0.20598481429509513 -1.5707963267948966 -1.5707963267948966 0.0 1.5707963267948966 0.0 0.2743434418098265 0.0 0.0 0.0 0.0 0.0 0.0 0.0 0.0 0.0 0.0 0.0 311.8896254327069 -49.60752510905769 480.9 -1.2996079487283898 1.0561239289202813 -1.0561239289202815 -88.35092031927515 -18.460784917093605 80.9724668501703 0.05611180825864319 -0.26854383075767524 1.679869089397361e-17 
0.896 0.2081795618295737 -1.5707963267948966 -1.5707963267948966 0.0 1.5707963267948966 0.0 0.2743434418098265 0.0 0.0 0.0 0.0 0.0 0.0 0.0 0.0 0.0 0.0 0.0 311.9977501658464 -48.922887194543705 480.9 -1.300497008492187 1.0544789275420743 -1.0544789275420745 -88.31019080019333 -18.654648263946097 80.97246685017028 0.05670105855302766 -0.26842003282733534 1.679869089397361e-17 
0.904 0.21037430936405233 -1.5707963267948966 -1.5707963267948966 0.0 1.5707963267948966 0.0 0.2743434418098265 0.0 0.0 0.0 0.0 0.0 0.0 0.0 0.0 0.0 0.0 0.0 312.1043720324036 -48.238013622650044 480.9 -1.301384522317237 1.052833650736107 -1.0528336507361074 -88.26903589844586 -18.848421752947157 80.97246685017029 0.05729003572324365 -0.26829494194056497 1.679869089397361e-17 
0.912 0.21256905689853095 -1.5707963267948966 -1.5707963267948966 0.0 1.5707963267948966 0.0 0.2743434418098265 0.0 0.0 0.0 0.0 0.0 0.0 0.0 0.0 0.0 0.0 0.0 312.20949051879 -47.552907692354296 480.9 -1.302270490779713 1.0511880990972808 -1.051188099097281 -88.22745581227245 -19.042104450706393 80.97246685017029 0.05787873693223829 -0.26816855869991624 1.679869089397361e-17 
0.92 0.21476380443300958 -1.5707963267948966 -1.5707963267948966 0.0 1.5707963267948966 0.0 0.2743434418098265 0.0 0.0 0.0 0.0 0.0 0.0 0.0 0.0 0.0 0.0 0.0 312.3131051186587 -46.8675727037534 480.9 -1.3031549144546994 1.049542273219677 -1.0495422732196773 -88.18545074196075 -19.23569542427076 80.97246685017029 0.058467159344288026 -0.26804088371416646 1.679869089397361e-17 
0.928 0.2169585519674882 -1.5707963267948966 -1.5707963267948966 0.0 1.5707963267948966 0.0 0.2743434418098265 0.0 0.0 0.0 0.0 0.0 0.0 0.0 0.0 0.0 0.0 0.0 312.4152153329071 -46.182011958047596 480.9 -1.3040377939161971 1.0478961736965613 -1.0478961736965615 -88.14302088984567 -19.429193741129016 80.97246685017029 0.059055300125012214 -0.2679119175983151 1.679869089397361e-17 
0.936 0.21915329950196677 -1.5707963267948966 -1.5707963267948966 0.0 1.5707963267948966 0.0 0.2743434418098265 0.0 0.0 0.0 0.0 0.0 0.0 0.0 0.0 0.0 0.0 0.0 312.51582066967904 -45.496228757524634 480.9 -1.3049191297371197 1.0462498011203851 -1.0462498011203853 -88.10016646030817 -19.622598469216257 80.9724668501703 0.05964315644138681 -0.2677816609735811 1.679869089397361e-17 
0.944 0.2213480470364454 -1.5707963267948966 -1.5707963267948966 0.0 1.5707963267948966 0.0 0.2743434418098265 0.0 0.0 0.0 0.0 0.0 0.0 0.0 0.0 0.0 0.0 0.0 312.61492064436703 -44.8102264055437 480.9 -1.3057989224892959 1.0446031560827849 -1.044603156082785 -88.05688765977439 -19.815908676918397 80.97246685017029 0.060230725461758054 -0.2676501144673994 1.679869089397361e-17 
0.952 0.22354279457092402 -1.5707963267948966 -1.5707963267948966 0.0 1.5707963267948966 0.0 0.2743434418098265 0.0 0.0 0.0 0.0 0.0 0.0 0.0 0.0 0.0 0.0 0.0 312.71251477961505 -44.1240082065197 480.9 -1.3066771727434714 1.0429562391745892 -1.0429562391745895 -88.01318469671463 -20.00912343307662 80.97246685017029 0.060818004355856006 -0.26751727871341835 1.679869089397361e-17 
0.96 0.2257375421054026 -1.5707963267948966 -1.5707963267948966 0.0 1.5707963267948966 0.0 0.2743434418098265 0.0 0.0 0.0 0.0 0.0 0.0 0.0 0.0 0.0 0.0 0.0 312.8086026053204 -43.43757746590725 480.9 -1.3075538810693084 1.0413090509858163 -1.0413090509858165 -87.96905778164232 -20.202241806991918 80.97246685017028 0.06140499029480827 -0.2673831543514964 1.679869089397361e-17 
0.968 0.2279322896398812 -1.5707963267948966 -1.5707963267948966 0.0 1.5707963267948966 0.0 0.2743434418098265 0.0 0.0 0.0 0.0 0.0 0.0 0.0 0.0 0.0 0.0 0.0 312.9031836586363 -42.750937490184754 480.9 -1.3084290480353855 1.0396615921056793 -1.0396615921056795 -87.92450712711306 -20.395262868429526 80.97246685017028 0.06199168045115359 -0.2672477420276993 1.679869089397361e-17 
0.976 0.23012703717435984 -1.5707963267948966 -1.5707963267948966 0.0 1.5707963267948966 0.0 0.2743434418098265 0.0 0.0 0.0 0.0 0.0 0.0 0.0 0.0 0.0 0.0 0.0 312.9962574839738 -42.06409158683846 480.9 -1.3093026742092009 1.0380138631225864 -1.0380138631225866 -87.87953294772358 -20.588185687623444 80.97246685017029 0.06257807199885547 -0.2671110423942966 1.679869089397361e-17 
0.984 0.23232178470883846 -1.5707963267948966 -1.5707963267948966 0.0 1.5707963267948966 0.0 0.2743434418098265 0.0 0.0 0.0 0.0 0.0 0.0 0.0 0.0 0.0 0.0 0.0 313.0878236330043 -41.37704306434658 480.9 -1.31017476015717 1.0363658646241425 -1.0363658646241427 -87.83413546011064 -20.781009335280885 80.9724668501703 0.06316416211331577 -0.2669730561097588 1.679869089397361e-17 
0.992 0.2345165322433171 -1.5707963267948966 -1.5707963267948966 0.0 1.5707963267948966 0.0 0.2743434418098265 0.0 0.0 0.0 0.0 0.0 0.0 0.0 0.0 0.0 0.0 0.0 313.1778816646613 -40.689795232163306 480.9 -1.3110453064446292 1.0347175971971536 -1.034717597197154 -87.7883148829501 -20.973732882586756 80.9724668501703 0.06374994797138833 -0.2668337838387541 1.679869089397361e-17 
1.0 0.23671127977779566 -1.5707963267948966 -1.5707963267948966 0.0 1.5707963267948966 0.0 0.2743434418098265 0.0 0.0 0.0 0.0 0.0 0.0 0.0 0.0 0.0 0.0 0.0 313.2664311451431 -40.00235140070291 480.9 -1.3119143136358347 1.033069061427627 -1.0330690614276272 -87.74207143695574 -21.16635540120816 80.97246685017029 0.0643354267513926 -0.2666932262521451 1.679869089397361e-17 
1.008 0.23890602731227428 -1.5707963267948966 -1.5707963267948966 0.0 1.5707963267948966 0.0 0.2743434418098265 0.0 0.0 0.0 0.0 0.0 0.0 0.0 0.0 0.0 0.0 0.0 313.35347164791426 -39.31471488132376 480.9 -1.3127817822939627 1.0314202579007736 -1.0314202579007739 -87.69540534487832 -21.358875963298832 80.97246685017029 0.06492059563312716 -0.26655138402698575 1.679869089397361e-17 
1.016 0.2411007748467529 -1.5707963267948966 -1.5707963267948966 0.0 1.5707963267948966 0.0 0.2743434418098265 0.0 0.0 0.0 0.0 0.0 0.0 0.0 0.0 0.0 0.0 0.0 313.43900275370817 -38.62688898631238 480.9 -1.3136477129811124 1.0297711872010096 -1.0297711872010098 -87.64831683150445 -21.55129364150363 80.97246685017029 0.06550545179788338 -0.26640825784651806 1.679869089397361e-17 
1.024 0.24329552238123153 -1.5707963267948966 -1.5707963267948966 0.0 1.5707963267948966 0.0 0.2743434418098265 0.0 0.0 0.0 0.0 0.0 0.0 0.0 0.0 0.0 0.0 0.0 313.52302405052876 -37.9388770288675 480.9 -1.3145121062583056 1.0281218499119602 -1.0281218499119604 -87.60080612365545 -21.74360750896298 80.97246685017029 0.06608999242845892 -0.2662638484001685 1.679869089397361e-17 
1.032 0.24549026991571016 -1.5707963267948966 -1.5707963267948966 0.0 1.5707963267948966 0.0 0.2743434418098265 0.0 0.0 0.0 0.0 0.0 0.0 0.0 0.0 0.0 0.0 0.0 313.60553513365267 -37.25068232308412 480.9 -1.3153749626854847 1.026472246616459 -1.0264722466164593 -87.55287345018634 -21.935816639317377 80.97246685017029 0.06667421470917137 -0.26611815638354513 1.679869089397361e-17 
1.04 0.24768501745018873 -1.5707963267948966 -1.5707963267948966 0.0 1.5707963267948966 0.0 0.2743434418098265 0.0 0.0 0.0 0.0 0.0 0.0 0.0 0.0 0.0 0.0 0.0 313.6865356056309 -36.56230818393753 480.9 -1.316236282821519 1.0248223778965526 -1.0248223778965528 -87.50451904198479 -22.127920106711805 80.9724668501703 0.06725811582587175 -0.265971182498434 1.679869089397361e-17 
1.048 0.24987976498466735 -1.5707963267948966 -1.5707963267948966 0.0 1.5707963267948966 0.0 0.2743434418098265 0.0 0.0 0.0 0.0 0.0 0.0 0.0 0.0 0.0 0.0 0.0 313.7660250762912 -35.873757927267256 480.9 -1.3170960672242 1.0231722443335012 -1.0231722443335014 -87.45574313196981 -22.319916985800234 80.97246685017029 0.06784169296595818 -0.2658229274527958 1.679869089397361e-17 
1.056 0.252074512519146 -1.5707963267948966 -1.5707963267948966 0.0 1.5707963267948966 0.0 0.2743434418098265 0.0 0.0 0.0 0.0 0.0 0.0 0.0 0.0 0.0 0.0 0.0 313.84400316273957 -35.18503486976126 480.9 -1.3179543164502467 1.0215218465077807 -1.0215218465077809 -87.40654595509082 -22.511806351750053 80.9724668501703 0.06842494331838925 -0.2656733919607624 1.679869089397361e-17 
1.064 0.2542692600536246 -1.5707963267948966 -1.5707963267948966 0.0 1.5707963267948966 0.0 0.2743434418098265 0.0 0.0 0.0 0.0 0.0 0.0 0.0 0.0 0.0 0.0 0.0 313.92046948936206 -34.49614232893984 480.9 -1.3188110310553012 1.0198711849990842 -1.0198711849990845 -87.35692774832643 -22.70358728024654 80.97246685017029 0.0690078640736977 -0.2655225767426336 1.679869089397361e-17 
1.072 0.2564640075881032 -1.5707963267948966 -1.5707963267948966 0.0 1.5707963267948966 0.0 0.2743434418098265 0.0 0.0 0.0 0.0 0.0 0.0 0.0 0.0 0.0 0.0 0.0 313.99542368782704 -33.807083623139654 480.9 -1.3196662115939342 1.018220260386326 -1.0182202603863262 -87.30688875068333 -22.895258847497292 80.97246685017028 0.06959045242400394 -0.26537048252487333 1.679869089397361e-17 
1.08 0.2586587551225818 -1.5707963267948966 -1.5707963267948966 0.0 1.5707963267948966 0.0 0.2743434418098265 0.0 0.0 0.0 0.0 0.0 0.0 0.0 0.0 0.0 0.0 0.0 314.0688653970865 -33.117862071497825 480.9 -1.3205198586196436 1.0165690732476416 -1.0165690732476418 -87.25642920319508 -23.0868201302367 80.97246685017029 0.07017270556302949 -0.2652171100401066 1.679869089397361e-17 
1.088 0.2608535026570604 -1.5707963267948966 -1.5707963267948966 0.0 1.5707963267948966 0.0 0.2743434418098265 0.0 0.0 0.0 0.0 0.0 0.0 0.0 0.0 0.0 0.0 0.0 314.1407942633779 -32.4284809939358 480.9 -1.3213719726848552 1.0149176241603903 -1.0149176241603906 -87.20554934892104 -23.27827020573039 80.97246685017029 0.07075462068611062 -0.26506246002711564 1.679869089397361e-17 
1.096 0.26304825019153905 -1.5707963267948966 -1.5707963267948966 0.0 1.5707963267948966 0.0 0.2743434418098265 0.0 0.0 0.0 0.0 0.0 0.0 0.0 0.0 0.0 0.0 0.0 314.2112099402261 -31.738943711143527 480.9 -1.3222225543409218 1.0132659137011564 -1.0132659137011568 -87.15424943294514 -23.46960815177965 80.97246685017029 0.07133619499021171 -0.26490653323083624 1.679869089397361e-17 
1.104 0.26524299772601767 -1.5707963267948966 -1.5707963267948966 0.0 1.5707963267948966 0.0 0.2743434418098265 0.0 0.0 0.0 0.0 0.0 0.0 0.0 0.0 0.0 0.0 0.0 314.28011208844475 -31.049253544563342 480.9 -1.3230716041381292 1.0116139424457546 -1.0116139424457549 -87.10252970237467 -23.660833046725905 80.97246685017029 0.07191742567393894 -0.2647493304023546 1.679869089397361e-17 
1.112 0.2674377452604963 -1.5707963267948966 -1.5707963267948966 0.0 1.5707963267948966 0.0 0.2743434418098265 0.0 0.0 0.0 0.0 0.0 0.0 0.0 0.0 0.0 0.0 0.0 314.3475003761381 -30.35941381637403 480.9 -1.32391912262569 1.0099617109692265 -1.0099617109692267 -87.0503904063392 -23.851943969455117 80.9724668501703 0.07249830993755356 -0.26459085229890333 1.679869089397361e-17 
1.12 0.26963249279497487 -1.5707963267948966 -1.5707963267948966 0.0 1.5707963267948966 0.0 0.2743434418098265 0.0 0.0 0.0 0.0 0.0 0.0 0.0 0.0 0.0 0.0 0.0 314.41337447870245 -29.6694278494748 480.9 -1.3247651103517493 1.008309219845847 -1.0083092198458472 -86.99783179598927 -24.042939999402265 80.97246685017029 0.07307884498298561 -0.264431099683858 1.679869089397361e-17 
1.128 0.2718272403294535 -1.5707963267948966 -1.5707963267948966 0.0 1.5707963267948966 0.0 0.2743434418098265 0.0 0.0 0.0 0.0 0.0 0.0 0.0 0.0 0.0 0.0 0.0 314.47773407882795 -28.97929896746925 480.9 -1.3256095678633832 1.0066564696491247 -1.006656469649125 -86.94485412449522 -24.23382021655573 80.9724668501703 0.07365902801384722 -0.2642700733267332 1.679869089397361e-17 
1.136 0.2740219878639321 -1.5707963267948966 -1.5707963267948966 0.0 1.5707963267948966 0.0 0.2743434418098265 0.0 0.0 0.0 0.0 0.0 0.0 0.0 0.0 0.0 0.0 0.0 314.5405788664998 -28.289030494649413 480.9 -1.3264524957066002 1.005003460951803 -1.0050034609518033 -86.89145764704598 -24.42458370146178 80.97246685017029 0.07423885623544615 -0.2641077740031793 1.679869089397361e-17 
1.144 0.27621673539841074 -1.5707963267948966 -1.5707963267948966 0.0 1.5707963267948966 0.0 0.2743434418098265 0.0 0.0 0.0 0.0 0.0 0.0 0.0 0.0 0.0 0.0 0.0 314.601908539 -27.59862575597973 480.9 -1.3272938944263428 1.0033501943258647 -1.003350194325865 -86.83764262084783 -24.615229535228952 80.97246685017028 0.07481832685479925 -0.26394420249497824 1.679869089397361e-17 
1.152 0.27841148293288936 -1.5707963267948966 -1.5707963267948966 0.0 1.5707963267948966 0.0 0.2743434418098265 0.0 0.0 0.0 0.0 0.0 0.0 0.0 0.0 0.0 0.0 0.0 314.66172280090893 -26.908088077081004 480.9 -1.328133764566485 1.001696670342531 -1.0016966703425312 -86.78340930512321 -24.80575679953251 80.9724668501703 0.07539743708064593 -0.2637793595900401 1.679869089397361e-17 
1.16 0.2806062304673679 -1.5707963267948966 -1.5707963267948966 0.0 1.5707963267948966 0.0 0.2743434418098265 0.0 0.0 0.0 0.0 0.0 0.0 0.0 0.0 0.0 0.0 0.0 314.7200213641061 -26.21742078421442 480.9 -1.328972106669837 1.0000428895722642 -1.0000428895722644 -86.72875796110931 -24.996164576618842 80.97246685017028 0.07597618412346155 -0.26361324608239917 1.679869089397361e-17 
1.168 0.2828009780018465 -1.5707963267948966 -1.5707963267948966 0.0 1.5707963267948966 0.0 0.2743434418098265 0.0 0.0 0.0 0.0 0.0 0.0 0.0 0.0 0.0 0.0 0.0 314.7768039477726 -25.526627204265463 480.9 -1.3298089212781428 0.9983888525847718 -0.9983888525847721 -86.67368885205705 -25.18645194930993 80.97246685017029 0.07655456519547092 -0.2634458627722099 1.679869089397361e-17 
1.176 0.28499572553632513 -1.5707963267948966 -1.5707963267948966 0.0 1.5707963267948966 0.0 0.2743434418098265 0.0 0.0 0.0 0.0 0.0 0.0 0.0 0.0 0.0 0.0 0.0 314.83207027839126 -24.835710664727955 480.9 -1.330644208932083 0.9967345599490053 -0.9967345599490055 -86.61820224322963 -25.3766180010077 80.97246685017029 0.07713257751066172 -0.26327721046574354 1.679869089397361e-17 
1.184 0.28719047307080375 -1.5707963267948966 -1.5707963267948966 0.0 1.5707963267948966 0.0 0.2743434418098265 0.0 0.0 0.0 0.0 0.0 0.0 0.0 0.0 0.0 0.0 0.0 314.8858200897491 -24.14467449368801 480.9 -1.3314779701712742 0.9950800122331642 -0.9950800122331644 -86.5622984019013 -25.56666181569848 80.97246685017028 0.07771021828479782 -0.26310728997538385 1.679869089397361e-17 
1.192 0.2893852206052824 -1.5707963267948966 -1.5707963267948966 0.0 1.5707963267948966 0.0 0.2743434418098265 0.0 0.0 0.0 0.0 0.0 0.0 0.0 0.0 0.0 0.0 0.0 314.93805312293773 -23.453522019808 480.9 -1.3323102055342704 0.9934252100046977 -0.993425210004698 -86.50597759735611 -25.756582477957405 80.97246685017028 0.07828748473543286 -0.26293610211962337 1.679869089397361e-17 
1.2 0.291579968139761 -1.5707963267948966 -1.5707963267948966 0.0 1.5707963267948966 0.0 0.2743434418098265 0.0 0.0 0.0 0.0 0.0 0.0 0.0 0.0 0.0 0.0 0.0 314.9887691263552 -22.762256572310505 480.9 -1.3331409155585632 0.991770153830306 -0.9917701538303062 -86.44924010088657 -25.946379072952826 80.97246685017029 0.0788643740819235 -0.2627636477230595 1.679869089397361e-17 
1.208 0.2937747156742396 -1.5707963267948966 -1.5707963267948966 0.0 1.5707963267948966 0.0 0.2743434418098265 0.0 0.0 0.0 0.0 0.0 0.0 0.0 0.0 0.0 0.0 0.0 315.0379678557067 -22.07088148096231 480.9 -1.333970100780583 0.9901148442759429 -0.9901148442759431 -86.39208618579238 -26.136050686450712 80.97246685017029 0.0794408835454429 -0.26258992761639016 1.679869089397361e-17 
1.216 0.2959694632087182 -1.5707963267948966 -1.5707963267948966 0.0 1.5707963267948966 0.0 0.2743434418098265 0.0 0.0 0.0 0.0 0.0 0.0 0.0 0.0 0.0 0.0 0.0 315.08564907400626 -21.379400076058296 480.9 -1.3347977617356992 0.9884592819068165 -0.9884592819068168 -86.33451612737906 -26.325596404819063 80.97246685017029 0.08001701034899414 -0.2624149426364105 1.679869089397361e-17 
1.224 0.2981642107431968 -1.5707963267948966 -1.5707963267948966 0.0 1.5707963267948966 0.0 0.2743434418098265 0.0 0.0 0.0 0.0 0.0 0.0 0.0 0.0 0.0 0.0 0.0 315.13181255157747 -20.68781568840552 480.9 -1.3356238989582205 0.986803467287393 -0.9868034672873932 -86.2765302029567 -26.515015315032304 80.9724668501703 0.08059275171742343 -0.2622386936260082 1.679869089397361e-17 
1.232 0.30035895827767545 -1.5707963267948966 -1.5707963267948966 0.0 1.5707963267948966 0.0 0.2743434418098265 0.0 0.0 0.0 0.0 0.0 0.0 0.0 0.0 0.0 0.0 0.0 315.1764580660547 -19.996131649307024 480.9 -1.3364485129813979 0.9851474009813974 -0.9851474009813976 -86.21812869183854 -26.704306504675678 80.97246685017028 0.08116810487743369 -0.26206118143415974 1.679869089397361e-17 
1.24 0.3025537058121541 -1.5707963267948966 -1.5707963267948966 0.0 1.5707963267948966 0.0 0.2743434418098265 0.0 0.0 0.0 0.0 0.0 0.0 0.0 0.0 0.0 0.0 0.0 315.2195854023845 -19.30435129054592 480.9 -1.337271604337422 0.9834910835518155 -0.9834910835518157 -86.15931187533971 -26.89346906194965 80.97246685017029 0.08174306705759773 -0.2618824069159262 1.679869089397361e-17 
1.248 0.30474845334663264 -1.5707963267948966 -1.5707963267948966 0.0 1.5707963267948966 0.0 0.2743434418098265 0.0 0.0 0.0 0.0 0.0 0.0 0.0 0.0 0.0 0.0 0.0 315.26119435282607 -18.612477944369274 480.9 -1.3380931735574255 0.9818345155608953 -0.9818345155608954 -86.1000800367758 -27.082502075674295 80.9724668501703 0.08231763548837173 -0.2617023709324492 1.679869089397361e-17 
1.256 0.30694320088111127 -1.5707963267948966 -1.5707963267948966 0.0 1.5707963267948966 0.0 0.2743434418098265 0.0 0.0 0.0 0.0 0.0 0.0 0.0 0.0 0.0 0.0 0.0 315.3012847169526 -17.920514943472 480.9 -1.338913221171485 0.9801776975701509 -0.9801776975701512 -86.04043346146148 -27.271404635293692 80.9724668501703 0.0828918074021085 -0.26152107435094674 1.679869089397361e-17 
1.264 0.3091379484155899 -1.5707963267948966 -1.5707963267948966 0.0 1.5707963267948966 0.0 0.2743434418098265 0.0 0.0 0.0 0.0 0.0 0.0 0.0 0.0 0.0 0.0 0.0 315.3398563016522 -17.228465620980952 480.9 -1.33973174770862 0.9785206301403627 -0.978520630140363 -85.98037243670926 -27.460175830880317 80.9724668501703 0.08346558003307088 -0.26133851804470903 1.679869089397361e-17 
1.272 0.3113326959500685 -1.5707963267948966 -1.5707963267948966 0.0 1.5707963267948966 0.0 0.2743434418098265 0.0 0.0 0.0 0.0 0.0 0.0 0.0 0.0 0.0 0.0 0.0 315.376908921129 -16.53633331043879 480.9 -1.3405487536967926 0.9768633138315787 -0.9768633138315789 -85.91989725182799 -27.648814753139376 80.9724668501703 0.08403895061744493 -0.2611547028930942 1.679869089397361e-17 
1.28 0.31352744348454714 -1.5707963267948966 -1.5707963267948966 0.0 1.5707963267948966 0.0 0.2743434418098265 0.0 0.0 0.0 0.0 0.0 0.0 0.0 0.0 0.0 0.0 0.0 315.41244239690343 -15.84412134578783 480.9 -1.3413642396629117 0.9752057492031183 -0.9752057492031185 -85.85900819812147 -27.837320493413284 80.97246685017029 0.08461191639335346 -0.2609696297815242 1.679869089397361e-17 
1.288 0.3157221910190257 -1.5707963267948966 -1.5707963267948966 0.0 1.5707963267948966 0.0 0.2743434418098265 0.0 0.0 0.0 0.0 0.0 0.0 0.0 0.0 0.0 0.0 0.0 315.44645655781403 -15.151833061354179 480.9 -1.3421782061328302 0.9735479368135735 -0.9735479368135738 -85.79770556888711 -28.02569214368592 80.97246685017029 0.08518447460086907 -0.26078329960148056 1.679869089397361e-17 
1.296 0.31791693855350434 -1.5707963267948966 -1.5707963267948966 0.0 1.5707963267948966 0.0 0.2743434418098265 0.0 0.0 0.0 0.0 0.0 0.0 0.0 0.0 0.0 0.0 0.0 315.4789512400173 -14.459471791831522 480.9 -1.342990653631348 0.9718898772208099 -0.9718898772208101 -85.73598965941439 -28.21392879658711 80.97246685017029 0.0857566224820277 -0.2605957132504997 1.679869089397361e-17 
1.304 0.32011168608798296 -1.5707963267948966 -1.5707963267948966 0.0 1.5707963267948966 0.0 0.2743434418098265 0.0 0.0 0.0 0.0 0.0 0.0 0.0 0.0 0.0 0.0 0.0 315.5099262869892 -13.767040872265053 480.9 -1.3438015826822112 0.9702315709819694 -0.9702315709819697 -85.67386076698364 -28.402029545396932 80.97246685017029 0.08632835728084175 -0.2604068716321691 1.679869089397361e-17 
1.312 0.3223064336224616 -1.5707963267948966 -1.5707963267948966 0.0 1.5707963267948966 0.0 0.2743434418098265 0.0 0.0 0.0 0.0 0.0 0.0 0.0 0.0 0.0 0.0 0.0 315.53938154952556 -13.0745436380356 480.9 -1.3446109938081137 0.9685730186534722 -0.9685730186534725 -85.61131919086442 -28.589993484050098 80.97246685017029 0.08689967624331338 -0.26021677565612283 1.679869089397361e-17 
1.32 0.3245011811569402 -1.5707963267948966 -1.5707963267948966 0.0 1.5707963267948966 0.0 0.2743434418098265 0.0 0.0 0.0 0.0 0.0 0.0 0.0 0.0 0.0 0.0 0.0 315.5673168857429 -12.381983424843295 480.9 -1.3454188875306972 0.9669142207910185 -0.9669142207910187 -85.5483652323142 -28.77781970714033 80.97246685017029 0.08747057661744782 -0.26002542623803704 1.679869089397361e-17 
1.328 0.3266959286914188 -1.5707963267948966 -1.5707963267948966 0.0 1.5707963267948966 0.0 0.2743434418098265 0.0 0.0 0.0 0.0 0.0 0.0 0.0 0.0 0.0 0.0 0.0 315.59373216107906 -11.68936356869171 480.9 -1.3462252643705528 0.96525517794959 -0.9652551779495904 -85.4849991945768 -28.965507309924714 80.97246685017028 0.08804105565326661 -0.2598328242996255 1.679869089397361e-17 
1.336 0.3288906762258974 -1.5707963267948966 -1.5707963267948966 0.0 1.5707963267948966 0.0 0.2743434418098265 0.0 0.0 0.0 0.0 0.0 0.0 0.0 0.0 0.0 0.0 0.0 315.61862724829393 -10.996687405871658 480.9 -1.3470301248472198 0.9635958906834521 -0.9635958906834523 -85.42122138288106 -29.153055388328063 80.97246685017029 0.08861111060282087 -0.2596389707686354 1.679869089397361e-17 
1.344 0.33108542376037603 -1.5707963267948966 -1.5707963267948966 0.0 1.5707963267948966 0.0 0.2743434418098265 0.0 0.0 0.0 0.0 0.0 0.0 0.0 0.0 0.0 0.0 0.0 315.64200202746997 -10.30395827294522 480.9 -1.3478334694791898 0.9619363595461559 -0.9619363595461561 -85.35703210443921 -29.340463038947252 80.97246685017028 0.08918073872020443 -0.2594438665788426 1.679869089397361e-17 
1.352 0.33328017129485465 -1.5707963267948966 -1.5707963267948966 0.0 1.5707963267948966 0.0 0.2743434418098265 0.0 0.0 0.0 0.0 0.0 0.0 0.0 0.0 0.0 0.0 0.0 315.6638563860129 -9.611179506729602 480.9 -1.3486352987839034 0.9602765850905395 -0.9602765850905396 -85.29243166844562 -29.527729359055602 80.97246685017029 0.08974993726156719 -0.2592475126700475 1.679869089397361e-17 
1.36 0.3354749188293333 -1.5707963267948966 -1.5707963267948966 0.0 1.5707963267948966 0.0 0.2743434418098265 0.0 0.0 0.0 0.0 0.0 0.0 0.0 0.0 0.0 0.0 0.0 315.6841902186522 -8.918354444281118 480.9 -1.3494356132777543 0.9586165678687315 -0.9586165678687317 -85.22742038607501 -29.714853446607197 80.97246685017029 0.09031870348512827 -0.2590499099880699 1.679869089397361e-17 
1.368 0.33766966636381185 -1.5707963267948966 -1.5707963267948966 0.0 1.5707963267948966 0.0 0.2743434418098265 0.0 0.0 0.0 0.0 0.0 0.0 0.0 0.0 0.0 0.0 0.0 315.70300342744133 -8.22548642287908 480.9 -1.3502344134760862 0.9569563084321495 -0.9569563084321497 -85.16199857048123 -29.901834400241246 80.97246685017029 0.0908870346511892 -0.25885105948474535 1.679869089397361e-17 
1.376 0.3398644138982905 -1.5707963267948966 -1.5707963267948966 0.0 1.5707963267948966 0.0 0.2743434418098265 0.0 0.0 0.0 0.0 0.0 0.0 0.0 0.0 0.0 0.0 0.0 315.72029592175875 -7.532578780009697 480.9 -1.3510316998931982 0.9552958073315062 -0.9552958073315065 -85.0961665367956 -30.088671319286433 80.97246685017028 0.09145492802214722 -0.2586509621179197 1.679869089397361e-17 
1.384 0.3420591614327691 -1.5707963267948966 -1.5707963267948966 0.0 1.5707963267948966 0.0 0.2743434418098265 0.0 0.0 0.0 0.0 0.0 0.0 0.0 0.0 0.0 0.0 0.0 315.7360676183081 -6.839634853350024 480.9 -1.3518274730423416 0.9536350651168082 -0.9536350651168084 -85.02992460212536 -30.275363303765236 80.97246685017029 0.09202238086250832 -0.25844961885144485 1.679869089397361e-17 
1.392 0.3442539089672477 -1.5707963267948966 -1.5707963267948966 0.0 1.5707963267948966 0.0 0.2743434418098265 0.0 0.0 0.0 0.0 0.0 0.0 0.0 0.0 0.0 0.0 0.0 315.75031844111834 -6.146657980751982 480.9 -1.352621733435722 0.9519740823373586 -0.9519740823373588 -84.96327308555232 -30.461909454398263 80.97246685017028 0.0925893904389005 -0.25824703065517424 1.679869089397361e-17 
1.4 0.34644865650172635 -1.5707963267948966 -1.5707963267948966 0.0 1.5707963267948966 0.0 0.2743434418098265 0.0 0.0 0.0 0.0 0.0 0.0 0.0 0.0 0.0 0.0 0.0 315.7630483215445 -5.453651500226091 480.9 -1.3534144815845006 0.9503128595417594 -0.9503128595417596 -84.89621230813114 -30.648308872608606 80.97246685017028 0.09315595402008696 -0.2580431985049579 1.679869089397361e-17 
1.408 0.34864340403620486 -1.5707963267948966 -1.5707963267948966 0.0 1.5707963267948966 0.0 0.2743434418098265 0.0 0.0 0.0 0.0 0.0 0.0 0.0 0.0 0.0 0.0 0.0 315.7742571982679 -4.760618749925587 480.9 -1.3542057179987936 0.9486513972779129 -0.948651397277913 -84.82874259288789 -30.834560660526133 80.97246685017028 0.09372206887697915 -0.25783812338263795 1.679869089397361e-17 
1.416 0.3508381515706835 -1.5707963267948966 -1.5707963267948966 0.0 1.5707963267948966 0.0 0.2743434418098265 0.0 0.0 0.0 0.0 0.0 0.0 0.0 0.0 0.0 0.0 0.0 315.7839450172962 -4.0675630681300845 480.9 -1.3549954431876736 0.9469896960930235 -0.9469896960930237 -84.76086426481841 -31.020663920991876 80.97246685017029 0.0942877322826501 -0.2576318062760438 1.679869089397361e-17 
1.424 0.3530328991051621 -1.5707963267948966 -1.5707963267948966 0.0 1.5707963267948966 0.0 0.2743434418098265 0.0 0.0 0.0 0.0 0.0 0.0 0.0 0.0 0.0 0.0 0.0 315.79211173196416 -3.3744877932298145 480.9 -1.35578365765917 0.9453277565335997 -0.9453277565335998 -84.69257765088685 -31.206617757562267 80.97246685017029 0.09485294151234733 -0.2574242481789874 1.679869089397361e-17 
1.432 0.35522764663964074 -1.5707963267948966 -1.5707963267948966 0.0 1.5707963267948966 0.0 0.2743434418098265 0.0 0.0 0.0 0.0 0.0 0.0 0.0 0.0 0.0 0.0 0.0 315.79875730293327 -2.6813962637093276 480.9 -1.3565703619202707 0.9436655791454558 -0.943665579145456 -84.62388308002399 -31.39242127451352 80.97246685017029 0.09541769384350615 -0.2572154500912583 1.679869089397361e-17 
1.44 0.35742239417411936 -1.5707963267948966 -1.5707963267948966 0.0 1.5707963267948966 0.0 0.2743434418098265 0.0 0.0 0.0 0.0 0.0 0.0 0.0 0.0 0.0 0.0 0.0 315.80388169819247 -1.988291818131497 480.9 -1.3573555564769202 0.9420031644737138 -0.942003164473714 -84.55478088312573 -31.57807357684592 80.97246685017029 0.09598198655576268 -0.25700541301861923 1.679869089397361e-17 
1.448 0.35961714170859793 -1.5707963267948966 -1.5707963267948966 0.0 1.5707963267948966 0.0 0.2743434418098265 0.0 0.0 0.0 0.0 0.0 0.0 0.0 0.0 0.0 0.0 0.0 315.8074848930579 -1.2951777951213543 480.9 -1.3581392418340243 0.940340513062806 -0.9403405130628062 -84.48527139305146 -31.763573770288147 80.97246685017029 0.09654581693096702 -0.2567941379728008 1.679869089397361e-17 
1.456 0.36181188924307656 -1.5707963267948966 -1.5707963267948966 0.0 1.5707963267948966 0.0 0.2743434418098265 0.0 0.0 0.0 0.0 0.0 0.0 0.0 0.0 0.0 0.0 0.0 315.8095668701734 -0.6020575333501021 480.9 -1.358921418495446 0.9386776254564742 -0.9386776254564744 -84.4153549446225 -31.948920961301567 80.97246685017029 0.09710918225319627 -0.256581625971497 1.679869089397361e-17 
1.464 0.3640066367775552 -1.5707963267948966 -1.5707963267948966 0.0 1.5707963267948966 0.0 0.2743434418098265 0.0 0.0 0.0 0.0 0.0 0.0 0.0 0.0 0.0 0.0 0.0 315.8101276195101 0.09106562848096544 480.9 -1.3597020869640102 0.9370145021977755 -0.9370145021977757 -84.3450318746204 -32.13411425708456 80.97246685017029 0.09767207980876767 -0.2563678780383599 1.679869089397361e-17 
1.472 0.3662013843120338 -1.5707963267948966 -1.5707963267948966 0.0 1.5707963267948966 0.0 0.2743434418098265 0.0 0.0 0.0 0.0 0.0 0.0 0.0 0.0 0.0 0.0 0.0 315.8091671383672 0.7841883516566917 480.9 -1.360481247741502 0.9353511438290805 -0.9353511438290807 -84.27430252178542 -32.31915276557679 80.9724668501703 0.09823450688625165 -0.2561528952029952 1.679869089397361e-17 
1.48 0.36839613184651243 -1.5707963267948966 -1.5707963267948966 0.0 1.5707963267948966 0.0 0.2743434418098265 0.0 0.0 0.0 0.0 0.0 0.0 0.0 0.0 0.0 0.0 0.0 315.8066854313709 1.4773072974639163 480.9 -1.3612589013286691 0.9336875508920771 -0.9336875508920773 -84.20316722681481 -32.504035595463534 80.9724668501703 0.0987964607764849 -0.25593667850095686 1.679869089397361e-17 
1.488 0.370590879380991 -1.5707963267948966 -1.5707963267948966 0.0 1.5707963267948966 0.0 0.2743434418098265 0.0 0.0 0.0 0.0 0.0 0.0 0.0 0.0 0.0 0.0 0.0 315.8026825104756 2.1704191272077615 480.9 -1.3620350482252197 0.9320237239277716 -0.9320237239277718 -84.13162633236121 -32.688761856179944 80.97246685017029 0.09935793877258342 -0.2557192289737423 1.679869089397361e-17 
1.496 0.3727856269154696 -1.5707963267948966 -1.5707963267948966 0.0 1.5707963267948966 0.0 0.2743434418098265 0.0 0.0 0.0 0.0 0.0 0.0 0.0 0.0 0.0 0.0 0.0 315.79715839496293 2.8635205022275585 480.9 -1.3628096889298271 0.9303596634764909 -0.9303596634764912 -84.05968018303103 -32.87333065791535 80.97246685017029 0.09991893816995549 -0.2555005476687873 1.679869089397361e-17 
1.504 0.37498037444994825 -1.5707963267948966 -1.5707963267948966 0.0 1.5707963267948966 0.0 0.2743434418098265 0.0 0.0 0.0 0.0 0.0 0.0 0.0 0.0 0.0 0.0 0.0 315.7901131114421 3.5566080839130656 480.9 -1.3635828239401266 0.9286953700778842 -0.9286953700778843 -83.98732912538274 -33.05774111161759 80.97246685017029 0.10047945626631487 -0.25528063563946124 1.679869089397361e-17 
1.512 0.3771751219844269 -1.5707963267948966 -1.5707963267948966 0.0 1.5707963267948966 0.0 0.2743434418098265 0.0 0.0 0.0 0.0 0.0 0.0 0.0 0.0 0.0 0.0 0.0 315.78154669384975 4.24967853372042 480.9 -1.3643544537527184 0.9270308442709241 -0.9270308442709243 -83.91457350792525 -33.241992328997185 80.97246685017029 0.10103949036169357 -0.25505949394506156 1.679869089397361e-17 
1.52 0.3793698695189055 -1.5707963267948966 -1.5707963267948966 0.0 1.5707963267948966 0.0 0.2743434418098265 0.0 0.0 0.0 0.0 0.0 0.0 0.0 0.0 0.0 0.0 0.0 315.77145918344945 4.942728513188339 480.9 -1.3651245788631672 0.925366086593909 -0.9253660865939092 -83.84141368111612 -33.42608342253173 80.97246685017028 0.10159903775845514 -0.2548371236508089 1.679869089397361e-17 
1.528 0.38156461705338407 -1.5707963267948966 -1.5707963267948966 0.0 1.5707963267948966 0.0 0.2743434418098265 0.0 0.0 0.0 0.0 0.0 0.0 0.0 0.0 0.0 0.0 0.0 315.759850628832 5.635754683954062 480.9 -1.3658931997660047 0.9237010975844664 -0.9237010975844666 -83.76784999736006 -33.610013505470114 80.97246685017029 0.10215809576130735 -0.2546135258278421 1.679869089397361e-17 
1.536 0.3837593645878627 -1.5707963267948966 -1.5707963267948966 0.0 1.5707963267948966 0.0 0.2743434418098265 0.0 0.0 0.0 0.0 0.0 0.0 0.0 0.0 0.0 0.0 0.0 315.74672108591466 6.328753707769636 480.9 -1.3666603169547273 0.9220358777795512 -0.9220358777795514 -83.693882811007 -33.7937816918368 80.9724668501703 0.10271666167731552 -0.2543887015532128 1.679869089397361e-17 
1.544 0.3859541121223413 -1.5707963267948966 -1.5707963267948966 0.0 1.5707963267948966 0.0 0.2743434418098265 0.0 0.0 0.0 0.0 0.0 0.0 0.0 0.0 0.0 0.0 0.0 315.7320706179414 7.021722246517758 480.9 -1.3674259309217989 0.9203704277154497 -0.92037042771545 -83.61951247835063 -33.97738709643608 80.97246685017029 0.10327473281591516 -0.25416265190988035 1.679869089397361e-17 
1.552 0.38814885965681994 -1.5707963267948966 -1.5707963267948966 0.0 1.5707963267948966 0.0 0.2743434418098265 0.0 0.0 0.0 0.0 0.0 0.0 0.0 0.0 0.0 0.0 0.0 315.7158992954823 7.71465696222802 480.9 -1.3681900421586508 0.9187047479277822 -0.9187047479277825 -83.54473935762648 -34.160828834856375 80.97246685017029 0.10383230648892516 -0.2539353779867066 1.679869089397361e-17 
1.56 0.39034360719129857 -1.5707963267948966 -1.5707963267948966 0.0 1.5707963267948966 0.0 0.2743434418098265 0.0 0.0 0.0 0.0 0.0 0.0 0.0 0.0 0.0 0.0 0.0 315.69820719643326 8.40755451709295 480.9 -1.3689526511556835 0.9170388389515032 -0.9170388389515034 -83.46956380901031 -34.34410602347445 80.9724668501703 0.10438938001056065 -0.2537068808784508 1.679869089397361e-17 
1.568 0.39253835472577714 -1.5707963267948966 -1.5707963267948966 0.0 1.5707963267948966 0.0 0.2743434418098265 0.0 0.0 0.0 0.0 0.0 0.0 0.0 0.0 0.0 0.0 0.0 315.6789944060155 9.10041157348402 480.9 -1.3697137584022643 0.915372701320903 -0.9153727013209032 -83.39398619461633 -34.5272177794597 80.97246685017028 0.1049459506974459 -0.25347716168576395 1.679869089397361e-17 
1.576 0.39473310226025576 -1.5707963267948966 -1.5707963267948966 0.0 1.5707963267948966 0.0 0.2743434418098265 0.0 0.0 0.0 0.0 0.0 0.0 0.0 0.0 0.0 0.0 0.0 315.65826101677555 9.793224793967827 480.9 -1.3704733643867324 0.9137063355696106 -0.9137063355696108 -83.31800687849548 -34.7101632207784 80.97246685017029 0.10550201586862736 -0.25324622151518383 1.679869089397361e-17 
1.584 0.3969278497947344 -1.5707963267948966 -1.5707963267948966 0.0 1.5707963267948966 0.0 0.2743434418098265 0.0 0.0 0.0 0.0 0.0 0.0 0.0 0.0 0.0 0.0 0.0 315.6360071285843 10.485990841322131 480.9 -1.3712314695963959 0.9120397422305955 -0.9120397422305957 -83.24162622663364 -34.89294146619794 80.9724668501703 0.10605757284558645 -0.25301406147912964 1.679869089397361e-17 
1.592 0.399122597329213 -1.5707963267948966 -1.5707963267948966 0.0 1.5707963267948966 0.0 0.2743434418098265 0.0 0.0 0.0 0.0 0.0 0.0 0.0 0.0 0.0 0.0 0.0 315.6122328486367 11.178706378551905 480.9 -1.3719880745175337 0.9103729218361677 -0.9103729218361679 -83.1648446069499 -35.07555163529109 80.97246685017028 0.10661261895225257 -0.2527806826958964 1.679869089397361e-17 
1.6 0.40131734486369164 -1.5707963267948966 -1.5707963267948966 0.0 1.5707963267948966 0.0 0.2743434418098265 0.0 0.0 0.0 0.0 0.0 0.0 0.0 0.0 0.0 0.0 0.0 315.58693829145176 11.871368068905387 480.9 -1.372743179635397 0.908705874917982 -0.9087058749179823 -83.0876623892948 -35.257992848440225 80.9724668501703 0.1071671515150159 -0.2525460862896499 1.679869089397361e-17 
1.608 0.4035120923981702 -1.5707963267948966 -1.5707963267948966 0.0 1.5707963267948966 0.0 0.2743434418098265 0.0 0.0 0.0 0.0 0.0 0.0 0.0 0.0 0.0 0.0 0.0 315.56012357887084 12.56397257589025 480.9 -1.3734967854342084 0.9070386020070377 -0.9070386020070379 -83.0100799454485 -35.44026422684155 80.97246685017028 0.10772116786274029 -0.252310273390421 1.679869089397361e-17 
1.616 0.40570683993264883 -1.5707963267948966 -1.5707963267948966 0.0 1.5707963267948966 0.0 0.2743434418098265 0.0 0.0 0.0 0.0 0.0 0.0 0.0 0.0 0.0 0.0 0.0 315.5317888400584 13.256516563289583 480.9 -1.3742488923971634 0.9053711036336813 -0.9053711036336816 -82.93209764911902 -35.62236489250938 80.97246685017029 0.10827466532677625 -0.25207324513410034 1.679869089397361e-17 
1.624 0.40790158746712746 -1.5707963267948966 -1.5707963267948966 0.0 1.5707963267948966 0.0 0.2743434418098265 0.0 0.0 0.0 0.0 0.0 0.0 0.0 0.0 0.0 0.0 0.0 315.5019342115004 13.948996695178007 480.9 -1.3749995010064315 0.903703380327608 -0.9037033803276082 -82.85371587594044 -35.80429396828031 80.9724668501703 0.10882764124097363 -0.2518350026624329 1.679869089397361e-17 
1.632 0.4100963350016061 -1.5707963267948966 -1.5707963267948966 0.0 1.5707963267948966 0.0 0.2743434418098265 0.0 0.0 0.0 0.0 0.0 0.0 0.0 0.0 0.0 0.0 0.0 315.4705598370039 14.641409635937716 480.9 -1.3757486117431568 0.9020354326178639 -0.9020354326178641 -82.77493500347106 -35.9860505778175 80.9724668501703 0.10938009294169455 -0.25159554712301235 1.679869089397361e-17 
1.64 0.4122910825360847 -1.5707963267948966 -1.5707963267948966 0.0 1.5707963267948966 0.0 0.2743434418098265 0.0 0.0 0.0 0.0 0.0 0.0 0.0 0.0 0.0 0.0 0.0 315.43766586769675 15.333752050274558 480.9 -1.3764962250874553 0.9003672610328461 -0.9003672610328464 -82.69575541119166 -36.16763384561482 80.9724668501703 0.10993201776782624 -0.25135487966927555 1.679869089397361e-17 
1.648 0.4144858300705633 -1.5707963267948966 -1.5707963267948966 0.0 1.5707963267948966 0.0 0.2743434418098265 0.0 0.0 0.0 0.0 0.0 0.0 0.0 0.0 0.0 0.0 0.0 315.40325246202633 16.026020603234098 480.9 -1.3772423415184216 0.8986988661003074 -0.8986988661003076 -82.61617748050358 -36.349042897001155 80.9724668501703 0.1104834130607938 -0.2511130014604972 1.679869089397361e-17 
1.656 0.4166805776050419 -1.5707963267948966 -1.5707963267948966 0.0 1.5707963267948966 0.0 0.2743434418098265 0.0 0.0 0.0 0.0 0.0 0.0 0.0 0.0 0.0 0.0 0.0 315.36731978575904 16.718211960217698 480.9 -1.3779869615141251 0.8970302483473551 -0.8970302483473553 -82.53620159472695 -36.53027685814455 80.97246685017029 0.11103427616457313 -0.250869913661784 1.679869089397361e-17 
1.664 0.4188753251395205 -1.5707963267948966 -1.5707963267948966 0.0 1.5707963267948966 0.0 0.2743434418098265 0.0 0.0 0.0 0.0 0.0 0.0 0.0 0.0 0.0 0.0 0.0 315.32986801197967 17.410322786998588 480.9 -1.378730085551612 0.8953614083004543 -0.8953614083004545 -82.45582813909877 -36.71133485605647 80.9724668501703 0.11158460442570359 -0.2506256174440692 1.679869089397361e-17 
1.672 0.4210700726739991 -1.5707963267948966 -1.5707963267948966 0.0 1.5707963267948966 0.0 0.2743434418098265 0.0 0.0 0.0 0.0 0.0 0.0 0.0 0.0 0.0 0.0 0.0 315.29089732109003 18.102349749737837 480.9 -1.3794717141069055 0.8936923464854296 -0.8936923464854298 -82.37505750077113 -36.892216018595946 80.97246685017029 0.11213439519330078 -0.25038011398410676 1.679869089397361e-17 
1.68 0.4232648202084777 -1.5707963267948966 -1.5707963267948966 0.0 1.5707963267948966 0.0 0.2743434418098265 0.0 0.0 0.0 0.0 0.0 0.0 0.0 0.0 0.0 0.0 0.0 315.2504079008088 18.794289515000575 480.9 -1.3802118476550078 0.892023063427466 -0.8920230634274661 -82.29389006880935 -37.07291947447384 80.9724668501703 0.11268364581906946 -0.2501334044644661 1.679869089397361e-17 
1.688 0.4254595677429563 -1.5707963267948966 -1.5707963267948966 0.0 1.5707963267948966 0.0 0.2743434418098265 0.0 0.0 0.0 0.0 0.0 0.0 0.0 0.0 0.0 0.0 0.0 315.20839994616995 19.486138749771822 480.9 -1.3809504866698976 0.890353559651111 -0.8903535596511112 -82.21232623418997 -37.253444353256995 80.9724668501703 0.11323235365731611 -0.24988549007352578 1.679869089397361e-17 
1.696 0.4276543152774349 -1.5707963267948966 -1.5707963267948966 0.0 1.5707963267948966 0.0 0.2743434418098265 0.0 0.0 0.0 0.0 0.0 0.0 0.0 0.0 0.0 0.0 0.0 315.16487365952224 20.177894121472857 480.9 -1.381687631624536 0.8886838356802771 -0.8886838356802773 -82.13036638979911 -37.433789785372454 80.97246685017029 0.11378051606496188 -0.2496363720054684 1.679869089397361e-17 
1.704 0.42984906281191354 -1.5707963267948966 -1.5707963267948966 0.0 1.5707963267948966 0.0 0.2743434418098265 0.0 0.0 0.0 0.0 0.0 0.0 0.0 0.0 0.0 0.0 0.0 315.1198292505281 20.8695522979769 480.9 -1.3824232829908605 0.8870138920382423 -0.8870138920382425 -82.04801093043031 -37.61395490211162 80.97246685017029 0.11432813040155511 -0.24938605146027448 1.679869089397361e-17 
1.712 0.43204381034639217 -1.5707963267948966 -1.5707963267948966 0.0 1.5707963267948966 0.0 0.2743434418098265 0.0 0.0 0.0 0.0 0.0 0.0 0.0 0.0 0.0 0.0 0.0 315.07326693616267 21.56110994762548 480.9 -1.3831574412397922 0.8853437292476527 -0.8853437292476529 -81.96526025278281 -37.7939388356345 80.9724668501703 0.11487519402928421 -0.24913452964371674 1.679869089397361e-17 
1.72 0.4342385578808708 -1.5707963267948966 -1.5707963267948966 0.0 1.5707963267948966 0.0 0.2743434418098265 0.0 0.0 0.0 0.0 0.0 0.0 0.0 0.0 0.0 0.0 0.0 315.0251869407125 22.252563739244298 480.9 -1.383890106841232 0.883673347830524 -0.8836733478305242 -81.88211475545955 -37.973740718973794 80.97246685017029 0.11542170431299027 -0.2488818077673543 1.679869089397361e-17 
1.728 0.43643330541534936 -1.5707963267948966 -1.5707963267948966 0.0 1.5707963267948966 0.0 0.2743434418098265 0.0 0.0 0.0 0.0 0.0 0.0 0.0 0.0 0.0 0.0 0.0 314.97558949577495 22.943910342159366 480.9 -1.3846212802640616 0.8820027483082423 -0.8820027483082424 -81.79857483896538 -38.15335968603915 80.97246685017029 0.11596765862017984 -0.248627887048527 1.679869089397361e-17 
1.736 0.438628052949828 -1.5707963267948966 -1.5707963267948966 0.0 1.5707963267948966 0.0 0.2743434418098265 0.0 0.0 0.0 0.0 0.0 0.0 0.0 0.0 0.0 0.0 0.0 314.92447484025666 23.635146426212987 480.9 -1.3853509619761473 0.8803319312015673 -0.8803319312015674 -81.7146409057049 -38.33279487162134 80.97246685017029 0.11651305432103752 -0.24837276871034922 1.679869089397361e-17 
1.744 0.4408228004843066 -1.5707963267948966 -1.5707963267948966 0.0 1.5707963267948966 0.0 0.2743434418098265 0.0 0.0 0.0 0.0 0.0 0.0 0.0 0.0 0.0 0.0 0.0 314.87184322037257 24.326268661779856 480.9 -1.386079152444337 0.8786608970306329 -0.878660897030633 -81.6303133599807 -38.51204541139633 80.97246685017029 0.1170578887884387 -0.2481164539817043 1.679869089397361e-17 
1.752 0.44301754801878523 -1.5707963267948966 -1.5707963267948966 0.0 1.5707963267948966 0.0 0.2743434418098265 0.0 0.0 0.0 0.0 0.0 0.0 0.0 0.0 0.0 0.0 0.0 314.8176948896447 25.01727371978297 480.9 -1.386805852134463 0.8769896463149499 -0.87698964631495 -81.54559260799144 -38.69111044192953 80.97246685017028 0.11760215939796213 -0.24785894409723844 1.679869089397361e-17 
1.76 0.44521229555326386 -1.5707963267948966 -1.5707963267948966 0.0 1.5707963267948966 0.0 0.2743434418098265 0.0 0.0 0.0 0.0 0.0 0.0 0.0 0.0 0.0 0.0 0.0 314.762030108901 25.70815827170992 480.9 -1.3875310615113414 0.8753181795734065 -0.8753181795734066 -81.46047905782974 -38.86998910067997 80.97246685017029 0.11814586352790268 -0.24760024029735483 1.679869089397361e-17 
1.768 0.44740704308774243 -1.5707963267948966 -1.5707963267948966 0.0 1.5707963267948966 0.0 0.2743434418098265 0.0 0.0 0.0 0.0 0.0 0.0 0.0 0.0 0.0 0.0 0.0 314.7048491462739 26.398918989628633 480.9 -1.3882547810387738 0.8736464973242704 -0.8736464973242704 -81.3749731194803 -39.04868052600439 80.97246685017029 0.11868899855928387 -0.24734034382820763 1.679869089397361e-17 
1.776 0.44960179062222105 -1.5707963267948966 -1.5707963267948966 0.0 1.5707963267948966 0.0 0.2743434418098265 0.0 0.0 0.0 0.0 0.0 0.0 0.0 0.0 0.0 0.0 0.0 314.6461522771993 27.089552546203578 480.9 -1.3889770111795472 0.8719746000851913 -0.8719746000851913 -81.28907520481799 -39.22718385716139 80.9724668501703 0.11923156187587053 -0.247079255941696 1.679869089397361e-17 
1.784 0.4517965381566997 -1.5707963267948966 -1.5707963267948966 0.0 1.5707963267948966 0.0 0.2743434418098265 0.0 0.0 0.0 0.0 0.0 0.0 0.0 0.0 0.0 0.0 0.0 314.5859397844149 27.780055614711788 480.9 -1.389697752395435 0.8703024883732012 -0.8703024883732013 -81.20278572760569 -39.40549823431567 80.9724668501703 0.11977355086418139 -0.24681697789545803 1.679869089397361e-17 
1.792 0.4539912856911783 -1.5707963267948966 -1.5707963267948966 0.0 1.5707963267948966 0.0 0.2743434418098265 0.0 0.0 0.0 0.0 0.0 0.0 0.0 0.0 0.0 0.0 0.0 314.52421195795927 28.47042486905878 480.9 -1.390417005147197 0.8686301627047175 -0.8686301627047176 -81.11610510349249 -39.58362279854204 80.97246685017029 0.12031496291350166 -0.2465535109528647 1.679869089397361e-17 
1.8 0.45618603322565693 -1.5707963267948966 -1.5707963267948966 0.0 1.5707963267948966 0.0 0.2743434418098265 0.0 0.0 0.0 0.0 0.0 0.0 0.0 0.0 0.0 0.0 0.0 314.46096909517 29.16065698379465 480.9 -1.3911347698945813 0.8669576235955438 -0.8669576235955441 -81.02903375001158 -39.761556691829654 80.97246685017029 0.12085579541589561 -0.2462888563830139 1.679869089397361e-17 
1.808 0.4583807807601355 -1.5707963267948966 -1.5707963267948966 0.0 1.5707963267948966 0.0 0.2743434418098265 0.0 0.0 0.0 0.0 0.0 0.0 0.0 0.0 0.0 0.0 0.0 314.3962115006826 29.850748634130138 480.9 -1.3918510470963232 0.8652848715608714 -0.8652848715608715 -80.94157208657822 -39.9392990570861 80.97246685017029 0.12139604576621917 -0.24602301546072408 1.679869089397361e-17 
1.816 0.4605755282946141 -1.5707963267948966 -1.5707963267948966 0.0 1.5707963267948966 0.0 0.2743434418098265 0.0 0.0 0.0 0.0 0.0 0.0 0.0 0.0 0.0 0.0 0.0 314.329939486429 30.54069649595254 480.9 -1.392565837210148 0.8636119071152818 -0.8636119071152819 -80.85372053448782 -40.11684903814156 80.97246685017029 0.12193571136213242 -0.24575598946652835 1.679869089397361e-17 
1.824 0.46277027582909275 -1.5707963267948966 -1.5707963267948966 0.0 1.5707963267948966 0.0 0.2743434418098265 0.0 0.0 0.0 0.0 0.0 0.0 0.0 0.0 0.0 0.0 0.0 314.2621533716357 31.2304972458418 480.9 -1.3932791406927685 0.8619387307727474 -0.8619387307727475 -80.76547951691383 -40.2942057797529 80.9724668501703 0.12247478960411218 -0.24548777968666816 1.679869089397361e-17 
1.832 0.4649650233635714 -1.5707963267948966 -1.5707963267948966 0.0 1.5707963267948966 0.0 0.2743434418098265 0.0 0.0 0.0 0.0 0.0 0.0 0.0 0.0 0.0 0.0 0.0 314.19285348282267 31.92014756108645 480.9 -1.3939909579998897 0.8602653430466344 -0.8602653430466345 -80.67684945890568 -40.4713684276078 80.9724668501703 0.12301327789546446 -0.24521838741308716 1.679869089397361e-17 
1.84 0.46715977089805 -1.5707963267948966 -1.5707963267948966 0.0 1.5707963267948966 0.0 0.2743434418098265 0.0 0.0 0.0 0.0 0.0 0.0 0.0 0.0 0.0 0.0 0.0 314.12204015380155 32.60964411969967 480.9 -1.3947012895862052 0.8585917444497028 -0.8585917444497029 -80.58783078738682 -40.64833612832888 80.97246685017029 0.12355117364233703 -0.244947813943425 1.679869089397361e-17 
1.848 0.46935451843252857 -1.5707963267948966 -1.5707963267948966 0.0 1.5707963267948966 0.0 0.2743434418098265 0.0 0.0 0.0 0.0 0.0 0.0 0.0 0.0 0.0 0.0 0.0 314.0497137256742 33.29898360043531 480.9 -1.3954101359054019 0.8569179354941098 -0.8569179354941099 -80.49842393115263 -40.825108029477796 80.97246685017029 0.12408847425373193 -0.24467606058101102 1.679869089397361e-17 
1.856 0.4715492659670072 -1.5707963267948966 -1.5707963267948966 0.0 1.5707963267948966 0.0 0.2743434418098265 0.0 0.0 0.0 0.0 0.0 0.0 0.0 0.0 0.0 0.0 0.0 313.9758745468308 33.9881626828038 480.9 -1.396117497410157 0.8552439166914104 -0.8552439166914105 -80.40862932086829 -41.001683279559366 80.97246685017029 0.12462517714151787 -0.244403128634858 1.679869089397361e-17 
1.864 0.4737440135014858 -1.5707963267948966 -1.5707963267948966 0.0 1.5707963267948966 0.0 0.2743434418098265 0.0 0.0 0.0 0.0 0.0 0.0 0.0 0.0 0.0 0.0 0.0 313.90052297294847 34.677178047088205 480.9 -1.3968233745521403 0.8535696885525592 -0.8535696885525593 -80.3184473890668 -41.17806102802567 80.97246685017029 0.12516127972044278 -0.24412901941965595 1.679869089397361e-17 
1.872 0.47593876103596444 -1.5707963267948966 -1.5707963267948966 0.0 1.5707963267948966 0.0 0.2743434418098265 0.0 0.0 0.0 0.0 0.0 0.0 0.0 0.0 0.0 0.0 0.0 313.82365936698915 35.366026374360246 480.9 -1.397527767782016 0.8518952515879121 -0.8518952515879122 -80.22787857014686 -41.35424042528008 80.97246685017029 0.12569677940814616 -0.2438537342557655 1.679869089397361e-17 
1.88 0.47813350857044307 -1.5707963267948966 -1.5707963267948966 0.0 1.5707963267948966 0.0 0.2743434418098265 0.0 0.0 0.0 0.0 0.0 0.0 0.0 0.0 0.0 0.0 0.0 313.74528409919844 36.0547043464962 480.9 -1.3982306775494406 0.8502206063072285 -0.8502206063072286 -80.13692330037073 -41.5302206226815 80.97246685017029 0.12623167362517174 -0.2435772744692119 1.679869089397361e-17 
1.888 0.48032825610492164 -1.5707963267948966 -1.5707963267948966 0.0 1.5707963267948966 0.0 0.2743434418098265 0.0 0.0 0.0 0.0 0.0 0.0 0.0 0.0 0.0 0.0 0.0 313.6653975471032 36.743208646192926 480.9 -1.3989321043030651 0.8485457532196713 -0.8485457532196714 -80.04558201786219 -41.70600077254825 80.97246685017029 0.12676595979497954 -0.24329964139167837 1.679869089397361e-17 
1.896 0.48252300363940026 -1.5707963267948966 -1.5707963267948966 0.0 1.5707963267948966 0.0 0.2743434418098265 0.0 0.0 0.0 0.0 0.0 0.0 0.0 0.0 0.0 0.0 0.0 313.5840000955103 37.43153595698387 480.9 -1.3996320484905371 0.8468706928338113 -0.8468706928338114 -79.95385516260443 -41.881580028162375 80.97246685017029 0.12729963534395863 -0.2430208363604998 1.679869089397361e-17 
1.904 0.4847177511738789 -1.5707963267948966 -1.5707963267948966 0.0 1.5707963267948966 0.0 0.2743434418098265 0.0 0.0 0.0 0.0 0.0 0.0 0.0 0.0 0.0 0.0 0.0 313.5010921365042 38.11968296325506 480.9 -1.4003305105584973 0.8451954256576257 -0.8451954256576258 -79.86174317643791 -42.05695754377355 80.97246685017028 0.12783269770143937 -0.24274086071865625 1.679869089397361e-17 
1.912 0.4869124987083575 -1.5707963267948966 -1.5707963267948966 0.0 1.5707963267948966 0.0 0.2743434418098265 0.0 0.0 0.0 0.0 0.0 0.0 0.0 0.0 0.0 0.0 0.0 313.41667406944555 38.80764635026096 480.9 -1.401027490952585 0.8435199521985025 -0.8435199521985026 -79.7692465030582 -42.232132474603205 80.97246685017029 0.1283651442997058 -0.24245971581476658 1.679869089397361e-17 
1.92 0.4891072462428361 -1.5707963267948966 -1.5707963267948966 0.0 1.5707963267948966 0.0 0.2743434418098265 0.0 0.0 0.0 0.0 0.0 0.0 0.0 0.0 0.0 0.0 0.0 313.33074630096894 39.49542280414051 480.9 -1.401722990117434 0.8418442729632398 -0.8418442729632399 -79.67636558801391 -42.40710397684863 80.97246685017029 0.128896972574008 -0.2421774030030818 1.679869089397361e-17 
1.928 0.49130199377731465 -1.5707963267948966 -1.5707963267948966 0.0 1.5707963267948966 0.0 0.2743434418098265 0.0 0.0 0.0 0.0 0.0 0.0 0.0 0.0 0.0 0.0 0.0 313.2433092449811 40.18300901193321 480.9 -1.402417008496678 0.8401683884580494 -0.8401683884580495 -79.58310087870449 -42.581871207687 80.97246685017028 0.1294281799625745 -0.24189392364347867 1.679869089397361e-17 
1.936 0.4934967413117933 -1.5707963267948966 -1.5707963267948966 0.0 1.5707963267948966 0.0 0.2743434418098265 0.0 0.0 0.0 0.0 0.0 0.0 0.0 0.0 0.0 0.0 0.0 313.1543633226589 40.87040166159481 480.9 -1.4031095465329466 0.838492299188557 -0.8384922991885572 -79.48945282437809 -42.75643332527947 80.97246685017028 0.12995876390662453 -0.24160927910145313 1.679869089397361e-17 
1.944 0.4956914888462719 -1.5707963267948966 -1.5707963267948966 0.0 1.5707963267948966 0.0 0.2743434418098265 0.0 0.0 0.0 0.0 0.0 0.0 0.0 0.0 0.0 0.0 0.0 313.0639089624474 41.55759744201348 480.9 -1.4038006046678686 0.8368160056598046 -0.8368160056598047 -79.39542187612942 -42.93078948877517 80.9724668501703 0.1304887218503805 -0.24132347074811372 1.679869089397361e-17 
1.952 0.4978862363807505 -1.5707963267948966 -1.5707963267948966 0.0 1.5707963267948966 0.0 0.2743434418098265 0.0 0.0 0.0 0.0 0.0 0.0 0.0 0.0 0.0 0.0 0.0 312.9719466000573 42.24459304302576 480.9 -1.4044901833420733 0.8351395083762521 -0.8351395083762522 -79.30100848689753 -43.104938858315336 80.97246685017029 0.13101805124108007 -0.24103649996017484 1.679869089397361e-17 
1.96 0.5000809839152291 -1.5707963267948966 -1.5707963267948966 0.0 1.5707963267948966 0.0 0.2743434418098265 0.0 0.0 0.0 0.0 0.0 0.0 0.0 0.0 0.0 0.0 0.0 312.8784766784636 42.93138515543228 480.9 -1.4051782829951882 0.8334628078417781 -0.8334628078417782 -79.20621311146368 -43.27888059503727 80.97246685017028 0.1315467495289887 -0.24074836811995043 1.679869089397361e-17 
1.968 0.5022757314497077 -1.5707963267948966 -1.5707963267948966 0.0 1.5707963267948966 0.0 0.2743434418098265 0.0 0.0 0.0 0.0 0.0 0.0 0.0 0.0 0.0 0.0 0.0 312.783499647903 43.617970471013955 480.9 -1.4058649040658422 0.8317859045596827 -0.8317859045596827 -79.11103620644916 -43.45261386107847 80.97246685017029 0.13207481416741176 -0.240459076615347 1.679869089397361e-17 
1.976 0.5044704789841863 -1.5707963267948966 -1.5707963267948966 0.0 1.5707963267948966 0.0 0.2743434418098265 0.0 0.0 0.0 0.0 0.0 0.0 0.0 0.0 0.0 0.0 0.0 312.6870159658717 44.304345682547854 480.9 -1.406550046991665 0.8301087990326881 -0.8301087990326882 -79.01547823031295 -43.62613781958056 80.97246685017029 0.1326022426127069 -0.240168626839857 1.679869089397361e-17 
1.984 0.506665226518665 -1.5707963267948966 -1.5707963267948966 0.0 1.5707963267948966 0.0 0.2743434418098265 0.0 0.0 0.0 0.0 0.0 0.0 0.0 0.0 0.0 0.0 0.0 312.58902609712334 44.990507483823066 480.9 -1.407233712209288 0.8284314917629411 -0.8284314917629412 -78.91953964334971 -43.799451634693455 80.9724668501703 0.13312903232429624 -0.2398770201925523 1.679869089397361e-17 
1.992 0.5088599740531435 -1.5707963267948966 -1.5707963267948966 0.0 1.5707963267948966 0.0 0.2743434418098265 0.0 0.0 0.0 0.0 0.0 0.0 0.0 0.0 0.0 0.0 0.0 312.4895305136668 45.676452569656604 480.9 -1.4079159001543449 0.8267539832520141 -0.8267539832520142 -78.82322090768746 -43.97255447157924 80.97246685017029 0.13365518076467856 -0.23958425807807734 1.679869089397361e-17 
2.0 0.5110547215876222 -1.5707963267948966 -1.5707963267948966 0.0 1.5707963267948966 0.0 0.2743434418098265 0.0 0.0 0.0 0.0 0.0 0.0 0.0 0.0 0.0 0.0 0.0 312.38852969476386 46.36217763590947 480.9 -1.4085966112614727 0.8250762740009066 -0.8250762740009067 -78.72652248728528 -44.145445496416315 80.97246685017029 0.1341806853994417 -0.23929034190664217 1.679869089397361e-17 
2.008 0.5132494691221008 -1.5707963267948966 -1.5707963267948966 0.0 1.5707963267948966 0.0 0.2743434418098265 0.0 0.0 0.0 0.0 0.0 0.0 0.0 0.0 0.0 0.0 0.0 312.2860241269268 47.047679379502405 480.9 -1.409275845964311 0.8233983645100472 -0.8233983645100473 -78.62944484793128 -44.318123876403334 80.97246685017028 0.13470554369727458 -0.23899527309401605 1.679869089397361e-17 
2.016 0.5154442166565794 -1.5707963267948966 -1.5707963267948966 0.0 1.5707963267948966 0.0 0.2743434418098265 0.0 0.0 0.0 0.0 0.0 0.0 0.0 0.0 0.0 0.0 0.0 312.18201430391633 47.7329544984319 480.9 -1.4099536046955043 0.8217202552792952 -0.8217202552792953 -78.53198845724015 -44.49058877976325 80.97246685017029 0.13522975312997948 -0.23869905306152023 1.679869089397361e-17 
2.024 0.517638964191058 -1.5707963267948966 -1.5707963267948966 0.0 1.5707963267948966 0.0 0.2743434418098265 0.0 0.0 0.0 0.0 0.0 0.0 0.0 0.0 0.0 0.0 0.0 312.07650072673874 48.41799969178616 480.9 -1.4106298878867012 0.8200419468079417 -0.8200419468079418 -78.43415378465104 -44.662839375747325 80.97246685017029 0.1357533111724843 -0.23840168323602146 1.679869089397361e-17 
2.032 0.5198337117255366 -1.5707963267948966 -1.5707963267948966 0.0 1.5707963267948966 0.0 0.2743434418098265 0.0 0.0 0.0 0.0 0.0 0.0 0.0 0.0 0.0 0.0 0.0 311.9694839036441 49.10281165976074 480.9 -1.411304695968556 0.8183634395947125 -0.8183634395947126 -78.33594130142525 -44.8348748346391 80.97246685017029 0.13627621530285444 -0.23810316504992476 1.679869089397361e-17 
2.04 0.5220284592600153 -1.5707963267948966 -1.5707963267948966 0.0 1.5707963267948966 0.0 0.2743434418098265 0.0 0.0 0.0 0.0 0.0 0.0 0.0 0.0 0.0 0.0 0.0 311.8609643501232 49.787387103674845 480.9 -1.4119780293707287 0.8166847341377669 -0.816684734137767 -78.2373514806439 -45.00669432775845 80.97246685017029 0.13679846300230536 -0.23780349994116687 1.679869089397361e-17 
2.048 0.5242232067944939 -1.5707963267948966 -1.5707963267948966 0.0 1.5707963267948966 0.0 0.2743434418098265 0.0 0.0 0.0 0.0 0.0 0.0 0.0 0.0 0.0 0.0 0.0 311.75094258890556 50.47172272598682 480.9 -1.412649888521886 0.8150058309347032 -0.8150058309347034 -78.13838479720577 -45.1782970274655 80.97246685017029 0.1373200517552143 -0.23750268935320906 1.679869089397361e-17 
2.056 0.5264179543289724 -1.5707963267948966 -1.5707963267948966 0.0 1.5707963267948966 0.0 0.2743434418098265 0.0 0.0 0.0 0.0 0.0 0.0 0.0 0.0 0.0 0.0 0.0 311.6394191499566 51.15581523031027 480.9 -1.4133202738497015 0.8133267304825568 -0.8133267304825569 -78.03904172782498 -45.34968210716465 80.97246685017029 0.1378409790491327 -0.2372007347350303 1.679869089397361e-17 
2.064 0.5286127018634511 -1.5707963267948966 -1.5707963267948966 0.0 1.5707963267948966 0.0 0.2743434418098265 0.0 0.0 0.0 0.0 0.0 0.0 0.0 0.0 0.0 0.0 0.0 311.52639457047525 51.83966132142992 480.9 -1.4139891857808564 0.8116474332778034 -0.8116474332778035 -77.93932275102857 -45.5208487413086 80.97246685017028 0.1383612423747982 -0.23689763754112028 1.679869089397361e-17 
2.072 0.5308074493979297 -1.5707963267948966 -1.5707963267948966 0.0 1.5707963267948966 0.0 0.2743434418098265 0.0 0.0 0.0 0.0 0.0 0.0 0.0 0.0 0.0 0.0 0.0 311.41186939489126 52.52325770531734 480.9 -1.41465662474104 0.809967939816361 -0.8099679398163611 -77.83922834715442 -45.691796105402226 80.97246685017029 0.1388808392261466 -0.23659339923147238 1.679869089397361e-17 
2.08 0.5330021969324084 -1.5707963267948966 -1.5707963267948966 0.0 1.5707963267948966 0.0 0.2743434418098265 0.0 0.0 0.0 0.0 0.0 0.0 0.0 0.0 0.0 0.0 0.0 311.2958441748626 53.20660108914711 480.9 -1.4153225911549516 0.8082882505935901 -0.8082882505935902 -77.73875899834869 -45.86252337600668 80.97246685017029 0.13939976710032426 -0.23628802127157655 1.679869089397361e-17 
2.088 0.5351969444668869 -1.5707963267948966 -1.5707963267948966 0.0 1.5707963267948966 0.0 0.2743434418098265 0.0 0.0 0.0 0.0 0.0 0.0 0.0 0.0 0.0 0.0 0.0 311.178319469273 53.88968818131221 480.9 -1.4159870854462981 0.8066083661042965 -0.8066083661042966 -77.63791518856371 -46.03302973074319 80.97246685017029 0.1399180234976997 -0.23598150513241248 1.679869089397361e-17 
2.096 0.5373916920013655 -1.5707963267948966 -1.5707963267948966 0.0 1.5707963267948966 0.0 0.2743434418098265 0.0 0.0 0.0 0.0 0.0 0.0 0.0 0.0 0.0 0.0 0.0 311.0592958442288 54.57251569144041 480.9 -1.4166501080377973 0.8049282868427317 -0.8049282868427318 -77.53669740355551 -46.20331434829721 80.97246685017029 0.14043560592187604 -0.23567385229044227 1.679869089397361e-17 
2.104 0.5395864395358442 -1.5707963267948966 -1.5707963267948966 0.0 1.5707963267948966 0.0 0.2743434418098265 0.0 0.0 0.0 0.0 0.0 0.0 0.0 0.0 0.0 0.0 0.0 310.9387738730568 55.255080330409776 480.9 -1.4173116593511788 0.803248013302596 -0.8032480133025961 -77.43510613088152 -46.37337640842224 80.97246685017029 0.1409525118797029 -0.23536506422760342 1.679869089397361e-17 
2.112 0.5417811870703227 -1.5707963267948966 -1.5707963267948966 0.0 1.5707963267948966 0.0 0.2743434418098265 0.0 0.0 0.0 0.0 0.0 0.0 0.0 0.0 0.0 0.0 0.0 310.816754136301 55.93737881036451 480.9 -1.4179717398071818 0.8015675459770388 -0.8015675459770389 -77.33314185989828 -46.543215091943814 80.97246685017029 0.1414687388812882 -0.23505514243130177 1.679869089397361e-17 
2.12 0.5439759346048013 -1.5707963267948966 -1.5707963267948966 0.0 1.5707963267948966 0.0 0.2743434418098265 0.0 0.0 0.0 0.0 0.0 0.0 0.0 0.0 0.0 0.0 0.0 310.69323722172004 56.61940784473104 480.9 -1.418630349825558 0.7998868853586607 -0.7998868853586607 -77.23080508175897 -46.71282958076346 80.97246685017029 0.14198428444001054 -0.23474408839440417 1.679869089397361e-17 
