Fleaurent/UniversalRobot/csv/robot_movej_45_45_135.csv
timestamp target_q_0 target_q_1 target_q_2 target_q_3 target_q_4 target_q_5 target_qd_0 target_qd_1 target_qd_2 target_qd_3 target_qd_4 target_qd_5 target_qdd_0 target_qdd_1 target_qdd_2 target_qdd_3 target_qdd_4 target_qdd_5 target_current_0 target_current_1 target_current_2 target_current_3 target_current_4 target_current_5 target_moment_0 target_moment_1 target_moment_2 target_moment_3 target_moment_4 target_moment_5 actual_q_0 actual_q_1 actual_q_2 actual_q_3 actual_q_4 actual_q_5 actual_qd_0 actual_qd_1 actual_qd_2 actual_qd_3 actual_qd_4 actual_qd_5 actual_current_0 actual_current_1 actual_current_2 actual_current_3 actual_current_4 actual_current_5 joint_control_output_0 joint_control_output_1 joint_control_output_2 joint_control_output_3 joint_control_output_4 joint_control_output_5 actual_TCP_pose_0 actual_TCP_pose_1 actual_TCP_pose_2 actual_TCP_pose_3 actual_TCP_pose_4 actual_TCP_pose_5 actual_TCP_speed_0 actual_TCP_speed_1 actual_TCP_speed_2 actual_TCP_speed_3 actual_TCP_speed_4 actual_TCP_speed_5 actual_TCP_force_0 actual_TCP_force_1 actual_TCP_force_2 actual_TCP_force_3 actual_TCP_force_4 actual_TCP_force_5 target_TCP_pose_0 target_TCP_pose_1 target_TCP_pose_2 target_TCP_pose_3 target_TCP_pose_4 target_TCP_pose_5 target_TCP_speed_0 target_TCP_speed_1 target_TCP_speed_2 target_TCP_speed_3 target_TCP_speed_4 target_TCP_speed_5
221.552 5.2475385148298415e-17 -1.5707963267948966 -1.5707963267948966 0.0 1.5707963267948966 0.0 0.0 0.0 0.0 0.0 0.0 0.0 0.0 0.0 0.0 0.0 0.0 0.0 -1.6018983243994446e-26 0.4870342307692309 0.6867077006507593 0.06409467546754684 -8.567713817370151e-28 0.0 -2.1032924999364705e-25 6.394759450000002 6.3947594500000005 0.2913103000000004 -3.894025929994733e-27 0.0 5.2475385148298415e-17 -1.570796314870016 -1.570796314870016 0.0 1.5707963705062866 0.0 0.0 0.0 0.0 0.0 0.0 0.0 -1.6018983942199055e-26 0.48703423142433167 0.6867076754570007 0.064094677567482 -8.567714098795418e-28 0.0 -1.6018983942199055e-26 0.48703423142433167 0.6867076754570007 0.064094677567482 -8.567714098795418e-28 0.0 0.2951499950589256 -0.11234999647001061 0.4809000069994156 -1.2091995794109558 1.2091995265551612 -1.2091995551462715 0.0 0.0 0.0 0.0 0.0 0.0 9.981973636990763e-07 -5.258967243140429e-07 1.1449168978424662e-06 -1.810306051294093e-15 1.8116749963477894e-08 4.3070945294829353e-08 0.2951500000000001 -0.11235000004997345 0.4808999999601586 -1.2091995763071837 1.2091995763071837 -1.209199576059172 0.0 0.0 0.0 0.0 0.0 0.0
221.56 5.2475385148298415e-17 -1.5707963267948966 -1.5707963267948966 0.0 1.5707963267948966 0.0 0.0 0.0 0.0 0.0 0.0 0.0 0.0 0.0 0.0 0.0 0.0 0.0 -1.6018983243994446e-26 0.4870342307692309 0.6867077006507593 0.06409467546754684 -8.567713817370151e-28 0.0 -2.1032924999364705e-25 6.394759450000002 6.3947594500000005 0.2913103000000004 -3.894025929994733e-27 0.0 5.2475385148298415e-17 -1.570796314870016 -1.570796314870016 0.0 1.5707963705062866 0.0 0.0 0.0 0.0 0.0 0.0 0.0 -1.6018983942199055e-26 0.48703423142433167 0.6867076754570007 0.064094677567482 -8.567714098795418e-28 0.0 -1.6018983942199055e-26 0.48703423142433167 0.6867076754570007 0.064094677567482 -8.567714098795418e-28 0.0 0.2951499950589256 -0.11234999647001061 0.4809000069994156 -1.2091995794109558 1.2091995265551612 -1.2091995551462715 0.0 0.0 0.0 0.0 0.0 0.0 9.981973636990763e-07 -5.258967243140429e-07 1.1449168978424662e-06 -1.810306051294093e-15 1.8116749963477894e-08 4.3070945294829353e-08 0.2951500000000001 -0.11235000004997345 0.4808999999601586 -1.2091995763071837 1.2091995763071837 -1.209199576059172 0.0 0.0 0.0 0.0 0.0 0.0
221.56799999999998 5.2475385148298415e-17 -1.5707963267948966 -1.5707963267948966 0.0 1.5707963267948966 0.0 0.0 0.0 0.0 0.0 0.0 0.0 0.0 0.0 0.0 0.0 0.0 0.0 -1.6018983243994446e-26 0.4870342307692309 0.6867077006507593 0.06409467546754684 -8.567713817370151e-28 0.0 -2.1032924999364705e-25 6.394759450000002 6.3947594500000005 0.2913103000000004 -3.894025929994733e-27 0.0 5.2475385148298415e-17 -1.570796314870016 -1.570796314870016 0.0 1.5707963705062866 0.0 0.0 0.0 0.0 0.0 0.0 0.0 -1.6018983942199055e-26 0.48703423142433167 0.6867076754570007 0.064094677567482 -8.567714098795418e-28 0.0 -1.6018983942199055e-26 0.48703423142433167 0.6867076754570007 0.064094677567482 -8.567714098795418e-28 0.0 0.2951499950589256 -0.11234999647001061 0.4809000069994156 -1.2091995794109558 1.2091995265551612 -1.2091995551462715 0.0 0.0 0.0 0.0 0.0 0.0 9.981973636990763e-07 -5.258967243140429e-07 1.1449168978424662e-06 -1.810306051294093e-15 1.8116749963477894e-08 4.3070945294829353e-08 0.2951500000000001 -0.11235000004997345 0.4808999999601586 -1.2091995763071837 1.2091995763071837 -1.209199576059172 0.0 0.0 0.0 0.0 0.0 0.0
221.576 5.2475385148298415e-17 -1.5707963267948966 -1.5707963267948966 0.0 1.5707963267948966 0.0 0.0 0.0 0.0 0.0 0.0 0.0 0.0 0.0 0.0 0.0 0.0 0.0 -1.6018983243994446e-26 0.4870342307692309 0.6867077006507593 0.06409467546754684 -8.567713817370151e-28 0.0 -2.1032924999364705e-25 6.394759450000002 6.3947594500000005 0.2913103000000004 -3.894025929994733e-27 0.0 5.2475385148298415e-17 -1.570796314870016 -1.570796314870016 0.0 1.5707963705062866 0.0 0.0 0.0 0.0 0.0 0.0 0.0 -1.6018983942199055e-26 0.48703423142433167 0.6867076754570007 0.064094677567482 -8.567714098795418e-28 0.0 -1.6018983942199055e-26 0.48703423142433167 0.6867076754570007 0.064094677567482 -8.567714098795418e-28 0.0 0.2951499950589256 -0.11234999647001061 0.4809000069994156 -1.2091995794109558 1.2091995265551612 -1.2091995551462715 0.0 0.0 0.0 0.0 0.0 0.0 9.981973636990763e-07 -5.258967243140429e-07 1.1449168978424662e-06 -1.810306051294093e-15 1.8116749963477894e-08 4.3070945294829353e-08 0.2951500000000001 -0.11235000004997345 0.4808999999601586 -1.2091995763071837 1.2091995763071837 -1.209199576059172 0.0 0.0 0.0 0.0 0.0 0.0
221.584 5.2475385148298415e-17 -1.5707963267948966 -1.5707963267948966 0.0 1.5707963267948966 0.0 0.0 0.0 0.0 0.0 0.0 0.0 0.0 0.0 0.0 0.0 0.0 0.0 -1.6018983243994446e-26 0.4870342307692309 0.6867077006507593 0.06409467546754684 -8.567713817370151e-28 0.0 -2.1032924999364705e-25 6.394759450000002 6.3947594500000005 0.2913103000000004 -3.894025929994733e-27 0.0 5.2475385148298415e-17 -1.570796314870016 -1.570796314870016 0.0 1.5707963705062866 0.0 0.0 0.0 0.0 0.0 0.0 0.0 -1.6018983942199055e-26 0.48703423142433167 0.6867076754570007 0.064094677567482 -8.567714098795418e-28 0.0 -1.6018983942199055e-26 0.48703423142433167 0.6867076754570007 0.064094677567482 -8.567714098795418e-28 0.0 0.2951499950589256 -0.11234999647001061 0.4809000069994156 -1.2091995794109558 1.2091995265551612 -1.2091995551462715 0.0 0.0 0.0 0.0 0.0 0.0 9.981973636990763e-07 -5.258967243140429e-07 1.1449168978424662e-06 -1.810306051294093e-15 1.8116749963477894e-08 4.3070945294829353e-08 0.2951500000000001 -0.11235000004997345 0.4808999999601586 -1.2091995763071837 1.2091995763071837 -1.209199576059172 0.0 0.0 0.0 0.0 0.0 0.0
221.59199999999998 5.2475385148298415e-17 -1.5707963267948966 -1.5707963267948966 0.0 1.5707963267948966 0.0 0.0 0.0 0.0 0.0 0.0 0.0 0.0 0.0 0.0 0.0 0.0 0.0 -1.6018983243994446e-26 0.4870342307692309 0.6867077006507593 0.06409467546754684 -8.567713817370151e-28 0.0 -2.1032924999364705e-25 6.394759450000002 6.3947594500000005 0.2913103000000004 -3.894025929994733e-27 0.0 5.2475385148298415e-17 -1.570796314870016 -1.570796314870016 0.0 1.5707963705062866 0.0 0.0 0.0 0.0 0.0 0.0 0.0 -1.6018983942199055e-26 0.48703423142433167 0.6867076754570007 0.064094677567482 -8.567714098795418e-28 0.0 -1.6018983942199055e-26 0.48703423142433167 0.6867076754570007 0.064094677567482 -8.567714098795418e-28 0.0 0.2951499950589256 -0.11234999647001061 0.4809000069994156 -1.2091995794109558 1.2091995265551612 -1.2091995551462715 0.0 0.0 0.0 0.0 0.0 0.0 9.981973636990763e-07 -5.258967243140429e-07 1.1449168978424662e-06 -1.810306051294093e-15 1.8116749963477894e-08 4.3070945294829353e-08 0.2951500000000001 -0.11235000004997345 0.4808999999601586 -1.2091995763071837 1.2091995763071837 -1.209199576059172 0.0 0.0 0.0 0.0 0.0 0.0
221.6 5.2475385148298415e-17 -1.5707963267948966 -1.5707963267948966 0.0 1.5707963267948966 0.0 0.0 0.0 0.0 0.0 0.0 0.0 0.0 0.0 0.0 0.0 0.0 0.0 -1.6018983243994446e-26 0.4870342307692309 0.6867077006507593 0.06409467546754684 -8.567713817370151e-28 0.0 -2.1032924999364705e-25 6.394759450000002 6.3947594500000005 0.2913103000000004 -3.894025929994733e-27 0.0 5.2475385148298415e-17 -1.570796314870016 -1.570796314870016 0.0 1.5707963705062866 0.0 0.0 0.0 0.0 0.0 0.0 0.0 -1.6018983942199055e-26 0.48703423142433167 0.6867076754570007 0.064094677567482 -8.567714098795418e-28 0.0 -1.6018983942199055e-26 0.48703423142433167 0.6867076754570007 0.064094677567482 -8.567714098795418e-28 0.0 0.2951499950589256 -0.11234999647001061 0.4809000069994156 -1.2091995794109558 1.2091995265551612 -1.2091995551462715 0.0 0.0 0.0 0.0 0.0 0.0 9.981973636990763e-07 -5.258967243140429e-07 1.1449168978424662e-06 -1.810306051294093e-15 1.8116749963477894e-08 4.3070945294829353e-08 0.2951500000000001 -0.11235000004997345 0.4808999999601586 -1.2091995763071837 1.2091995763071837 -1.209199576059172 0.0 0.0 0.0 0.0 0.0 0.0
221.608 5.2475385148298415e-17 -1.5707963267948966 -1.5707963267948966 0.0 1.5707963267948966 0.0 0.0 0.0 0.0 0.0 0.0 0.0 0.0 0.0 0.0 0.0 0.0 0.0 -1.6018983243994446e-26 0.4870342307692309 0.6867077006507593 0.06409467546754684 -8.567713817370151e-28 0.0 -2.1032924999364705e-25 6.394759450000002 6.3947594500000005 0.2913103000000004 -3.894025929994733e-27 0.0 5.2475385148298415e-17 -1.570796314870016 -1.570796314870016 0.0 1.5707963705062866 0.0 0.0 0.0 0.0 0.0 0.0 0.0 -1.6018983942199055e-26 0.48703423142433167 0.6867076754570007 0.064094677567482 -8.567714098795418e-28 0.0 -1.6018983942199055e-26 0.48703423142433167 0.6867076754570007 0.064094677567482 -8.567714098795418e-28 0.0 0.2951499950589256 -0.11234999647001061 0.4809000069994156 -1.2091995794109558 1.2091995265551612 -1.2091995551462715 0.0 0.0 0.0 0.0 0.0 0.0 9.981973636990763e-07 -5.258967243140429e-07 1.1449168978424662e-06 -1.810306051294093e-15 1.8116749963477894e-08 4.3070945294829353e-08 0.2951500000000001 -0.11235000004997345 0.4808999999601586 -1.2091995763071837 1.2091995763071837 -1.209199576059172 0.0 0.0 0.0 0.0 0.0 0.0
221.61599999999999 5.2475385148298415e-17 -1.5707963267948966 -1.5707963267948966 0.0 1.5707963267948966 0.0 0.0 0.0 0.0 0.0 0.0 0.0 0.0 0.0 0.0 0.0 0.0 0.0 -1.6018983243994446e-26 0.4870342307692309 0.6867077006507593 0.06409467546754684 -8.567713817370151e-28 0.0 -2.1032924999364705e-25 6.394759450000002 6.3947594500000005 0.2913103000000004 -3.894025929994733e-27 0.0 5.2475385148298415e-17 -1.570796314870016 -1.570796314870016 0.0 1.5707963705062866 0.0 0.0 0.0 0.0 0.0 0.0 0.0 -1.6018983942199055e-26 0.48703423142433167 0.6867076754570007 0.064094677567482 -8.567714098795418e-28 0.0 -1.6018983942199055e-26 0.48703423142433167 0.6867076754570007 0.064094677567482 -8.567714098795418e-28 0.0 0.2951499950589256 -0.11234999647001061 0.4809000069994156 -1.2091995794109558 1.2091995265551612 -1.2091995551462715 0.0 0.0 0.0 0.0 0.0 0.0 9.981973636990763e-07 -5.258967243140429e-07 1.1449168978424662e-06 -1.810306051294093e-15 1.8116749963477894e-08 4.3070945294829353e-08 0.2951500000000001 -0.11235000004997345 0.4808999999601586 -1.2091995763071837 1.2091995763071837 -1.209199576059172 0.0 0.0 0.0 0.0 0.0 0.0
221.624 5.2475385148298415e-17 -1.5707963267948966 -1.5707963267948966 0.0 1.5707963267948966 0.0 0.0 0.0 0.0 0.0 0.0 0.0 0.0 0.0 0.0 0.0 0.0 0.0 -1.6018983243994446e-26 0.4870342307692309 0.6867077006507593 0.06409467546754684 -8.567713817370151e-28 0.0 -2.1032924999364705e-25 6.394759450000002 6.3947594500000005 0.2913103000000004 -3.894025929994733e-27 0.0 5.2475385148298415e-17 -1.570796314870016 -1.570796314870016 0.0 1.5707963705062866 0.0 0.0 0.0 0.0 0.0 0.0 0.0 -1.6018983942199055e-26 0.48703423142433167 0.6867076754570007 0.064094677567482 -8.567714098795418e-28 0.0 -1.6018983942199055e-26 0.48703423142433167 0.6867076754570007 0.064094677567482 -8.567714098795418e-28 0.0 0.2951499950589256 -0.11234999647001061 0.4809000069994156 -1.2091995794109558 1.2091995265551612 -1.2091995551462715 0.0 0.0 0.0 0.0 0.0 0.0 9.981973636990763e-07 -5.258967243140429e-07 1.1449168978424662e-06 -1.810306051294093e-15 1.8116749963477894e-08 4.3070945294829353e-08 0.2951500000000001 -0.11235000004997345 0.4808999999601586 -1.2091995763071837 1.2091995763071837 -1.209199576059172 0.0 0.0 0.0 0.0 0.0 0.0
221.63199999999998 5.2475385148298415e-17 -1.5707963267948966 -1.5707963267948966 0.0 1.5707963267948966 0.0 0.0 0.0 0.0 0.0 0.0 0.0 0.0 0.0 0.0 0.0 0.0 0.0 -1.6018983243994446e-26 0.4870342307692309 0.6867077006507593 0.06409467546754684 -8.567713817370151e-28 0.0 -2.1032924999364705e-25 6.394759450000002 6.3947594500000005 0.2913103000000004 -3.894025929994733e-27 0.0 5.2475385148298415e-17 -1.570796314870016 -1.570796314870016 0.0 1.5707963705062866 0.0 0.0 0.0 0.0 0.0 0.0 0.0 -1.6018983942199055e-26 0.48703423142433167 0.6867076754570007 0.064094677567482 -8.567714098795418e-28 0.0 -1.6018983942199055e-26 0.48703423142433167 0.6867076754570007 0.064094677567482 -8.567714098795418e-28 0.0 0.2951499950589256 -0.11234999647001061 0.4809000069994156 -1.2091995794109558 1.2091995265551612 -1.2091995551462715 0.0 0.0 0.0 0.0 0.0 0.0 9.981973636990763e-07 -5.258967243140429e-07 1.1449168978424662e-06 -1.810306051294093e-15 1.8116749963477894e-08 4.3070945294829353e-08 0.2951500000000001 -0.11235000004997345 0.4808999999601586 -1.2091995763071837 1.2091995763071837 -1.209199576059172 0.0 0.0 0.0 0.0 0.0 0.0
221.64 5.2475385148298415e-17 -1.5707963267948966 -1.5707963267948966 0.0 1.5707963267948966 0.0 0.0 0.0 0.0 0.0 0.0 0.0 0.0 0.0 0.0 0.0 0.0 0.0 -1.6018983243994446e-26 0.4870342307692309 0.6867077006507593 0.06409467546754684 -8.567713817370151e-28 0.0 -2.1032924999364705e-25 6.394759450000002 6.3947594500000005 0.2913103000000004 -3.894025929994733e-27 0.0 5.2475385148298415e-17 -1.570796314870016 -1.570796314870016 0.0 1.5707963705062866 0.0 0.0 0.0 0.0 0.0 0.0 0.0 -1.6018983942199055e-26 0.48703423142433167 0.6867076754570007 0.064094677567482 -8.567714098795418e-28 0.0 -1.6018983942199055e-26 0.48703423142433167 0.6867076754570007 0.064094677567482 -8.567714098795418e-28 0.0 0.2951499950589256 -0.11234999647001061 0.4809000069994156 -1.2091995794109558 1.2091995265551612 -1.2091995551462715 0.0 0.0 0.0 0.0 0.0 0.0 9.981973636990763e-07 -5.258967243140429e-07 1.1449168978424662e-06 -1.810306051294093e-15 1.8116749963477894e-08 4.3070945294829353e-08 0.2951500000000001 -0.11235000004997345 0.4808999999601586 -1.2091995763071837 1.2091995763071837 -1.209199576059172 0.0 0.0 0.0 0.0 0.0 0.0
221.648 5.2475385148298415e-17 -1.5707963267948966 -1.5707963267948966 0.0 1.5707963267948966 0.0 0.0 0.0 0.0 0.0 0.0 0.0 0.0 0.0 0.0 0.0 0.0 0.0 -1.6018983243994446e-26 0.4870342307692309 0.6867077006507593 0.06409467546754684 -8.567713817370151e-28 0.0 -2.1032924999364705e-25 6.394759450000002 6.3947594500000005 0.2913103000000004 -3.894025929994733e-27 0.0 5.2475385148298415e-17 -1.570796314870016 -1.570796314870016 0.0 1.5707963705062866 0.0 0.0 0.0 0.0 0.0 0.0 0.0 -1.6018983942199055e-26 0.48703423142433167 0.6867076754570007 0.064094677567482 -8.567714098795418e-28 0.0 -1.6018983942199055e-26 0.48703423142433167 0.6867076754570007 0.064094677567482 -8.567714098795418e-28 0.0 0.2951499950589256 -0.11234999647001061 0.4809000069994156 -1.2091995794109558 1.2091995265551612 -1.2091995551462715 0.0 0.0 0.0 0.0 0.0 0.0 9.981973636990763e-07 -5.258967243140429e-07 1.1449168978424662e-06 -1.810306051294093e-15 1.8116749963477894e-08 4.3070945294829353e-08 0.2951500000000001 -0.11235000004997345 0.4808999999601586 -1.2091995763071837 1.2091995763071837 -1.209199576059172 0.0 0.0 0.0 0.0 0.0 0.0
221.65599999999998 5.2475385148298415e-17 -1.5707963267948966 -1.5707963267948966 0.0 1.5707963267948966 0.0 0.0 0.0 0.0 0.0 0.0 0.0 0.0 0.0 0.0 0.0 0.0 0.0 -1.6018983243994446e-26 0.4870342307692309 0.6867077006507593 0.06409467546754684 -8.567713817370151e-28 0.0 -2.1032924999364705e-25 6.394759450000002 6.3947594500000005 0.2913103000000004 -3.894025929994733e-27 0.0 5.2475385148298415e-17 -1.570796314870016 -1.570796314870016 0.0 1.5707963705062866 0.0 0.0 0.0 0.0 0.0 0.0 0.0 -1.6018983942199055e-26 0.48703423142433167 0.6867076754570007 0.064094677567482 -8.567714098795418e-28 0.0 -1.6018983942199055e-26 0.48703423142433167 0.6867076754570007 0.064094677567482 -8.567714098795418e-28 0.0 0.2951499950589256 -0.11234999647001061 0.4809000069994156 -1.2091995794109558 1.2091995265551612 -1.2091995551462715 0.0 0.0 0.0 0.0 0.0 0.0 9.981973636990763e-07 -5.258967243140429e-07 1.1449168978424662e-06 -1.810306051294093e-15 1.8116749963477894e-08 4.3070945294829353e-08 0.2951500000000001 -0.11235000004997345 0.4808999999601586 -1.2091995763071837 1.2091995763071837 -1.209199576059172 0.0 0.0 0.0 0.0 0.0 0.0
221.664 5.2475385148298415e-17 -1.5707963267948966 -1.5707963267948966 0.0 1.5707963267948966 0.0 0.0 0.0 0.0 0.0 0.0 0.0 0.0 0.0 0.0 0.0 0.0 0.0 -1.6018983243994446e-26 0.4870342307692309 0.6867077006507593 0.06409467546754684 -8.567713817370151e-28 0.0 -2.1032924999364705e-25 6.394759450000002 6.3947594500000005 0.2913103000000004 -3.894025929994733e-27 0.0 5.2475385148298415e-17 -1.570796314870016 -1.570796314870016 0.0 1.5707963705062866 0.0 0.0 0.0 0.0 0.0 0.0 0.0 -1.6018983942199055e-26 0.48703423142433167 0.6867076754570007 0.064094677567482 -8.567714098795418e-28 0.0 -1.6018983942199055e-26 0.48703423142433167 0.6867076754570007 0.064094677567482 -8.567714098795418e-28 0.0 0.2951499950589256 -0.11234999647001061 0.4809000069994156 -1.2091995794109558 1.2091995265551612 -1.2091995551462715 0.0 0.0 0.0 0.0 0.0 0.0 9.981973636990763e-07 -5.258967243140429e-07 1.1449168978424662e-06 -1.810306051294093e-15 1.8116749963477894e-08 4.3070945294829353e-08 0.2951500000000001 -0.11235000004997345 0.4808999999601586 -1.2091995763071837 1.2091995763071837 -1.209199576059172 0.0 0.0 0.0 0.0 0.0 0.0
221.672 5.2475385148298415e-17 -1.5707963267948966 -1.5707963267948966 0.0 1.5707963267948966 0.0 0.0 0.0 0.0 0.0 0.0 0.0 0.0 0.0 0.0 0.0 0.0 0.0 -1.6018983243994446e-26 0.4870342307692309 0.6867077006507593 0.06409467546754684 -8.567713817370151e-28 0.0 -2.1032924999364705e-25 6.394759450000002 6.3947594500000005 0.2913103000000004 -3.894025929994733e-27 0.0 5.2475385148298415e-17 -1.570796314870016 -1.570796314870016 0.0 1.5707963705062866 0.0 0.0 0.0 0.0 0.0 0.0 0.0 -1.6018983942199055e-26 0.48703423142433167 0.6867076754570007 0.064094677567482 -8.567714098795418e-28 0.0 -1.6018983942199055e-26 0.48703423142433167 0.6867076754570007 0.064094677567482 -8.567714098795418e-28 0.0 0.2951499950589256 -0.11234999647001061 0.4809000069994156 -1.2091995794109558 1.2091995265551612 -1.2091995551462715 0.0 0.0 0.0 0.0 0.0 0.0 9.981973636990763e-07 -5.258967243140429e-07 1.1449168978424662e-06 -1.810306051294093e-15 1.8116749963477894e-08 4.3070945294829353e-08 0.2951500000000001 -0.11235000004997345 0.4808999999601586 -1.2091995763071837 1.2091995763071837 -1.209199576059172 0.0 0.0 0.0 0.0 0.0 0.0
221.67999999999998 5.2475385148298415e-17 -1.5707963267948966 -1.5707963267948966 0.0 1.5707963267948966 0.0 0.0 0.0 0.0 0.0 0.0 0.0 0.0 0.0 0.0 0.0 0.0 0.0 -1.6018983243994446e-26 0.4870342307692309 0.6867077006507593 0.06409467546754684 -8.567713817370151e-28 0.0 -2.1032924999364705e-25 6.394759450000002 6.3947594500000005 0.2913103000000004 -3.894025929994733e-27 0.0 5.2475385148298415e-17 -1.570796314870016 -1.570796314870016 0.0 1.5707963705062866 0.0 0.0 0.0 0.0 0.0 0.0 0.0 -1.6018983942199055e-26 0.48703423142433167 0.6867076754570007 0.064094677567482 -8.567714098795418e-28 0.0 -1.6018983942199055e-26 0.48703423142433167 0.6867076754570007 0.064094677567482 -8.567714098795418e-28 0.0 0.2951499950589256 -0.11234999647001061 0.4809000069994156 -1.2091995794109558 1.2091995265551612 -1.2091995551462715 0.0 0.0 0.0 0.0 0.0 0.0 9.981973636990763e-07 -5.258967243140429e-07 1.1449168978424662e-06 -1.810306051294093e-15 1.8116749963477894e-08 4.3070945294829353e-08 0.2951500000000001 -0.11235000004997345 0.4808999999601586 -1.2091995763071837 1.2091995763071837 -1.209199576059172 0.0 0.0 0.0 0.0 0.0 0.0
221.688 5.2475385148298415e-17 -1.5707963267948966 -1.5707963267948966 0.0 1.5707963267948966 0.0 0.0 0.0 0.0 0.0 0.0 0.0 0.0 0.0 0.0 0.0 0.0 0.0 -1.6018983243994446e-26 0.4870342307692309 0.6867077006507593 0.06409467546754684 -8.567713817370151e-28 0.0 -2.1032924999364705e-25 6.394759450000002 6.3947594500000005 0.2913103000000004 -3.894025929994733e-27 0.0 5.2475385148298415e-17 -1.570796314870016 -1.570796314870016 0.0 1.5707963705062866 0.0 0.0 0.0 0.0 0.0 0.0 0.0 -1.6018983942199055e-26 0.48703423142433167 0.6867076754570007 0.064094677567482 -8.567714098795418e-28 0.0 -1.6018983942199055e-26 0.48703423142433167 0.6867076754570007 0.064094677567482 -8.567714098795418e-28 0.0 0.2951499950589256 -0.11234999647001061 0.4809000069994156 -1.2091995794109558 1.2091995265551612 -1.2091995551462715 0.0 0.0 0.0 0.0 0.0 0.0 9.981973636990763e-07 -5.258967243140429e-07 1.1449168978424662e-06 -1.810306051294093e-15 1.8116749963477894e-08 4.3070945294829353e-08 0.2951500000000001 -0.11235000004997345 0.4808999999601586 -1.2091995763071837 1.2091995763071837 -1.209199576059172 0.0 0.0 0.0 0.0 0.0 0.0
221.696 5.2475385148298415e-17 -1.5707963267948966 -1.5707963267948966 0.0 1.5707963267948966 0.0 0.0 0.0 0.0 0.0 0.0 0.0 0.0 0.0 0.0 0.0 0.0 0.0 -1.6018983243994446e-26 0.4870342307692309 0.6867077006507593 0.06409467546754684 -8.567713817370151e-28 0.0 -2.1032924999364705e-25 6.394759450000002 6.3947594500000005 0.2913103000000004 -3.894025929994733e-27 0.0 5.2475385148298415e-17 -1.570796314870016 -1.570796314870016 0.0 1.5707963705062866 0.0 0.0 0.0 0.0 0.0 0.0 0.0 -1.6018983942199055e-26 0.48703423142433167 0.6867076754570007 0.064094677567482 -8.567714098795418e-28 0.0 -1.6018983942199055e-26 0.48703423142433167 0.6867076754570007 0.064094677567482 -8.567714098795418e-28 0.0 0.2951499950589256 -0.11234999647001061 0.4809000069994156 -1.2091995794109558 1.2091995265551612 -1.2091995551462715 0.0 0.0 0.0 0.0 0.0 0.0 9.981973636990763e-07 -5.258967243140429e-07 1.1449168978424662e-06 -1.810306051294093e-15 1.8116749963477894e-08 4.3070945294829353e-08 0.2951500000000001 -0.11235000004997345 0.4808999999601586 -1.2091995763071837 1.2091995763071837 -1.209199576059172 0.0 0.0 0.0 0.0 0.0 0.0
221.70399999999998 5.2475385148298415e-17 -1.5707963267948966 -1.5707963267948966 0.0 1.5707963267948966 0.0 0.0 0.0 0.0 0.0 0.0 0.0 0.0 0.0 0.0 0.0 0.0 0.0 -1.6018983243994446e-26 0.4870342307692309 0.6867077006507593 0.06409467546754684 -8.567713817370151e-28 0.0 -2.1032924999364705e-25 6.394759450000002 6.3947594500000005 0.2913103000000004 -3.894025929994733e-27 0.0 5.2475385148298415e-17 -1.570796314870016 -1.570796314870016 0.0 1.5707963705062866 0.0 0.0 0.0 0.0 0.0 0.0 0.0 -1.6018983942199055e-26 0.48703423142433167 0.6867076754570007 0.064094677567482 -8.567714098795418e-28 0.0 -1.6018983942199055e-26 0.48703423142433167 0.6867076754570007 0.064094677567482 -8.567714098795418e-28 0.0 0.2951499950589256 -0.11234999647001061 0.4809000069994156 -1.2091995794109558 1.2091995265551612 -1.2091995551462715 0.0 0.0 0.0 0.0 0.0 0.0 9.981973636990763e-07 -5.258967243140429e-07 1.1449168978424662e-06 -1.810306051294093e-15 1.8116749963477894e-08 4.3070945294829353e-08 0.2951500000000001 -0.11235000004997345 0.4808999999601586 -1.2091995763071837 1.2091995763071837 -1.209199576059172 0.0 0.0 0.0 0.0 0.0 0.0
221.712 5.2475385148298415e-17 -1.5707963267948966 -1.5707963267948966 0.0 1.5707963267948966 0.0 0.0 0.0 0.0 0.0 0.0 0.0 0.0 0.0 0.0 0.0 0.0 0.0 -1.6018983243994446e-26 0.4870342307692309 0.6867077006507593 0.06409467546754684 -8.567713817370151e-28 0.0 -2.1032924999364705e-25 6.394759450000002 6.3947594500000005 0.2913103000000004 -3.894025929994733e-27 0.0 5.2475385148298415e-17 -1.570796314870016 -1.570796314870016 0.0 1.5707963705062866 0.0 0.0 0.0 0.0 0.0 0.0 0.0 -1.6018983942199055e-26 0.48703423142433167 0.6867076754570007 0.064094677567482 -8.567714098795418e-28 0.0 -1.6018983942199055e-26 0.48703423142433167 0.6867076754570007 0.064094677567482 -8.567714098795418e-28 0.0 0.2951499950589256 -0.11234999647001061 0.4809000069994156 -1.2091995794109558 1.2091995265551612 -1.2091995551462715 0.0 0.0 0.0 0.0 0.0 0.0 9.981973636990763e-07 -5.258967243140429e-07 1.1449168978424662e-06 -1.810306051294093e-15 1.8116749963477894e-08 4.3070945294829353e-08 0.2951500000000001 -0.11235000004997345 0.4808999999601586 -1.2091995763071837 1.2091995763071837 -1.209199576059172 0.0 0.0 0.0 0.0 0.0 0.0
221.72 5.2475385148298415e-17 -1.5707963267948966 -1.5707963267948966 0.0 1.5707963267948966 0.0 0.0 0.0 0.0 0.0 0.0 0.0 0.0 0.0 0.0 0.0 0.0 0.0 -1.6018983243994446e-26 0.4870342307692309 0.6867077006507593 0.06409467546754684 -8.567713817370151e-28 0.0 -2.1032924999364705e-25 6.394759450000002 6.3947594500000005 0.2913103000000004 -3.894025929994733e-27 0.0 5.2475385148298415e-17 -1.570796314870016 -1.570796314870016 0.0 1.5707963705062866 0.0 0.0 0.0 0.0 0.0 0.0 0.0 -1.6018983942199055e-26 0.48703423142433167 0.6867076754570007 0.064094677567482 -8.567714098795418e-28 0.0 -1.6018983942199055e-26 0.48703423142433167 0.6867076754570007 0.064094677567482 -8.567714098795418e-28 0.0 0.2951499950589256 -0.11234999647001061 0.4809000069994156 -1.2091995794109558 1.2091995265551612 -1.2091995551462715 0.0 0.0 0.0 0.0 0.0 0.0 9.981973636990763e-07 -5.258967243140429e-07 1.1449168978424662e-06 -1.810306051294093e-15 1.8116749963477894e-08 4.3070945294829353e-08 0.2951500000000001 -0.11235000004997345 0.4808999999601586 -1.2091995763071837 1.2091995763071837 -1.209199576059172 0.0 0.0 0.0 0.0 0.0 0.0
221.72799999999998 5.2475385148298415e-17 -1.5707963267948966 -1.5707963267948966 0.0 1.5707963267948966 0.0 0.0 0.0 0.0 0.0 0.0 0.0 0.0 0.0 0.0 0.0 0.0 0.0 -1.6018983243994446e-26 0.4870342307692309 0.6867077006507593 0.06409467546754684 -8.567713817370151e-28 0.0 -2.1032924999364705e-25 6.394759450000002 6.3947594500000005 0.2913103000000004 -3.894025929994733e-27 0.0 5.2475385148298415e-17 -1.570796314870016 -1.570796314870016 0.0 1.5707963705062866 0.0 0.0 0.0 0.0 0.0 0.0 0.0 -1.6018983942199055e-26 0.48703423142433167 0.6867076754570007 0.064094677567482 -8.567714098795418e-28 0.0 -1.6018983942199055e-26 0.48703423142433167 0.6867076754570007 0.064094677567482 -8.567714098795418e-28 0.0 0.2951499950589256 -0.11234999647001061 0.4809000069994156 -1.2091995794109558 1.2091995265551612 -1.2091995551462715 0.0 0.0 0.0 0.0 0.0 0.0 9.981973636990763e-07 -5.258967243140429e-07 1.1449168978424662e-06 -1.810306051294093e-15 1.8116749963477894e-08 4.3070945294829353e-08 0.2951500000000001 -0.11235000004997345 0.4808999999601586 -1.2091995763071837 1.2091995763071837 -1.209199576059172 0.0 0.0 0.0 0.0 0.0 0.0
221.736 5.2475385148298415e-17 -1.5707963267948966 -1.5707963267948966 0.0 1.5707963267948966 0.0 0.0 0.0 0.0 0.0 0.0 0.0 0.0 0.0 0.0 0.0 0.0 0.0 -1.6018983243994446e-26 0.4870342307692309 0.6867077006507593 0.06409467546754684 -8.567713817370151e-28 0.0 -2.1032924999364705e-25 6.394759450000002 6.3947594500000005 0.2913103000000004 -3.894025929994733e-27 0.0 5.2475385148298415e-17 -1.570796314870016 -1.570796314870016 0.0 1.5707963705062866 0.0 0.0 0.0 0.0 0.0 0.0 0.0 -1.6018983942199055e-26 0.48703423142433167 0.6867076754570007 0.064094677567482 -8.567714098795418e-28 0.0 -1.6018983942199055e-26 0.48703423142433167 0.6867076754570007 0.064094677567482 -8.567714098795418e-28 0.0 0.2951499950589256 -0.11234999647001061 0.4809000069994156 -1.2091995794109558 1.2091995265551612 -1.2091995551462715 0.0 0.0 0.0 0.0 0.0 0.0 9.981973636990763e-07 -5.258967243140429e-07 1.1449168978424662e-06 -1.810306051294093e-15 1.8116749963477894e-08 4.3070945294829353e-08 0.2951500000000001 -0.11235000004997345 0.4808999999601586 -1.2091995763071837 1.2091995763071837 -1.209199576059172 0.0 0.0 0.0 0.0 0.0 0.0
221.744 5.2475385148298415e-17 -1.5707963267948966 -1.5707963267948966 0.0 1.5707963267948966 0.0 0.0 0.0 0.0 0.0 0.0 0.0 0.0 0.0 0.0 0.0 0.0 0.0 -1.6018983243994446e-26 0.4870342307692309 0.6867077006507593 0.06409467546754684 -8.567713817370151e-28 0.0 -2.1032924999364705e-25 6.394759450000002 6.3947594500000005 0.2913103000000004 -3.894025929994733e-27 0.0 5.2475385148298415e-17 -1.570796314870016 -1.570796314870016 0.0 1.5707963705062866 0.0 0.0 0.0 0.0 0.0 0.0 0.0 -1.6018983942199055e-26 0.48703423142433167 0.6867076754570007 0.064094677567482 -8.567714098795418e-28 0.0 -1.6018983942199055e-26 0.48703423142433167 0.6867076754570007 0.064094677567482 -8.567714098795418e-28 0.0 0.2951499950589256 -0.11234999647001061 0.4809000069994156 -1.2091995794109558 1.2091995265551612 -1.2091995551462715 0.0 0.0 0.0 0.0 0.0 0.0 9.981973636990763e-07 -5.258967243140429e-07 1.1449168978424662e-06 -1.810306051294093e-15 1.8116749963477894e-08 4.3070945294829353e-08 0.2951500000000001 -0.11235000004997345 0.4808999999601586 -1.2091995763071837 1.2091995763071837 -1.209199576059172 0.0 0.0 0.0 0.0 0.0 0.0
221.75199999999998 5.2475385148298415e-17 -1.5707963267948966 -1.5707963267948966 0.0 1.5707963267948966 0.0 0.0 0.0 0.0 0.0 0.0 0.0 0.0 0.0 0.0 0.0 0.0 0.0 -1.6018983243994446e-26 0.4870342307692309 0.6867077006507593 0.06409467546754684 -8.567713817370151e-28 0.0 -2.1032924999364705e-25 6.394759450000002 6.3947594500000005 0.2913103000000004 -3.894025929994733e-27 0.0 5.2475385148298415e-17 -1.570796314870016 -1.570796314870016 0.0 1.5707963705062866 0.0 0.0 0.0 0.0 0.0 0.0 0.0 -1.6018983942199055e-26 0.48703423142433167 0.6867076754570007 0.064094677567482 -8.567714098795418e-28 0.0 -1.6018983942199055e-26 0.48703423142433167 0.6867076754570007 0.064094677567482 -8.567714098795418e-28 0.0 0.2951499950589256 -0.11234999647001061 0.4809000069994156 -1.2091995794109558 1.2091995265551612 -1.2091995551462715 0.0 0.0 0.0 0.0 0.0 0.0 9.981973636990763e-07 -5.258967243140429e-07 1.1449168978424662e-06 -1.810306051294093e-15 1.8116749963477894e-08 4.3070945294829353e-08 0.2951500000000001 -0.11235000004997345 0.4808999999601586 -1.2091995763071837 1.2091995763071837 -1.209199576059172 0.0 0.0 0.0 0.0 0.0 0.0
221.76 5.2475385148298415e-17 -1.5707963267948966 -1.5707963267948966 0.0 1.5707963267948966 0.0 0.0 0.0 0.0 0.0 0.0 0.0 0.0 0.0 0.0 0.0 0.0 0.0 -1.6018983243994446e-26 0.4870342307692309 0.6867077006507593 0.06409467546754684 -8.567713817370151e-28 0.0 -2.1032924999364705e-25 6.394759450000002 6.3947594500000005 0.2913103000000004 -3.894025929994733e-27 0.0 5.2475385148298415e-17 -1.570796314870016 -1.570796314870016 0.0 1.5707963705062866 0.0 0.0 0.0 0.0 0.0 0.0 0.0 -1.6018983942199055e-26 0.48703423142433167 0.6867076754570007 0.064094677567482 -8.567714098795418e-28 0.0 -1.6018983942199055e-26 0.48703423142433167 0.6867076754570007 0.064094677567482 -8.567714098795418e-28 0.0 0.2951499950589256 -0.11234999647001061 0.4809000069994156 -1.2091995794109558 1.2091995265551612 -1.2091995551462715 0.0 0.0 0.0 0.0 0.0 0.0 9.981973636990763e-07 -5.258967243140429e-07 1.1449168978424662e-06 -1.810306051294093e-15 1.8116749963477894e-08 4.3070945294829353e-08 0.2951500000000001 -0.11235000004997345 0.4808999999601586 -1.2091995763071837 1.2091995763071837 -1.209199576059172 0.0 0.0 0.0 0.0 0.0 0.0
221.768 5.2475385148298415e-17 -1.5707963267948966 -1.5707963267948966 0.0 1.5707963267948966 0.0 0.0 0.0 0.0 0.0 0.0 0.0 0.0 0.0 0.0 0.0 0.0 0.0 -1.6018983243994446e-26 0.4870342307692309 0.6867077006507593 0.06409467546754684 -8.567713817370151e-28 0.0 -2.1032924999364705e-25 6.394759450000002 6.3947594500000005 0.2913103000000004 -3.894025929994733e-27 0.0 5.2475385148298415e-17 -1.570796314870016 -1.570796314870016 0.0 1.5707963705062866 0.0 0.0 0.0 0.0 0.0 0.0 0.0 -1.6018983942199055e-26 0.48703423142433167 0.6867076754570007 0.064094677567482 -8.567714098795418e-28 0.0 -1.6018983942199055e-26 0.48703423142433167 0.6867076754570007 0.064094677567482 -8.567714098795418e-28 0.0 0.2951499950589256 -0.11234999647001061 0.4809000069994156 -1.2091995794109558 1.2091995265551612 -1.2091995551462715 0.0 0.0 0.0 0.0 0.0 0.0 9.981973636990763e-07 -5.258967243140429e-07 1.1449168978424662e-06 -1.810306051294093e-15 1.8116749963477894e-08 4.3070945294829353e-08 0.2951500000000001 -0.11235000004997345 0.4808999999601586 -1.2091995763071837 1.2091995763071837 -1.209199576059172 0.0 0.0 0.0 0.0 0.0 0.0
221.77599999999998 5.2475385148298415e-17 -1.5707963267948966 -1.5707963267948966 0.0 1.5707963267948966 0.0 0.0 0.0 0.0 0.0 0.0 0.0 0.0 0.0 0.0 0.0 0.0 0.0 -1.6018983243994446e-26 0.4870342307692309 0.6867077006507593 0.06409467546754684 -8.567713817370151e-28 0.0 -2.1032924999364705e-25 6.394759450000002 6.3947594500000005 0.2913103000000004 -3.894025929994733e-27 0.0 5.2475385148298415e-17 -1.570796314870016 -1.570796314870016 0.0 1.5707963705062866 0.0 0.0 0.0 0.0 0.0 0.0 0.0 -1.6018983942199055e-26 0.48703423142433167 0.6867076754570007 0.064094677567482 -8.567714098795418e-28 0.0 -1.6018983942199055e-26 0.48703423142433167 0.6867076754570007 0.064094677567482 -8.567714098795418e-28 0.0 0.2951499950589256 -0.11234999647001061 0.4809000069994156 -1.2091995794109558 1.2091995265551612 -1.2091995551462715 0.0 0.0 0.0 0.0 0.0 0.0 9.981973636990763e-07 -5.258967243140429e-07 1.1449168978424662e-06 -1.810306051294093e-15 1.8116749963477894e-08 4.3070945294829353e-08 0.2951500000000001 -0.11235000004997345 0.4808999999601586 -1.2091995763071837 1.2091995763071837 -1.209199576059172 0.0 0.0 0.0 0.0 0.0 0.0
221.784 5.2475385148298415e-17 -1.5707963267948966 -1.5707963267948966 0.0 1.5707963267948966 0.0 0.0 0.0 0.0 0.0 0.0 0.0 0.0 0.0 0.0 0.0 0.0 0.0 -1.6018983243994446e-26 0.4870342307692309 0.6867077006507593 0.06409467546754684 -8.567713817370151e-28 0.0 -2.1032924999364705e-25 6.394759450000002 6.3947594500000005 0.2913103000000004 -3.894025929994733e-27 0.0 5.2475385148298415e-17 -1.570796314870016 -1.570796314870016 0.0 1.5707963705062866 0.0 0.0 0.0 0.0 0.0 0.0 0.0 -1.6018983942199055e-26 0.48703423142433167 0.6867076754570007 0.064094677567482 -8.567714098795418e-28 0.0 -1.6018983942199055e-26 0.48703423142433167 0.6867076754570007 0.064094677567482 -8.567714098795418e-28 0.0 0.2951499950589256 -0.11234999647001061 0.4809000069994156 -1.2091995794109558 1.2091995265551612 -1.2091995551462715 0.0 0.0 0.0 0.0 0.0 0.0 9.981973636990763e-07 -5.258967243140429e-07 1.1449168978424662e-06 -1.810306051294093e-15 1.8116749963477894e-08 4.3070945294829353e-08 0.2951500000000001 -0.11235000004997345 0.4808999999601586 -1.2091995763071837 1.2091995763071837 -1.209199576059172 0.0 0.0 0.0 0.0 0.0 0.0
221.792 5.2475385148298415e-17 -1.5707963267948966 -1.5707963267948966 0.0 1.5707963267948966 0.0 0.0 0.0 0.0 0.0 0.0 0.0 0.0 0.0 0.0 0.0 0.0 0.0 -1.6018983243994446e-26 0.4870342307692309 0.6867077006507593 0.06409467546754684 -8.567713817370151e-28 0.0 -2.1032924999364705e-25 6.394759450000002 6.3947594500000005 0.2913103000000004 -3.894025929994733e-27 0.0 5.2475385148298415e-17 -1.570796314870016 -1.570796314870016 0.0 1.5707963705062866 0.0 0.0 0.0 0.0 0.0 0.0 0.0 -1.6018983942199055e-26 0.48703423142433167 0.6867076754570007 0.064094677567482 -8.567714098795418e-28 0.0 -1.6018983942199055e-26 0.48703423142433167 0.6867076754570007 0.064094677567482 -8.567714098795418e-28 0.0 0.2951499950589256 -0.11234999647001061 0.4809000069994156 -1.2091995794109558 1.2091995265551612 -1.2091995551462715 0.0 0.0 0.0 0.0 0.0 0.0 9.981973636990763e-07 -5.258967243140429e-07 1.1449168978424662e-06 -1.810306051294093e-15 1.8116749963477894e-08 4.3070945294829353e-08 0.2951500000000001 -0.11235000004997345 0.4808999999601586 -1.2091995763071837 1.2091995763071837 -1.209199576059172 0.0 0.0 0.0 0.0 0.0 0.0
221.79999999999998 5.2475385148298415e-17 -1.5707963267948966 -1.5707963267948966 0.0 1.5707963267948966 0.0 0.0 0.0 0.0 0.0 0.0 0.0 0.0 0.0 0.0 0.0 0.0 0.0 -1.6018983243994446e-26 0.4870342307692309 0.6867077006507593 0.06409467546754684 -8.567713817370151e-28 0.0 -2.1032924999364705e-25 6.394759450000002 6.3947594500000005 0.2913103000000004 -3.894025929994733e-27 0.0 5.2475385148298415e-17 -1.570796314870016 -1.570796314870016 0.0 1.5707963705062866 0.0 0.0 0.0 0.0 0.0 0.0 0.0 -1.6018983942199055e-26 0.48703423142433167 0.6867076754570007 0.064094677567482 -8.567714098795418e-28 0.0 -1.6018983942199055e-26 0.48703423142433167 0.6867076754570007 0.064094677567482 -8.567714098795418e-28 0.0 0.2951499950589256 -0.11234999647001061 0.4809000069994156 -1.2091995794109558 1.2091995265551612 -1.2091995551462715 0.0 0.0 0.0 0.0 0.0 0.0 9.981973636990763e-07 -5.258967243140429e-07 1.1449168978424662e-06 -1.810306051294093e-15 1.8116749963477894e-08 4.3070945294829353e-08 0.2951500000000001 -0.11235000004997345 0.4808999999601586 -1.2091995763071837 1.2091995763071837 -1.209199576059172 0.0 0.0 0.0 0.0 0.0 0.0
221.808 5.2475385148298415e-17 -1.5707963267948966 -1.5707963267948966 0.0 1.5707963267948966 0.0 0.0 0.0 0.0 0.0 0.0 0.0 0.0 0.0 0.0 0.0 0.0 0.0 -1.6018983243994446e-26 0.4870342307692309 0.6867077006507593 0.06409467546754684 -8.567713817370151e-28 0.0 -2.1032924999364705e-25 6.394759450000002 6.3947594500000005 0.2913103000000004 -3.894025929994733e-27 0.0 5.2475385148298415e-17 -1.570796314870016 -1.570796314870016 0.0 1.5707963705062866 0.0 0.0 0.0 0.0 0.0 0.0 0.0 -1.6018983942199055e-26 0.48703423142433167 0.6867076754570007 0.064094677567482 -8.567714098795418e-28 0.0 -1.6018983942199055e-26 0.48703423142433167 0.6867076754570007 0.064094677567482 -8.567714098795418e-28 0.0 0.2951499950589256 -0.11234999647001061 0.4809000069994156 -1.2091995794109558 1.2091995265551612 -1.2091995551462715 0.0 0.0 0.0 0.0 0.0 0.0 9.981973636990763e-07 -5.258967243140429e-07 1.1449168978424662e-06 -1.810306051294093e-15 1.8116749963477894e-08 4.3070945294829353e-08 0.2951500000000001 -0.11235000004997345 0.4808999999601586 -1.2091995763071837 1.2091995763071837 -1.209199576059172 0.0 0.0 0.0 0.0 0.0 0.0
221.816 5.2475385148298415e-17 -1.5707963267948966 -1.5707963267948966 0.0 1.5707963267948966 0.0 0.0 0.0 0.0 0.0 0.0 0.0 0.0 0.0 0.0 0.0 0.0 0.0 -1.6018983243994446e-26 0.4870342307692309 0.6867077006507593 0.06409467546754684 -8.567713817370151e-28 0.0 -2.1032924999364705e-25 6.394759450000002 6.3947594500000005 0.2913103000000004 -3.894025929994733e-27 0.0 5.2475385148298415e-17 -1.570796314870016 -1.570796314870016 0.0 1.5707963705062866 0.0 0.0 0.0 0.0 0.0 0.0 0.0 -1.6018983942199055e-26 0.48703423142433167 0.6867076754570007 0.064094677567482 -8.567714098795418e-28 0.0 -1.6018983942199055e-26 0.48703423142433167 0.6867076754570007 0.064094677567482 -8.567714098795418e-28 0.0 0.2951499950589256 -0.11234999647001061 0.4809000069994156 -1.2091995794109558 1.2091995265551612 -1.2091995551462715 0.0 0.0 0.0 0.0 0.0 0.0 9.981973636990763e-07 -5.258967243140429e-07 1.1449168978424662e-06 -1.810306051294093e-15 1.8116749963477894e-08 4.3070945294829353e-08 0.2951500000000001 -0.11235000004997345 0.4808999999601586 -1.2091995763071837 1.2091995763071837 -1.209199576059172 0.0 0.0 0.0 0.0 0.0 0.0
221.82399999999998 5.2475385148298415e-17 -1.5707963267948966 -1.5707963267948966 0.0 1.5707963267948966 0.0 0.0 0.0 0.0 0.0 0.0 0.0 0.0 0.0 0.0 0.0 0.0 0.0 -1.6018983243994446e-26 0.4870342307692309 0.6867077006507593 0.06409467546754684 -8.567713817370151e-28 0.0 -2.1032924999364705e-25 6.394759450000002 6.3947594500000005 0.2913103000000004 -3.894025929994733e-27 0.0 5.2475385148298415e-17 -1.570796314870016 -1.570796314870016 0.0 1.5707963705062866 0.0 0.0 0.0 0.0 0.0 0.0 0.0 -1.6018983942199055e-26 0.48703423142433167 0.6867076754570007 0.064094677567482 -8.567714098795418e-28 0.0 -1.6018983942199055e-26 0.48703423142433167 0.6867076754570007 0.064094677567482 -8.567714098795418e-28 0.0 0.2951499950589256 -0.11234999647001061 0.4809000069994156 -1.2091995794109558 1.2091995265551612 -1.2091995551462715 0.0 0.0 0.0 0.0 0.0 0.0 9.981973636990763e-07 -5.258967243140429e-07 1.1449168978424662e-06 -1.810306051294093e-15 1.8116749963477894e-08 4.3070945294829353e-08 0.2951500000000001 -0.11235000004997345 0.4808999999601586 -1.2091995763071837 1.2091995763071837 -1.209199576059172 0.0 0.0 0.0 0.0 0.0 0.0
221.832 5.2475385148298415e-17 -1.5707963267948966 -1.5707963267948966 0.0 1.5707963267948966 0.0 0.0 0.0 0.0 0.0 0.0 0.0 0.0 0.0 0.0 0.0 0.0 0.0 -1.6018983243994446e-26 0.4870342307692309 0.6867077006507593 0.06409467546754684 -8.567713817370151e-28 0.0 -2.1032924999364705e-25 6.394759450000002 6.3947594500000005 0.2913103000000004 -3.894025929994733e-27 0.0 5.2475385148298415e-17 -1.570796314870016 -1.570796314870016 0.0 1.5707963705062866 0.0 0.0 0.0 0.0 0.0 0.0 0.0 -1.6018983942199055e-26 0.48703423142433167 0.6867076754570007 0.064094677567482 -8.567714098795418e-28 0.0 -1.6018983942199055e-26 0.48703423142433167 0.6867076754570007 0.064094677567482 -8.567714098795418e-28 0.0 0.2951499950589256 -0.11234999647001061 0.4809000069994156 -1.2091995794109558 1.2091995265551612 -1.2091995551462715 0.0 0.0 0.0 0.0 0.0 0.0 9.981973636990763e-07 -5.258967243140429e-07 1.1449168978424662e-06 -1.810306051294093e-15 1.8116749963477894e-08 4.3070945294829353e-08 0.2951500000000001 -0.11235000004997345 0.4808999999601586 -1.2091995763071837 1.2091995763071837 -1.209199576059172 0.0 0.0 0.0 0.0 0.0 0.0
221.84 5.2475385148298415e-17 -1.5707963267948966 -1.5707963267948966 0.0 1.5707963267948966 0.0 0.0 0.0 0.0 0.0 0.0 0.0 0.0 0.0 0.0 0.0 0.0 0.0 -1.6018983243994446e-26 0.4870342307692309 0.6867077006507593 0.06409467546754684 -8.567713817370151e-28 0.0 -2.1032924999364705e-25 6.394759450000002 6.3947594500000005 0.2913103000000004 -3.894025929994733e-27 0.0 5.2475385148298415e-17 -1.570796314870016 -1.570796314870016 0.0 1.5707963705062866 0.0 0.0 0.0 0.0 0.0 0.0 0.0 -1.6018983942199055e-26 0.48703423142433167 0.6867076754570007 0.064094677567482 -8.567714098795418e-28 0.0 -1.6018983942199055e-26 0.48703423142433167 0.6867076754570007 0.064094677567482 -8.567714098795418e-28 0.0 0.2951499950589256 -0.11234999647001061 0.4809000069994156 -1.2091995794109558 1.2091995265551612 -1.2091995551462715 0.0 0.0 0.0 0.0 0.0 0.0 9.981973636990763e-07 -5.258967243140429e-07 1.1449168978424662e-06 -1.810306051294093e-15 1.8116749963477894e-08 4.3070945294829353e-08 0.2951500000000001 -0.11235000004997345 0.4808999999601586 -1.2091995763071837 1.2091995763071837 -1.209199576059172 0.0 0.0 0.0 0.0 0.0 0.0
221.84799999999998 5.2475385148298415e-17 -1.5707963267948966 -1.5707963267948966 0.0 1.5707963267948966 0.0 0.0 0.0 0.0 0.0 0.0 0.0 0.0 0.0 0.0 0.0 0.0 0.0 -1.6018983243994446e-26 0.4870342307692309 0.6867077006507593 0.06409467546754684 -8.567713817370151e-28 0.0 -2.1032924999364705e-25 6.394759450000002 6.3947594500000005 0.2913103000000004 -3.894025929994733e-27 0.0 5.2475385148298415e-17 -1.570796314870016 -1.570796314870016 0.0 1.5707963705062866 0.0 0.0 0.0 0.0 0.0 0.0 0.0 -1.6018983942199055e-26 0.48703423142433167 0.6867076754570007 0.064094677567482 -8.567714098795418e-28 0.0 -1.6018983942199055e-26 0.48703423142433167 0.6867076754570007 0.064094677567482 -8.567714098795418e-28 0.0 0.2951499950589256 -0.11234999647001061 0.4809000069994156 -1.2091995794109558 1.2091995265551612 -1.2091995551462715 0.0 0.0 0.0 0.0 0.0 0.0 9.981973636990763e-07 -5.258967243140429e-07 1.1449168978424662e-06 -1.810306051294093e-15 1.8116749963477894e-08 4.3070945294829353e-08 0.2951500000000001 -0.11235000004997345 0.4808999999601586 -1.2091995763071837 1.2091995763071837 -1.209199576059172 0.0 0.0 0.0 0.0 0.0 0.0
221.856 5.2475385148298415e-17 -1.5707963267948966 -1.5707963267948966 0.0 1.5707963267948966 0.0 0.0 0.0 0.0 0.0 0.0 0.0 0.0 0.0 0.0 0.0 0.0 0.0 -1.6018983243994446e-26 0.4870342307692309 0.6867077006507593 0.06409467546754684 -8.567713817370151e-28 0.0 -2.1032924999364705e-25 6.394759450000002 6.3947594500000005 0.2913103000000004 -3.894025929994733e-27 0.0 5.2475385148298415e-17 -1.570796314870016 -1.570796314870016 0.0 1.5707963705062866 0.0 0.0 0.0 0.0 0.0 0.0 0.0 -1.6018983942199055e-26 0.48703423142433167 0.6867076754570007 0.064094677567482 -8.567714098795418e-28 0.0 -1.6018983942199055e-26 0.48703423142433167 0.6867076754570007 0.064094677567482 -8.567714098795418e-28 0.0 0.2951499950589256 -0.11234999647001061 0.4809000069994156 -1.2091995794109558 1.2091995265551612 -1.2091995551462715 0.0 0.0 0.0 0.0 0.0 0.0 9.981973636990763e-07 -5.258967243140429e-07 1.1449168978424662e-06 -1.810306051294093e-15 1.8116749963477894e-08 4.3070945294829353e-08 0.2951500000000001 -0.11235000004997345 0.4808999999601586 -1.2091995763071837 1.2091995763071837 -1.209199576059172 0.0 0.0 0.0 0.0 0.0 0.0
221.86399999999998 5.2475385148298415e-17 -1.5707963267948966 -1.5707963267948966 0.0 1.5707963267948966 0.0 0.0 0.0 0.0 0.0 0.0 0.0 0.0 0.0 0.0 0.0 0.0 0.0 -1.6018983243994446e-26 0.4870342307692309 0.6867077006507593 0.06409467546754684 -8.567713817370151e-28 0.0 -2.1032924999364705e-25 6.394759450000002 6.3947594500000005 0.2913103000000004 -3.894025929994733e-27 0.0 5.2475385148298415e-17 -1.570796314870016 -1.570796314870016 0.0 1.5707963705062866 0.0 0.0 0.0 0.0 0.0 0.0 0.0 -1.6018983942199055e-26 0.48703423142433167 0.6867076754570007 0.064094677567482 -8.567714098795418e-28 0.0 -1.6018983942199055e-26 0.48703423142433167 0.6867076754570007 0.064094677567482 -8.567714098795418e-28 0.0 0.2951499950589256 -0.11234999647001061 0.4809000069994156 -1.2091995794109558 1.2091995265551612 -1.2091995551462715 0.0 0.0 0.0 0.0 0.0 0.0 9.981973636990763e-07 -5.258967243140429e-07 1.1449168978424662e-06 -1.810306051294093e-15 1.8116749963477894e-08 4.3070945294829353e-08 0.2951500000000001 -0.11235000004997345 0.4808999999601586 -1.2091995763071837 1.2091995763071837 -1.209199576059172 0.0 0.0 0.0 0.0 0.0 0.0
221.87199999999999 5.2475385148298415e-17 -1.5707963267948966 -1.5707963267948966 0.0 1.5707963267948966 0.0 0.0 0.0 0.0 0.0 0.0 0.0 0.0 0.0 0.0 0.0 0.0 0.0 -1.6018983243994446e-26 0.4870342307692309 0.6867077006507593 0.06409467546754684 -8.567713817370151e-28 0.0 -2.1032924999364705e-25 6.394759450000002 6.3947594500000005 0.2913103000000004 -3.894025929994733e-27 0.0 5.2475385148298415e-17 -1.570796314870016 -1.570796314870016 0.0 1.5707963705062866 0.0 0.0 0.0 0.0 0.0 0.0 0.0 -1.6018983942199055e-26 0.48703423142433167 0.6867076754570007 0.064094677567482 -8.567714098795418e-28 0.0 -1.6018983942199055e-26 0.48703423142433167 0.6867076754570007 0.064094677567482 -8.567714098795418e-28 0.0 0.2951499950589256 -0.11234999647001061 0.4809000069994156 -1.2091995794109558 1.2091995265551612 -1.2091995551462715 0.0 0.0 0.0 0.0 0.0 0.0 9.981973636990763e-07 -5.258967243140429e-07 1.1449168978424662e-06 -1.810306051294093e-15 1.8116749963477894e-08 4.3070945294829353e-08 0.2951500000000001 -0.11235000004997345 0.4808999999601586 -1.2091995763071837 1.2091995763071837 -1.209199576059172 0.0 0.0 0.0 0.0 0.0 0.0
221.88 5.2475385148298415e-17 -1.5707963267948966 -1.5707963267948966 0.0 1.5707963267948966 0.0 0.0 0.0 0.0 0.0 0.0 0.0 0.0 0.0 0.0 0.0 0.0 0.0 -1.6018983243994446e-26 0.4870342307692309 0.6867077006507593 0.06409467546754684 -8.567713817370151e-28 0.0 -2.1032924999364705e-25 6.394759450000002 6.3947594500000005 0.2913103000000004 -3.894025929994733e-27 0.0 5.2475385148298415e-17 -1.570796314870016 -1.570796314870016 0.0 1.5707963705062866 0.0 0.0 0.0 0.0 0.0 0.0 0.0 -1.6018983942199055e-26 0.48703423142433167 0.6867076754570007 0.064094677567482 -8.567714098795418e-28 0.0 -1.6018983942199055e-26 0.48703423142433167 0.6867076754570007 0.064094677567482 -8.567714098795418e-28 0.0 0.2951499950589256 -0.11234999647001061 0.4809000069994156 -1.2091995794109558 1.2091995265551612 -1.2091995551462715 0.0 0.0 0.0 0.0 0.0 0.0 9.981973636990763e-07 -5.258967243140429e-07 1.1449168978424662e-06 -1.810306051294093e-15 1.8116749963477894e-08 4.3070945294829353e-08 0.2951500000000001 -0.11235000004997345 0.4808999999601586 -1.2091995763071837 1.2091995763071837 -1.209199576059172 0.0 0.0 0.0 0.0 0.0 0.0
221.88799999999998 5.2475385148298415e-17 -1.5707963267948966 -1.5707963267948966 0.0 1.5707963267948966 0.0 0.0 0.0 0.0 0.0 0.0 0.0 0.0 0.0 0.0 0.0 0.0 0.0 -1.6018983243994446e-26 0.4870342307692309 0.6867077006507593 0.06409467546754684 -8.567713817370151e-28 0.0 -2.1032924999364705e-25 6.394759450000002 6.3947594500000005 0.2913103000000004 -3.894025929994733e-27 0.0 5.2475385148298415e-17 -1.570796314870016 -1.570796314870016 0.0 1.5707963705062866 0.0 0.0 0.0 0.0 0.0 0.0 0.0 -1.6018983942199055e-26 0.48703423142433167 0.6867076754570007 0.064094677567482 -8.567714098795418e-28 0.0 -1.6018983942199055e-26 0.48703423142433167 0.6867076754570007 0.064094677567482 -8.567714098795418e-28 0.0 0.2951499950589256 -0.11234999647001061 0.4809000069994156 -1.2091995794109558 1.2091995265551612 -1.2091995551462715 0.0 0.0 0.0 0.0 0.0 0.0 9.981973636990763e-07 -5.258967243140429e-07 1.1449168978424662e-06 -1.810306051294093e-15 1.8116749963477894e-08 4.3070945294829353e-08 0.2951500000000001 -0.11235000004997345 0.4808999999601586 -1.2091995763071837 1.2091995763071837 -1.209199576059172 0.0 0.0 0.0 0.0 0.0 0.0
221.896 5.2475385148298415e-17 -1.5707963267948966 -1.5707963267948966 0.0 1.5707963267948966 0.0 0.0 0.0 0.0 0.0 0.0 0.0 0.0 0.0 0.0 0.0 0.0 0.0 -1.6018983243994446e-26 0.4870342307692309 0.6867077006507593 0.06409467546754684 -8.567713817370151e-28 0.0 -2.1032924999364705e-25 6.394759450000002 6.3947594500000005 0.2913103000000004 -3.894025929994733e-27 0.0 5.2475385148298415e-17 -1.570796314870016 -1.570796314870016 0.0 1.5707963705062866 0.0 0.0 0.0 0.0 0.0 0.0 0.0 -1.6018983942199055e-26 0.48703423142433167 0.6867076754570007 0.064094677567482 -8.567714098795418e-28 0.0 -1.6018983942199055e-26 0.48703423142433167 0.6867076754570007 0.064094677567482 -8.567714098795418e-28 0.0 0.2951499950589256 -0.11234999647001061 0.4809000069994156 -1.2091995794109558 1.2091995265551612 -1.2091995551462715 0.0 0.0 0.0 0.0 0.0 0.0 9.981973636990763e-07 -5.258967243140429e-07 1.1449168978424662e-06 -1.810306051294093e-15 1.8116749963477894e-08 4.3070945294829353e-08 0.2951500000000001 -0.11235000004997345 0.4808999999601586 -1.2091995763071837 1.2091995763071837 -1.209199576059172 0.0 0.0 0.0 0.0 0.0 0.0
221.904 5.2475385148298415e-17 -1.5707963267948966 -1.5707963267948966 0.0 1.5707963267948966 0.0 0.0 0.0 0.0 0.0 0.0 0.0 0.0 0.0 0.0 0.0 0.0 0.0 -1.6018983243994446e-26 0.4870342307692309 0.6867077006507593 0.06409467546754684 -8.567713817370151e-28 0.0 -2.1032924999364705e-25 6.394759450000002 6.3947594500000005 0.2913103000000004 -3.894025929994733e-27 0.0 5.2475385148298415e-17 -1.570796314870016 -1.570796314870016 0.0 1.5707963705062866 0.0 0.0 0.0 0.0 0.0 0.0 0.0 -1.6018983942199055e-26 0.48703423142433167 0.6867076754570007 0.064094677567482 -8.567714098795418e-28 0.0 -1.6018983942199055e-26 0.48703423142433167 0.6867076754570007 0.064094677567482 -8.567714098795418e-28 0.0 0.2951499950589256 -0.11234999647001061 0.4809000069994156 -1.2091995794109558 1.2091995265551612 -1.2091995551462715 0.0 0.0 0.0 0.0 0.0 0.0 9.981973636990763e-07 -5.258967243140429e-07 1.1449168978424662e-06 -1.810306051294093e-15 1.8116749963477894e-08 4.3070945294829353e-08 0.2951500000000001 -0.11235000004997345 0.4808999999601586 -1.2091995763071837 1.2091995763071837 -1.209199576059172 0.0 0.0 0.0 0.0 0.0 0.0
221.91199999999998 5.2475385148298415e-17 -1.5707963267948966 -1.5707963267948966 0.0 1.5707963267948966 0.0 0.0 0.0 0.0 0.0 0.0 0.0 0.0 0.0 0.0 0.0 0.0 0.0 -1.6018983243994446e-26 0.4870342307692309 0.6867077006507593 0.06409467546754684 -8.567713817370151e-28 0.0 -2.1032924999364705e-25 6.394759450000002 6.3947594500000005 0.2913103000000004 -3.894025929994733e-27 0.0 5.2475385148298415e-17 -1.570796314870016 -1.570796314870016 0.0 1.5707963705062866 0.0 0.0 0.0 0.0 0.0 0.0 0.0 -1.6018983942199055e-26 0.48703423142433167 0.6867076754570007 0.064094677567482 -8.567714098795418e-28 0.0 -1.6018983942199055e-26 0.48703423142433167 0.6867076754570007 0.064094677567482 -8.567714098795418e-28 0.0 0.2951499950589256 -0.11234999647001061 0.4809000069994156 -1.2091995794109558 1.2091995265551612 -1.2091995551462715 0.0 0.0 0.0 0.0 0.0 0.0 9.981973636990763e-07 -5.258967243140429e-07 1.1449168978424662e-06 -1.810306051294093e-15 1.8116749963477894e-08 4.3070945294829353e-08 0.2951500000000001 -0.11235000004997345 0.4808999999601586 -1.2091995763071837 1.2091995763071837 -1.209199576059172 0.0 0.0 0.0 0.0 0.0 0.0
221.92 5.2475385148298415e-17 -1.5707963267948966 -1.5707963267948966 0.0 1.5707963267948966 0.0 0.0 0.0 0.0 0.0 0.0 0.0 0.0 0.0 0.0 0.0 0.0 0.0 -1.6018983243994446e-26 0.4870342307692309 0.6867077006507593 0.06409467546754684 -8.567713817370151e-28 0.0 -2.1032924999364705e-25 6.394759450000002 6.3947594500000005 0.2913103000000004 -3.894025929994733e-27 0.0 5.2475385148298415e-17 -1.570796314870016 -1.570796314870016 0.0 1.5707963705062866 0.0 0.0 0.0 0.0 0.0 0.0 0.0 -1.6018983942199055e-26 0.48703423142433167 0.6867076754570007 0.064094677567482 -8.567714098795418e-28 0.0 -1.6018983942199055e-26 0.48703423142433167 0.6867076754570007 0.064094677567482 -8.567714098795418e-28 0.0 0.2951499950589256 -0.11234999647001061 0.4809000069994156 -1.2091995794109558 1.2091995265551612 -1.2091995551462715 0.0 0.0 0.0 0.0 0.0 0.0 9.981973636990763e-07 -5.258967243140429e-07 1.1449168978424662e-06 -1.810306051294093e-15 1.8116749963477894e-08 4.3070945294829353e-08 0.2951500000000001 -0.11235000004997345 0.4808999999601586 -1.2091995763071837 1.2091995763071837 -1.209199576059172 0.0 0.0 0.0 0.0 0.0 0.0
221.928 5.2475385148298415e-17 -1.5707963267948966 -1.5707963267948966 0.0 1.5707963267948966 0.0 0.0 0.0 0.0 0.0 0.0 0.0 0.0 0.0 0.0 0.0 0.0 0.0 -1.6018983243994446e-26 0.4870342307692309 0.6867077006507593 0.06409467546754684 -8.567713817370151e-28 0.0 -2.1032924999364705e-25 6.394759450000002 6.3947594500000005 0.2913103000000004 -3.894025929994733e-27 0.0 5.2475385148298415e-17 -1.570796314870016 -1.570796314870016 0.0 1.5707963705062866 0.0 0.0 0.0 0.0 0.0 0.0 0.0 -1.6018983942199055e-26 0.48703423142433167 0.6867076754570007 0.064094677567482 -8.567714098795418e-28 0.0 -1.6018983942199055e-26 0.48703423142433167 0.6867076754570007 0.064094677567482 -8.567714098795418e-28 0.0 0.2951499950589256 -0.11234999647001061 0.4809000069994156 -1.2091995794109558 1.2091995265551612 -1.2091995551462715 0.0 0.0 0.0 0.0 0.0 0.0 9.981973636990763e-07 -5.258967243140429e-07 1.1449168978424662e-06 -1.810306051294093e-15 1.8116749963477894e-08 4.3070945294829353e-08 0.2951500000000001 -0.11235000004997345 0.4808999999601586 -1.2091995763071837 1.2091995763071837 -1.209199576059172 0.0 0.0 0.0 0.0 0.0 0.0
221.93599999999998 5.2475385148298415e-17 -1.5707963267948966 -1.5707963267948966 0.0 1.5707963267948966 0.0 0.0 0.0 0.0 0.0 0.0 0.0 0.0 0.0 0.0 0.0 0.0 0.0 -1.6018983243994446e-26 0.4870342307692309 0.6867077006507593 0.06409467546754684 -8.567713817370151e-28 0.0 -2.1032924999364705e-25 6.394759450000002 6.3947594500000005 0.2913103000000004 -3.894025929994733e-27 0.0 5.2475385148298415e-17 -1.570796314870016 -1.570796314870016 0.0 1.5707963705062866 0.0 0.0 0.0 0.0 0.0 0.0 0.0 -1.6018983942199055e-26 0.48703423142433167 0.6867076754570007 0.064094677567482 -8.567714098795418e-28 0.0 -1.6018983942199055e-26 0.48703423142433167 0.6867076754570007 0.064094677567482 -8.567714098795418e-28 0.0 0.2951499950589256 -0.11234999647001061 0.4809000069994156 -1.2091995794109558 1.2091995265551612 -1.2091995551462715 0.0 0.0 0.0 0.0 0.0 0.0 9.981973636990763e-07 -5.258967243140429e-07 1.1449168978424662e-06 -1.810306051294093e-15 1.8116749963477894e-08 4.3070945294829353e-08 0.2951500000000001 -0.11235000004997345 0.4808999999601586 -1.2091995763071837 1.2091995763071837 -1.209199576059172 0.0 0.0 0.0 0.0 0.0 0.0
221.944 5.2475385148298415e-17 -1.5707963267948966 -1.5707963267948966 0.0 1.5707963267948966 0.0 0.0 0.0 0.0 0.0 0.0 0.0 0.0 0.0 0.0 0.0 0.0 0.0 -1.6018983243994446e-26 0.4870342307692309 0.6867077006507593 0.06409467546754684 -8.567713817370151e-28 0.0 -2.1032924999364705e-25 6.394759450000002 6.3947594500000005 0.2913103000000004 -3.894025929994733e-27 0.0 5.2475385148298415e-17 -1.570796314870016 -1.570796314870016 0.0 1.5707963705062866 0.0 0.0 0.0 0.0 0.0 0.0 0.0 -1.6018983942199055e-26 0.48703423142433167 0.6867076754570007 0.064094677567482 -8.567714098795418e-28 0.0 -1.6018983942199055e-26 0.48703423142433167 0.6867076754570007 0.064094677567482 -8.567714098795418e-28 0.0 0.2951499950589256 -0.11234999647001061 0.4809000069994156 -1.2091995794109558 1.2091995265551612 -1.2091995551462715 0.0 0.0 0.0 0.0 0.0 0.0 9.981973636990763e-07 -5.258967243140429e-07 1.1449168978424662e-06 -1.810306051294093e-15 1.8116749963477894e-08 4.3070945294829353e-08 0.2951500000000001 -0.11235000004997345 0.4808999999601586 -1.2091995763071837 1.2091995763071837 -1.209199576059172 0.0 0.0 0.0 0.0 0.0 0.0
221.952 5.2475385148298415e-17 -1.5707963267948966 -1.5707963267948966 0.0 1.5707963267948966 0.0 0.0 0.0 0.0 0.0 0.0 0.0 0.0 0.0 0.0 0.0 0.0 0.0 -1.6018983243994446e-26 0.4870342307692309 0.6867077006507593 0.06409467546754684 -8.567713817370151e-28 0.0 -2.1032924999364705e-25 6.394759450000002 6.3947594500000005 0.2913103000000004 -3.894025929994733e-27 0.0 5.2475385148298415e-17 -1.570796314870016 -1.570796314870016 0.0 1.5707963705062866 0.0 0.0 0.0 0.0 0.0 0.0 0.0 -1.6018983942199055e-26 0.48703423142433167 0.6867076754570007 0.064094677567482 -8.567714098795418e-28 0.0 -1.6018983942199055e-26 0.48703423142433167 0.6867076754570007 0.064094677567482 -8.567714098795418e-28 0.0 0.2951499950589256 -0.11234999647001061 0.4809000069994156 -1.2091995794109558 1.2091995265551612 -1.2091995551462715 0.0 0.0 0.0 0.0 0.0 0.0 9.981973636990763e-07 -5.258967243140429e-07 1.1449168978424662e-06 -1.810306051294093e-15 1.8116749963477894e-08 4.3070945294829353e-08 0.2951500000000001 -0.11235000004997345 0.4808999999601586 -1.2091995763071837 1.2091995763071837 -1.209199576059172 0.0 0.0 0.0 0.0 0.0 0.0
221.95999999999998 5.2475385148298415e-17 -1.5707963267948966 -1.5707963267948966 0.0 1.5707963267948966 0.0 0.0 0.0 0.0 0.0 0.0 0.0 0.0 0.0 0.0 0.0 0.0 0.0 -1.6018983243994446e-26 0.4870342307692309 0.6867077006507593 0.06409467546754684 -8.567713817370151e-28 0.0 -2.1032924999364705e-25 6.394759450000002 6.3947594500000005 0.2913103000000004 -3.894025929994733e-27 0.0 5.2475385148298415e-17 -1.570796314870016 -1.570796314870016 0.0 1.5707963705062866 0.0 0.0 0.0 0.0 0.0 0.0 0.0 -1.6018983942199055e-26 0.48703423142433167 0.6867076754570007 0.064094677567482 -8.567714098795418e-28 0.0 -1.6018983942199055e-26 0.48703423142433167 0.6867076754570007 0.064094677567482 -8.567714098795418e-28 0.0 0.2951499950589256 -0.11234999647001061 0.4809000069994156 -1.2091995794109558 1.2091995265551612 -1.2091995551462715 0.0 0.0 0.0 0.0 0.0 0.0 9.981973636990763e-07 -5.258967243140429e-07 1.1449168978424662e-06 -1.810306051294093e-15 1.8116749963477894e-08 4.3070945294829353e-08 0.2951500000000001 -0.11235000004997345 0.4808999999601586 -1.2091995763071837 1.2091995763071837 -1.209199576059172 0.0 0.0 0.0 0.0 0.0 0.0
221.968 5.2475385148298415e-17 -1.5707963267948966 -1.5707963267948966 0.0 1.5707963267948966 0.0 0.0 0.0 0.0 0.0 0.0 0.0 0.0 0.0 0.0 0.0 0.0 0.0 -1.6018983243994446e-26 0.4870342307692309 0.6867077006507593 0.06409467546754684 -8.567713817370151e-28 0.0 -2.1032924999364705e-25 6.394759450000002 6.3947594500000005 0.2913103000000004 -3.894025929994733e-27 0.0 5.2475385148298415e-17 -1.570796314870016 -1.570796314870016 0.0 1.5707963705062866 0.0 0.0 0.0 0.0 0.0 0.0 0.0 -1.6018983942199055e-26 0.48703423142433167 0.6867076754570007 0.064094677567482 -8.567714098795418e-28 0.0 -1.6018983942199055e-26 0.48703423142433167 0.6867076754570007 0.064094677567482 -8.567714098795418e-28 0.0 0.2951499950589256 -0.11234999647001061 0.4809000069994156 -1.2091995794109558 1.2091995265551612 -1.2091995551462715 0.0 0.0 0.0 0.0 0.0 0.0 9.981973636990763e-07 -5.258967243140429e-07 1.1449168978424662e-06 -1.810306051294093e-15 1.8116749963477894e-08 4.3070945294829353e-08 0.2951500000000001 -0.11235000004997345 0.4808999999601586 -1.2091995763071837 1.2091995763071837 -1.209199576059172 0.0 0.0 0.0 0.0 0.0 0.0
221.976 5.2475385148298415e-17 -1.5707963267948966 -1.5707963267948966 0.0 1.5707963267948966 0.0 0.0 0.0 0.0 0.0 0.0 0.0 0.0 0.0 0.0 0.0 0.0 0.0 -1.6018983243994446e-26 0.4870342307692309 0.6867077006507593 0.06409467546754684 -8.567713817370151e-28 0.0 -2.1032924999364705e-25 6.394759450000002 6.3947594500000005 0.2913103000000004 -3.894025929994733e-27 0.0 5.2475385148298415e-17 -1.570796314870016 -1.570796314870016 0.0 1.5707963705062866 0.0 0.0 0.0 0.0 0.0 0.0 0.0 -1.6018983942199055e-26 0.48703423142433167 0.6867076754570007 0.064094677567482 -8.567714098795418e-28 0.0 -1.6018983942199055e-26 0.48703423142433167 0.6867076754570007 0.064094677567482 -8.567714098795418e-28 0.0 0.2951499950589256 -0.11234999647001061 0.4809000069994156 -1.2091995794109558 1.2091995265551612 -1.2091995551462715 0.0 0.0 0.0 0.0 0.0 0.0 9.981973636990763e-07 -5.258967243140429e-07 1.1449168978424662e-06 -1.810306051294093e-15 1.8116749963477894e-08 4.3070945294829353e-08 0.2951500000000001 -0.11235000004997345 0.4808999999601586 -1.2091995763071837 1.2091995763071837 -1.209199576059172 0.0 0.0 0.0 0.0 0.0 0.0
221.98399999999998 5.2475385148298415e-17 -1.5707963267948966 -1.5707963267948966 0.0 1.5707963267948966 0.0 0.0 0.0 0.0 0.0 0.0 0.0 0.0 0.0 0.0 0.0 0.0 0.0 -1.6018983243994446e-26 0.4870342307692309 0.6867077006507593 0.06409467546754684 -8.567713817370151e-28 0.0 -2.1032924999364705e-25 6.394759450000002 6.3947594500000005 0.2913103000000004 -3.894025929994733e-27 0.0 5.2475385148298415e-17 -1.570796314870016 -1.570796314870016 0.0 1.5707963705062866 0.0 0.0 0.0 0.0 0.0 0.0 0.0 -1.6018983942199055e-26 0.48703423142433167 0.6867076754570007 0.064094677567482 -8.567714098795418e-28 0.0 -1.6018983942199055e-26 0.48703423142433167 0.6867076754570007 0.064094677567482 -8.567714098795418e-28 0.0 0.2951499950589256 -0.11234999647001061 0.4809000069994156 -1.2091995794109558 1.2091995265551612 -1.2091995551462715 0.0 0.0 0.0 0.0 0.0 0.0 9.981973636990763e-07 -5.258967243140429e-07 1.1449168978424662e-06 -1.810306051294093e-15 1.8116749963477894e-08 4.3070945294829353e-08 0.2951500000000001 -0.11235000004997345 0.4808999999601586 -1.2091995763071837 1.2091995763071837 -1.209199576059172 0.0 0.0 0.0 0.0 0.0 0.0
221.992 5.2475385148298415e-17 -1.5707963267948966 -1.5707963267948966 0.0 1.5707963267948966 0.0 0.0 0.0 0.0 0.0 0.0 0.0 0.0 0.0 0.0 0.0 0.0 0.0 -1.6018983243994446e-26 0.4870342307692309 0.6867077006507593 0.06409467546754684 -8.567713817370151e-28 0.0 -2.1032924999364705e-25 6.394759450000002 6.3947594500000005 0.2913103000000004 -3.894025929994733e-27 0.0 5.2475385148298415e-17 -1.570796314870016 -1.570796314870016 0.0 1.5707963705062866 0.0 0.0 0.0 0.0 0.0 0.0 0.0 -1.6018983942199055e-26 0.48703423142433167 0.6867076754570007 0.064094677567482 -8.567714098795418e-28 0.0 -1.6018983942199055e-26 0.48703423142433167 0.6867076754570007 0.064094677567482 -8.567714098795418e-28 0.0 0.2951499950589256 -0.11234999647001061 0.4809000069994156 -1.2091995794109558 1.2091995265551612 -1.2091995551462715 0.0 0.0 0.0 0.0 0.0 0.0 9.981973636990763e-07 -5.258967243140429e-07 1.1449168978424662e-06 -1.810306051294093e-15 1.8116749963477894e-08 4.3070945294829353e-08 0.2951500000000001 -0.11235000004997345 0.4808999999601586 -1.2091995763071837 1.2091995763071837 -1.209199576059172 0.0 0.0 0.0 0.0 0.0 0.0
222.0 5.2475385148298415e-17 -1.5707963267948966 -1.5707963267948966 0.0 1.5707963267948966 0.0 0.0 0.0 0.0 0.0 0.0 0.0 0.0 0.0 0.0 0.0 0.0 0.0 -1.6018983243994446e-26 0.4870342307692309 0.6867077006507593 0.06409467546754684 -8.567713817370151e-28 0.0 -2.1032924999364705e-25 6.394759450000002 6.3947594500000005 0.2913103000000004 -3.894025929994733e-27 0.0 5.2475385148298415e-17 -1.570796314870016 -1.570796314870016 0.0 1.5707963705062866 0.0 0.0 0.0 0.0 0.0 0.0 0.0 -1.6018983942199055e-26 0.48703423142433167 0.6867076754570007 0.064094677567482 -8.567714098795418e-28 0.0 -1.6018983942199055e-26 0.48703423142433167 0.6867076754570007 0.064094677567482 -8.567714098795418e-28 0.0 0.2951499950589256 -0.11234999647001061 0.4809000069994156 -1.2091995794109558 1.2091995265551612 -1.2091995551462715 0.0 0.0 0.0 0.0 0.0 0.0 9.981973636990763e-07 -5.258967243140429e-07 1.1449168978424662e-06 -1.810306051294093e-15 1.8116749963477894e-08 4.3070945294829353e-08 0.2951500000000001 -0.11235000004997345 0.4808999999601586 -1.2091995763071837 1.2091995763071837 -1.209199576059172 0.0 0.0 0.0 0.0 0.0 0.0
222.00799999999998 5.2475385148298415e-17 -1.5707963267948966 -1.5707963267948966 0.0 1.5707963267948966 0.0 0.0 0.0 0.0 0.0 0.0 0.0 0.0 0.0 0.0 0.0 0.0 0.0 -1.6018983243994446e-26 0.4870342307692309 0.6867077006507593 0.06409467546754684 -8.567713817370151e-28 0.0 -2.1032924999364705e-25 6.394759450000002 6.3947594500000005 0.2913103000000004 -3.894025929994733e-27 0.0 5.2475385148298415e-17 -1.570796314870016 -1.570796314870016 0.0 1.5707963705062866 0.0 0.0 0.0 0.0 0.0 0.0 0.0 -1.6018983942199055e-26 0.48703423142433167 0.6867076754570007 0.064094677567482 -8.567714098795418e-28 0.0 -1.6018983942199055e-26 0.48703423142433167 0.6867076754570007 0.064094677567482 -8.567714098795418e-28 0.0 0.2951499950589256 -0.11234999647001061 0.4809000069994156 -1.2091995794109558 1.2091995265551612 -1.2091995551462715 0.0 0.0 0.0 0.0 0.0 0.0 9.981973636990763e-07 -5.258967243140429e-07 1.1449168978424662e-06 -1.810306051294093e-15 1.8116749963477894e-08 4.3070945294829353e-08 0.2951500000000001 -0.11235000004997345 0.4808999999601586 -1.2091995763071837 1.2091995763071837 -1.209199576059172 0.0 0.0 0.0 0.0 0.0 0.0
222.016 5.2475385148298415e-17 -1.5707963267948966 -1.5707963267948966 0.0 1.5707963267948966 0.0 0.0 0.0 0.0 0.0 0.0 0.0 0.0 0.0 0.0 0.0 0.0 0.0 -1.6018983243994446e-26 0.4870342307692309 0.6867077006507593 0.06409467546754684 -8.567713817370151e-28 0.0 -2.1032924999364705e-25 6.394759450000002 6.3947594500000005 0.2913103000000004 -3.894025929994733e-27 0.0 5.2475385148298415e-17 -1.570796314870016 -1.570796314870016 0.0 1.5707963705062866 0.0 0.0 0.0 0.0 0.0 0.0 0.0 -1.6018983942199055e-26 0.48703423142433167 0.6867076754570007 0.064094677567482 -8.567714098795418e-28 0.0 -1.6018983942199055e-26 0.48703423142433167 0.6867076754570007 0.064094677567482 -8.567714098795418e-28 0.0 0.2951499950589256 -0.11234999647001061 0.4809000069994156 -1.2091995794109558 1.2091995265551612 -1.2091995551462715 0.0 0.0 0.0 0.0 0.0 0.0 9.981973636990763e-07 -5.258967243140429e-07 1.1449168978424662e-06 -1.810306051294093e-15 1.8116749963477894e-08 4.3070945294829353e-08 0.2951500000000001 -0.11235000004997345 0.4808999999601586 -1.2091995763071837 1.2091995763071837 -1.209199576059172 0.0 0.0 0.0 0.0 0.0 0.0
222.024 5.2475385148298415e-17 -1.5707963267948966 -1.5707963267948966 0.0 1.5707963267948966 0.0 0.0 0.0 0.0 0.0 0.0 0.0 0.0 0.0 0.0 0.0 0.0 0.0 -1.6018983243994446e-26 0.4870342307692309 0.6867077006507593 0.06409467546754684 -8.567713817370151e-28 0.0 -2.1032924999364705e-25 6.394759450000002 6.3947594500000005 0.2913103000000004 -3.894025929994733e-27 0.0 5.2475385148298415e-17 -1.570796314870016 -1.570796314870016 0.0 1.5707963705062866 0.0 0.0 0.0 0.0 0.0 0.0 0.0 -1.6018983942199055e-26 0.48703423142433167 0.6867076754570007 0.064094677567482 -8.567714098795418e-28 0.0 -1.6018983942199055e-26 0.48703423142433167 0.6867076754570007 0.064094677567482 -8.567714098795418e-28 0.0 0.2951499950589256 -0.11234999647001061 0.4809000069994156 -1.2091995794109558 1.2091995265551612 -1.2091995551462715 0.0 0.0 0.0 0.0 0.0 0.0 9.981973636990763e-07 -5.258967243140429e-07 1.1449168978424662e-06 -1.810306051294093e-15 1.8116749963477894e-08 4.3070945294829353e-08 0.2951500000000001 -0.11235000004997345 0.4808999999601586 -1.2091995763071837 1.2091995763071837 -1.209199576059172 0.0 0.0 0.0 0.0 0.0 0.0
222.03199999999998 5.2475385148298415e-17 -1.5707963267948966 -1.5707963267948966 0.0 1.5707963267948966 0.0 0.0 0.0 0.0 0.0 0.0 0.0 0.0 0.0 0.0 0.0 0.0 0.0 -1.6018983243994446e-26 0.4870342307692309 0.6867077006507593 0.06409467546754684 -8.567713817370151e-28 0.0 -2.1032924999364705e-25 6.394759450000002 6.3947594500000005 0.2913103000000004 -3.894025929994733e-27 0.0 5.2475385148298415e-17 -1.570796314870016 -1.570796314870016 0.0 1.5707963705062866 0.0 0.0 0.0 0.0 0.0 0.0 0.0 -1.6018983942199055e-26 0.48703423142433167 0.6867076754570007 0.064094677567482 -8.567714098795418e-28 0.0 -1.6018983942199055e-26 0.48703423142433167 0.6867076754570007 0.064094677567482 -8.567714098795418e-28 0.0 0.2951499950589256 -0.11234999647001061 0.4809000069994156 -1.2091995794109558 1.2091995265551612 -1.2091995551462715 0.0 0.0 0.0 0.0 0.0 0.0 9.981973636990763e-07 -5.258967243140429e-07 1.1449168978424662e-06 -1.810306051294093e-15 1.8116749963477894e-08 4.3070945294829353e-08 0.2951500000000001 -0.11235000004997345 0.4808999999601586 -1.2091995763071837 1.2091995763071837 -1.209199576059172 0.0 0.0 0.0 0.0 0.0 0.0
222.04 5.2475385148298415e-17 -1.5707963267948966 -1.5707963267948966 0.0 1.5707963267948966 0.0 0.0 0.0 0.0 0.0 0.0 0.0 0.0 0.0 0.0 0.0 0.0 0.0 -1.6018983243994446e-26 0.4870342307692309 0.6867077006507593 0.06409467546754684 -8.567713817370151e-28 0.0 -2.1032924999364705e-25 6.394759450000002 6.3947594500000005 0.2913103000000004 -3.894025929994733e-27 0.0 5.2475385148298415e-17 -1.570796314870016 -1.570796314870016 0.0 1.5707963705062866 0.0 0.0 0.0 0.0 0.0 0.0 0.0 -1.6018983942199055e-26 0.48703423142433167 0.6867076754570007 0.064094677567482 -8.567714098795418e-28 0.0 -1.6018983942199055e-26 0.48703423142433167 0.6867076754570007 0.064094677567482 -8.567714098795418e-28 0.0 0.2951499950589256 -0.11234999647001061 0.4809000069994156 -1.2091995794109558 1.2091995265551612 -1.2091995551462715 0.0 0.0 0.0 0.0 0.0 0.0 9.981973636990763e-07 -5.258967243140429e-07 1.1449168978424662e-06 -1.810306051294093e-15 1.8116749963477894e-08 4.3070945294829353e-08 0.2951500000000001 -0.11235000004997345 0.4808999999601586 -1.2091995763071837 1.2091995763071837 -1.209199576059172 0.0 0.0 0.0 0.0 0.0 0.0
222.048 5.2475385148298415e-17 -1.5707963267948966 -1.5707963267948966 0.0 1.5707963267948966 0.0 0.0 0.0 0.0 0.0 0.0 0.0 0.0 0.0 0.0 0.0 0.0 0.0 -1.6018983243994446e-26 0.4870342307692309 0.6867077006507593 0.06409467546754684 -8.567713817370151e-28 0.0 -2.1032924999364705e-25 6.394759450000002 6.3947594500000005 0.2913103000000004 -3.894025929994733e-27 0.0 5.2475385148298415e-17 -1.570796314870016 -1.570796314870016 0.0 1.5707963705062866 0.0 0.0 0.0 0.0 0.0 0.0 0.0 -1.6018983942199055e-26 0.48703423142433167 0.6867076754570007 0.064094677567482 -8.567714098795418e-28 0.0 -1.6018983942199055e-26 0.48703423142433167 0.6867076754570007 0.064094677567482 -8.567714098795418e-28 0.0 0.2951499950589256 -0.11234999647001061 0.4809000069994156 -1.2091995794109558 1.2091995265551612 -1.2091995551462715 0.0 0.0 0.0 0.0 0.0 0.0 9.981973636990763e-07 -5.258967243140429e-07 1.1449168978424662e-06 -1.810306051294093e-15 1.8116749963477894e-08 4.3070945294829353e-08 0.2951500000000001 -0.11235000004997345 0.4808999999601586 -1.2091995763071837 1.2091995763071837 -1.209199576059172 0.0 0.0 0.0 0.0 0.0 0.0
222.05599999999998 5.2475385148298415e-17 -1.5707963267948966 -1.5707963267948966 0.0 1.5707963267948966 0.0 0.0 0.0 0.0 0.0 0.0 0.0 0.0 0.0 0.0 0.0 0.0 0.0 -1.6018983243994446e-26 0.4870342307692309 0.6867077006507593 0.06409467546754684 -8.567713817370151e-28 0.0 -2.1032924999364705e-25 6.394759450000002 6.3947594500000005 0.2913103000000004 -3.894025929994733e-27 0.0 5.2475385148298415e-17 -1.570796314870016 -1.570796314870016 0.0 1.5707963705062866 0.0 0.0 0.0 0.0 0.0 0.0 0.0 -1.6018983942199055e-26 0.48703423142433167 0.6867076754570007 0.064094677567482 -8.567714098795418e-28 0.0 -1.6018983942199055e-26 0.48703423142433167 0.6867076754570007 0.064094677567482 -8.567714098795418e-28 0.0 0.2951499950589256 -0.11234999647001061 0.4809000069994156 -1.2091995794109558 1.2091995265551612 -1.2091995551462715 0.0 0.0 0.0 0.0 0.0 0.0 9.981973636990763e-07 -5.258967243140429e-07 1.1449168978424662e-06 -1.810306051294093e-15 1.8116749963477894e-08 4.3070945294829353e-08 0.2951500000000001 -0.11235000004997345 0.4808999999601586 -1.2091995763071837 1.2091995763071837 -1.209199576059172 0.0 0.0 0.0 0.0 0.0 0.0
222.064 5.2475385148298415e-17 -1.5707963267948966 -1.5707963267948966 0.0 1.5707963267948966 0.0 0.0 0.0 0.0 0.0 0.0 0.0 0.0 0.0 0.0 0.0 0.0 0.0 -1.6018983243994446e-26 0.4870342307692309 0.6867077006507593 0.06409467546754684 -8.567713817370151e-28 0.0 -2.1032924999364705e-25 6.394759450000002 6.3947594500000005 0.2913103000000004 -3.894025929994733e-27 0.0 5.2475385148298415e-17 -1.570796314870016 -1.570796314870016 0.0 1.5707963705062866 0.0 0.0 0.0 0.0 0.0 0.0 0.0 -1.6018983942199055e-26 0.48703423142433167 0.6867076754570007 0.064094677567482 -8.567714098795418e-28 0.0 -1.6018983942199055e-26 0.48703423142433167 0.6867076754570007 0.064094677567482 -8.567714098795418e-28 0.0 0.2951499950589256 -0.11234999647001061 0.4809000069994156 -1.2091995794109558 1.2091995265551612 -1.2091995551462715 0.0 0.0 0.0 0.0 0.0 0.0 9.981973636990763e-07 -5.258967243140429e-07 1.1449168978424662e-06 -1.810306051294093e-15 1.8116749963477894e-08 4.3070945294829353e-08 0.2951500000000001 -0.11235000004997345 0.4808999999601586 -1.2091995763071837 1.2091995763071837 -1.209199576059172 0.0 0.0 0.0 0.0 0.0 0.0
222.072 5.2475385148298415e-17 -1.5707963267948966 -1.5707963267948966 0.0 1.5707963267948966 0.0 0.0 0.0 0.0 0.0 0.0 0.0 0.0 0.0 0.0 0.0 0.0 0.0 -1.6018983243994446e-26 0.4870342307692309 0.6867077006507593 0.06409467546754684 -8.567713817370151e-28 0.0 -2.1032924999364705e-25 6.394759450000002 6.3947594500000005 0.2913103000000004 -3.894025929994733e-27 0.0 5.2475385148298415e-17 -1.570796314870016 -1.570796314870016 0.0 1.5707963705062866 0.0 0.0 0.0 0.0 0.0 0.0 0.0 -1.6018983942199055e-26 0.48703423142433167 0.6867076754570007 0.064094677567482 -8.567714098795418e-28 0.0 -1.6018983942199055e-26 0.48703423142433167 0.6867076754570007 0.064094677567482 -8.567714098795418e-28 0.0 0.2951499950589256 -0.11234999647001061 0.4809000069994156 -1.2091995794109558 1.2091995265551612 -1.2091995551462715 0.0 0.0 0.0 0.0 0.0 0.0 9.981973636990763e-07 -5.258967243140429e-07 1.1449168978424662e-06 -1.810306051294093e-15 1.8116749963477894e-08 4.3070945294829353e-08 0.2951500000000001 -0.11235000004997345 0.4808999999601586 -1.2091995763071837 1.2091995763071837 -1.209199576059172 0.0 0.0 0.0 0.0 0.0 0.0
222.07999999999998 5.2475385148298415e-17 -1.5707963267948966 -1.5707963267948966 0.0 1.5707963267948966 0.0 0.0 0.0 0.0 0.0 0.0 0.0 0.0 0.0 0.0 0.0 0.0 0.0 -1.6018983243994446e-26 0.4870342307692309 0.6867077006507593 0.06409467546754684 -8.567713817370151e-28 0.0 -2.1032924999364705e-25 6.394759450000002 6.3947594500000005 0.2913103000000004 -3.894025929994733e-27 0.0 5.2475385148298415e-17 -1.570796314870016 -1.570796314870016 0.0 1.5707963705062866 0.0 0.0 0.0 0.0 0.0 0.0 0.0 -1.6018983942199055e-26 0.48703423142433167 0.6867076754570007 0.064094677567482 -8.567714098795418e-28 0.0 -1.6018983942199055e-26 0.48703423142433167 0.6867076754570007 0.064094677567482 -8.567714098795418e-28 0.0 0.2951499950589256 -0.11234999647001061 0.4809000069994156 -1.2091995794109558 1.2091995265551612 -1.2091995551462715 0.0 0.0 0.0 0.0 0.0 0.0 9.981973636990763e-07 -5.258967243140429e-07 1.1449168978424662e-06 -1.810306051294093e-15 1.8116749963477894e-08 4.3070945294829353e-08 0.2951500000000001 -0.11235000004997345 0.4808999999601586 -1.2091995763071837 1.2091995763071837 -1.209199576059172 0.0 0.0 0.0 0.0 0.0 0.0
222.088 5.2475385148298415e-17 -1.5707963267948966 -1.5707963267948966 0.0 1.5707963267948966 0.0 0.0 0.0 0.0 0.0 0.0 0.0 0.0 0.0 0.0 0.0 0.0 0.0 -1.6018983243994446e-26 0.4870342307692309 0.6867077006507593 0.06409467546754684 -8.567713817370151e-28 0.0 -2.1032924999364705e-25 6.394759450000002 6.3947594500000005 0.2913103000000004 -3.894025929994733e-27 0.0 5.2475385148298415e-17 -1.570796314870016 -1.570796314870016 0.0 1.5707963705062866 0.0 0.0 0.0 0.0 0.0 0.0 0.0 -1.6018983942199055e-26 0.48703423142433167 0.6867076754570007 0.064094677567482 -8.567714098795418e-28 0.0 -1.6018983942199055e-26 0.48703423142433167 0.6867076754570007 0.064094677567482 -8.567714098795418e-28 0.0 0.2951499950589256 -0.11234999647001061 0.4809000069994156 -1.2091995794109558 1.2091995265551612 -1.2091995551462715 0.0 0.0 0.0 0.0 0.0 0.0 9.981973636990763e-07 -5.258967243140429e-07 1.1449168978424662e-06 -1.810306051294093e-15 1.8116749963477894e-08 4.3070945294829353e-08 0.2951500000000001 -0.11235000004997345 0.4808999999601586 -1.2091995763071837 1.2091995763071837 -1.209199576059172 0.0 0.0 0.0 0.0 0.0 0.0
222.096 5.2475385148298415e-17 -1.5707963267948966 -1.5707963267948966 0.0 1.5707963267948966 0.0 0.0 0.0 0.0 0.0 0.0 0.0 0.0 0.0 0.0 0.0 0.0 0.0 -1.6018983243994446e-26 0.4870342307692309 0.6867077006507593 0.06409467546754684 -8.567713817370151e-28 0.0 -2.1032924999364705e-25 6.394759450000002 6.3947594500000005 0.2913103000000004 -3.894025929994733e-27 0.0 5.2475385148298415e-17 -1.570796314870016 -1.570796314870016 0.0 1.5707963705062866 0.0 0.0 0.0 0.0 0.0 0.0 0.0 -1.6018983942199055e-26 0.48703423142433167 0.6867076754570007 0.064094677567482 -8.567714098795418e-28 0.0 -1.6018983942199055e-26 0.48703423142433167 0.6867076754570007 0.064094677567482 -8.567714098795418e-28 0.0 0.2951499950589256 -0.11234999647001061 0.4809000069994156 -1.2091995794109558 1.2091995265551612 -1.2091995551462715 0.0 0.0 0.0 0.0 0.0 0.0 9.981973636990763e-07 -5.258967243140429e-07 1.1449168978424662e-06 -1.810306051294093e-15 1.8116749963477894e-08 4.3070945294829353e-08 0.2951500000000001 -0.11235000004997345 0.4808999999601586 -1.2091995763071837 1.2091995763071837 -1.209199576059172 0.0 0.0 0.0 0.0 0.0 0.0
222.10399999999998 5.2475385148298415e-17 -1.5707963267948966 -1.5707963267948966 0.0 1.5707963267948966 0.0 0.0 0.0 0.0 0.0 0.0 0.0 0.0 0.0 0.0 0.0 0.0 0.0 -1.6018983243994446e-26 0.4870342307692309 0.6867077006507593 0.06409467546754684 -8.567713817370151e-28 0.0 -2.1032924999364705e-25 6.394759450000002 6.3947594500000005 0.2913103000000004 -3.894025929994733e-27 0.0 5.2475385148298415e-17 -1.570796314870016 -1.570796314870016 0.0 1.5707963705062866 0.0 0.0 0.0 0.0 0.0 0.0 0.0 -1.6018983942199055e-26 0.48703423142433167 0.6867076754570007 0.064094677567482 -8.567714098795418e-28 0.0 -1.6018983942199055e-26 0.48703423142433167 0.6867076754570007 0.064094677567482 -8.567714098795418e-28 0.0 0.2951499950589256 -0.11234999647001061 0.4809000069994156 -1.2091995794109558 1.2091995265551612 -1.2091995551462715 0.0 0.0 0.0 0.0 0.0 0.0 9.981973636990763e-07 -5.258967243140429e-07 1.1449168978424662e-06 -1.810306051294093e-15 1.8116749963477894e-08 4.3070945294829353e-08 0.2951500000000001 -0.11235000004997345 0.4808999999601586 -1.2091995763071837 1.2091995763071837 -1.209199576059172 0.0 0.0 0.0 0.0 0.0 0.0
222.112 5.2475385148298415e-17 -1.5707963267948966 -1.5707963267948966 0.0 1.5707963267948966 0.0 0.0 0.0 0.0 0.0 0.0 0.0 0.0 0.0 0.0 0.0 0.0 0.0 -1.6018983243994446e-26 0.4870342307692309 0.6867077006507593 0.06409467546754684 -8.567713817370151e-28 0.0 -2.1032924999364705e-25 6.394759450000002 6.3947594500000005 0.2913103000000004 -3.894025929994733e-27 0.0 5.2475385148298415e-17 -1.570796314870016 -1.570796314870016 0.0 1.5707963705062866 0.0 0.0 0.0 0.0 0.0 0.0 0.0 -1.6018983942199055e-26 0.48703423142433167 0.6867076754570007 0.064094677567482 -8.567714098795418e-28 0.0 -1.6018983942199055e-26 0.48703423142433167 0.6867076754570007 0.064094677567482 -8.567714098795418e-28 0.0 0.2951499950589256 -0.11234999647001061 0.4809000069994156 -1.2091995794109558 1.2091995265551612 -1.2091995551462715 0.0 0.0 0.0 0.0 0.0 0.0 9.981973636990763e-07 -5.258967243140429e-07 1.1449168978424662e-06 -1.810306051294093e-15 1.8116749963477894e-08 4.3070945294829353e-08 0.2951500000000001 -0.11235000004997345 0.4808999999601586 -1.2091995763071837 1.2091995763071837 -1.209199576059172 0.0 0.0 0.0 0.0 0.0 0.0
222.11999999999998 5.2475385148298415e-17 -1.5707963267948966 -1.5707963267948966 0.0 1.5707963267948966 0.0 0.0 0.0 0.0 0.0 0.0 0.0 0.0 0.0 0.0 0.0 0.0 0.0 -1.6018983243994446e-26 0.4870342307692309 0.6867077006507593 0.06409467546754684 -8.567713817370151e-28 0.0 -2.1032924999364705e-25 6.394759450000002 6.3947594500000005 0.2913103000000004 -3.894025929994733e-27 0.0 5.2475385148298415e-17 -1.570796314870016 -1.570796314870016 0.0 1.5707963705062866 0.0 0.0 0.0 0.0 0.0 0.0 0.0 -1.6018983942199055e-26 0.48703423142433167 0.6867076754570007 0.064094677567482 -8.567714098795418e-28 0.0 -1.6018983942199055e-26 0.48703423142433167 0.6867076754570007 0.064094677567482 -8.567714098795418e-28 0.0 0.2951499950589256 -0.11234999647001061 0.4809000069994156 -1.2091995794109558 1.2091995265551612 -1.2091995551462715 0.0 0.0 0.0 0.0 0.0 0.0 9.981973636990763e-07 -5.258967243140429e-07 1.1449168978424662e-06 -1.810306051294093e-15 1.8116749963477894e-08 4.3070945294829353e-08 0.2951500000000001 -0.11235000004997345 0.4808999999601586 -1.2091995763071837 1.2091995763071837 -1.209199576059172 0.0 0.0 0.0 0.0 0.0 0.0
222.128 5.2475385148298415e-17 -1.5707963267948966 -1.5707963267948966 0.0 1.5707963267948966 0.0 0.0 0.0 0.0 0.0 0.0 0.0 0.0 0.0 0.0 0.0 0.0 0.0 -1.6018983243994446e-26 0.4870342307692309 0.6867077006507593 0.06409467546754684 -8.567713817370151e-28 0.0 -2.1032924999364705e-25 6.394759450000002 6.3947594500000005 0.2913103000000004 -3.894025929994733e-27 0.0 5.2475385148298415e-17 -1.570796314870016 -1.570796314870016 0.0 1.5707963705062866 0.0 0.0 0.0 0.0 0.0 0.0 0.0 -1.6018983942199055e-26 0.48703423142433167 0.6867076754570007 0.064094677567482 -8.567714098795418e-28 0.0 -1.6018983942199055e-26 0.48703423142433167 0.6867076754570007 0.064094677567482 -8.567714098795418e-28 0.0 0.2951499950589256 -0.11234999647001061 0.4809000069994156 -1.2091995794109558 1.2091995265551612 -1.2091995551462715 0.0 0.0 0.0 0.0 0.0 0.0 9.981973636990763e-07 -5.258967243140429e-07 1.1449168978424662e-06 -1.810306051294093e-15 1.8116749963477894e-08 4.3070945294829353e-08 0.2951500000000001 -0.11235000004997345 0.4808999999601586 -1.2091995763071837 1.2091995763071837 -1.209199576059172 0.0 0.0 0.0 0.0 0.0 0.0
222.136 5.2475385148298415e-17 -1.5707963267948966 -1.5707963267948966 0.0 1.5707963267948966 0.0 0.0 0.0 0.0 0.0 0.0 0.0 0.0 0.0 0.0 0.0 0.0 0.0 -1.6018983243994446e-26 0.4870342307692309 0.6867077006507593 0.06409467546754684 -8.567713817370151e-28 0.0 -2.1032924999364705e-25 6.394759450000002 6.3947594500000005 0.2913103000000004 -3.894025929994733e-27 0.0 5.2475385148298415e-17 -1.570796314870016 -1.570796314870016 0.0 1.5707963705062866 0.0 0.0 0.0 0.0 0.0 0.0 0.0 -1.6018983942199055e-26 0.48703423142433167 0.6867076754570007 0.064094677567482 -8.567714098795418e-28 0.0 -1.6018983942199055e-26 0.48703423142433167 0.6867076754570007 0.064094677567482 -8.567714098795418e-28 0.0 0.2951499950589256 -0.11234999647001061 0.4809000069994156 -1.2091995794109558 1.2091995265551612 -1.2091995551462715 0.0 0.0 0.0 0.0 0.0 0.0 9.981973636990763e-07 -5.258967243140429e-07 1.1449168978424662e-06 -1.810306051294093e-15 1.8116749963477894e-08 4.3070945294829353e-08 0.2951500000000001 -0.11235000004997345 0.4808999999601586 -1.2091995763071837 1.2091995763071837 -1.209199576059172 0.0 0.0 0.0 0.0 0.0 0.0
222.14399999999998 5.2475385148298415e-17 -1.5707963267948966 -1.5707963267948966 0.0 1.5707963267948966 0.0 0.0 0.0 0.0 0.0 0.0 0.0 0.0 0.0 0.0 0.0 0.0 0.0 -1.6018983243994446e-26 0.4870342307692309 0.6867077006507593 0.06409467546754684 -8.567713817370151e-28 0.0 -2.1032924999364705e-25 6.394759450000002 6.3947594500000005 0.2913103000000004 -3.894025929994733e-27 0.0 5.2475385148298415e-17 -1.570796314870016 -1.570796314870016 0.0 1.5707963705062866 0.0 0.0 0.0 0.0 0.0 0.0 0.0 -1.6018983942199055e-26 0.48703423142433167 0.6867076754570007 0.064094677567482 -8.567714098795418e-28 0.0 -1.6018983942199055e-26 0.48703423142433167 0.6867076754570007 0.064094677567482 -8.567714098795418e-28 0.0 0.2951499950589256 -0.11234999647001061 0.4809000069994156 -1.2091995794109558 1.2091995265551612 -1.2091995551462715 0.0 0.0 0.0 0.0 0.0 0.0 9.981973636990763e-07 -5.258967243140429e-07 1.1449168978424662e-06 -1.810306051294093e-15 1.8116749963477894e-08 4.3070945294829353e-08 0.2951500000000001 -0.11235000004997345 0.4808999999601586 -1.2091995763071837 1.2091995763071837 -1.209199576059172 0.0 0.0 0.0 0.0 0.0 0.0
222.152 5.2475385148298415e-17 -1.5707963267948966 -1.5707963267948966 0.0 1.5707963267948966 0.0 0.0 0.0 0.0 0.0 0.0 0.0 0.0 0.0 0.0 0.0 0.0 0.0 -1.6018983243994446e-26 0.4870342307692309 0.6867077006507593 0.06409467546754684 -8.567713817370151e-28 0.0 -2.1032924999364705e-25 6.394759450000002 6.3947594500000005 0.2913103000000004 -3.894025929994733e-27 0.0 5.2475385148298415e-17 -1.570796314870016 -1.570796314870016 0.0 1.5707963705062866 0.0 0.0 0.0 0.0 0.0 0.0 0.0 -1.6018983942199055e-26 0.48703423142433167 0.6867076754570007 0.064094677567482 -8.567714098795418e-28 0.0 -1.6018983942199055e-26 0.48703423142433167 0.6867076754570007 0.064094677567482 -8.567714098795418e-28 0.0 0.2951499950589256 -0.11234999647001061 0.4809000069994156 -1.2091995794109558 1.2091995265551612 -1.2091995551462715 0.0 0.0 0.0 0.0 0.0 0.0 9.981973636990763e-07 -5.258967243140429e-07 1.1449168978424662e-06 -1.810306051294093e-15 1.8116749963477894e-08 4.3070945294829353e-08 0.2951500000000001 -0.11235000004997345 0.4808999999601586 -1.2091995763071837 1.2091995763071837 -1.209199576059172 0.0 0.0 0.0 0.0 0.0 0.0
222.16 5.2475385148298415e-17 -1.5707963267948966 -1.5707963267948966 0.0 1.5707963267948966 0.0 0.0 0.0 0.0 0.0 0.0 0.0 0.0 0.0 0.0 0.0 0.0 0.0 -1.6018983243994446e-26 0.4870342307692309 0.6867077006507593 0.06409467546754684 -8.567713817370151e-28 0.0 -2.1032924999364705e-25 6.394759450000002 6.3947594500000005 0.2913103000000004 -3.894025929994733e-27 0.0 5.2475385148298415e-17 -1.570796314870016 -1.570796314870016 0.0 1.5707963705062866 0.0 0.0 0.0 0.0 0.0 0.0 0.0 -1.6018983942199055e-26 0.48703423142433167 0.6867076754570007 0.064094677567482 -8.567714098795418e-28 0.0 -1.6018983942199055e-26 0.48703423142433167 0.6867076754570007 0.064094677567482 -8.567714098795418e-28 0.0 0.2951499950589256 -0.11234999647001061 0.4809000069994156 -1.2091995794109558 1.2091995265551612 -1.2091995551462715 0.0 0.0 0.0 0.0 0.0 0.0 9.981973636990763e-07 -5.258967243140429e-07 1.1449168978424662e-06 -1.810306051294093e-15 1.8116749963477894e-08 4.3070945294829353e-08 0.2951500000000001 -0.11235000004997345 0.4808999999601586 -1.2091995763071837 1.2091995763071837 -1.209199576059172 0.0 0.0 0.0 0.0 0.0 0.0
222.16799999999998 5.2475385148298415e-17 -1.5707963267948966 -1.5707963267948966 0.0 1.5707963267948966 0.0 0.0 0.0 0.0 0.0 0.0 0.0 0.0 0.0 0.0 0.0 0.0 0.0 -1.6018983243994446e-26 0.4870342307692309 0.6867077006507593 0.06409467546754684 -8.567713817370151e-28 0.0 -2.1032924999364705e-25 6.394759450000002 6.3947594500000005 0.2913103000000004 -3.894025929994733e-27 0.0 5.2475385148298415e-17 -1.570796314870016 -1.570796314870016 0.0 1.5707963705062866 0.0 0.0 0.0 0.0 0.0 0.0 0.0 -1.6018983942199055e-26 0.48703423142433167 0.6867076754570007 0.064094677567482 -8.567714098795418e-28 0.0 -1.6018983942199055e-26 0.48703423142433167 0.6867076754570007 0.064094677567482 -8.567714098795418e-28 0.0 0.2951499950589256 -0.11234999647001061 0.4809000069994156 -1.2091995794109558 1.2091995265551612 -1.2091995551462715 0.0 0.0 0.0 0.0 0.0 0.0 9.981973636990763e-07 -5.258967243140429e-07 1.1449168978424662e-06 -1.810306051294093e-15 1.8116749963477894e-08 4.3070945294829353e-08 0.2951500000000001 -0.11235000004997345 0.4808999999601586 -1.2091995763071837 1.2091995763071837 -1.209199576059172 0.0 0.0 0.0 0.0 0.0 0.0
222.176 5.2475385148298415e-17 -1.5707963267948966 -1.5707963267948966 0.0 1.5707963267948966 0.0 0.0 0.0 0.0 0.0 0.0 0.0 0.0 0.0 0.0 0.0 0.0 0.0 -1.6018983243994446e-26 0.4870342307692309 0.6867077006507593 0.06409467546754684 -8.567713817370151e-28 0.0 -2.1032924999364705e-25 6.394759450000002 6.3947594500000005 0.2913103000000004 -3.894025929994733e-27 0.0 5.2475385148298415e-17 -1.570796314870016 -1.570796314870016 0.0 1.5707963705062866 0.0 0.0 0.0 0.0 0.0 0.0 0.0 -1.6018983942199055e-26 0.48703423142433167 0.6867076754570007 0.064094677567482 -8.567714098795418e-28 0.0 -1.6018983942199055e-26 0.48703423142433167 0.6867076754570007 0.064094677567482 -8.567714098795418e-28 0.0 0.2951499950589256 -0.11234999647001061 0.4809000069994156 -1.2091995794109558 1.2091995265551612 -1.2091995551462715 0.0 0.0 0.0 0.0 0.0 0.0 9.981973636990763e-07 -5.258967243140429e-07 1.1449168978424662e-06 -1.810306051294093e-15 1.8116749963477894e-08 4.3070945294829353e-08 0.2951500000000001 -0.11235000004997345 0.4808999999601586 -1.2091995763071837 1.2091995763071837 -1.209199576059172 0.0 0.0 0.0 0.0 0.0 0.0
222.184 5.2475385148298415e-17 -1.5707963267948966 -1.5707963267948966 0.0 1.5707963267948966 0.0 0.0 0.0 0.0 0.0 0.0 0.0 0.0 0.0 0.0 0.0 0.0 0.0 -1.6018983243994446e-26 0.4870342307692309 0.6867077006507593 0.06409467546754684 -8.567713817370151e-28 0.0 -2.1032924999364705e-25 6.394759450000002 6.3947594500000005 0.2913103000000004 -3.894025929994733e-27 0.0 5.2475385148298415e-17 -1.570796314870016 -1.570796314870016 0.0 1.5707963705062866 0.0 0.0 0.0 0.0 0.0 0.0 0.0 -1.6018983942199055e-26 0.48703423142433167 0.6867076754570007 0.064094677567482 -8.567714098795418e-28 0.0 -1.6018983942199055e-26 0.48703423142433167 0.6867076754570007 0.064094677567482 -8.567714098795418e-28 0.0 0.2951499950589256 -0.11234999647001061 0.4809000069994156 -1.2091995794109558 1.2091995265551612 -1.2091995551462715 0.0 0.0 0.0 0.0 0.0 0.0 9.981973636990763e-07 -5.258967243140429e-07 1.1449168978424662e-06 -1.810306051294093e-15 1.8116749963477894e-08 4.3070945294829353e-08 0.2951500000000001 -0.11235000004997345 0.4808999999601586 -1.2091995763071837 1.2091995763071837 -1.209199576059172 0.0 0.0 0.0 0.0 0.0 0.0
222.19199999999998 5.2475385148298415e-17 -1.5707963267948966 -1.5707963267948966 0.0 1.5707963267948966 0.0 0.0 0.0 0.0 0.0 0.0 0.0 0.0 0.0 0.0 0.0 0.0 0.0 -1.6018983243994446e-26 0.4870342307692309 0.6867077006507593 0.06409467546754684 -8.567713817370151e-28 0.0 -2.1032924999364705e-25 6.394759450000002 6.3947594500000005 0.2913103000000004 -3.894025929994733e-27 0.0 5.2475385148298415e-17 -1.570796314870016 -1.570796314870016 0.0 1.5707963705062866 0.0 0.0 0.0 0.0 0.0 0.0 0.0 -1.6018983942199055e-26 0.48703423142433167 0.6867076754570007 0.064094677567482 -8.567714098795418e-28 0.0 -1.6018983942199055e-26 0.48703423142433167 0.6867076754570007 0.064094677567482 -8.567714098795418e-28 0.0 0.2951499950589256 -0.11234999647001061 0.4809000069994156 -1.2091995794109558 1.2091995265551612 -1.2091995551462715 0.0 0.0 0.0 0.0 0.0 0.0 9.981973636990763e-07 -5.258967243140429e-07 1.1449168978424662e-06 -1.810306051294093e-15 1.8116749963477894e-08 4.3070945294829353e-08 0.2951500000000001 -0.11235000004997345 0.4808999999601586 -1.2091995763071837 1.2091995763071837 -1.209199576059172 0.0 0.0 0.0 0.0 0.0 0.0
222.2 5.2475385148298415e-17 -1.5707963267948966 -1.5707963267948966 0.0 1.5707963267948966 0.0 0.0 0.0 0.0 0.0 0.0 0.0 0.0 0.0 0.0 0.0 0.0 0.0 -1.6018983243994446e-26 0.4870342307692309 0.6867077006507593 0.06409467546754684 -8.567713817370151e-28 0.0 -2.1032924999364705e-25 6.394759450000002 6.3947594500000005 0.2913103000000004 -3.894025929994733e-27 0.0 5.2475385148298415e-17 -1.570796314870016 -1.570796314870016 0.0 1.5707963705062866 0.0 0.0 0.0 0.0 0.0 0.0 0.0 -1.6018983942199055e-26 0.48703423142433167 0.6867076754570007 0.064094677567482 -8.567714098795418e-28 0.0 -1.6018983942199055e-26 0.48703423142433167 0.6867076754570007 0.064094677567482 -8.567714098795418e-28 0.0 0.2951499950589256 -0.11234999647001061 0.4809000069994156 -1.2091995794109558 1.2091995265551612 -1.2091995551462715 0.0 0.0 0.0 0.0 0.0 0.0 9.981973636990763e-07 -5.258967243140429e-07 1.1449168978424662e-06 -1.810306051294093e-15 1.8116749963477894e-08 4.3070945294829353e-08 0.2951500000000001 -0.11235000004997345 0.4808999999601586 -1.2091995763071837 1.2091995763071837 -1.209199576059172 0.0 0.0 0.0 0.0 0.0 0.0
222.208 5.2475385148298415e-17 -1.5707963267948966 -1.5707963267948966 0.0 1.5707963267948966 0.0 0.0 0.0 0.0 0.0 0.0 0.0 0.0 0.0 0.0 0.0 0.0 0.0 -1.6018983243994446e-26 0.4870342307692309 0.6867077006507593 0.06409467546754684 -8.567713817370151e-28 0.0 -2.1032924999364705e-25 6.394759450000002 6.3947594500000005 0.2913103000000004 -3.894025929994733e-27 0.0 5.2475385148298415e-17 -1.570796314870016 -1.570796314870016 0.0 1.5707963705062866 0.0 0.0 0.0 0.0 0.0 0.0 0.0 -1.6018983942199055e-26 0.48703423142433167 0.6867076754570007 0.064094677567482 -8.567714098795418e-28 0.0 -1.6018983942199055e-26 0.48703423142433167 0.6867076754570007 0.064094677567482 -8.567714098795418e-28 0.0 0.2951499950589256 -0.11234999647001061 0.4809000069994156 -1.2091995794109558 1.2091995265551612 -1.2091995551462715 0.0 0.0 0.0 0.0 0.0 0.0 9.981973636990763e-07 -5.258967243140429e-07 1.1449168978424662e-06 -1.810306051294093e-15 1.8116749963477894e-08 4.3070945294829353e-08 0.2951500000000001 -0.11235000004997345 0.4808999999601586 -1.2091995763071837 1.2091995763071837 -1.209199576059172 0.0 0.0 0.0 0.0 0.0 0.0
222.21599999999998 5.2475385148298415e-17 -1.5707963267948966 -1.5707963267948966 0.0 1.5707963267948966 0.0 0.0 0.0 0.0 0.0 0.0 0.0 0.0 0.0 0.0 0.0 0.0 0.0 -1.6018983243994446e-26 0.4870342307692309 0.6867077006507593 0.06409467546754684 -8.567713817370151e-28 0.0 -2.1032924999364705e-25 6.394759450000002 6.3947594500000005 0.2913103000000004 -3.894025929994733e-27 0.0 5.2475385148298415e-17 -1.570796314870016 -1.570796314870016 0.0 1.5707963705062866 0.0 0.0 0.0 0.0 0.0 0.0 0.0 -1.6018983942199055e-26 0.48703423142433167 0.6867076754570007 0.064094677567482 -8.567714098795418e-28 0.0 -1.6018983942199055e-26 0.48703423142433167 0.6867076754570007 0.064094677567482 -8.567714098795418e-28 0.0 0.2951499950589256 -0.11234999647001061 0.4809000069994156 -1.2091995794109558 1.2091995265551612 -1.2091995551462715 0.0 0.0 0.0 0.0 0.0 0.0 9.981973636990763e-07 -5.258967243140429e-07 1.1449168978424662e-06 -1.810306051294093e-15 1.8116749963477894e-08 4.3070945294829353e-08 0.2951500000000001 -0.11235000004997345 0.4808999999601586 -1.2091995763071837 1.2091995763071837 -1.209199576059172 0.0 0.0 0.0 0.0 0.0 0.0
222.224 5.2475385148298415e-17 -1.5707963267948966 -1.5707963267948966 0.0 1.5707963267948966 0.0 0.0 0.0 0.0 0.0 0.0 0.0 0.0 0.0 0.0 0.0 0.0 0.0 -1.6018983243994446e-26 0.4870342307692309 0.6867077006507593 0.06409467546754684 -8.567713817370151e-28 0.0 -2.1032924999364705e-25 6.394759450000002 6.3947594500000005 0.2913103000000004 -3.894025929994733e-27 0.0 5.2475385148298415e-17 -1.570796314870016 -1.570796314870016 0.0 1.5707963705062866 0.0 0.0 0.0 0.0 0.0 0.0 0.0 -1.6018983942199055e-26 0.48703423142433167 0.6867076754570007 0.064094677567482 -8.567714098795418e-28 0.0 -1.6018983942199055e-26 0.48703423142433167 0.6867076754570007 0.064094677567482 -8.567714098795418e-28 0.0 0.2951499950589256 -0.11234999647001061 0.4809000069994156 -1.2091995794109558 1.2091995265551612 -1.2091995551462715 0.0 0.0 0.0 0.0 0.0 0.0 9.981973636990763e-07 -5.258967243140429e-07 1.1449168978424662e-06 -1.810306051294093e-15 1.8116749963477894e-08 4.3070945294829353e-08 0.2951500000000001 -0.11235000004997345 0.4808999999601586 -1.2091995763071837 1.2091995763071837 -1.209199576059172 0.0 0.0 0.0 0.0 0.0 0.0
222.232 5.2475385148298415e-17 -1.5707963267948966 -1.5707963267948966 0.0 1.5707963267948966 0.0 0.0 0.0 0.0 0.0 0.0 0.0 0.0 0.0 0.0 0.0 0.0 0.0 -1.6018983243994446e-26 0.4870342307692309 0.6867077006507593 0.06409467546754684 -8.567713817370151e-28 0.0 -2.1032924999364705e-25 6.394759450000002 6.3947594500000005 0.2913103000000004 -3.894025929994733e-27 0.0 5.2475385148298415e-17 -1.570796314870016 -1.570796314870016 0.0 1.5707963705062866 0.0 0.0 0.0 0.0 0.0 0.0 0.0 -1.6018983942199055e-26 0.48703423142433167 0.6867076754570007 0.064094677567482 -8.567714098795418e-28 0.0 -1.6018983942199055e-26 0.48703423142433167 0.6867076754570007 0.064094677567482 -8.567714098795418e-28 0.0 0.2951499950589256 -0.11234999647001061 0.4809000069994156 -1.2091995794109558 1.2091995265551612 -1.2091995551462715 0.0 0.0 0.0 0.0 0.0 0.0 9.981973636990763e-07 -5.258967243140429e-07 1.1449168978424662e-06 -1.810306051294093e-15 1.8116749963477894e-08 4.3070945294829353e-08 0.2951500000000001 -0.11235000004997345 0.4808999999601586 -1.2091995763071837 1.2091995763071837 -1.209199576059172 0.0 0.0 0.0 0.0 0.0 0.0
222.23999999999998 5.2475385148298415e-17 -1.5707963267948966 -1.5707963267948966 0.0 1.5707963267948966 0.0 0.0 0.0 0.0 0.0 0.0 0.0 0.0 0.0 0.0 0.0 0.0 0.0 -1.6018983243994446e-26 0.4870342307692309 0.6867077006507593 0.06409467546754684 -8.567713817370151e-28 0.0 -2.1032924999364705e-25 6.394759450000002 6.3947594500000005 0.2913103000000004 -3.894025929994733e-27 0.0 5.2475385148298415e-17 -1.570796314870016 -1.570796314870016 0.0 1.5707963705062866 0.0 0.0 0.0 0.0 0.0 0.0 0.0 -1.6018983942199055e-26 0.48703423142433167 0.6867076754570007 0.064094677567482 -8.567714098795418e-28 0.0 -1.6018983942199055e-26 0.48703423142433167 0.6867076754570007 0.064094677567482 -8.567714098795418e-28 0.0 0.2951499950589256 -0.11234999647001061 0.4809000069994156 -1.2091995794109558 1.2091995265551612 -1.2091995551462715 0.0 0.0 0.0 0.0 0.0 0.0 9.981973636990763e-07 -5.258967243140429e-07 1.1449168978424662e-06 -1.810306051294093e-15 1.8116749963477894e-08 4.3070945294829353e-08 0.2951500000000001 -0.11235000004997345 0.4808999999601586 -1.2091995763071837 1.2091995763071837 -1.209199576059172 0.0 0.0 0.0 0.0 0.0 0.0
222.248 5.2475385148298415e-17 -1.5707963267948966 -1.5707963267948966 0.0 1.5707963267948966 0.0 0.0 0.0 0.0 0.0 0.0 0.0 0.0 0.0 0.0 0.0 0.0 0.0 -1.6018983243994446e-26 0.4870342307692309 0.6867077006507593 0.06409467546754684 -8.567713817370151e-28 0.0 -2.1032924999364705e-25 6.394759450000002 6.3947594500000005 0.2913103000000004 -3.894025929994733e-27 0.0 5.2475385148298415e-17 -1.570796314870016 -1.570796314870016 0.0 1.5707963705062866 0.0 0.0 0.0 0.0 0.0 0.0 0.0 -1.6018983942199055e-26 0.48703423142433167 0.6867076754570007 0.064094677567482 -8.567714098795418e-28 0.0 -1.6018983942199055e-26 0.48703423142433167 0.6867076754570007 0.064094677567482 -8.567714098795418e-28 0.0 0.2951499950589256 -0.11234999647001061 0.4809000069994156 -1.2091995794109558 1.2091995265551612 -1.2091995551462715 0.0 0.0 0.0 0.0 0.0 0.0 9.981973636990763e-07 -5.258967243140429e-07 1.1449168978424662e-06 -1.810306051294093e-15 1.8116749963477894e-08 4.3070945294829353e-08 0.2951500000000001 -0.11235000004997345 0.4808999999601586 -1.2091995763071837 1.2091995763071837 -1.209199576059172 0.0 0.0 0.0 0.0 0.0 0.0
