Fleaurent/UniversalRobot/csv/robot_movel_x400_Singular_Zeit.csv
timestamp target_q_0 target_q_1 target_q_2 target_q_3 target_q_4 target_q_5 target_qd_0 target_qd_1 target_qd_2 target_qd_3 target_qd_4 target_qd_5 target_qdd_0 target_qdd_1 target_qdd_2 target_qdd_3 target_qdd_4 target_qdd_5 target_current_0 target_current_1 target_current_2 target_current_3 target_current_4 target_current_5 target_moment_0 target_moment_1 target_moment_2 target_moment_3 target_moment_4 target_moment_5 actual_q_0 actual_q_1 actual_q_2 actual_q_3 actual_q_4 actual_q_5 actual_qd_0 actual_qd_1 actual_qd_2 actual_qd_3 actual_qd_4 actual_qd_5 actual_current_0 actual_current_1 actual_current_2 actual_current_3 actual_current_4 actual_current_5 joint_control_output_0 joint_control_output_1 joint_control_output_2 joint_control_output_3 joint_control_output_4 joint_control_output_5 actual_TCP_pose_0 actual_TCP_pose_1 actual_TCP_pose_2 actual_TCP_pose_3 actual_TCP_pose_4 actual_TCP_pose_5 actual_TCP_speed_0 actual_TCP_speed_1 actual_TCP_speed_2 actual_TCP_speed_3 actual_TCP_speed_4 actual_TCP_speed_5 actual_TCP_force_0 actual_TCP_force_1 actual_TCP_force_2 actual_TCP_force_3 actual_TCP_force_4 actual_TCP_force_5 target_TCP_pose_0 target_TCP_pose_1 target_TCP_pose_2 target_TCP_pose_3 target_TCP_pose_4 target_TCP_pose_5 target_TCP_speed_0 target_TCP_speed_1 target_TCP_speed_2 target_TCP_speed_3 target_TCP_speed_4 target_TCP_speed_5
2727.888 -0.5317965226624635 -1.5935130245447802 -1.9404832154997003 0.3939278331850957 2.101684898305706 0.0012203700581085997 0.0 0.0 0.0 -0.0 -0.0 -0.0 0.0 0.0 0.0 0.0 0.0 0.0 7.004311267080232e-19 0.5339517876541976 0.6975046845426743 0.06047851980485384 -5.4153432507572516e-05 0.0 8.038147178250425e-18 6.150323238433266 5.889166123436275 0.24962443727032316 -0.00022481159480913668 0.0 -0.5317857901202601 -1.593574349080221 -1.9404118696795862 0.393857479095459 2.1016409397125244 0.0012014185776934028 3.834952076431364e-05 0.0 -0.0 7.190534961409867e-05 -7.190534961409867e-05 7.190534961409867e-05 -0.01345825381577015 0.5495453476905823 0.5627402067184448 0.05259270966053009 -0.027974845841526985 0.170087069272995 -0.01570129580795765 0.5517883896827698 0.5810406804084778 0.051473718136548996 -0.02909383922815323 0.17456303536891937 0.20002016414486717 -0.20001212256250078 0.39999735621464555 -1.2091126072434557 1.2091170857378655 -1.20904014274899 2.366175868658315e-06 4.854850622474322e-06 5.105814038133415e-06 3.558222603881123e-05 -6.207916256599775e-05 -3.359543491216391e-05 3.672271639825142 -5.867593297811756 3.7453266302760366 -0.7891206567824852 0.12071937695984096 0.6123058796260256 0.20000000000100057 -0.19999999999566195 0.3999999999978721 -1.2090987222147533 1.2090487305425026 -1.2090487305427609 0.0 0.0 0.0 0.0 0.0 0.0
2727.8959999999997 -0.5317965226624635 -1.5935130245447802 -1.9404832154997003 0.3939278331850957 2.101684898305706 0.0012203700581085997 0.0 0.0 0.0 -0.0 -0.0 -0.0 0.0 0.0 0.0 0.0 0.0 0.0 7.004311267080232e-19 0.5339517876541976 0.6975046845426743 0.06047851980485384 -5.4153432507572516e-05 0.0 8.038147178250425e-18 6.150323238433266 5.889166123436275 0.24962443727032316 -0.00022481159480913668 0.0 -0.5317371527301233 -1.593586270009176 -1.9403999487506312 0.3939054012298584 2.10160493850708 0.001225386979058385 3.834952076431364e-05 0.0 -0.0 7.190534961409867e-05 -7.190534961409867e-05 7.190534961409867e-05 -0.01794433780014515 0.5674896836280823 0.5947660803794861 0.04923573136329651 -0.041402772068977356 0.17680102586746216 -0.01570129580795765 0.5607605576515198 0.5795156359672546 0.0503547228872776 -0.031331829726696014 0.17680102586746216 0.200028860901808 -0.20000477027016678 0.40000069085073303 -1.2090882725403684 1.2090772415261246 -1.209050615097887 2.3656061316948425e-06 4.855050579499468e-06 5.105770581441529e-06 3.558821595291793e-05 -6.20817670368576e-05 -3.359245593910996e-05 3.4715853179750646 -5.565779888406884 2.26480057848892 -0.8202862535878885 0.031429293966078686 0.6498733129510242 0.20000000000100057 -0.19999999999566195 0.3999999999978721 -1.2090987222147533 1.2090487305425026 -1.2090487305427609 0.0 0.0 0.0 0.0 0.0 0.0
2727.904 -0.5317965226624635 -1.5935130245447802 -1.9404832154997003 0.3939278331850957 2.101684898305706 0.0012203700581085997 0.0 0.0 0.0 -0.0 -0.0 -0.0 0.0 0.0 0.0 0.0 0.0 0.0 7.004311267080232e-19 0.5339517876541976 0.6975046845426743 0.06047851980485384 -5.4153432507572516e-05 0.0 8.038147178250425e-18 6.150323238433266 5.889166123436275 0.24962443727032316 -0.00022481159480913668 0.0 -0.5317977110492151 -1.593574349080221 -1.9403637091266077 0.3939054012298584 2.10160493850708 0.001225386979058385 3.834952076431364e-05 0.0 -0.0 7.190534961409867e-05 -7.190534961409867e-05 7.190534961409867e-05 -0.02018737979233265 0.5742188096046448 0.5825657248497009 0.05594969168305397 -0.03021283447742462 0.1846339851617813 -0.01570129580795765 0.5697327256202698 0.5795156359672546 0.0503547228872776 -0.03021283447742462 0.18015800416469574 0.2000140540135911 -0.2000153436523636 0.4000136692478392 -1.2090469653991998 1.2090798242065728 -1.2091329157254136 2.365628679190378e-06 4.854929320557569e-06 5.105619004251564e-06 3.558743443483357e-05 -6.208568246335606e-05 -3.358946358028123e-05 4.1602097618584155 -6.048482323853827 2.661795278582605 -0.8566484553564879 0.038426966884204314 0.6374272986109928 0.20000000000100057 -0.19999999999566195 0.3999999999978721 -1.2090987222147533 1.2090487305425026 -1.2090487305427609 0.0 0.0 0.0 0.0 0.0 0.0
2727.912 -0.5317965226624635 -1.5935130245447802 -1.9404832154997003 0.3939278331850957 2.101684898305706 0.0012203700581085997 0.0 0.0 0.0 -0.0 -0.0 -0.0 0.0 0.0 0.0 0.0 0.0 0.0 7.004311267080232e-19 0.5339517876541976 0.6975046845426743 0.06047851980485384 -5.4153432507572516e-05 0.0 8.038147178250425e-18 6.150323238433266 5.889166123436275 0.24962443727032316 -0.00022481159480913668 0.0 -0.5317614714251917 -1.5935500303851526 -1.9404118696795862 0.393857479095459 2.10158109664917 0.0012014185776934028 3.834952076431364e-05 0.0 -0.0 7.190534961409867e-05 -7.190534961409867e-05 7.190534961409867e-05 -0.01570129580795765 0.5674896836280823 0.5917159914970398 0.05371170490980148 -0.025736859068274498 0.16449210047721863 -0.01570129580795765 0.5630035996437073 0.5795156359672546 0.054830700159072876 -0.027974845841526985 0.17568203806877136 0.2000198205601754 -0.2000091353919074 0.4000040178928393 -1.209089354013451 1.2091219820825643 -1.2090852999669397 2.365667752728603e-06 4.854772101976948e-06 5.105916300840456e-06 3.558524236426821e-05 -6.208348849669449e-05 -3.35939189791266e-05 3.6523079254075412 -5.499690241592675 2.46543439432225 -0.7631608095353906 0.026376520718704423 0.5715811430178553 0.20000000000100057 -0.19999999999566195 0.3999999999978721 -1.2090987222147533 1.2090487305425026 -1.2090487305427609 0.0 0.0 0.0 0.0 0.0 0.0
2727.92 -0.5317965226624635 -1.5935130245447802 -1.9404832154997003 0.3939278331850957 2.101684898305706 0.0012203700581085997 0.0 0.0 0.0 -0.0 -0.0 -0.0 0.0 0.0 0.0 0.0 0.0 0.0 7.004311267080232e-19 0.5339517876541976 0.6975046845426743 0.06047851980485384 -5.4153432507572516e-05 0.0 8.038147178250425e-18 6.150323238433266 5.889166123436275 0.24962443727032316 -0.00022481159480913668 0.0 -0.5317977110492151 -1.593562428151266 -1.9403756300555628 0.3938814401626587 2.10158109664917 0.0012493554968386889 3.834952076431364e-05 0.0 -0.0 7.190534961409867e-05 -7.190534961409867e-05 7.190534961409867e-05 -0.01570129580795765 0.5585175156593323 0.5566400289535522 0.05259270966053009 -0.031331829726696014 0.1868719756603241 -0.01570129580795765 0.5540314316749573 0.5795156359672546 0.051473718136548996 -0.03021283447742462 0.17903901636600494 0.20001331477386464 -0.2000168608352324 0.40001203926094187 -1.2090243202821842 1.20912962350127 -1.2091140873872162 2.3656511038256088e-06 4.854839075230568e-06 5.1057657180512775e-06 3.558595031477885e-05 -6.208652331025071e-05 -3.359094979017124e-05 4.118301495133389 -6.512495497545827 3.7443438907359528 -0.867025724011903 0.09585099887234108 0.6808851129881787 0.20000000000100057 -0.19999999999566195 0.3999999999978721 -1.2090987222147533 1.2090487305425026 -1.2090487305427609 0.0 0.0 0.0 0.0 0.0 0.0
2727.928 -0.5317965226624635 -1.5935130245447802 -1.9404832154997003 0.3939278331850957 2.101684898305706 0.0012203700581085997 0.0 0.0 0.0 -0.0 -0.0 -0.0 0.0 0.0 0.0 0.0 0.0 0.0 7.004311267080232e-19 0.5339517876541976 0.6975046845426743 0.06047851980485384 -5.4153432507572516e-05 0.0 8.038147178250425e-18 6.150323238433266 5.889166123436275 0.24962443727032316 -0.00022481159480913668 0.0 -0.5318096319781702 -1.5935261885272425 -1.9403999487506312 0.3938814401626587 2.1016290187835693 0.0012373712379485369 3.834952076431364e-05 0.0 -0.0 7.190534961409867e-05 -7.190534961409867e-05 7.190534961409867e-05 -0.01345825381577015 0.5540314316749573 0.5749405026435852 0.051473718136548996 -0.03692679852247238 0.17456303536891937 -0.01570129580795765 0.5495453476905823 0.5795156359672546 0.051473718136548996 -0.031331829726696014 0.17568203806877136 0.20000327771173462 -0.20001077985778282 0.40001543464329925 -1.2090471691260483 1.2090870061477892 -1.2091056977010755 2.3656162904449895e-06 4.854547674450301e-06 5.105585232490075e-06 3.558595112182395e-05 -6.208393620428685e-05 -3.3590211895036614e-05 3.4244354289721577 -5.800404209089871 3.2360193384097493 -0.8099295166933705 0.10950822028965855 0.6483436035194807 0.20000000000100057 -0.19999999999566195 0.3999999999978721 -1.2090987222147533 1.2090487305425026 -1.2090487305427609 0.0 0.0 0.0 0.0 0.0 0.0
2727.9359999999997 -0.5317965226624635 -1.5935130245447802 -1.9404832154997003 0.3939278331850957 2.101684898305706 0.0012203700581085997 0.0 0.0 0.0 -0.0 -0.0 -0.0 0.0 0.0 0.0 0.0 0.0 0.0 7.004311267080232e-19 0.5339517876541976 0.6975046845426743 0.06047851980485384 -5.4153432507572516e-05 0.0 8.038147178250425e-18 6.150323238433266 5.889166123436275 0.24962443727032316 -0.00022481159480913668 0.0 -0.5317977110492151 -1.593609635029928 -1.9403637091266077 0.3938335180282593 2.1016170978546143 0.001225386979058385 3.834952076431364e-05 0.0 -0.0 7.190534961409867e-05 -7.190534961409867e-05 7.190534961409867e-05 -0.011215210892260075 0.5495453476905823 0.5932410359382629 0.05818767845630646 -0.03692679852247238 0.17792002856731415 -0.01570129580795765 0.5473023056983948 0.5795156359672546 0.051473718136548996 -0.031331829726696014 0.17792002856731415 0.20002690138229423 -0.2000218756533118 0.39999891163317913 -1.2090808406397957 1.2091645250727856 -1.209040246033988 2.366423348394799e-06 4.855144292673132e-06 5.105920034526461e-06 3.5580791910416e-05 -6.20808999708914e-05 -3.3596122595351054e-05 2.7991867173112075 -4.981550701594696 2.909115869392135 -0.8254564830932816 0.22232503120831984 0.5808520240710934 0.20000000000100057 -0.19999999999566195 0.3999999999978721 -1.2090987222147533 1.2090487305425026 -1.2090487305427609 0.0 0.0 0.0 0.0 0.0 0.0
2727.944 -0.5317965226624635 -1.5935130245447802 -1.9404832154997003 0.3939278331850957 2.101684898305706 0.0012203700581085997 0.0 0.0 0.0 -0.0 -0.0 -0.0 0.0 0.0 0.0 0.0 0.0 0.0 7.004311267080232e-19 0.5339517876541976 0.6975046845426743 0.06047851980485384 -5.4153432507572516e-05 0.0 8.038147178250425e-18 6.150323238433266 5.889166123436275 0.24962443727032316 -0.00022481159480913668 0.0 -0.5317614714251917 -1.5935981909381312 -1.940388027821676 0.393857479095459 2.101593017578125 0.0011890598107129335 3.834952076431364e-05 0.0 -0.0 7.190534961409867e-05 -7.190534961409867e-05 7.190534961409867e-05 -0.01794433780014515 0.5405731797218323 0.5490148067474365 0.051473718136548996 -0.041402772068977356 0.1857529729604721 -0.01570129580795765 0.5473023056983948 0.5795156359672546 0.051473718136548996 -0.027974845841526985 0.17792002856731415 0.20003003054813148 -0.20001416804924602 0.39999722602688925 -1.2091104286639391 1.2091286520179818 -1.209066648831325 2.366038352781828e-06 4.85510064341329e-06 5.105957064443606e-06 3.558373327233943e-05 -6.208174395414169e-05 -3.3595431986292494e-05 3.702850727073854 -5.958776157334868 4.348779637251435 -0.8618077287949117 0.19976511679557907 0.6822018950325891 0.20000000000100057 -0.19999999999566195 0.3999999999978721 -1.2090987222147533 1.2090487305425026 -1.2090487305427609 0.0 0.0 0.0 0.0 0.0 0.0
2727.9519999999998 -0.5317965226624635 -1.5935130245447802 -1.9404832154997003 0.3939278331850957 2.101684898305706 0.0012203700581085997 0.0 0.0 0.0 -0.0 -0.0 -0.0 0.0 0.0 0.0 0.0 0.0 0.0 7.004311267080232e-19 0.5339517876541976 0.6975046845426743 0.06047851980485384 -5.4153432507572516e-05 0.0 8.038147178250425e-18 6.150323238433266 5.889166123436275 0.24962443727032316 -0.00022481159480913668 0.0 -0.5317857901202601 -1.5935500303851526 -1.9404237906085413 0.39384543895721436 2.10160493850708 0.0011890598107129335 3.834952076431364e-05 0.0 -0.0 7.190534961409867e-05 -7.190534961409867e-05 7.190534961409867e-05 -0.01570129580795765 0.5473023056983948 0.6008661985397339 0.051473718136548996 -0.0335698164999485 0.1846339851617813 -0.01570129580795765 0.5450592637062073 0.5795156359672546 0.051473718136548996 -0.03021283447742462 0.17568203806877136 0.20001589307584527 -0.2000125704358407 0.3999999659971025 -1.2091045703439844 1.2091374122363105 -1.2090760201050117 2.365978062181428e-06 4.854688059941317e-06 5.1059205482726134e-06 3.558224899625772e-05 -6.208176492428597e-05 -3.359540918478103e-05 2.7379431147778526 -4.253767441201448 2.560923305823249 -0.8566037580950265 0.2176721010950161 0.5052270916988044 0.20000000000100057 -0.19999999999566195 0.3999999999978721 -1.2090987222147533 1.2090487305425026 -1.2090487305427609 0.0 0.0 0.0 0.0 0.0 0.0
2727.96 -0.5317965226624635 -1.5935130245447802 -1.9404832154997003 0.3939278331850957 2.101684898305706 0.0012203700581085997 0.0 0.0 0.0 -0.0 -0.0 -0.0 0.0 0.0 0.0 0.0 0.0 0.0 7.004311267080232e-19 0.5339517876541976 0.6975046845426743 0.06047851980485384 -5.4153432507572516e-05 0.0 8.038147178250425e-18 6.150323238433266 5.889166123436275 0.24962443727032316 -0.00022481159480913668 0.0 -0.5317733923541468 -1.593574349080221 -1.9404237906085413 0.39384543895721436 2.101593017578125 0.0012134028365835547 3.834952076431364e-05 0.0 -0.0 7.190534961409867e-05 -7.190534961409867e-05 7.190534961409867e-05 -0.011215210892260075 0.5473023056983948 0.5551149845123291 0.05371170490980148 -0.03580780327320099 0.1857529729604721 -0.01570129580795765 0.5450592637062073 0.5795156359672546 0.051473718136548996 -0.02909383922815323 0.17792002856731415 0.20002357455951847 -0.2000141239523826 0.39999331048216225 -1.209093218399217 1.2091698104567614 -1.2090387270418237 2.3661089521638987e-06 4.854853861516883e-06 5.106032605947465e-06 3.558151260889537e-05 -6.208129269020106e-05 -3.3596919666385636e-05 3.6161904307120993 -6.326472338831325 4.060757655044527 -0.8617893622287215 0.17709159464874857 0.6864609011738111 0.20000000000100057 -0.19999999999566195 0.3999999999978721 -1.2090987222147533 1.2090487305425026 -1.2090487305427609 0.0 0.0 0.0 0.0 0.0 0.0
2727.968 -0.5317965226624635 -1.5935130245447802 -1.9404832154997003 0.3939278331850957 2.101684898305706 0.0012203700581085997 0.0 0.0 0.0 -0.0 -0.0 -0.0 0.0 0.0 0.0 0.0 0.0 0.0 7.004311267080232e-19 0.5339517876541976 0.6975046845426743 0.06047851980485384 -5.4153432507572516e-05 0.0 8.038147178250425e-18 6.150323238433266 5.889166123436275 0.24962443727032316 -0.00022481159480913668 0.0 -0.5317614714251917 -1.593574349080221 -1.940388027821676 0.3938814401626587 2.1016409397125244 0.0012373712379485369 3.834952076431364e-05 0.0 -0.0 7.190534961409867e-05 -7.190534961409867e-05 7.190534961409867e-05 -0.01570129580795765 0.5517883896827698 0.5871408581733704 0.05706868693232536 -0.02909383922815323 0.18127700686454773 -0.01570129580795765 0.5450592637062073 0.5795156359672546 0.051473718136548996 -0.02909383922815323 0.17568203806877136 0.20002316770253634 -0.20000619453238674 0.40000544726753234 -1.2090850551892902 1.2090744511335412 -1.209033140591979 2.3658062466513674e-06 4.8549609211540636e-06 5.1056635259838625e-06 3.5586695194330326e-05 -6.208004197214947e-05 -3.3592465557617556e-05 3.242751797144219 -4.934514653355661 3.0283792740121087 -0.8410650503399385 0.1997034606888477 0.5404758433826435 0.20000000000100057 -0.19999999999566195 0.3999999999978721 -1.2090987222147533 1.2090487305425026 -1.2090487305427609 0.0 0.0 0.0 0.0 0.0 0.0
2727.9759999999997 -0.5317965226624635 -1.5935130245447802 -1.9404832154997003 0.3939278331850957 2.101684898305706 0.0012203700581085997 0.0 0.0 0.0 -0.0 -0.0 -0.0 0.0 0.0 0.0 0.0 0.0 0.0 7.004311267080232e-19 0.5339517876541976 0.6975046845426743 0.06047851980485384 -5.4153432507572516e-05 0.0 8.038147178250425e-18 6.150323238433266 5.889166123436275 0.24962443727032316 -0.00022481159480913668 0.0 -0.5317977110492151 -1.593574349080221 -1.940388027821676 0.393857479095459 2.1016530990600586 0.0012493554968386889 3.834952076431364e-05 0.0 -0.0 7.190534961409867e-05 -7.190534961409867e-05 7.190534961409867e-05 -0.01570129580795765 0.5405731797218323 0.5764655470848083 0.05706868693232536 -0.03021283447742462 0.168968066573143 -0.01570129580795765 0.5450592637062073 0.5795156359672546 0.051473718136548996 -0.02909383922815323 0.17680102586746216 0.20001768606819198 -0.2000134768717977 0.4000037469308597 -1.2090711553138995 1.2091187925067741 -1.2090233410948623 2.3661611468645138e-06 4.854880819871119e-06 5.1057026727558054e-06 3.558295956563351e-05 -6.207958414671653e-05 -3.359395477415364e-05 3.133001944322903 -4.793467359400758 3.6096801780372116 -0.7839491603073917 0.23047005374280377 0.5341646756443771 0.20000000000100057 -0.19999999999566195 0.3999999999978721 -1.2090987222147533 1.2090487305425026 -1.2090487305427609 0.0 0.0 0.0 0.0 0.0 0.0
2727.984 -0.5317965226624635 -1.5935130245447802 -1.9404832154997003 0.3939278331850957 2.101684898305706 0.0012203700581085997 0.0 0.0 0.0 -0.0 -0.0 -0.0 0.0 0.0 0.0 0.0 0.0 0.0 7.004311267080232e-19 0.5339517876541976 0.6975046845426743 0.06047851980485384 -5.4153432507572516e-05 0.0 8.038147178250425e-18 6.150323238433266 5.889166123436275 0.24962443727032316 -0.00022481159480913668 0.0 -0.5317733923541468 -1.5935500303851526 -1.940388027821676 0.3938814401626587 2.1016409397125244 0.0012134028365835547 3.834952076431364e-05 0.0 -0.0 7.190534961409867e-05 -7.190534961409867e-05 7.190534961409867e-05 -0.0022430422250181437 0.5450592637062073 0.553589940071106 0.05371170490980148 -0.0335698164999485 0.17568203806877136 -0.01570129580795765 0.5450592637062073 0.5795156359672546 0.051473718136548996 -0.031331829726696014 0.17680102586746216 0.20001558042667422 -0.20000552734024651 0.40001210368187884 -1.2090907020072206 1.2090506526871587 -1.2090785827731638 2.3656399943927055e-06 4.854796304255871e-06 5.10558706684612e-06 3.558746119117493e-05 -6.208135440601845e-05 -3.359095409611456e-05 3.319415920756666 -6.7152201518781 4.156787566226449 -0.815134756010131 0.16337849183389413 0.7081084154079131 0.20000000000100057 -0.19999999999566195 0.3999999999978721 -1.2090987222147533 1.2090487305425026 -1.2090487305427609 0.0 0.0 0.0 0.0 0.0 0.0
2727.9919999999997 -0.5317965226624635 -1.5935130245447802 -1.9404832154997003 0.3939278331850957 2.101684898305706 0.0012203700581085997 0.0 0.0 0.0 -0.0 -0.0 -0.0 0.0 0.0 0.0 0.0 0.0 0.0 7.004311267080232e-19 0.5339517876541976 0.6975046845426743 0.06047851980485384 -5.4153432507572516e-05 0.0 8.038147178250425e-18 6.150323238433266 5.889166123436275 0.24962443727032316 -0.00022481159480913668 0.0 -0.5317733923541468 -1.5935981909381312 -1.9404118696795862 0.39386940002441406 2.1016170978546143 0.0011890598107129335 3.834952076431364e-05 0.0 -0.0 7.190534961409867e-05 -7.190534961409867e-05 7.190534961409867e-05 -0.02018737979233265 0.5450592637062073 0.6176416873931885 0.054830700159072876 -0.03692679852247238 0.17903901636600494 -0.01570129580795765 0.5450592637062073 0.5795156359672546 0.0503547228872776 -0.031331829726696014 0.17680102586746216 0.20002686422952373 -0.20001408300646725 0.39999167763170923 -1.209119371437457 1.2091300713551718 -1.2090483360277549 2.366197043920137e-06 4.855010979557918e-06 5.105922657544495e-06 3.558225850676971e-05 -6.207999931285438e-05 -3.3596174433367424e-05 2.392186157018284 -3.307795958946589 2.156976736198331 -0.8306495510271306 0.2641989028713076 0.44292874617388683 0.20000000000100057 -0.19999999999566195 0.3999999999978721 -1.2090987222147533 1.2090487305425026 -1.2090487305427609 0.0 0.0 0.0 0.0 0.0 0.0
2728.0 -0.5317965226624635 -1.5935130245447802 -1.9404832154997003 0.3939278331850957 2.101684898305706 0.0012203700581085997 0.0 0.0 0.0 -0.0 -0.0 -0.0 0.0 0.0 0.0 0.0 0.0 0.0 7.004311267080232e-19 0.5339517876541976 0.6975046845426743 0.06047851980485384 -5.4153432507572516e-05 0.0 8.038147178250425e-18 6.150323238433266 5.889166123436275 0.24962443727032316 -0.00022481159480913668 0.0 -0.5317614714251917 -1.5935981909381312 -1.9403517881976526 0.3939054012298584 2.101593017578125 0.0012134028365835547 3.834952076431364e-05 0.0 -0.0 7.190534961409867e-05 -7.190534961409867e-05 7.190534961409867e-05 -0.01345825381577015 0.5562744736671448 0.5490148067474365 0.04923573136329651 -0.031331829726696014 0.1879909634590149 -0.01570129580795765 0.5450592637062073 0.5795156359672546 0.0503547228872776 -0.031331829726696014 0.17680102586746216 0.20002635503946764 -0.20001205425550836 0.4000103401478786 -1.2090703646376417 1.2090666848118206 -1.2091145265051575 2.365586257885267e-06 4.855178091956937e-06 5.1056920365297425e-06 3.558894477977525e-05 -6.20848149801075e-05 -3.359020394060499e-05 4.1518280183898195 -6.8141791564310505 3.9559236517655014 -0.8722304692970622 0.08026173104136926 0.7057675187430253 0.20000000000100057 -0.19999999999566195 0.3999999999978721 -1.2090987222147533 1.2090487305425026 -1.2090487305427609 0.0 0.0 0.0 0.0 0.0 0.0
2728.008 -0.5317965226624635 -1.5935130245447802 -1.9404832154997003 0.3939278331850957 2.101684898305706 0.0012203700581085997 0.0 0.0 0.0 -0.0 -0.0 -0.0 0.0 0.0 0.0 0.0 0.0 0.0 7.004311267080232e-19 0.5339517876541976 0.6975046845426743 0.06047851980485384 -5.4153432507572516e-05 0.0 8.038147178250425e-18 6.150323238433266 5.889166123436275 0.24962443727032316 -0.00022481159480913668 0.0 -0.5317857901202601 -1.5935981909381312 -1.9403999487506312 0.39386940002441406 2.1016409397125244 0.0012373712379485369 3.834952076431364e-05 0.0 -2.3968450477696024e-05 7.190534961409867e-05 -7.190534961409867e-05 7.190534961409867e-05 -0.01345825381577015 0.5517883896827698 0.5596901178359985 0.05371170490980148 -0.03580780327320099 0.18351499736309052 -0.01570129580795765 0.5450592637062073 0.5795156359672546 0.0503547228872776 -0.031331829726696014 0.17792002856731415 0.2000243390978074 -0.20001458499962196 0.39999487146810075 -1.2090861017723262 1.2091341000219178 -1.2090136727366276 2.4613441704162667e-06 4.826252183314179e-06 -1.3198771846383883e-06 4.772003665946093e-05 -4.141149218249532e-05 -3.3508345052724415e-05 3.719982439628261 -6.2576735748834045 3.8189743372735423 -0.8514230286293105 0.14568235466534524 0.6808040276076899 0.20000000000100057 -0.19999999999566195 0.3999999999978721 -1.2090987222147533 1.2090487305425026 -1.2090487305427609 0.0 0.0 0.0 0.0 0.0 0.0
2728.016 -0.5317965226624635 -1.5935130245447802 -1.9404832154997003 0.3939278331850957 2.101684898305706 0.0012203700581085997 0.0 0.0 0.0 -0.0 -0.0 -0.0 0.0 0.0 0.0 0.0 0.0 0.0 7.004311267080232e-19 0.5339517876541976 0.6975046845426743 0.06047851980485384 -5.4153432507572516e-05 0.0 8.038147178250425e-18 6.150323238433266 5.889166123436275 0.24962443727032316 -0.00022481159480913668 0.0 -0.5317733923541468 -1.593574349080221 -1.9404118696795862 0.39384543895721436 2.101569175720215 0.0012373712379485369 3.834952076431364e-05 0.0 -0.0 7.190534961409867e-05 -7.190534961409867e-05 7.190534961409867e-05 -0.01570129580795765 0.5630035996437073 0.5657902956008911 0.054830700159072876 -0.02685585245490074 0.17344404757022858 -0.01570129580795765 0.5495453476905823 0.5795156359672546 0.05371170490980148 -0.031331829726696014 0.17903901636600494 0.20002352532347975 -0.20001607323426232 0.39999650844675005 -1.209061116675885 1.2091882978501063 -1.2090479644848577 2.365989691507958e-06 4.854883241155999e-06 5.106066282028934e-06 3.5582249615904124e-05 -6.208344290539574e-05 -3.359617735640912e-05 4.097516640987795 -6.3006646334008565 3.40930922181047 -0.8046780919927246 0.056195067600500324 0.6427410014151688 0.20000000000100057 -0.19999999999566195 0.3999999999978721 -1.2090987222147533 1.2090487305425026 -1.2090487305427609 0.0 0.0 0.0 0.0 0.0 0.0
2728.024 -0.5317965226624635 -1.5935130245447802 -1.9404832154997003 0.3939278331850957 2.101684898305706 0.0012203700581085997 0.0 0.0 0.0 -0.0 -0.0 -0.0 0.0 0.0 0.0 0.0 0.0 0.0 7.004311267080232e-19 0.5339517876541976 0.6975046845426743 0.06047851980485384 -5.4153432507572516e-05 0.0 8.038147178250425e-18 6.150323238433266 5.889166123436275 0.24962443727032316 -0.00022481159480913668 0.0 -0.5317857901202601 -1.593586270009176 -1.940388027821676 0.3938814401626587 2.10158109664917 0.0012613397557288408 3.834952076431364e-05 0.0 -0.0 7.190534961409867e-05 -7.190534961409867e-05 7.190534961409867e-05 -0.01345825381577015 0.5517883896827698 0.6054413318634033 0.05594969168305397 -0.03245082125067711 0.17568203806877136 -0.01570129580795765 0.5450592637062073 0.5795156359672546 0.05259270966053009 -0.031331829726696014 0.17792002856731415 0.20002084936474485 -0.20001748327501345 0.4000021895061425 -1.2090306419699823 1.2091581477334434 -1.2090681342183498 2.365868251127903e-06 4.8549706042980275e-06 5.105879717197233e-06 3.558444763444624e-05 -6.208477499384222e-05 -3.359320187443736e-05 2.711486653646711 -4.409927557533623 2.4225855586337346 -0.8150839958602927 0.20035883090509538 0.5129004696685707 0.20000000000100057 -0.19999999999566195 0.3999999999978721 -1.2090987222147533 1.2090487305425026 -1.2090487305427609 0.0 0.0 0.0 0.0 0.0 0.0
2728.0319999999997 -0.5317965226624635 -1.5935130245447802 -1.9404832154997003 0.3939278331850957 2.101684898305706 0.0012203700581085997 0.0 0.0 0.0 -0.0 -0.0 -0.0 0.0 0.0 0.0 0.0 0.0 0.0 7.004311267080232e-19 0.5339517876541976 0.6975046845426743 0.06047851980485384 -5.4153432507572516e-05 0.0 8.038147178250425e-18 6.150323238433266 5.889166123436275 0.24962443727032316 -0.00022481159480913668 0.0 -0.5317857901202601 -1.5935261885272425 -1.9404237906085413 0.39389336109161377 2.1015450954437256 0.0011890598107129335 3.834952076431364e-05 0.0 -0.0 7.190534961409867e-05 -7.190534961409867e-05 7.190534961409867e-05 -0.01570129580795765 0.5293579697608948 0.5474897623062134 0.05706868693232536 -0.0335698164999485 0.18239599466323853 -0.01570129580795765 0.5450592637062073 0.5795156359672546 0.051473718136548996 -0.027974845841526985 0.17680102586746216 0.20000725580940526 -0.20001243698380325 0.4000098957715306 -1.2090573597106626 1.2091187479558227 -1.2091761355399915 2.365301896205269e-06 4.854543272338468e-06 5.105873344474129e-06 3.5586697306000635e-05 -6.208868497542277e-05 -3.35909460633093e-05 3.4172879180599454 -5.408901445612644 4.770215794180053 -0.8462549378829339 0.30727725218480517 0.6003484888178153 0.20000000000100057 -0.19999999999566195 0.3999999999978721 -1.2090987222147533 1.2090487305425026 -1.2090487305427609 0.0 0.0 0.0 0.0 0.0 0.0
2728.04 -0.5317965226624635 -1.5935130245447802 -1.9404832154997003 0.3939278331850957 2.101684898305706 0.0012203700581085997 0.0 0.0 0.0 -0.0 -0.0 -0.0 0.0 0.0 0.0 0.0 0.0 0.0 7.004311267080232e-19 0.5339517876541976 0.6975046845426743 0.06047851980485384 -5.4153432507572516e-05 0.0 8.038147178250425e-18 6.150323238433266 5.889166123436275 0.24962443727032316 -0.00022481159480913668 0.0 -0.5317977110492151 -1.5935981909381312 -1.9403999487506312 0.3938814401626587 2.1016409397125244 0.0012014185776934028 3.834952076431364e-05 0.0 -0.0 7.190534961409867e-05 -7.190534961409867e-05 7.190534961409867e-05 -0.01570129580795765 0.5540314316749573 0.5840907692909241 0.06042566895484924 -0.02685585245490074 0.1857529729604721 -0.01570129580795765 0.5450592637062073 0.5795156359672546 0.051473718136548996 -0.03021283447742462 0.17680102586746216 0.20002106750709323 -0.20001644933222315 0.3999957253647782 -1.209103778031149 1.2091153572525393 -1.2090583311779597 2.366255075972976e-06 4.854979671020915e-06 5.1057760085134075e-06 3.558223204836874e-05 -6.208002486560202e-05 -3.359468787825347e-05 3.407893814809906 -5.126860229796314 3.1541100012334815 -0.8618083237272256 0.21653406143001283 0.5458742736877873 0.20000000000100057 -0.19999999999566195 0.3999999999978721 -1.2090987222147533 1.2090487305425026 -1.2090487305427609 0.0 0.0 0.0 0.0 0.0 0.0
2728.048 -0.5317965226624635 -1.5935130245447802 -1.9404832154997003 0.3939278331850957 2.101684898305706 0.0012203700581085997 0.0 0.0 0.0 -0.0 -0.0 -0.0 0.0 0.0 0.0 0.0 0.0 0.0 7.004311267080232e-19 0.5339517876541976 0.6975046845426743 0.06047851980485384 -5.4153432507572516e-05 0.0 8.038147178250425e-18 6.150323238433266 5.889166123436275 0.24962443727032316 -0.00022481159480913668 0.0 -0.5317490736590784 -1.5935500303851526 -1.9403999487506312 0.39389336109161377 2.1016290187835693 0.0012493554968386889 3.834952076431364e-05 0.0 -0.0 7.190534961409867e-05 -7.190534961409867e-05 7.190534961409867e-05 -0.011215210892260075 0.5517883896827698 0.5398645997047424 0.05259270966053009 -0.03245082125067711 0.18015800416469574 -0.01570129580795765 0.5450592637062073 0.5795156359672546 0.051473718136548996 -0.02909383922815323 0.17680102586746216 0.20001961228510412 -0.20000114438729588 0.4000097542632128 -1.2090700859950476 1.2090584918175644 -1.2090429433673318 2.3654697729005875e-06 4.854821825815309e-06 5.105622649586067e-06 3.558897340543944e-05 -6.208134465088238e-05 -3.359095327670773e-05 4.140530416651 -7.085236382931057 4.420768743331225 -0.8358955672486653 0.10254007214813161 0.7333818632141834 0.20000000000100057 -0.19999999999566195 0.3999999999978721 -1.2090987222147533 1.2090487305425026 -1.2090487305427609 0.0 0.0 0.0 0.0 0.0 0.0
2728.056 -0.5317965226624635 -1.5935130245447802 -1.9404832154997003 0.3939278331850957 2.101684898305706 0.0012203700581085997 0.0 0.0 0.0 -0.0 -0.0 -0.0 0.0 0.0 0.0 0.0 0.0 0.0 7.004311267080232e-19 0.5339517876541976 0.6975046845426743 0.06047851980485384 -5.4153432507572516e-05 0.0 8.038147178250425e-18 6.150323238433266 5.889166123436275 0.24962443727032316 -0.00022481159480913668 0.0 -0.5318334738360804 -1.593562428151266 -1.9404357115374964 0.39386940002441406 2.10160493850708 0.0012613397557288408 3.834952076431364e-05 0.0 -0.0 7.190534961409867e-05 -7.190534961409867e-05 7.190534961409867e-05 -0.01570129580795765 0.5473023056983948 0.5962911248207092 0.05371170490980148 -0.03245082125067711 0.17568203806877136 -0.01570129580795765 0.5450592637062073 0.5795156359672546 0.051473718136548996 -0.02909383922815323 0.17680102586746216 0.2000072895092511 -0.20002264268973066 0.39999507598397976 -1.209028898869083 1.2092069740386466 -1.2090575888425428 2.3662317202986572e-06 4.8546098267155336e-06 5.105921590682809e-06 3.557926978826937e-05 -6.208344595865601e-05 -3.359543197288889e-05 2.856065464801097 -4.41132836368908 2.7578303088982827 -0.8150635108178538 0.20353617758574466 0.5130491052961113 0.20000000000100057 -0.19999999999566195 0.3999999999978721 -1.2090987222147533 1.2090487305425026 -1.2090487305427609 0.0 0.0 0.0 0.0 0.0 0.0
2728.064 -0.5317965226624635 -1.5935130245447802 -1.9404832154997003 0.3939278331850957 2.101684898305706 0.0012203700581085997 0.0 0.0 0.0 -0.0 -0.0 -0.0 0.0 0.0 0.0 0.0 0.0 0.0 7.004311267080232e-19 0.5339517876541976 0.6975046845426743 0.06047851980485384 -5.4153432507572516e-05 0.0 8.038147178250425e-18 6.150323238433266 5.889166123436275 0.24962443727032316 -0.00022481159480913668 0.0 -0.5317977110492151 -1.593562428151266 -1.940388027821676 0.39386940002441406 2.10160493850708 0.0012373712379485369 3.834952076431364e-05 0.0 -0.0 7.190534961409867e-05 -7.190534961409867e-05 7.190534961409867e-05 -0.01345825381577015 0.5405731797218323 0.5871408581733704 0.05259270966053009 -0.02909383922815323 0.17456303536891937 -0.01570129580795765 0.5450592637062073 0.5795156359672546 0.051473718136548996 -0.03021283447742462 0.17792002856731415 0.20001425334222311 -0.20001543237343317 0.4000078595568075 -1.2090508849357446 1.2091277413351897 -1.2090862497470296 2.3658454806933533e-06 4.854811397518428e-06 5.105771478357083e-06 3.558443736676071e-05 -6.208391695354182e-05 -3.3592469742781246e-05 2.8278216341573894 -4.4753224850383155 3.1672793713159 -0.8099013832557064 0.2273303546115262 0.5026880688495886 0.20000000000100057 -0.19999999999566195 0.3999999999978721 -1.2090987222147533 1.2090487305425026 -1.2090487305427609 0.0 0.0 0.0 0.0 0.0 0.0
2728.0719999999997 -0.5317965226624635 -1.5935130245447802 -1.9404832154997003 0.3939278331850957 2.101684898305706 0.0012203700581085997 0.0 0.0 0.0 -0.0 -0.0 -0.0 0.0 0.0 0.0 0.0 0.0 0.0 7.004311267080232e-19 0.5339517876541976 0.6975046845426743 0.06047851980485384 -5.4153432507572516e-05 0.0 8.038147178250425e-18 6.150323238433266 5.889166123436275 0.24962443727032316 -0.00022481159480913668 0.0 -0.5317977110492151 -1.593562428151266 -1.9404237906085413 0.3938814401626587 2.10160493850708 0.0012493554968386889 3.834952076431364e-05 0.0 -0.0 7.190534961409867e-05 -7.190534961409867e-05 7.190534961409867e-05 -0.01794433780014515 0.5383301377296448 0.5856158137321472 0.04923573136329651 -0.041402772068977356 0.18015800416469574 -0.01570129580795765 0.5450592637062073 0.5795156359672546 0.051473718136548996 -0.031331829726696014 0.17680102586746216 0.2000135082205163 -0.20001495529586288 0.39999912578050417 -1.2090483294447885 1.2091540610767937 -1.2090588161620173 2.365931963425148e-06 4.854720819728246e-06 5.105846143942219e-06 3.5582973462955596e-05 -6.208304810840727e-05 -3.359394358256023e-05 2.7950320302894904 -4.415847513145423 3.186616988657991 -0.8358521901872121 0.23189823077949961 0.5550712721198702 0.20000000000100057 -0.19999999999566195 0.3999999999978721 -1.2090987222147533 1.2090487305425026 -1.2090487305427609 0.0 0.0 0.0 0.0 0.0 0.0
2728.08 -0.5317965226624635 -1.5935130245447802 -1.9404832154997003 0.3939278331850957 2.101684898305706 0.0012203700581085997 0.0 0.0 0.0 -0.0 -0.0 -0.0 0.0 0.0 0.0 0.0 0.0 0.0 7.004311267080232e-19 0.5339517876541976 0.6975046845426743 0.06047851980485384 -5.4153432507572516e-05 0.0 8.038147178250425e-18 6.150323238433266 5.889166123436275 0.24962443727032316 -0.00022481159480913668 0.0 -0.5318096319781702 -1.5935981909381312 -1.940388027821676 0.39386940002441406 2.1016290187835693 0.0012134028365835547 3.834952076431364e-05 0.0 -0.0 7.190534961409867e-05 -7.190534961409867e-05 7.190534961409867e-05 -0.01570129580795765 0.5450592637062073 0.5871408581733704 0.054830700159072876 -0.03692679852247238 0.17680102586746216 -0.01570129580795765 0.5450592637062073 0.5795156359672546 0.051473718136548996 -0.03021283447742462 0.17680102586746216 0.20001952206148232 -0.2000203213725358 0.39999806837632645 -1.2090836805730794 1.2091387055528884 -1.209066994992557 2.3662997297865835e-06 4.854983638408326e-06 5.105812003512859e-06 3.558148233565687e-05 -6.208130334177885e-05 -3.359469427167771e-05 2.94608601334984 -4.740966680012883 3.1221569149520394 -0.8202748318071271 0.21829368381757863 0.5610378563680154 0.20000000000100057 -0.19999999999566195 0.3999999999978721 -1.2090987222147533 1.2090487305425026 -1.2090487305427609 0.0 0.0 0.0 0.0 0.0 0.0
2728.0879999999997 -0.5317965226624635 -1.5935130245447802 -1.9404832154997003 0.3939278331850957 2.101684898305706 0.0012203700581085997 0.0 0.0 0.0 -0.0 -0.0 -0.0 0.0 0.0 0.0 0.0 0.0 0.0 7.004311267080232e-19 0.5339517876541976 0.6975046845426743 0.06047851980485384 -5.4153432507572516e-05 0.0 8.038147178250425e-18 6.150323238433266 5.889166123436275 0.24962443727032316 -0.00022481159480913668 0.0 -0.5317733923541468 -1.5935261885272425 -1.940388027821676 0.39389336109161377 2.10158109664917 0.0012493554968386889 3.834952076431364e-05 0.0 -0.0 7.190534961409867e-05 -7.190534961409867e-05 7.190534961409867e-05 -0.01794433780014515 0.5360870957374573 0.6069663763046265 0.0503547228872776 -0.03021283447742462 0.17792002856731415 -0.01570129580795765 0.5495453476905823 0.5795156359672546 0.051473718136548996 -0.031331829726696014 0.17680102586746216 0.20000959604374857 -0.20000694905311137 0.4000194802004862 -1.209026470844056 1.2090804484312832 -1.2091241061393376 2.365182060333758e-06 4.854660070615343e-06 5.105653247045643e-06 3.5589677299583816e-05 -6.208696255693298e-05 -3.358872699253965e-05 2.3684962531604876 -3.2469912373328604 2.585497492273975 -0.825489782206133 0.27742599868117895 0.40660402213580876 0.20000000000100057 -0.19999999999566195 0.3999999999978721 -1.2090987222147533 1.2090487305425026 -1.2090487305427609 0.0 0.0 0.0 0.0 0.0 0.0
2728.096 -0.5317965226624635 -1.5935130245447802 -1.9404832154997003 0.3939278331850957 2.101684898305706 0.0012203700581085997 0.0 0.0 0.0 -0.0 -0.0 -0.0 0.0 0.0 0.0 0.0 0.0 0.0 7.004311267080232e-19 0.5339517876541976 0.6975046845426743 0.06047851980485384 -5.4153432507572516e-05 0.0 8.038147178250425e-18 6.150323238433266 5.889166123436275 0.24962443727032316 -0.00022481159480913668 0.0 -0.5317857901202601 -1.5935981909381312 -1.9403517881976526 0.3938335180282593 2.101569175720215 0.0012493554968386889 3.834952076431364e-05 0.0 -0.0 7.190534961409867e-05 -7.190534961409867e-05 7.190534961409867e-05 -0.02018737979233265 0.5540314316749573 0.5993412137031555 0.054830700159072876 -0.03245082125067711 0.170087069272995 -0.01570129580795765 0.5450592637062073 0.5795156359672546 0.051473718136548996 -0.031331829726696014 0.17680102586746216 0.2000267861431653 -0.2000219875323944 0.40000524431114715 -1.2090399573320991 1.209181960943098 -1.2090673780627996 2.3660739681913372e-06 4.855137832332711e-06 5.105989643585988e-06 3.558297785887013e-05 -6.208477553894896e-05 -3.3594667199466286e-05 3.135845895747296 -4.39589157799465 2.54228406010752 -0.7891123940472909 0.1534155135051228 0.5118095494889716 0.20000000000100057 -0.19999999999566195 0.3999999999978721 -1.2090987222147533 1.2090487305425026 -1.2090487305427609 0.0 0.0 0.0 0.0 0.0 0.0
2728.104 -0.5317965226624635 -1.5935130245447802 -1.9404832154997003 0.3939278331850957 2.101684898305706 0.0012203700581085997 0.0 0.0 0.0 -0.0 -0.0 -0.0 0.0 0.0 0.0 0.0 0.0 0.0 7.004311267080232e-19 0.5339517876541976 0.6975046845426743 0.06047851980485384 -5.4153432507572516e-05 0.0 8.038147178250425e-18 6.150323238433266 5.889166123436275 0.24962443727032316 -0.00022481159480913668 0.0 -0.5317857901202601 -1.593574349080221 -1.940388027821676 0.393857479095459 2.101569175720215 0.0012134028365835547 3.834952076431364e-05 0.0 -0.0 4.793690095539205e-05 -4.793690095539205e-05 7.190534961409867e-05 -0.01794433780014515 0.5473023056983948 0.564265251159668 0.05259270966053009 -0.041402772068977356 0.18127700686454773 -0.01570129580795765 0.5450592637062073 0.5795156359672546 0.051473718136548996 -0.031331829726696014 0.17680102586746216 0.2000200636548409 -0.20001800427667463 0.40000375423796275 -1.209063455732022 1.2091547878397992 -1.2091028213504063 4.134111832525181e-06 5.793497492933882e-06 3.4039689544246275e-06 4.7690915927512064e-05 -4.138877604744279e-05 -9.610658007155215e-06 3.5579473352497377 -5.712935692103117 3.746242947990001 -0.8410437984677456 0.16874132784633214 0.6619385613099987 0.20000000000100057 -0.19999999999566195 0.3999999999978721 -1.2090987222147533 1.2090487305425026 -1.2090487305427609 0.0 0.0 0.0 0.0 0.0 0.0
2728.112 -0.5317965226624635 -1.5935130245447802 -1.9404832154997003 0.3939278331850957 2.101684898305706 0.0012203700581085997 0.0 0.0 0.0 -0.0 -0.0 -0.0 0.0 0.0 0.0 0.0 0.0 0.0 7.004311267080232e-19 0.5339517876541976 0.6975046845426743 0.06047851980485384 -5.4153432507572516e-05 0.0 8.038147178250425e-18 6.150323238433266 5.889166123436275 0.24962443727032316 -0.00022481159480913668 0.0 -0.5317614714251917 -1.593562428151266 -1.9403999487506312 0.3938335180282593 2.101593017578125 0.0012613397557288408 3.834952076431364e-05 0.0 -0.0 4.793690095539205e-05 -4.793690095539205e-05 4.793690095539205e-05 -0.01570129580795765 0.5473023056983948 0.5871408581733704 0.05930667370557785 -0.031331829726696014 0.16561108827590942 -0.01570129580795765 0.5450592637062073 0.5795156359672546 0.051473718136548996 -0.031331829726696014 0.17680102586746216 0.2000241923141531 -0.2000107299699103 0.4000021198917298 -1.2090572790274738 1.2091629160358783 -1.2090133291077911 4.134043230592227e-06 5.7935282705863915e-06 3.403971831050373e-06 2.372248426885517e-05 -4.138782855343208e-05 -9.613786394556603e-06 3.080607099170424 -4.748496581394941 3.1778643341827255 -0.7683564541092346 0.2045500627461005 0.5356887568482167 0.20000000000100057 -0.19999999999566195 0.3999999999978721 -1.2090987222147533 1.2090487305425026 -1.2090487305427609 0.0 0.0 0.0 0.0 0.0 0.0
2728.12 -0.5317965226624635 -1.5935130245447802 -1.9404832154997003 0.3939278331850957 2.101684898305706 0.0012203700581085997 0.0 0.0 0.0 -0.0 -0.0 -0.0 0.0 0.0 0.0 0.0 0.0 0.0 7.004311267080232e-19 0.5339517876541976 0.6975046845426743 0.06047851980485384 -5.4153432507572516e-05 0.0 8.038147178250425e-18 6.150323238433266 5.889166123436275 0.24962443727032316 -0.00022481159480913668 0.0 -0.5317857901202601 -1.593574349080221 -1.9403756300555628 0.393857479095459 2.101569175720215 0.001225386979058385 3.834952076431364e-05 0.0 -0.0 4.793690095539205e-05 -4.793690095539205e-05 4.793690095539205e-05 -0.02467346377670765 0.5450592637062073 0.5947660803794861 0.051473718136548996 -0.02685585245490074 0.18127700686454773 -0.01570129580795765 0.5450592637062073 0.5795156359672546 0.051473718136548996 -0.03021283447742462 0.17680102586746216 0.20002001436593522 -0.20001798933582737 0.4000070779970762 -1.209051361831509 1.2091496452147554 -1.2091037057591925 4.134074785249941e-06 5.7935171331819536e-06 3.4039429331769476e-06 2.3722978272477092e-05 -4.139043289794975e-05 -9.612279749339684e-06 3.1770371396585513 -3.7531439677846623 2.8041692413114627 -0.841030673303764 0.2161273488573916 0.4327135186732409 0.20000000000100057 -0.19999999999566195 0.3999999999978721 -1.2090987222147533 1.2090487305425026 -1.2090487305427609 0.0 0.0 0.0 0.0 0.0 0.0
2728.1279999999997 -0.5317965226624635 -1.5935130245447802 -1.9404832154997003 0.3939278331850957 2.101684898305706 0.0012203700581085997 0.0 0.0 0.0 -0.0 -0.0 -0.0 0.0 0.0 0.0 0.0 0.0 0.0 7.004311267080232e-19 0.5339517876541976 0.6975046845426743 0.06047851980485384 -5.4153432507572516e-05 0.0 8.038147178250425e-18 6.150323238433266 5.889166123436275 0.24962443727032316 -0.00022481159480913668 0.0 -0.5317977110492151 -1.5935142675982874 -1.9403637091266077 0.393857479095459 2.101593017578125 0.0012014185776934028 3.834952076431364e-05 0.0 -0.0 4.793690095539205e-05 -4.793690095539205e-05 4.793690095539205e-05 -0.02018737979233265 0.5450592637062073 0.5978161692619324 0.05371170490980148 -0.041402772068977356 0.17568203806877136 -0.01570129580795765 0.5450592637062073 0.5795156359672546 0.051473718136548996 -0.02909383922815323 0.17680102586746216 0.2000047297282189 -0.20001085582110742 0.40002671704835985 -1.2090558130670566 1.2090666646323065 -1.2091688902229165 4.13366164513403e-06 5.793097655517458e-06 3.4037445026514806e-06 2.372545648662927e-05 -4.1391326335960415e-05 -9.609297658595758e-06 2.793684545232747 -4.167907145585722 2.7592773957209724 -0.815120874434367 0.22110344151743716 0.5345855189704943 0.20000000000100057 -0.19999999999566195 0.3999999999978721 -1.2090987222147533 1.2090487305425026 -1.2090487305427609 0.0 0.0 0.0 0.0 0.0 0.0
2728.136 -0.5317965226624635 -1.5935130245447802 -1.9404832154997003 0.3939278331850957 2.101684898305706 0.0012203700581085997 0.0 0.0 0.0 -0.0 -0.0 -0.0 0.0 0.0 0.0 0.0 0.0 0.0 7.004311267080232e-19 0.5339517876541976 0.6975046845426743 0.06047851980485384 -5.4153432507572516e-05 0.0 8.038147178250425e-18 6.150323238433266 5.889166123436275 0.24962443727032316 -0.00022481159480913668 0.0 -0.5317977110492151 -1.593574349080221 -1.9404118696795862 0.3938814401626587 2.101569175720215 0.0012373712379485369 3.834952076431364e-05 0.0 -0.0 4.793690095539205e-05 -4.793690095539205e-05 4.793690095539205e-05 -0.01345825381577015 0.5540314316749573 0.5795156359672546 0.05594969168305397 -0.027974845841526985 0.1868719756603241 -0.01570129580795765 0.5450592637062073 0.5795156359672546 0.051473718136548996 -0.02909383922815323 0.17680102586746216 0.20001600826803886 -0.2000193822486838 0.399999061790068 -1.2090401663508488 1.209174739215872 -1.20909398684531 4.1341420729513096e-06 5.7933840621864526e-06 3.4039686819965903e-06 2.3721982054642422e-05 -4.1390414429836506e-05 -9.612788425644906e-06 3.425826546111316 -5.447262645360342 3.194682147489546 -0.8669909211362703 0.18129135004489857 0.577475771238166 0.20000000000100057 -0.19999999999566195 0.3999999999978721 -1.2090987222147533 1.2090487305425026 -1.2090487305427609 0.0 0.0 0.0 0.0 0.0 0.0
2728.144 -0.5317965226624635 -1.5935130245447802 -1.9404832154997003 0.3939278331850957 2.101684898305706 0.0012203700581085997 0.0 0.0 0.0 -0.0 -0.0 -0.0 0.0 0.0 0.0 0.0 0.0 0.0 7.004311267080232e-19 0.5339517876541976 0.6975046845426743 0.06047851980485384 -5.4153432507572516e-05 0.0 8.038147178250425e-18 6.150323238433266 5.889166123436275 0.24962443727032316 -0.00022481159480913668 0.0 -0.5318096319781702 -1.593574349080221 -1.9404118696795862 0.3938814401626587 2.10160493850708 0.0012134028365835547 3.834952076431364e-05 0.0 -0.0 4.793690095539205e-05 -4.793690095539205e-05 4.793690095539205e-05 -0.01345825381577015 0.5428162217140198 0.5505398511886597 0.0503547228872776 -0.038045790046453476 0.17568203806877136 -0.01570129580795765 0.5450592637062073 0.5795156359672546 0.051473718136548996 -0.02909383922815323 0.17903901636600494 0.20001362685246302 -0.2000188212352214 0.3999990586761587 -1.2090691436237753 1.2091458634577719 -1.2090940897867086 4.134239589937572e-06 5.793334674556486e-06 3.4038974833235497e-06 2.3721488554131394e-05 -4.138898285953767e-05 -9.612790240026342e-06 3.629416546746589 -6.193303729364684 4.225386844204417 -0.8150907501610566 0.15072257618105672 0.6859612720271813 0.20000000000100057 -0.19999999999566195 0.3999999999978721 -1.2090987222147533 1.2090487305425026 -1.2090487305427609 0.0 0.0 0.0 0.0 0.0 0.0
2728.152 -0.5317965226624635 -1.5935130245447802 -1.9404832154997003 0.3939278331850957 2.101684898305706 0.0012203700581085997 0.0 0.0 0.0 -0.0 -0.0 -0.0 0.0 0.0 0.0 0.0 0.0 0.0 7.004311267080232e-19 0.5339517876541976 0.6975046845426743 0.06047851980485384 -5.4153432507572516e-05 0.0 8.038147178250425e-18 6.150323238433266 5.889166123436275 0.24962443727032316 -0.00022481159480913668 0.0 -0.5317490736590784 -1.5935381094561976 -1.9403637091266077 0.3938814401626587 2.10160493850708 0.0012014185776934028 3.834952076431364e-05 0.0 -0.0 4.793690095539205e-05 -4.793690095539205e-05 4.793690095539205e-05 -0.01794433780014515 0.5428162217140198 0.5764655470848083 0.05594969168305397 -0.03021283447742462 0.17568203806877136 -0.01570129580795765 0.5450592637062073 0.5795156359672546 0.051473718136548996 -0.02909383922815323 0.17344404757022858 0.20001779395675795 -0.20000210284114409 0.40002188939263067 -1.2090844111833363 1.2090219643141762 -1.2091243671926732 4.133464039797905e-06 5.7934266602172335e-06 3.4037204361091967e-06 2.372747569469536e-05 -4.138960239854817e-05 -9.609293948892722e-06 3.273532898280507 -4.785888446931493 3.5355775690293063 -0.8151346379019977 0.22495646258602595 0.5334397117402626 0.20000000000100057 -0.19999999999566195 0.3999999999978721 -1.2090987222147533 1.2090487305425026 -1.2090487305427609 0.0 0.0 0.0 0.0 0.0 0.0
2728.16 -0.5317965226624635 -1.5935130245447802 -1.9404832154997003 0.3939278331850957 2.101684898305706 0.0012203700581085997 0.0 0.0 0.0 -0.0 -0.0 -0.0 0.0 0.0 0.0 0.0 0.0 0.0 7.004311267080232e-19 0.5339517876541976 0.6975046845426743 0.06047851980485384 -5.4153432507572516e-05 0.0 8.038147178250425e-18 6.150323238433266 5.889166123436275 0.24962443727032316 -0.00022481159480913668 0.0 -0.5317857901202601 -1.593574349080221 -1.9404118696795862 0.393857479095459 2.10158109664917 0.0012134028365835547 1.917476038215682e-05 0.0 -0.0 4.793690095539205e-05 -4.793690095539205e-05 4.793690095539205e-05 -0.01345825381577015 0.5517883896827698 0.5795156359672546 0.04923573136329651 -0.03580780327320099 0.1667300909757614 -0.01570129580795765 0.5450592637062073 0.5795156359672546 0.051473718136548996 -0.0335698164999485 0.17568203806877136 0.20002015933474673 -0.20001705115843138 0.3999973613657001 -1.2090753975772823 1.2091667983211214 -1.2090753721035696 2.9891353194120794e-07 1.9581210576961776e-06 3.4039952604281664e-06 2.3721484908163467e-05 -4.138897811237263e-05 -2.8788541614151107e-05 3.2637525757674704 -5.483184674349028 3.087546815266685 -0.7735383381045531 0.09363326581695627 0.6171090566792887 0.20000000000100057 -0.19999999999566195 0.3999999999978721 -1.2090987222147533 1.2090487305425026 -1.2090487305427609 0.0 0.0 0.0 0.0 0.0 0.0
2728.1679999999997 -0.5317965226624635 -1.5935130245447802 -1.9404832154997003 0.3939278331850957 2.101684898305706 0.0012203700581085997 0.0 0.0 0.0 -0.0 -0.0 -0.0 0.0 0.0 0.0 0.0 0.0 0.0 7.004311267080232e-19 0.5339517876541976 0.6975046845426743 0.06047851980485384 -5.4153432507572516e-05 0.0 8.038147178250425e-18 6.150323238433266 5.889166123436275 0.24962443727032316 -0.00022481159480913668 0.0 -0.5317857901202601 -1.593574349080221 -1.9404237906085413 0.3939173221588135 2.101593017578125 0.0012493554968386889 1.917476038215682e-05 0.0 -0.0 4.793690095539205e-05 -4.793690095539205e-05 4.793690095539205e-05 -0.01794433780014515 0.5428162217140198 0.5947660803794861 0.054830700159072876 -0.034688808023929596 0.18910996615886688 -0.01570129580795765 0.5450592637062073 0.5795156359672546 0.051473718136548996 -0.02909383922815323 0.17680102586746216 0.2000157978039704 -0.20001349850505823 0.3999984086057297 -1.2090420110435465 1.2091331109875758 -1.2090775134400287 2.987518702842403e-07 1.958119892947847e-06 3.4038708938209853e-06 2.3723467455263936e-05 -4.1389569815338976e-05 -2.8786557867769505e-05 2.8020810256268462 -4.16096943663245 2.9294971002266736 -0.877391269579382 0.2773365380266243 0.5026959183133458 0.20000000000100057 -0.19999999999566195 0.3999999999978721 -1.2090987222147533 1.2090487305425026 -1.2090487305427609 0.0 0.0 0.0 0.0 0.0 0.0
2728.176 -0.5317965226624635 -1.5935130245447802 -1.9404832154997003 0.3939278331850957 2.101684898305706 0.0012203700581085997 0.0 0.0 0.0 -0.0 -0.0 -0.0 0.0 0.0 0.0 0.0 0.0 0.0 7.004311267080232e-19 0.5339517876541976 0.6975046845426743 0.06047851980485384 -5.4153432507572516e-05 0.0 8.038147178250425e-18 6.150323238433266 5.889166123436275 0.24962443727032316 -0.00022481159480913668 0.0 -0.5317857901202601 -1.593562428151266 -1.940388027821676 0.39389336109161377 2.10160493850708 0.0012493554968386889 1.917476038215682e-05 0.0 -0.0 4.793690095539205e-05 -4.793690095539205e-05 4.793690095539205e-05 -0.01345825381577015 0.5428162217140198 0.5901909470558167 0.0503547228872776 -0.03245082125067711 0.17680102586746216 -0.01570129580795765 0.5450592637062073 0.5795156359672546 0.051473718136548996 -0.02909383922815323 0.17680102586746216 0.20001487195747158 -0.2000120128697411 0.4000095588218466 -1.20904140615358 1.2091036875962173 -1.2090873554142494 2.987006767812828e-07 1.9581434644645125e-06 3.403797425565601e-06 2.3724442722072905e-05 -4.138957826421545e-05 -2.8785575593369733e-05 2.78642992919966 -4.537525105762159 2.9700303268241908 -0.8202975989989748 0.2055843572699336 0.5234207945430212 0.20000000000100057 -0.19999999999566195 0.3999999999978721 -1.2090987222147533 1.2090487305425026 -1.2090487305427609 0.0 0.0 0.0 0.0 0.0 0.0
2728.1839999999997 -0.5317965226624635 -1.5935130245447802 -1.9404832154997003 0.3939278331850957 2.101684898305706 0.0012203700581085997 0.0 0.0 0.0 -0.0 -0.0 -0.0 0.0 0.0 0.0 0.0 0.0 0.0 7.004311267080232e-19 0.5339517876541976 0.6975046845426743 0.06047851980485384 -5.4153432507572516e-05 0.0 8.038147178250425e-18 6.150323238433266 5.889166123436275 0.24962443727032316 -0.00022481159480913668 0.0 -0.5317857901202601 -1.5935261885272425 -1.9404357115374964 0.3938814401626587 2.1016290187835693 0.001225386979058385 1.917476038215682e-05 0.0 -0.0 4.793690095539205e-05 -4.793690095539205e-05 4.793690095539205e-05 -0.01345825381577015 0.5383301377296448 0.5734154582023621 0.048116736114025116 -0.031331829726696014 0.17456303536891937 -0.01570129580795765 0.5450592637062073 0.5795156359672546 0.0503547228872776 -0.02909383922815323 0.17680102586746216 0.20000818861482647 -0.20000605454006276 0.40000584704068926 -1.2090766949092853 1.20909496288308 -1.2090689553448444 2.987505316672471e-07 1.957974506677904e-06 3.4037986328224e-06 2.372348118693362e-05 -4.13878545396324e-05 -2.878654377065257e-05 3.046472718993307 -4.936101175363368 3.5464970091377848 -0.8099111333381062 0.1926898010309016 0.5511154164840663 0.20000000000100057 -0.19999999999566195 0.3999999999978721 -1.2090987222147533 1.2090487305425026 -1.2090487305427609 0.0 0.0 0.0 0.0 0.0 0.0
2728.192 -0.5317965226624635 -1.5935130245447802 -1.9404832154997003 0.3939278331850957 2.101684898305706 0.0012203700581085997 0.0 0.0 0.0 -0.0 -0.0 -0.0 0.0 0.0 0.0 0.0 0.0 0.0 7.004311267080232e-19 0.5339517876541976 0.6975046845426743 0.06047851980485384 -5.4153432507572516e-05 0.0 8.038147178250425e-18 6.150323238433266 5.889166123436275 0.24962443727032316 -0.00022481159480913668 0.0 -0.5317977110492151 -1.5935261885272425 -1.9404237906085413 0.393857479095459 2.1016170978546143 0.0012134028365835547 1.917476038215682e-05 0.0 -0.0 4.793690095539205e-05 -4.793690095539205e-05 4.793690095539205e-05 -0.01345825381577015 0.5450592637062073 0.6206917762756348 0.05259270966053009 -0.0335698164999485 0.1712060570716858 -0.01570129580795765 0.5450592637062073 0.5795156359672546 0.05259270966053009 -0.02909383922815323 0.17680102586746216 0.2000075216849564 -0.20001044136854548 0.4000073446884916 -1.2090773755498982 1.2091173982438663 -1.209085961662225 2.9880043109075405e-07 1.95798331102532e-06 3.4038476575767993e-06 2.3722488584223593e-05 -4.13884172933143e-05 -2.878704166217201e-05 2.1432610944768338 -3.4885533278169025 2.0077323363118698 -0.7943198860513662 0.23080408575381187 0.4422300582580422 0.20000000000100057 -0.19999999999566195 0.3999999999978721 -1.2090987222147533 1.2090487305425026 -1.2090487305427609 0.0 0.0 0.0 0.0 0.0 0.0
2728.2 -0.5317965226624635 -1.5935130245447802 -1.9404832154997003 0.3939278331850957 2.101684898305706 0.0012203700581085997 0.0 0.0 0.0 -0.0 -0.0 -0.0 0.0 0.0 0.0 0.0 0.0 0.0 7.004311267080232e-19 0.5339517876541976 0.6975046845426743 0.06047851980485384 -5.4153432507572516e-05 0.0 8.038147178250425e-18 6.150323238433266 5.889166123436275 0.24962443727032316 -0.00022481159480913668 0.0 -0.5317857901202601 -1.593574349080221 -1.9403999487506312 0.39389336109161377 2.1016290187835693 0.001225386979058385 1.917476038215682e-05 0.0 -0.0 4.793690095539205e-05 -4.793690095539205e-05 4.793690095539205e-05 -0.01570129580795765 0.5450592637062073 0.5764655470848083 0.05706868693232536 -0.03245082125067711 0.18015800416469574 -0.01570129580795765 0.5450592637062073 0.5795156359672546 0.051473718136548996 -0.03021283447742462 0.17680102586746216 0.20001747173099543 -0.2000115399402766 0.40000309786037114 -1.2090767411501473 1.2090954391116087 -1.2090686243105293 2.988568946976338e-07 1.958151841419906e-06 3.403799492907483e-06 2.372345922285342e-05 -4.1387843100134915e-05 -2.8786564506539483e-05 3.243645583723009 -5.06927708881522 3.5122258980464958 -0.8358729908020771 0.22961567705774688 0.567206476691546 0.20000000000100057 -0.19999999999566195 0.3999999999978721 -1.2090987222147533 1.2090487305425026 -1.2090487305427609 0.0 0.0 0.0 0.0 0.0 0.0
2728.208 -0.5317965226624635 -1.5935130245447802 -1.9404832154997003 0.3939278331850957 2.101684898305706 0.0012203700581085997 0.0 0.0 0.0 -0.0 -0.0 -0.0 0.0 0.0 0.0 0.0 0.0 0.0 7.004311267080232e-19 0.5339517876541976 0.6975046845426743 0.06047851980485384 -5.4153432507572516e-05 0.0 8.038147178250425e-18 6.150323238433266 5.889166123436275 0.24962443727032316 -0.00022481159480913668 0.0 -0.5317977110492151 -1.593574349080221 -1.940388027821676 0.39386940002441406 2.1016290187835693 0.0012134028365835547 1.917476038215682e-05 0.0 -0.0 4.793690095539205e-05 -4.793690095539205e-05 4.793690095539205e-05 -0.01345825381577015 0.5405731797218323 0.5749405026435852 0.05818767845630646 -0.038045790046453476 0.19022895395755768 -0.01570129580795765 0.5450592637062073 0.5795156359672546 0.05259270966053009 -0.031331829726696014 0.17680102586746216 0.20001680571853717 -0.2000149451021085 0.40000459445151526 -1.2090830764526386 1.2091091002890664 -1.2090768547772393 2.9893510732574546e-07 1.958160592094784e-06 3.4038247837874308e-06 2.3722466563842334e-05 -4.1387834401593455e-05 -2.878706300616437e-05 3.005452226244133 -5.130441339566043 3.6833094404182654 -0.8825950711289914 0.29439614969772665 0.5982068769969895 0.20000000000100057 -0.19999999999566195 0.3999999999978721 -1.2090987222147533 1.2090487305425026 -1.2090487305427609 0.0 0.0 0.0 0.0 0.0 0.0
2728.216 -0.5317965226624635 -1.5935130245447802 -1.9404832154997003 0.3939278331850957 2.101684898305706 0.0012203700581085997 0.0 0.0 0.0 -0.0 -0.0 -0.0 0.0 0.0 0.0 0.0 0.0 0.0 7.004311267080232e-19 0.5339517876541976 0.6975046845426743 0.06047851980485384 -5.4153432507572516e-05 0.0 8.038147178250425e-18 6.150323238433266 5.889166123436275 0.24962443727032316 -0.00022481159480913668 0.0 -0.5317733923541468 -1.593586270009176 -1.9404237906085413 0.39386940002441406 2.10160493850708 0.0012014185776934028 1.917476038215682e-05 0.0 -0.0 4.793690095539205e-05 -4.793690095539205e-05 4.793690095539205e-05 -0.02018737979233265 0.5473023056983948 0.5703654289245605 0.05371170490980148 -0.031331829726696014 0.17568203806877136 -0.01570129580795765 0.5450592637062073 0.5795156359672546 0.05259270966053009 -0.031331829726696014 0.17680102586746216 0.2000243602020429 -0.20001360291917614 0.3999917458459761 -1.2091045269325227 1.2091448426555502 -1.2090481686775285 2.990000211912204e-07 1.958136858721563e-06 3.403972766581257e-06 2.37215072969977e-05 -4.138724984790786e-05 -2.87890367968954e-05 3.60799215776944 -5.154377865522905 3.579316306288574 -0.8150701731438614 0.16955824729480115 0.5691052375826934 0.20000000000100057 -0.19999999999566195 0.3999999999978721 -1.2090987222147533 1.2090487305425026 -1.2090487305427609 0.0 0.0 0.0 0.0 0.0 0.0
2728.2239999999997 -0.5317965226624635 -1.5935130245447802 -1.9404832154997003 0.3939278331850957 2.101684898305706 0.0012203700581085997 0.0 0.0 0.0 -0.0 -0.0 -0.0 0.0 0.0 0.0 0.0 0.0 0.0 7.004311267080232e-19 0.5339517876541976 0.6975046845426743 0.06047851980485384 -5.4153432507572516e-05 0.0 8.038147178250425e-18 6.150323238433266 5.889166123436275 0.24962443727032316 -0.00022481159480913668 0.0 -0.5318096319781702 -1.5935500303851526 -1.940388027821676 0.393857479095459 2.10158109664917 0.001273323898203671 1.917476038215682e-05 0.0 -0.0 4.793690095539205e-05 -4.793690095539205e-05 4.793690095539205e-05 -0.02018737979233265 0.5450592637062073 0.5947660803794861 0.05371170490980148 -0.03021283447742462 0.17680102586746216 -0.01570129580795765 0.5450592637062073 0.5795156359672546 0.051473718136548996 -0.02685585245490074 0.17680102586746216 0.20001009295798616 -0.2000187394702996 0.40001040972485813 -1.2090073495542482 1.20917065090645 -1.2090864862652073 2.987596061372099e-07 1.958095841755642e-06 3.403894246274028e-06 2.3722484589136394e-05 -4.139071702180318e-05 -2.878654655544572e-05 2.9937702685823107 -4.065567517712703 2.8556294555883355 -0.8202724247892327 0.22017302717850332 0.4740959953307054 0.20000000000100057 -0.19999999999566195 0.3999999999978721 -1.2090987222147533 1.2090487305425026 -1.2090487305427609 0.0 0.0 0.0 0.0 0.0 0.0
2728.232 -0.5317965226624635 -1.5935130245447802 -1.9404832154997003 0.3939278331850957 2.101684898305706 0.0012203700581085997 0.0 0.0 0.0 -0.0 -0.0 -0.0 0.0 0.0 0.0 0.0 0.0 0.0 7.004311267080232e-19 0.5339517876541976 0.6975046845426743 0.06047851980485384 -5.4153432507572516e-05 0.0 8.038147178250425e-18 6.150323238433266 5.889166123436275 0.24962443727032316 -0.00022481159480913668 0.0 -0.5318096319781702 -1.593586270009176 -1.9404476324664515 0.3938814401626587 2.101569175720215 0.0012373712379485369 1.917476038215682e-05 0.0 -0.0 4.793690095539205e-05 -4.793690095539205e-05 4.793690095539205e-05 -0.01570129580795765 0.5405731797218323 0.5688403844833374 0.048116736114025116 -0.03245082125067711 0.17344404757022858 -0.01570129580795765 0.5450592637062073 0.5795156359672546 0.051473718136548996 -0.02909383922815323 0.17680102586746216 0.2000163158936021 -0.20002330537911134 0.3999862110493629 -1.2090470802259072 1.209225107727354 -1.209065436376777 2.9901141111523985e-07 1.9580903476301664e-06 3.404068726752848e-06 2.3719522770504034e-05 -4.13895351573679e-05 -2.8789523841670838e-05 3.2786847118664433 -5.130326567058017 3.6427219901625274 -0.8046698867457512 0.16802371730095098 0.5723647040142733 0.20000000000100057 -0.19999999999566195 0.3999999999978721 -1.2090987222147533 1.2090487305425026 -1.2090487305427609 0.0 0.0 0.0 0.0 0.0 0.0
2728.24 -0.5317965226624635 -1.5935130245447802 -1.9404832154997003 0.3939278331850957 2.101684898305706 0.0012203700581085997 0.0 0.0 0.0 -0.0 -0.0 -0.0 0.0 0.0 0.0 0.0 0.0 0.0 7.004311267080232e-19 0.5339517876541976 0.6975046845426743 0.06047851980485384 -5.4153432507572516e-05 0.0 8.038147178250425e-18 6.150323238433266 5.889166123436275 0.24962443727032316 -0.00022481159480913668 0.0 -0.5318215529071253 -1.5935500303851526 -1.9403999487506312 0.3938814401626587 2.1016290187835693 0.0012134028365835547 1.917476038215682e-05 0.0 -0.0 4.793690095539205e-05 -4.793690095539205e-05 4.793690095539205e-05 -0.01345825381577015 0.5473023056983948 0.5703654289245605 0.0503547228872776 -0.025736859068274498 0.17568203806877136 -0.01570129580795765 0.5450592637062073 0.5795156359672546 0.051473718136548996 -0.02909383922815323 0.17680102586746216 0.2000059942912471 -0.20001615615915438 0.4000089088762838 -1.2090654218520425 1.2091052804389437 -1.2091134901176328 2.988418895921516e-07 1.9580797507033617e-06 3.4037735496796207e-06 2.3722490305379316e-05 -4.138899408674748e-05 -2.87860505081651e-05 3.4547095083074213 -5.4090779598997 3.500614755171641 -0.8150988788512683 0.1453991898030466 0.5640180494404355 0.20000000000100057 -0.19999999999566195 0.3999999999978721 -1.2090987222147533 1.2090487305425026 -1.2090487305427609 0.0 0.0 0.0 0.0 0.0 0.0
2728.248 -0.5317965226624635 -1.5935130245447802 -1.9404832154997003 0.3939278331850957 2.101684898305706 0.0012203700581085997 0.0 0.0 0.0 -0.0 -0.0 -0.0 0.0 0.0 0.0 0.0 0.0 0.0 7.004311267080232e-19 0.5339517876541976 0.6975046845426743 0.06047851980485384 -5.4153432507572516e-05 0.0 8.038147178250425e-18 6.150323238433266 5.889166123436275 0.24962443727032316 -0.00022481159480913668 0.0 -0.5317857901202601 -1.5935500303851526 -1.940388027821676 0.3938814401626587 2.10160493850708 0.001225386979058385 1.917476038215682e-05 0.0 -0.0 4.793690095539205e-05 -4.793690095539205e-05 4.793690095539205e-05 -0.01794433780014515 0.5428162217140198 0.5901909470558167 0.054830700159072876 -0.03021283447742462 0.1879909634590149 -0.01570129580795765 0.5450592637062073 0.5795156359672546 0.051473718136548996 -0.031331829726696014 0.17680102586746216 0.200013097930572 -0.20001097208307425 0.4000121068889033 -1.2090589391553448 1.2090919448163382 -1.2091053903177258 2.9867932823021574e-07 1.9581103356572123e-06 3.4037964691565543e-06 2.372446180238236e-05 -4.1389590568903825e-05 -2.8785555536045073e-05 2.9589319321445364 -4.25056990999347 3.0746254839566074 -0.8722111810852462 0.2683311711922269 0.4892411294300251 0.20000000000100057 -0.19999999999566195 0.3999999999978721 -1.2090987222147533 1.2090487305425026 -1.2090487305427609 0.0 0.0 0.0 0.0 0.0 0.0
2728.256 -0.5317965226624635 -1.5935130245447802 -1.9404832154997003 0.3939278331850957 2.101684898305706 0.0012203700581085997 0.0 0.0 0.0 -0.0 -0.0 -0.0 0.0 0.0 0.0 0.0 0.0 0.0 7.004311267080232e-19 0.5339517876541976 0.6975046845426743 0.06047851980485384 -5.4153432507572516e-05 0.0 8.038147178250425e-18 6.150323238433266 5.889166123436275 0.24962443727032316 -0.00022481159480913668 0.0 -0.5317614714251917 -1.5935261885272425 -1.9404237906085413 0.393857479095459 2.10160493850708 0.001225386979058385 1.917476038215682e-05 0.0 -0.0 4.793690095539205e-05 -4.793690095539205e-05 4.793690095539205e-05 -0.01794433780014515 0.5495453476905823 0.5856158137321472 0.05594969168305397 -0.044759754091501236 0.18127700686454773 -0.01570129580795765 0.5450592637062073 0.5795156359672546 0.051473718136548996 -0.03245082125067711 0.17680102586746216 0.20001476890376008 -0.20000419446766604 0.400007345753501 -1.2090799170834967 1.2091053298277792 -1.209059398663011 2.9870059729905694e-07 1.957994191382012e-06 3.4038718656109357e-06 2.3723988540814798e-05 -4.138814045290489e-05 -2.8787041041620295e-05 3.0990127568822854 -5.065011777530043 3.0996910581305297 -0.8410614850196398 0.20526002181919492 0.62415193592985 0.20000000000100057 -0.19999999999566195 0.3999999999978721 -1.2090987222147533 1.2090487305425026 -1.2090487305427609 0.0 0.0 0.0 0.0 0.0 0.0
2728.2639999999997 -0.5317965226624635 -1.5935130245447802 -1.9404832154997003 0.3939278331850957 2.101684898305706 0.0012203700581085997 0.0 0.0 0.0 -0.0 -0.0 -0.0 0.0 0.0 0.0 0.0 0.0 0.0 7.004311267080232e-19 0.5339517876541976 0.6975046845426743 0.06047851980485384 -5.4153432507572516e-05 0.0 8.038147178250425e-18 6.150323238433266 5.889166123436275 0.24962443727032316 -0.00022481159480913668 0.0 -0.5318096319781702 -1.5935500303851526 -1.940388027821676 0.39389336109161377 2.1016170978546143 0.0012373712379485369 1.917476038215682e-05 0.0 -0.0 4.793690095539205e-05 -4.793690095539205e-05 4.793690095539205e-05 -0.01345825381577015 0.5495453476905823 0.5749405026435852 0.05594969168305397 -0.02909383922815323 0.18127700686454773 -0.01570129580795765 0.5450592637062073 0.5795156359672546 0.051473718136548996 -0.027974845841526985 0.17680102586746216 0.20000745176310494 -0.20001422426151322 0.4000129511864535 -1.2090414815925141 1.2090957967771692 -1.2091144805141039 2.9871000825903505e-07 1.9581068800766437e-06 3.403747231125209e-06 2.37239677091935e-05 -4.138986289623216e-05 -2.878506250719265e-05 3.3811001623537575 -5.415831431623593 3.437109972673079 -0.8410724715843652 0.1913609100119235 0.580106268063806 0.20000000000100057 -0.19999999999566195 0.3999999999978721 -1.2090987222147533 1.2090487305425026 -1.2090487305427609 0.0 0.0 0.0 0.0 0.0 0.0
2728.272 -0.5317965226624635 -1.5935130245447802 -1.9404832154997003 0.3939278331850957 2.101684898305706 0.0012203700581085997 0.0 0.0 0.0 -0.0 -0.0 -0.0 0.0 0.0 0.0 0.0 0.0 0.0 7.004311267080232e-19 0.5339517876541976 0.6975046845426743 0.06047851980485384 -5.4153432507572516e-05 0.0 8.038147178250425e-18 6.150323238433266 5.889166123436275 0.24962443727032316 -0.00022481159480913668 0.0 -0.5317857901202601 -1.5935381094561976 -1.9403999487506312 0.393857479095459 2.1016409397125244 0.001225386979058385 1.917476038215682e-05 0.0 -0.0 4.793690095539205e-05 -4.793690095539205e-05 4.793690095539205e-05 -0.01345825381577015 0.5495453476905823 0.5581650733947754 0.05371170490980148 -0.02349887043237686 0.17344404757022858 -0.01570129580795765 0.5450592637062073 0.5795156359672546 0.051473718136548996 -0.02909383922815323 0.17680102586746216 0.2000123634834682 -0.20000756065736652 0.40001047148730545 -1.2090823303441531 1.2090863672684997 -1.20906015906489 2.988267044928995e-07 1.958054629062566e-06 3.403775139290394e-06 2.3723472093345234e-05 -4.1387282445426946e-05 -2.878654940034988e-05 3.8295559708904103 -5.957681173556596 3.916444820980431 -0.8047196296391144 0.13196588328466888 0.5988374946352669 0.20000000000100057 -0.19999999999566195 0.3999999999978721 -1.2090987222147533 1.2090487305425026 -1.2090487305427609 0.0 0.0 0.0 0.0 0.0 0.0
2728.2799999999997 -0.5317965226624635 -1.5935130245447802 -1.9404832154997003 0.3939278331850957 2.101684898305706 0.0012203700581085997 0.0 0.0 0.0 -0.0 -0.0 -0.0 0.0 0.0 0.0 0.0 0.0 0.0 7.004311267080232e-19 0.5339517876541976 0.6975046845426743 0.06047851980485384 -5.4153432507572516e-05 0.0 8.038147178250425e-18 6.150323238433266 5.889166123436275 0.24962443727032316 -0.00022481159480913668 0.0 -0.5318096319781702 -1.5935023466693323 -1.9403637091266077 0.393857479095459 2.1016170978546143 0.001225386979058385 1.917476038215682e-05 0.0 -0.0 4.793690095539205e-05 -4.793690095539205e-05 4.793690095539205e-05 -0.02018737979233265 0.5473023056983948 0.5581650733947754 0.051473718136548996 -0.03692679852247238 0.17232505977153778 -0.01570129580795765 0.5450592637062073 0.5795156359672546 0.051473718136548996 -0.02909383922815323 0.17680102586746216 0.1999997967561577 -0.2000097607165738 0.40002997769098636 -1.2090408323524695 1.209058635345143 -1.2091516098535091 2.9851825774891766e-07 1.9580229388862448e-06 3.403671577833682e-06 2.3725455123056972e-05 -4.13907450994849e-05 -2.8783565332225642e-05 3.8211860001565325 -5.7390416775845035 3.9144312652814355 -0.7995666814952465 0.12835572572380685 0.6432842851186628 0.20000000000100057 -0.19999999999566195 0.3999999999978721 -1.2090987222147533 1.2090487305425026 -1.2090487305427609 0.0 0.0 0.0 0.0 0.0 0.0
2728.288 -0.5317965226624635 -1.5935130245447802 -1.9404832154997003 0.3939278331850957 2.101684898305706 0.0012203700581085997 0.0 0.0 0.0 -0.0 -0.0 -0.0 0.0 0.0 0.0 0.0 0.0 0.0 7.004311267080232e-19 0.5339517876541976 0.6975046845426743 0.06047851980485384 -5.4153432507572516e-05 0.0 8.038147178250425e-18 6.150323238433266 5.889166123436275 0.24962443727032316 -0.00022481159480913668 0.0 -0.5317857901202601 -1.593574349080221 -1.9404357115374964 0.39386940002441406 2.101593017578125 0.001273323898203671 1.917476038215682e-05 0.0 -0.0 4.793690095539205e-05 -4.793690095539205e-05 4.793690095539205e-05 -0.01345825381577015 0.5674896836280823 0.5718904137611389 0.05259270966053009 -0.0335698164999485 0.17456303536891937 -0.01570129580795765 0.5450592637062073 0.5795156359672546 0.051473718136548996 -0.03021283447742462 0.17680102586746216 0.20001937644998696 -0.20001558300442002 0.39999181400516987 -1.2090400860295518 1.2091967178263376 -1.209013103655836 2.9896764955252253e-07 1.958085135333523e-06 3.403996533495221e-06 2.372099519625793e-05 -4.1388115101800166e-05 -2.878903597603143e-05 3.942785516859753 -6.548897603403871 3.066401128690767 -0.8098700486112171 0.019785052927448598 0.6944556216214943 0.20000000000100057 -0.19999999999566195 0.3999999999978721 -1.2090987222147533 1.2090487305425026 -1.2090487305427609 0.0 0.0 0.0 0.0 0.0 0.0
2728.296 -0.5317965226624635 -1.5935130245447802 -1.9404832154997003 0.3939278331850957 2.101684898305706 0.0012203700581085997 0.0 0.0 0.0 -0.0 -0.0 -0.0 0.0 0.0 0.0 0.0 0.0 0.0 7.004311267080232e-19 0.5339517876541976 0.6975046845426743 0.06047851980485384 -5.4153432507572516e-05 0.0 8.038147178250425e-18 6.150323238433266 5.889166123436275 0.24962443727032316 -0.00022481159480913668 0.0 -0.5317857901202601 -1.593562428151266 -1.9403637091266077 0.39384543895721436 2.10158109664917 0.0012373712379485369 1.917476038215682e-05 0.0 -0.0 4.793690095539205e-05 -4.793690095539205e-05 4.793690095539205e-05 -0.02243042178452015 0.5473023056983948 0.5978161692619324 0.051473718136548996 -0.03245082125067711 0.17344404757022858 -0.01570129580795765 0.5450592637062073 0.5795156359672546 0.051473718136548996 -0.02909383922815323 0.17680102586746216 0.20001830468639825 -0.20001601734509278 0.40001268201099466 -1.2090450892882352 1.209136253284229 -1.20909535789865 2.9875237901892504e-07 1.958168989471495e-06 3.4038944742794736e-06 2.3723463919041427e-05 -4.139014980860652e-05 -2.878655165501302e-05 3.0376245976238017 -3.983354474079794 2.6588288817830468 -0.8047018902023848 0.18319233241306052 0.47778313596961874 0.20000000000100057 -0.19999999999566195 0.3999999999978721 -1.2090987222147533 1.2090487305425026 -1.2090487305427609 0.0 0.0 0.0 0.0 0.0 0.0
2728.304 -0.5317965226624635 -1.5935130245447802 -1.9404832154997003 0.3939278331850957 2.101684898305706 0.0012203700581085997 0.0 0.0 0.0 -0.0 -0.0 -0.0 0.0 0.0 0.0 0.0 0.0 0.0 7.004311267080232e-19 0.5339517876541976 0.6975046845426743 0.06047851980485384 -5.4153432507572516e-05 0.0 8.038147178250425e-18 6.150323238433266 5.889166123436275 0.24962443727032316 -0.00022481159480913668 0.0 -0.5318096319781702 -1.5935261885272425 -1.9403999487506312 0.393857479095459 2.1016170978546143 0.0011890598107129335 1.917476038215682e-05 0.0 -0.0 4.793690095539205e-05 -4.793690095539205e-05 4.793690095539205e-05 -0.008972168900072575 0.5405731797218323 0.5734154582023621 0.051473718136548996 -0.04252176731824875 0.17792002856731415 -0.01570129580795765 0.5450592637062073 0.5795156359672546 0.051473718136548996 -0.02909383922815323 0.17680102586746216 0.20000504247548795 -0.20001279683630754 0.40001373648362365 -1.2090833772978453 1.2090938826521267 -1.2091313417115972 2.9875308078250375e-07 1.9580193342694418e-06 3.403797619139146e-06 2.3722977608022103e-05 -4.1389281233499575e-05 -2.8786054231411667e-05 2.8408212522434937 -5.519859631377437 3.5752716245838454 -0.8254969774399618 0.21048372986769023 0.6512443189779571 0.20000000000100057 -0.19999999999566195 0.3999999999978721 -1.2090987222147533 1.2090487305425026 -1.2090487305427609 0.0 0.0 0.0 0.0 0.0 0.0
2728.312 -0.5317965226624635 -1.5935130245447802 -1.9404832154997003 0.3939278331850957 2.101684898305706 0.0012203700581085997 0.0 0.0 0.0 -0.0 -0.0 -0.0 0.0 0.0 0.0 0.0 0.0 0.0 7.004311267080232e-19 0.5339517876541976 0.6975046845426743 0.06047851980485384 -5.4153432507572516e-05 0.0 8.038147178250425e-18 6.150323238433266 5.889166123436275 0.24962443727032316 -0.00022481159480913668 0.0 -0.5317857901202601 -1.593609635029928 -1.9404118696795862 0.39389336109161377 2.10158109664917 0.001225386979058385 1.917476038215682e-05 0.0 -0.0 4.793690095539205e-05 -4.793690095539205e-05 4.793690095539205e-05 -0.01570129580795765 0.5293579697608948 0.6283169388771057 0.051473718136548996 -0.02685585245490074 0.18127700686454773 -0.01570129580795765 0.5450592637062073 0.5795156359672546 0.051473718136548996 -0.027974845841526985 0.17680102586746216 0.2000250641907217 -0.20001992880467054 0.3999902475566865 -1.2090663888711366 1.2091719284843856 -1.2090669814624113 2.9896693510128813e-07 1.958215950075718e-06 3.403993881246594e-06 2.3721511342908424e-05 -4.138899053775889e-05 -2.878851781791303e-05 1.6421248332177014 -2.124406120074936 2.0806340809678283 -0.8410212290358619 0.36946863215612613 0.2985058164103544 0.20000000000100057 -0.19999999999566195 0.3999999999978721 -1.2090987222147533 1.2090487305425026 -1.2090487305427609 0.0 0.0 0.0 0.0 0.0 0.0
2728.3199999999997 -0.5317965226624635 -1.5935130245447802 -1.9404832154997003 0.3939278331850957 2.101684898305706 0.0012203700581085997 0.0 0.0 0.0 -0.0 -0.0 -0.0 0.0 0.0 0.0 0.0 0.0 0.0 7.004311267080232e-19 0.5339517876541976 0.6975046845426743 0.06047851980485384 -5.4153432507572516e-05 0.0 8.038147178250425e-18 6.150323238433266 5.889166123436275 0.24962443727032316 -0.00022481159480913668 0.0 -0.5317490736590784 -1.593562428151266 -1.9403999487506312 0.393857479095459 2.10158109664917 0.0012613397557288408 1.917476038215682e-05 0.0 -0.0 4.793690095539205e-05 -4.793690095539205e-05 4.793690095539205e-05 -0.01794433780014515 0.5540314316749573 0.6283169388771057 0.0503547228872776 -0.03245082125067711 0.18127700686454773 -0.01570129580795765 0.5450592637062073 0.5795156359672546 0.051473718136548996 -0.02909383922815323 0.17680102586746216 0.20002490533093104 -0.20000819686568727 0.40000382030442094 -1.2090511953651628 1.2091416198825424 -1.209031685481453 2.987426054435555e-07 1.958123548131011e-06 3.4039452540934216e-06 2.3723987989879944e-05 -4.1388687934625014e-05 -2.878755397745245e-05 2.398624729235832 -3.386752025328153 1.520262133045678 -0.8410333893997157 0.1893868952753934 0.42858047203133237 0.20000000000100057 -0.19999999999566195 0.3999999999978721 -1.2090987222147533 1.2090487305425026 -1.2090487305427609 0.0 0.0 0.0 0.0 0.0 0.0
2728.328 -0.5317965226624635 -1.5935130245447802 -1.9404832154997003 0.3939278331850957 2.101684898305706 0.0012203700581085997 0.0 0.0 0.0 -0.0 -0.0 -0.0 0.0 0.0 0.0 0.0 0.0 0.0 7.004311267080232e-19 0.5339517876541976 0.6975046845426743 0.06047851980485384 -5.4153432507572516e-05 0.0 8.038147178250425e-18 6.150323238433266 5.889166123436275 0.24962443727032316 -0.00022481159480913668 0.0 -0.5317977110492151 -1.5935500303851526 -1.9404237906085413 0.39386940002441406 2.1016170978546143 0.0012373712379485369 1.917476038215682e-05 0.0 -0.0 4.793690095539205e-05 -4.793690095539205e-05 4.793690095539205e-05 -0.01794433780014515 0.5562744736671448 0.5596901178359985 0.0503547228872776 -0.022379877045750618 0.1868719756603241 -0.01570129580795765 0.5450592637062073 0.5795156359672546 0.051473718136548996 -0.02909383922815323 0.17680102586746216 0.20001174405657376 -0.20001291825515474 0.4000016643000508 -1.2090628376398485 1.2091391384992647 -1.2090589805260952 2.988829167572713e-07 1.9580435828242648e-06 3.4038726008457076e-06 2.3721997011413565e-05 -4.138812631463497e-05 -2.878753589281138e-05 4.155953019656281 -5.977221278961471 3.6445710469278683 -0.8669937474323427 0.09931388594337325 0.5951604868620212 0.20000000000100057 -0.19999999999566195 0.3999999999978721 -1.2090987222147533 1.2090487305425026 -1.2090487305427609 0.0 0.0 0.0 0.0 0.0 0.0
2728.336 -0.5317965226624635 -1.5935130245447802 -1.9404832154997003 0.3939278331850957 2.101684898305706 0.0012203700581085997 0.0 0.0 0.0 -0.0 -0.0 -0.0 0.0 0.0 0.0 0.0 0.0 0.0 7.004311267080232e-19 0.5339517876541976 0.6975046845426743 0.06047851980485384 -5.4153432507572516e-05 0.0 8.038147178250425e-18 6.150323238433266 5.889166123436275 0.24962443727032316 -0.00022481159480913668 0.0 -0.5317614714251917 -1.593562428151266 -1.9404118696795862 0.393857479095459 2.10160493850708 0.0012014185776934028 1.917476038215682e-05 0.0 -0.0 4.793690095539205e-05 -4.793690095539205e-05 4.793690095539205e-05 -0.01794433780014515 0.5360870957374573 0.5795156359672546 0.05594969168305397 -0.027974845841526985 0.1879909634590149 -0.01570129580795765 0.5450592637062073 0.5795156359672546 0.051473718136548996 -0.027974845841526985 0.17680102586746216 0.20002247492469372 -0.20000872747365825 0.40000062232350153 -1.2091039083977733 1.2091152638784552 -1.2090580561322817 2.9885884941789045e-07 1.958099946043996e-06 3.403922806296436e-06 2.372298350743561e-05 -4.1387548593866754e-05 -2.878804888861232e-05 3.0255075865882293 -4.2752140244706505 3.5843861647960225 -0.872196469020533 0.30935149055627525 0.48090129348958394 0.20000000000100057 -0.19999999999566195 0.3999999999978721 -1.2090987222147533 1.2090487305425026 -1.2090487305427609 0.0 0.0 0.0 0.0 0.0 0.0
2728.344 -0.5317965226624635 -1.5935130245447802 -1.9404832154997003 0.3939278331850957 2.101684898305706 0.0012203700581085997 0.0 0.0 0.0 -0.0 -0.0 -0.0 0.0 0.0 0.0 0.0 0.0 0.0 7.004311267080232e-19 0.5339517876541976 0.6975046845426743 0.06047851980485384 -5.4153432507572516e-05 0.0 8.038147178250425e-18 6.150323238433266 5.889166123436275 0.24962443727032316 -0.00022481159480913668 0.0 -0.5317614714251917 -1.593562428151266 -1.9403999487506312 0.39386940002441406 2.101569175720215 0.001225386979058385 1.917476038215682e-05 0.0 -0.0 4.793690095539205e-05 -4.793690095539205e-05 4.793690095539205e-05 -0.01794433780014515 0.5473023056983948 0.5947660803794861 0.05818767845630646 -0.03021283447742462 0.17792002856731415 -0.01570129580795765 0.5450592637062073 0.5795156359672546 0.051473718136548996 -0.02909383922815323 0.17680102586746216 0.20002154622250365 -0.20001114354654956 0.40000466679597524 -1.2090630222592167 1.2091321069140166 -1.2090853778505355 2.9869368678904043e-07 1.958123618091666e-06 3.4039439550287136e-06 2.3723967706442898e-05 -4.1389843080663136e-05 -2.878705972643907e-05 2.991307110931833 -4.306046732013318 2.9105751570510305 -0.825470164729481 0.23988433896388325 0.4938976953248691 0.20000000000100057 -0.19999999999566195 0.3999999999978721 -1.2090987222147533 1.2090487305425026 -1.2090487305427609 0.0 0.0 0.0 0.0 0.0 0.0
2728.352 -0.5317965226624635 -1.5935130245447802 -1.9404832154997003 0.3939278331850957 2.101684898305706 0.0012203700581085997 0.0 0.0 0.0 -0.0 -0.0 -0.0 0.0 0.0 0.0 0.0 0.0 0.0 7.004311267080232e-19 0.5339517876541976 0.6975046845426743 0.06047851980485384 -5.4153432507572516e-05 0.0 8.038147178250425e-18 6.150323238433266 5.889166123436275 0.24962443727032316 -0.00022481159480913668 0.0 -0.5318096319781702 -1.5935500303851526 -1.9403756300555628 0.39384543895721436 2.101593017578125 0.0012014185776934028 1.917476038215682e-05 0.0 -0.0 4.793690095539205e-05 -4.793690095539205e-05 4.793690095539205e-05 -0.006729126907885075 0.5405731797218323 0.6039162874221802 0.048116736114025116 -0.03580780327320099 0.18127700686454773 -0.01570129580795765 0.5450592637062073 0.5795156359672546 0.051473718136548996 -0.02909383922815323 0.17792002856731415 0.20001093185151586 -0.20001826285619156 0.40001287854965106 -1.2090658435473292 1.209127599591661 -1.2091309731740372 2.98796489429011e-07 1.9581126124146366e-06 3.4038697749236784e-06 2.372249771336759e-05 -4.1390155279463436e-05 -2.878653228236252e-05 2.147045447781991 -4.319293811291922 2.5310350831098067 -0.8410460593821445 0.23525455944836582 0.5210415545833097 0.20000000000100057 -0.19999999999566195 0.3999999999978721 -1.2090987222147533 1.2090487305425026 -1.2090487305427609 0.0 0.0 0.0 0.0 0.0 0.0
2728.3599999999997 -0.5317965226624635 -1.5935130245447802 -1.9404832154997003 0.3939278331850957 2.101684898305706 0.0012203700581085997 0.0 0.0 0.0 -0.0 -0.0 -0.0 0.0 0.0 0.0 0.0 0.0 0.0 7.004311267080232e-19 0.5339517876541976 0.6975046845426743 0.06047851980485384 -5.4153432507572516e-05 0.0 8.038147178250425e-18 6.150323238433266 5.889166123436275 0.24962443727032316 -0.00022481159480913668 0.0 -0.5317733923541468 -1.593586270009176 -1.940388027821676 0.39389336109161377 2.10160493850708 0.0012014185776934028 1.917476038215682e-05 0.0 -0.0 4.793690095539205e-05 -4.793690095539205e-05 4.793690095539205e-05 -0.01794433780014515 0.5517883896827698 0.6039162874221802 0.05818767845630646 -0.03580780327320099 0.168968066573143 -0.01570129580795765 0.5450592637062073 0.5795156359672546 0.05259270966053009 -0.031331829726696014 0.17680102586746216 0.20002245257579948 -0.20001252489057036 0.40000303284201294 -1.2090888053549924 1.2090927243222382 -1.2090948900707161 2.9880376740373673e-07 1.958203721753059e-06 3.403847401767336e-06 2.3723971511262513e-05 -4.138870360022956e-05 -2.878656349733038e-05 2.852629446223715 -4.29219928541636 2.523644480008008 -0.7839494680323293 0.19621875396742555 0.5188649357342902 0.20000000000100057 -0.19999999999566195 0.3999999999978721 -1.2090987222147533 1.2090487305425026 -1.2090487305427609 0.0 0.0 0.0 0.0 0.0 0.0
2728.368 -0.5317965226624635 -1.5935130245447802 -1.9404832154997003 0.3939278331850957 2.101684898305706 0.0012203700581085997 0.0 0.0 0.0 -0.0 -0.0 -0.0 0.0 0.0 0.0 0.0 0.0 0.0 7.004311267080232e-19 0.5339517876541976 0.6975046845426743 0.06047851980485384 -5.4153432507572516e-05 0.0 8.038147178250425e-18 6.150323238433266 5.889166123436275 0.24962443727032316 -0.00022481159480913668 0.0 -0.5318096319781702 -1.5935500303851526 -1.9404237906085413 0.393857479095459 2.1016170978546143 0.0012613397557288408 1.917476038215682e-05 0.0 -0.0 4.793690095539205e-05 -4.793690095539205e-05 4.793690095539205e-05 -0.01345825381577015 0.5517883896827698 0.5917159914970398 0.05371170490980148 -0.034688808023929596 0.18127700686454773 -0.01570129580795765 0.5450592637062073 0.5795156359672546 0.0503547228872776 -0.02909383922815323 0.17568203806877136 0.20001023813797775 -0.20001581756180783 0.40000081885853034 -1.2090426815821496 1.2091696658014939 -1.2090407990970038 2.989511418722498e-07 1.9580362970321135e-06 3.403897629907538e-06 2.3721010837729218e-05 -4.138811950040695e-05 -2.8788029518659933e-05 2.9990165869797627 -4.987833531958329 2.80513016156078 -0.8410351344886992 0.1815090469744681 0.570934768363321 0.20000000000100057 -0.19999999999566195 0.3999999999978721 -1.2090987222147533 1.2090487305425026 -1.2090487305427609 0.0 0.0 0.0 0.0 0.0 0.0
2728.3759999999997 -0.5317965226624635 -1.5935130245447802 -1.9404832154997003 0.3939278331850957 2.101684898305706 0.0012203700581085997 0.0 0.0 0.0 -0.0 -0.0 -0.0 0.0 0.0 0.0 0.0 0.0 0.0 7.004311267080232e-19 0.5339517876541976 0.6975046845426743 0.06047851980485384 -5.4153432507572516e-05 0.0 8.038147178250425e-18 6.150323238433266 5.889166123436275 0.24962443727032316 -0.00022481159480913668 0.0 -0.5318096319781702 -1.5935261885272425 -1.9403999487506312 0.39386940002441406 2.1016290187835693 0.0011890598107129335 1.917476038215682e-05 0.0 -0.0 4.793690095539205e-05 -4.793690095539205e-05 4.793690095539205e-05 -0.01794433780014515 0.5585175156593323 0.5856158137321472 0.0503547228872776 -0.02685585245490074 0.1678490787744522 -0.01570129580795765 0.5450592637062073 0.5795156359672546 0.051473718136548996 -0.02909383922815323 0.17680102586746216 0.20000416497533705 -0.20001130002872805 0.40001458081470026 -1.2090859024084728 1.2090746896116418 -1.2091318750197977 2.987365095137394e-07 1.958023002055957e-06 3.403748855739779e-06 2.3723470325410003e-05 -4.138899936936568e-05 -2.87855611970496e-05 3.5775041323752417 -5.171809769453355 2.775538339958117 -0.7787586704586562 0.06583344938713041 0.5497325678139343 0.20000000000100057 -0.19999999999566195 0.3999999999978721 -1.2090987222147533 1.2090487305425026 -1.2090487305427609 0.0 0.0 0.0 0.0 0.0 0.0
2728.384 -0.5317965226624635 -1.5935130245447802 -1.9404832154997003 0.3939278331850957 2.101684898305706 0.0012203700581085997 0.0 0.0 0.0 -0.0 -0.0 -0.0 0.0 0.0 0.0 0.0 0.0 0.0 7.004311267080232e-19 0.5339517876541976 0.6975046845426743 0.06047851980485384 -5.4153432507572516e-05 0.0 8.038147178250425e-18 6.150323238433266 5.889166123436275 0.24962443727032316 -0.00022481159480913668 0.0 -0.5317614714251917 -1.593574349080221 -1.940388027821676 0.393857479095459 2.10158109664917 0.001225386979058385 1.917476038215682e-05 0.0 -0.0 4.793690095539205e-05 -4.793690095539205e-05 4.793690095539205e-05 -0.01794433780014515 0.5450592637062073 0.5840907692909241 0.054830700159072876 -0.041402772068977356 0.18351499736309052 -0.01570129580795765 0.5450592637062073 0.5795156359672546 0.051473718136548996 -0.02909383922815323 0.17680102586746216 0.20002492874219036 -0.2000121581985997 0.40000375320005904 -1.209071783896 1.2091337730580918 -1.2090673104780314 2.9879521894646834e-07 1.9581679138793868e-06 3.403945222013183e-06 2.372347389959973e-05 -4.1388982344402225e-05 -2.878755420391683e-05 3.036570217205116 -4.8256638867069634 3.2190816220218275 -0.8514317322710293 0.23252167051937112 0.5887924382451455 0.20000000000100057 -0.19999999999566195 0.3999999999978721 -1.2090987222147533 1.2090487305425026 -1.2090487305427609 0.0 0.0 0.0 0.0 0.0 0.0
2728.392 -0.5317965226624635 -1.5935130245447802 -1.9404832154997003 0.3939278331850957 2.101684898305706 0.0012203700581085997 0.0 0.0 0.0 -0.0 -0.0 -0.0 0.0 0.0 0.0 0.0 0.0 0.0 7.004311267080232e-19 0.5339517876541976 0.6975046845426743 0.06047851980485384 -5.4153432507572516e-05 0.0 8.038147178250425e-18 6.150323238433266 5.889166123436275 0.24962443727032316 -0.00022481159480913668 0.0 -0.5317490736590784 -1.593562428151266 -1.9404237906085413 0.3938814401626587 2.1016170978546143 0.0012373712379485369 1.917476038215682e-05 0.0 -0.0 4.793690095539205e-05 -4.793690095539205e-05 4.793690095539205e-05 -0.01345825381577015 0.5517883896827698 0.5978161692619324 0.0503547228872776 -0.02909383922815323 0.18351499736309052 -0.01570129580795765 0.5450592637062073 0.5795156359672546 0.0503547228872776 -0.02909383922815323 0.17680102586746216 0.20002323712993939 -0.2000042254963677 0.3999991247217416 -1.2090859172731743 1.209103633821904 -1.2090228715955795 2.98808579938294e-07 1.958091282689234e-06 3.4038733068603416e-06 2.3723995840274036e-05 -4.138696308081797e-05 -2.8787551012637255e-05 2.9236817510137016 -4.63751370634128 2.5338811426405736 -0.85142791271495 0.17126377461905593 0.5160295499373772 0.20000000000100057 -0.19999999999566195 0.3999999999978721 -1.2090987222147533 1.2090487305425026 -1.2090487305427609 0.0 0.0 0.0 0.0 0.0 0.0
2728.4 -0.5317965226624635 -1.5935130245447802 -1.9404832154997003 0.3939278331850957 2.101684898305706 0.0012203700581085997 0.0 0.0 0.0 -0.0 -0.0 -0.0 0.0 0.0 0.0 0.0 0.0 0.0 7.004311267080232e-19 0.5339517876541976 0.6975046845426743 0.06047851980485384 -5.4153432507572516e-05 0.0 8.038147178250425e-18 6.150323238433266 5.889166123436275 0.24962443727032316 -0.00022481159480913668 0.0 -0.5317733923541468 -1.5935500303851526 -1.9404118696795862 0.39386940002441406 2.1015570163726807 0.001225386979058385 1.917476038215682e-05 0.0 -0.0 4.793690095539205e-05 -4.793690095539205e-05 4.793690095539205e-05 -0.01794433780014515 0.5517883896827698 0.5840907692909241 0.051473718136548996 -0.034688808023929596 0.170087069272995 -0.01570129580795765 0.5450592637062073 0.5795156359672546 0.05259270966053009 -0.02909383922815323 0.17680102586746216 0.20001655579416144 -0.20001298805114903 0.4000048654490925 -1.2090515163687932 1.2091493959076813 -1.2091034637536346 2.9865726727053374e-07 1.958070911839022e-06 3.4039671936126613e-06 2.372349498452167e-05 -4.1390720092651606e-05 -2.878703912149881e-05 3.317499754172695 -5.039005646170795 2.995451650099984 -0.7891277339091398 0.12487409019810526 0.5752318411209902 0.20000000000100057 -0.19999999999566195 0.3999999999978721 -1.2090987222147533 1.2090487305425026 -1.2090487305427609 0.0 0.0 0.0 0.0 0.0 0.0
2728.408 -0.5317965226624635 -1.5935130245447802 -1.9404832154997003 0.3939278331850957 2.101684898305706 0.0012203700581085997 0.0 0.0 0.0 -0.0 -0.0 -0.0 0.0 0.0 0.0 0.0 0.0 0.0 7.004311267080232e-19 0.5339517876541976 0.6975046845426743 0.06047851980485384 -5.4153432507572516e-05 0.0 8.038147178250425e-18 6.150323238433266 5.889166123436275 0.24962443727032316 -0.00022481159480913668 0.0 -0.5317614714251917 -1.5935500303851526 -1.9403756300555628 0.393857479095459 2.101593017578125 0.0012613397557288408 1.917476038215682e-05 0.0 -0.0 4.793690095539205e-05 -4.793690095539205e-05 4.793690095539205e-05 -0.01570129580795765 0.5473023056983948 0.6039162874221802 0.05259270966053009 -0.025736859068274498 0.18910996615886688 -0.01570129580795765 0.5450592637062073 0.5795156359672546 0.051473718136548996 -0.027974845841526985 0.17680102586746216 0.20001967733829681 -0.200008109869043 0.40001373242044364 -1.2090413304637284 1.209109943404811 -1.2090607779722262 2.986568528348258e-07 1.958130757408457e-06 3.40384449309806e-06 2.3724988772039853e-05 -4.1389305205348075e-05 -2.8786033692333156e-05 2.7599447329791253 -3.980223392469949 2.4904674087636103 -0.8773929046133907 0.24189357234002423 0.44614070741377254 0.20000000000100057 -0.19999999999566195 0.3999999999978721 -1.2090987222147533 1.2090487305425026 -1.2090487305427609 0.0 0.0 0.0 0.0 0.0 0.0
2728.4159999999997 -0.5317965226624635 -1.5935130245447802 -1.9404832154997003 0.3939278331850957 2.101684898305706 0.0012203700581085997 0.0 0.0 0.0 -0.0 -0.0 -0.0 0.0 0.0 0.0 0.0 0.0 0.0 7.004311267080232e-19 0.5339517876541976 0.6975046845426743 0.06047851980485384 -5.4153432507572516e-05 0.0 8.038147178250425e-18 6.150323238433266 5.889166123436275 0.24962443727032316 -0.00022481159480913668 0.0 -0.5318215529071253 -1.593574349080221 -1.9403756300555628 0.3938814401626587 2.10158109664917 0.0012134028365835547 1.917476038215682e-05 0.0 -0.0 4.793690095539205e-05 -4.793690095539205e-05 4.793690095539205e-05 -0.01570129580795765 0.5495453476905823 0.5947660803794861 0.0503547228872776 -0.038045790046453476 0.168968066573143 -0.01570129580795765 0.5450592637062073 0.5795156359672546 0.05259270966053009 -0.027974845841526985 0.17680102586746216 0.20001109637943296 -0.2000231255020081 0.400008776265257 -1.209042641763676 1.2091405962864044 -1.20914880410369 2.987858919418077e-07 1.9581780277694813e-06 3.403868887474522e-06 2.372248847428924e-05 -4.1391291911490074e-05 -2.8786048496642884e-05 2.892890207325157 -4.695525801047049 2.679726268713853 -0.7839444192430342 0.14336930883297488 0.5625413606457798 0.20000000000100057 -0.19999999999566195 0.3999999999978721 -1.2090987222147533 1.2090487305425026 -1.2090487305427609 0.0 0.0 0.0 0.0 0.0 0.0
2728.424 -0.5317965226624635 -1.5935130245447802 -1.9404832154997003 0.3939278331850957 2.101684898305706 0.0012203700581085997 0.0 0.0 0.0 -0.0 -0.0 -0.0 0.0 0.0 0.0 0.0 0.0 0.0 7.004311267080232e-19 0.5339517876541976 0.6975046845426743 0.06047851980485384 -5.4153432507572516e-05 0.0 8.038147178250425e-18 6.150323238433266 5.889166123436275 0.24962443727032316 -0.00022481159480913668 0.0 -0.5317490736590784 -1.5935500303851526 -1.9404118696795862 0.393857479095459 2.1016170978546143 0.0012373712379485369 1.917476038215682e-05 0.0 -0.0 4.793690095539205e-05 -4.793690095539205e-05 4.793690095539205e-05 -0.01570129580795765 0.5495453476905823 0.5962911248207092 0.05259270966053009 -0.02909383922815323 0.170087069272995 -0.01570129580795765 0.5450592637062073 0.5795156359672546 0.0503547228872776 -0.027974845841526985 0.17680102586746216 0.2000223030316524 -0.200003690565663 0.4000040147575313 -1.2090858193498601 1.2091033527452226 -1.2090231892427095 2.9879721938766345e-07 1.958074189911132e-06 3.403872611902493e-06 2.3724008426405497e-05 -4.138697347217184e-05 -2.8787535820288577e-05 2.963125983621861 -4.459996199032907 2.6834370598381088 -0.789131336267044 0.16454161240641366 0.5014916170113517 0.20000000000100057 -0.19999999999566195 0.3999999999978721 -1.2090987222147533 1.2090487305425026 -1.2090487305427609 0.0 0.0 0.0 0.0 0.0 0.0
2728.432 -0.5317965226624635 -1.5935130245447802 -1.9404832154997003 0.3939278331850957 2.101684898305706 0.0012203700581085997 0.0 0.0 0.0 -0.0 -0.0 -0.0 0.0 0.0 0.0 0.0 0.0 0.0 7.004311267080232e-19 0.5339517876541976 0.6975046845426743 0.06047851980485384 -5.4153432507572516e-05 0.0 8.038147178250425e-18 6.150323238433266 5.889166123436275 0.24962443727032316 -0.00022481159480913668 0.0 -0.5317614714251917 -1.5935261885272425 -1.9404118696795862 0.39384543895721436 2.10158109664917 0.0012493554968386889 1.917476038215682e-05 0.0 -0.0 4.793690095539205e-05 -4.793690095539205e-05 4.793690095539205e-05 -0.02243042178452015 0.5495453476905823 0.5795156359672546 0.05594969168305397 -0.02349887043237686 0.1667300909757614 -0.01570129580795765 0.5450592637062073 0.5795156359672546 0.05259270966053009 -0.027974845841526985 0.17680102586746216 0.20001560683509914 -0.20000666377953374 0.4000096898679234 -1.2090509764431143 1.2091343398922982 -1.2090592333394075 2.9865396130928546e-07 1.958010331035567e-06 3.4039195922474535e-06 2.372398216501751e-05 -4.138928144326973e-05 -2.8787044688831304e-05 3.630429581417153 -4.637474032375179 3.2938438251835374 -0.7735531092428133 0.15771308534041095 0.49006997540710256 0.20000000000100057 -0.19999999999566195 0.3999999999978721 -1.2090987222147533 1.2090487305425026 -1.2090487305427609 0.0 0.0 0.0 0.0 0.0 0.0
2728.44 -0.5317965226624635 -1.5935130245447802 -1.9404832154997003 0.3939278331850957 2.101684898305706 0.0012203700581085997 0.0 0.0 0.0 -0.0 -0.0 -0.0 0.0 0.0 0.0 0.0 0.0 0.0 7.004311267080232e-19 0.5339517876541976 0.6975046845426743 0.06047851980485384 -5.4153432507572516e-05 0.0 8.038147178250425e-18 6.150323238433266 5.889166123436275 0.24962443727032316 -0.00022481159480913668 0.0 -0.5317977110492151 -1.5935142675982874 -1.9404357115374964 0.3938814401626587 2.1016290187835693 0.001273323898203671 1.917476038215682e-05 0.0 -0.0 4.793690095539205e-05 -4.793690095539205e-05 4.793690095539205e-05 -0.011215210892260075 0.5562744736671448 0.5840907692909241 0.05706868693232536 -0.031331829726696014 0.18239599466323853 -0.01570129580795765 0.5450592637062073 0.5795156359672546 0.051473718136548996 -0.027974845841526985 0.17680102586746216 0.2000032539012224 -0.2000069428530222 0.40000910987304816 -1.2090326418780601 1.209115988749751 -1.2090517503308635 2.987101884407816e-07 1.9579426691429766e-06 3.403773645927854e-06 2.3723479972518076e-05 -4.1388427621321346e-05 -2.8786049828754267e-05 3.2778389019072387 -5.574259484240136 3.0271522730008438 -0.8462566345411866 0.1675771976118706 0.6035859476552757 0.20000000000100057 -0.19999999999566195 0.3999999999978721 -1.2090987222147533 1.2090487305425026 -1.2090487305427609 0.0 0.0 0.0 0.0 0.0 0.0
2728.448 -0.5317965226624635 -1.5935130245447802 -1.9404832154997003 0.3939278331850957 2.101684898305706 0.0012203700581085997 0.0 0.0 0.0 -0.0 -0.0 -0.0 0.0 0.0 0.0 0.0 0.0 0.0 7.004311267080232e-19 0.5339517876541976 0.6975046845426743 0.06047851980485384 -5.4153432507572516e-05 0.0 8.038147178250425e-18 6.150323238433266 5.889166123436275 0.24962443727032316 -0.00022481159480913668 0.0 -0.5318215529071253 -1.593586270009176 -1.9404118696795862 0.393857479095459 2.10158109664917 0.001273323898203671 1.917476038215682e-05 0.0 -0.0 4.793690095539205e-05 -4.793690095539205e-05 4.793690095539205e-05 -0.02018737979233265 0.5405731797218323 0.6283169388771057 0.05930667370557785 -0.02909383922815323 0.18910996615886688 -0.01570129580795765 0.5450592637062073 0.5795156359672546 0.051473718136548996 -0.027974845841526985 0.17680102586746216 0.20001555632489385 -0.20002570025464872 0.39999409830862587 -1.2090174840935324 1.2092318716553216 -1.2090482616760465 2.9904724528258653e-07 1.9581386373055466e-06 3.4040202468285294e-06 2.3719512520179506e-05 -4.138953612685608e-05 -2.87890355355189e-05 2.1041269729828196 -2.507387189413598 2.02015493272968 -0.8773456643304312 0.3691989808179261 0.34038858598844546 0.20000000000100057 -0.19999999999566195 0.3999999999978721 -1.2090987222147533 1.2090487305425026 -1.2090487305427609 0.0 0.0 0.0 0.0 0.0 0.0
2728.4559999999997 -0.5317965226624635 -1.5935130245447802 -1.9404832154997003 0.3939278331850957 2.101684898305706 0.0012203700581085997 0.0 0.0 0.0 -0.0 -0.0 -0.0 0.0 0.0 0.0 0.0 0.0 0.0 7.004311267080232e-19 0.5339517876541976 0.6975046845426743 0.06047851980485384 -5.4153432507572516e-05 0.0 8.038147178250425e-18 6.150323238433266 5.889166123436275 0.24962443727032316 -0.00022481159480913668 0.0 -0.5317733923541468 -1.593562428151266 -1.9404118696795862 0.39384543895721436 2.1016170978546143 0.0012014185776934028 1.917476038215682e-05 0.0 -0.0 4.793690095539205e-05 -4.793690095539205e-05 4.793690095539205e-05 -0.01794433780014515 0.5585175156593323 0.5703654289245605 0.05594969168305397 -0.031331829726696014 0.17680102586746216 -0.01570129580795765 0.5450592637062073 0.5795156359672546 0.051473718136548996 -0.027974845841526985 0.17680102586746216 0.20002097881504816 -0.2000106305928055 0.3999997673620818 -1.2091072008320887 1.2091256146071123 -1.2090484815868487 2.9895640085145567e-07 1.958092571345134e-06 3.4039238760953576e-06 2.3721992332267406e-05 -4.1386956029438435e-05 -2.8788548056885396e-05 3.8770985682917236 -5.857295367256834 3.388048042119037 -0.8202662503091877 0.11063344691897863 0.6270113488907175 0.20000000000100057 -0.19999999999566195 0.3999999999978721 -1.2090987222147533 1.2090487305425026 -1.2090487305427609 0.0 0.0 0.0 0.0 0.0 0.0
