Fleaurent/UniversalRobot/csv/robolib_movel_x400_Singular.csv
timestamp target_q_0 target_q_1 target_q_2 target_q_3 target_q_4 target_q_5 target_qd_0 target_qd_1 target_qd_2 target_qd_3 target_qd_4 target_qd_5 target_TCP_pose_0 target_TCP_pose_1 target_TCP_pose_2 target_TCP_pose_3 target_TCP_pose_4 target_TCP_pose_5 target_TCP_speed_0 target_TCP_speed_1 target_TCP_speed_2 target_TCP_speed_3 target_TCP_speed_4 target_TCP_speed_5 target_TCP_acc_0 target_TCP_acc_1 target_TCP_acc_2 target_TCP_acc_3 target_TCP_acc_4 target_TCP_acc_5
0.0 -1.7482215065818032 -1.2625621687650463 -1.8892088671792235 4.718117347308865 1.5708444639843195 1.5707628278389116 0.0 0.0 0.0 0.0 0.0 0.0 -150.0 -200.0 300.0 2.2214 2.2214 0.0 0.0 0.0 0.0 0.0 0.0 0.0 0.0 1000.0 0.0 0.0 0.0 0.0 
0.008 -1.7482467990952646 -1.2624399838967175 -1.8892886894625567 4.718073703339995 1.570844464831575 1.570762829056433 -0.006286288004307199 0.030976021713879236 -0.020234179222379908 -0.01074214509806413 -2.7982041360122667e-05 -0.006286225733302029 -150.0 -199.968 300.0 2.2214 2.2214 0.0 0.0 8.0 0.0 0.0 0.0 0.0 0.0 1000.0 0.0 0.0 0.0 0.0 
0.016 -1.748322717531023 -1.262073437302889 -1.8895280536720938 4.7179426736335 1.5708444673745325 1.5707628327110938 -0.012582649242351692 0.06195119648678354 -0.040443111305012346 -0.02150869091178812 -5.605733055121232e-05 -0.012582524384981494 -150.0 -199.872 300.0 2.2214 2.2214 0.0 0.0 16.0 0.0 0.0 0.0 0.0 0.0 1000.0 0.0 0.0 0.0 0.0 
0.024 -1.748449384730832 -1.2614625531404 -1.8899266518725752 4.71772396488245 1.5708444716167491 1.570762838809195 -0.018899194657444766 0.09292465303429069 -0.060601546978782256 -0.032324015944813045 -8.431974206123005e-05 -0.018899006579949813 -150.0 -199.712 300.0 2.2214 2.2214 0.0 0.0 24.0 0.0 0.0 0.0 0.0 0.0 1000.0 0.0 0.0 0.0 0.0 
0.032 -1.7486270059507767 -1.2606073720834594 -1.890483970792237 4.71741708855234 1.5708444775641652 1.5707628473612651 -0.025246110854761913 0.12389547105000588 -0.08068423270119313 -0.04321245395632468 -0.00011286441054259861 -0.025245858598856603 -150.0 -199.488 300.0 2.2214 2.2214 0.0 0.0 32.0 0.0 0.0 0.0 0.0 0.0 1000.0 0.0 0.0 0.0 0.0 
0.04 -1.7488558696446406 -1.2595079519483918 -1.891199291753029 4.717021361351406 1.5708444852251326 1.570762858382105 -0.03163369854130894 0.15486265585525125 -0.10066590848509793 -0.054198270784115835 -0.00014178837812867088 -0.03163338081487701 -150.0 -199.2 300.0 2.2214 2.2214 0.0 0.0 40.0 0.0 0.0 0.0 0.0 0.0 1000.0 0.0 0.0 0.0 0.0 
0.048 -1.7491363485678866 -1.2581643685793666 -1.8920716905723782 4.716535905898529 1.5708444946104216 1.5707628718908457 -0.038072411703033104 0.18582511203700722 -0.12052130569165302 -0.06530564019172032 -0.00017119126273786337 -0.03807202686750216 -150.0 -198.848 300.0 2.2214 2.2214 0.0 0.0 48.0 0.0 0.0 0.0 0.0 0.0 1000.0 0.0 0.0 0.0 0.0 
0.056 -1.749468901209636 -1.2565767170062956 -1.8931000374360218 4.715959651598399 1.5708445057332743 1.5707628879110298 -0.04457289777538199 0.21678161572923688 -0.14022514478512474 -0.07655861839713593 -0.0002011759548781834 -0.04457244382958361 -150.0 -198.432 300.0 2.2214 2.2214 0.0 0.0 56.0 0.0 0.0 0.0 0.0 0.0 1000.0 0.0 0.0 0.0 0.0 
0.064 -1.7498540735622141 -1.2547451128893612 -1.894282996741396 4.71529133573646 1.5708445186094342 1.5707629064707047 -0.051146039072832945 0.24773078518617586 -0.1597521330554229 -0.08798111692585943 -0.00023184935092325552 -0.05114551363309831 -150.0 -197.952 300.0 2.2214 2.2214 0.0 0.0 64.0 0.0 0.0 0.0 0.0 0.0 1000.0 0.0 0.0 0.0 0.0 
0.072 -1.7502925012401844 -1.2526696942680742 -1.8956190269111026 4.714529504809317 1.570844533257197 1.5707629276025414 -0.05780299575464348 0.2786710492879439 -0.17907696232462456 -0.09959687341234341 -0.0002633231314206495 -0.05780239603082287 -150.0 -197.408 300.0 2.2214 2.2214 0.0 0.0 72.00000000000001 0.0 0.0 0.0 0.0 0.0 1000.0 0.0 0.0 0.0 0.0 
0.08 -1.7507849119632226 -1.2503506236362312 -1.897106380176095 4.7136725161094954 1.5708445496974728 1.5707629513439685 -0.06455525061842339 0.30960061360892804 -0.19817430666630842 -0.11142941995152161 -0.0002957145937290793 -0.06455457338544911 -150.0 -196.8 300.0 2.2214 2.2214 0.0 0.0 80.0 0.0 0.0 0.0 0.0 0.0 1000.0 0.0 0.0 0.0 0.0 
0.088 -1.7513321284197527 -1.247788090367811 -1.898743102328463 4.712718539586929 1.5708445679538474 1.5707629777373302 -0.07141465603026757 0.34051742366777893 -0.21701882018134708 -0.12350204857561563 -0.00032914754917875804 -0.07141389759480252 -150.0 -196.12800000000001 300.0 2.2214 2.2214 0.0 0.0 88.0 0.0 0.0 0.0 0.0 0.0 1000.0 0.0 0.0 0.0 0.0 
0.096 -1.7519350715310384 -1.2449823135226215 -1.9005270324440464 4.711665560013272 1.5708445880526618 1.5707630068300649 -0.07839348332030856 0.3714191249645351 -0.23558513489092744 -0.13583777340098707 -0.0003637532960270571 -0.07839263948193537 -150.0 -195.392 300.0 2.2214 2.2214 0.0 0.0 96.0 0.0 0.0 0.0 0.0 0.0 1000.0 0.0 0.0 0.0 0.0 
0.104 -1.7525947641383528 -1.241933545064508 -1.9024558025756115 4.7105113794791365 1.5708446100230933 1.5707630386749079 -0.08550447499585491 0.40230301939534807 -0.25384785882713873 -0.14845928895518956 -0.00039967168076789186 -0.08550354100215936 -150.0 -194.59199999999998 300.0 2.2214 2.2214 0.0 0.0 104.00000000000001 0.0 0.0 0.0 0.0 0.0 1000.0 0.0 0.0 0.0 0.0 
0.112 -1.753312335139043 -1.238642073529077 -1.9045268374179953 4.709253620258633 1.570844633897251 1.5707630733301194 -0.09276090015105266 0.4331660176185025 -0.27178157442350964 -0.16138892415555672 -0.00043705226187221456 -0.09275987064583996 -150.0 -193.728 300.0 2.2214 2.2214 0.0 0.0 112.0 0.0 0.0 0.0 0.0 0.0 1000.0 0.0 0.0 0.0 0.0 
0.12 -1.7540890241007392 -1.2351082281823398 -1.9067373539474533 4.7078897280803425 1.5708446597102756 1.5707631108597389 -0.10017661348249578 0.464004586926945 -0.2893608373326022 -0.17464859136745717 -0.00047605559182678123 -0.10017548244624336 -150.0 -192.8 300.0 2.2214 2.2214 0.0 0.0 120.0 0.0 0.0 0.0 0.0 0.0 1000.0 0.0 0.0 0.0 0.0 
0.128 -1.7549261863867138 -1.2313323837163246 -1.909084361038514 4.706416975848845 1.570844687500464 1.5707631513338676 -0.10776611835477995 0.49481469416235757 -0.30656017582523093 -0.18825972992271017 -0.0005168546354432444 -0.10776487903627453 -150.0 -191.808 300.0 2.2214 2.2214 0.0 0.0 128.0 0.0 0.0 0.0 0.0 0.0 1000.0 0.0 0.0 0.0 0.0 
0.136 -1.7558252988294587 -1.227314965532658 -1.9115646590629245 4.704832467866493 1.570844717309383 1.5707631948289833 -0.11554463439895489 0.5255917431839962 -0.3233540909562764 -0.20224324342644537 -0.0005596363448745227 -0.11554327923687792 -150.0 -190.752 300.0 2.2214 2.2214 0.0 0.0 136.0 0.0 0.0 0.0 0.0 0.0 1000.0 0.0 0.0 0.0 0.0 
0.144 -1.7567879659940608 -1.2230564556704377 -1.9141748394767832 4.703133144611118 1.5708447491820108 1.5707632414282877 -0.12352817017063039 0.5563305063821222 -0.33971705771558086 -0.21661943012377513 -0.0006046034146625876 -0.12352669070364115 -150.0 -189.632 300.0 2.2214 2.2214 0.0 0.0 144.00000000000003 0.0 0.0 0.0 0.0 0.0 1000.0 0.0 0.0 0.0 0.0 
0.152 -1.7578141816606894 -1.2185649966984977 -1.9169066818721616 4.701318876068696 1.570844783109229 1.5707632911375127 -0.12999801030781694 0.579301402351877 -0.3509492165828129 -0.22835848491637295 -0.0006433743348846451 -0.12999641838579917 -150.0 -188.45 300.0 2.2214 2.2214 0.0 0.0 150.0 0.0 0.0 0.0 0.0 0.0 0.0 0.0 0.0 0.0 0.0 
0.16 -1.7588669564689527 -1.2140082096791203 -1.9196561307006237 4.699455158445998 1.5708448178614776 1.5707633421693976 -0.13136038853067972 0.5790741524718696 -0.3479811248228377 -0.2310993973745851 -0.0006575228256615104 -0.1313587430635596 -150.0 -187.25 300.0 2.2214 2.2214 0.0 0.0 150.0 0.0 0.0 0.0 0.0 0.0 0.0 0.0 0.0 0.0 0.0 
0.168 -1.759930908358513 -1.2094546630570324 -1.9223813908695404 4.697569571882067 1.5708448529280796 1.570763393780219 -0.13274265776313987 0.578831843301167 -0.3450121959799492 -0.23382608872655844 -0.0006720478300883846 -0.13274095669094693 -150.0 -186.05 300.0 2.2214 2.2214 0.0 0.0 150.0 0.0 0.0 0.0 0.0 0.0 0.0 0.0 0.0 0.0 0.0 
0.176 -1.761006204127293 -1.204904509192291 -1.9250824504408168 4.6956622375253865 1.5708448883127506 1.5707634459791942 -0.13414517025971948 0.5785740361012841 -0.34204246993083964 -0.2365380803781112 -0.0006869609743326489 -0.13414341143367334 -150.0 -184.85 300.0 2.2214 2.2214 0.0 0.0 150.0 0.0 0.0 0.0 0.0 0.0 0.0 0.0 0.0 0.0 0.0 
0.184 -1.762093013641683 -1.2003579047393642 -1.9277592977504936 4.6937332806101875 1.5708449240192468 1.5707634987757222 -0.1355682850480124 0.5783002880543545 -0.3390719920551918 -0.23923488415313365 -0.0007022742880044543 -0.1355664662263029 -150.0 -183.65 300.0 2.2214 2.2214 0.0 0.0 150.0 0.0 0.0 0.0 0.0 0.0 0.0 0.0 0.0 0.0 0.0 
0.192 -1.7631915098999946 -1.1958150107019225 -1.93041192145213 4.691782830540822 1.5708449600513752 1.5707635521793872 -0.1370123680473202 0.5780101522687541 -0.3361008132849821 -0.24191600224991855 -0.0007180002194716789 -0.13701048689066936 -150.0 -182.45 300.0 2.2214 2.2214 0.0 0.0 150.0 0.0 0.0 0.0 0.0 0.0 0.0 0.0 0.0 0.0 0.0 
0.2 -1.7643018690972285 -1.1912759924882754 -1.9330403105605791 4.689811020976753 1.5708449964129831 1.5707636061999637 -0.13847779218793407 0.5777031777870563 -0.33312899015433173 -0.24458092719927327 -0.0007341516517941976 -0.1384758462549284 -150.0 -181.25 300.0 2.2214 2.2214 0.0 0.0 150.0 0.0 0.0 0.0 0.0 0.0 0.0 0.0 0.0 0.0 0.0 
0.208 -1.7654242706911991 -1.1867410199674806 -1.9356444544961424 4.687817989918148 1.570845033107967 1.5707636608474196 -0.13996493753095418 0.577378909596343 -0.3301565848498494 -0.2472291418244987 -0.0007507419193042272 -0.139962924273134 -150.0 -180.05 300.0 2.2214 2.2214 0.0 0.0 150.0 0.0 0.0 0.0 0.0 0.0 0.0 0.0 0.0 0.0 0.0 
0.216 -1.7665588974700204 -1.18221026752611 -1.9382243431291282 4.685803879792067 1.5708450701402665 1.5707637161319215 -0.14147419138851208 0.5770368886409151 -0.32718366526140413 -0.24986011920333562 -0.0007677848248590975 -0.14147210814520453 -150.0 -178.85 300.0 2.2214 2.2214 0.0 0.0 150.0 0.0 0.0 0.0 0.0 0.0 0.0 0.0 0.0 0.0 0.0 
0.224 -1.7677059356209814 -1.1776839141257003 -1.9407799668247985 4.683768837539261 1.5708451075138667 1.5707637720638388 -0.1430059484442573 0.5766766518374382 -0.3242103050332764 -0.2524733226319694 -0.00078529465779364 -0.14300379243713848 -150.0 -177.65 300.0 2.2214 2.2214 0.0 0.0 150.0 0.0 0.0 0.0 0.0 0.0 0.0 0.0 0.0 0.0 0.0 
0.232 -1.7688655748008353 -1.1731621433608788 -1.943311316488717 4.681713014701539 1.5708451452328 1.5707638286537484 -0.14456061087395897 0.5762977320925569 -0.32123658361561724 -0.2550682055911954 -0.0008032862126053587 -0.14455837920133055 -150.0 -176.45 300.0 2.2214 2.2214 0.0 0.0 150.0 0.0 0.0 0.0 0.0 0.0 0.0 0.0 0.0 0.0 0.0 
0.24 -1.7700380082075124 -1.1686451435181837 -1.945818383612496 4.679636567509734 1.5708451833011456 1.5707638859124387 -0.1461385884660521 0.5758996583230239 -0.3182625863161588 -0.2576442117148463 -0.0008217748083974132 -0.14613627809681567 -150.0 -175.25 300.0 2.2214 2.2214 0.0 0.0 150.0 0.0 0.0 0.0 0.0 0.0 0.0 0.0 0.0 0.0 0.0 
0.248 -1.7712234326532847 -1.1641331076355796 -1.948301160319946 4.67753965697224 1.5708452217230235 1.5707639438509153 -0.14774029874195208 0.5754819554783815 -0.31528840435210626 -0.26020077476059283 -0.0008407763091148732 -0.14773790650926447 -150.0 -174.05 300.0 2.2214 2.2214 0.0 0.0 150.0 0.0 0.0 0.0 0.0 0.0 0.0 0.0 0.0 0.0 0.0 
0.256 -1.772422048639403 -1.1596262335626895 -1.9507596394136228 4.675422448964116 1.5708452605026058 1.570764002480406 -0.1493661670759453 0.5750441445662379 -0.31231413490214754 -0.26273731858322014 -0.0008603071446068688 -0.14936368967053687 -150.0 -172.85 300.0 2.2214 2.2214 0.0 0.0 150.0 0.0 0.0 0.0 0.0 0.0 0.0 0.0 0.0 0.0 0.0 
0.264 -1.7736340604322134 -1.155124724021738 -1.95319381442178 4.673285114316755 1.5708452996441054 1.570764061812364 -0.15101662681443834 0.5745857426801846 -0.309339881158503 -0.2652532571105054 -0.0008803843325478581 -0.1510140607775749 -150.0 -171.65 300.0 2.2214 2.2214 0.0 0.0 150.0 0.0 0.0 0.0 0.0 0.0 0.0 0.0 0.0 0.0 0.0 
0.272 -1.7748596761407875 -1.1506287866692326 -1.9556036796457195 4.671127828908111 1.5708453391517827 1.5707641218584754 -0.15269211939434785 0.5741062630304028 -0.30636575237895225 -0.26774799432180824 -0.0009010255012538871 -0.15268946111041581 -150.0 -170.45 300.0 2.2214 2.2214 0.0 0.0 150.0 0.0 0.0 0.0 0.0 0.0 0.0 0.0 0.0 0.0 0.0 
0.28 -1.7760991077960702 -1.1461386341583832 -1.9579892302075415 4.668950773753465 1.570845379029944 1.5707641826306629 -0.15439309446038094 0.5736052149770063 -0.3033918639387479 -0.27022092422950944 -0.0009222489134318995 -0.15439034014907474 -150.0 -169.25 300.0 2.2214 2.2214 0.0 0.0 150.0 0.0 0.0 0.0 0.0 0.0 0.0 0.0 0.0 0.0 0.0 
0.288 -1.7773525714315674 -1.1416544842022798 -1.960350462098293 4.666754135096732 1.5708454192829402 1.5707642441410916 -0.15612000998094297 0.5730821040661741 -0.3004183373823515 -0.2726714308634186 -0.0009440734909003924 -0.15611715568903112 -150.0 -168.04999999999998 300.0 2.2214 2.2214 0.0 0.0 150.0 0.0 0.0 0.0 0.0 0.0 0.0 0.0 0.0 0.0 0.0 
0.296 -1.7786202871655874 -1.1371765596378323 -1.9626873722265086 4.664538104502295 1.570845459915166 1.5707643064021746 -0.15787333236239046 0.5725364320691294 -0.29744530047489526 -0.2750988882583014 -0.0009665188403210214 -0.15787037395503611 -150.0 -166.85 300.0 2.2214 2.2214 0.0 0.0 150.0 0.0 0.0 0.0 0.0 0.0 0.0 0.0 0.0 0.0 0.0 
0.304 -1.7799024792850533 -1.1327050884905034 -1.9649999584671414 4.662302878947359 1.5708455009310613 1.570764369426578 -0.15965353656132494 0.5719676970240197 -0.29447288725329357 -0.2775026604446594 -0.0009896052799828407 -0.15965046971293645 -150.0 -165.65 300.0 2.2214 2.2214 0.0 0.0 150.0 0.0 0.0 0.0 0.0 0.0 0.0 0.0 0.0 0.0 0.0 
0.312 -1.7811993763308944 -1.1282403040398323 -1.9672882197108816 4.660048660914806 1.5708455423351133 1.5707644332272273 -0.1614611061945979 0.5713753932807673 -0.2915012380769086 -0.2798821014429245 -0.0010133538676840746 -0.16145792637918022 -150.0 -164.45 300.0 2.2214 2.2214 0.0 0.0 150.0 0.0 0.0 0.0 0.0 0.0 0.0 0.0 0.0 0.0 0.0 
0.32 -1.7825112111850276 -1.1237824448857712 -1.9695521559138562 4.657775658486555 1.5708455841318465 1.5707644978173128 -0.16329653364667374 0.5707590115489513 -0.2885304996776766 -0.2822365552612248 -0.001037786429753806 -0.1632932361276535 -150.0 -163.25 300.0 2.2214 2.2214 0.0 0.0 150.0 0.0 0.0 0.0 0.0 0.0 0.0 0.0 0.0 0.0 0.0 
0.328 -1.7838382211589505 -1.1193317550158568 -1.9717917681476989 4.655484085437395 1.5708456263258355 1.5707645632102958 -0.1651603201739841 0.5701180389487905 -0.28556082520959514 -0.284565355896893 -0.0010629255912626419 -0.16515689999347627 -150.0 -162.05 300.0 2.2214 2.2214 0.0 0.0 150.0 0.0 0.0 0.0 0.0 0.0 0.0 0.0 0.0 0.0 0.0 
0.336 -1.785180648083935 -1.114888483873223 -1.9740070586499934 4.653174161329297 1.570845668921692 1.5707646294199145 -0.1670529760058546 0.5694519590653142 -0.2825923742974713 -0.2868678273418957 -0.001088794807469445 -0.16704942797333927 -150.0 -160.85 300.0 2.2214 2.2214 0.0 0.0 150.0 0.0 0.0 0.0 0.0 0.0 0.0 0.0 0.0 0.0 0.0 
0.344 -1.786538738402848 -1.110452886425486 -1.9761980308750702 4.650846111606178 1.5708457119240729 1.57076469646019 -0.16897502044158624 0.5687602520057874 -0.27962531308482175 -0.2891432835923718 -0.00111541839655476 -0.16897133912196072 -150.0 -159.65 300.0 2.2214 2.2214 0.0 0.0 150.0 0.0 0.0 0.0 0.0 0.0 0.0 0.0 0.0 0.0 0.0 
0.352 -1.7879127432635906 -1.106025223234505 -1.978364689545156 4.648500167689108 1.5708457553376771 1.5707647643454334 -0.17092698194322417 0.5680423944604884 -0.27665981428080366 -0.29139102866248884 -0.0011428215736926089 -0.17092316164419274 -150.0 -158.45 300.0 2.2214 2.2214 0.0 0.0 150.0 0.0 0.0 0.0 0.0 0.0 0.0 0.0 0.0 0.0 0.0 
0.36 -1.78930291861416 -1.1016057605270557 -1.9805070407018632 4.646136567071946 1.5708457991672384 1.5707648330902517 -0.17290939822351586 0.5672978597669337 -0.2736960572060735 -0.2936103566028171 -0.0011710304865157934 -0.17290543298227984 -150.0 -157.25 300.0 2.2214 2.2214 0.0 0.0 150.0 0.0 0.0 0.0 0.0 0.0 0.0 0.0 0.0 0.0 0.0 
0.368 -1.7907095252993455 -1.0971947702664204 -1.9826250917580053 4.64375555341738 1.570845843417538 1.5707649027095543 -0.17492281632854717 0.5665261179776372 -0.2707342278374298 -0.2958005515234596 -0.001200072252028958 -0.17491869989775288 -150.0 -156.05 300.0 2.2214 2.2214 0.0 0.0 150.0 0.0 0.0 0.0 0.0 0.0 0.0 0.0 0.0 0.0 0.0 
0.376 -1.7921328291590357 -1.0927925302249295 -1.9847188515497278 4.641357376653366 1.5708458880933893 1.57076497321856 -0.1769677927144749 0.5657266359315338 -0.2677745188511257 -0.2979608876221696 -0.001229974995028022 -0.17696351854737563 -150.0 -154.85 300.0 2.2214 2.2214 0.0 0.0 150.0 0.0 0.0 0.0 0.0 0.0 0.0 0.0 0.0 0.0 0.0 
0.384 -1.7935731011281533 -1.0883993240574634 -1.9867883303889424 4.638942293069925 1.5708459331996467 1.5707650446328039 -0.17904489331777665 0.5648988773291639 -0.26481712966470006 -0.3000906292177154 -0.0012607678880868667 -0.179040454552563 -150.0 -153.65 300.0 2.2214 2.2214 0.0 0.0 150.0 0.0 0.0 0.0 0.0 0.0 0.0 0.0 0.0 0.0 0.0 
0.392 -1.7950306173381927 -1.0840154413759482 -1.988833540116044 4.63651056541631 1.5708459787411981 1.5707651169681447 -0.1811546936183675 0.5640423028117573 -0.26186226647719146 -0.3021890307887587 -0.001292481193170275 -0.18115008306161517 -150.0 -152.45 300.0 2.2214 2.2214 0.0 0.0 150.0 0.0 0.0 0.0 0.0 0.0 0.0 0.0 0.0 0.0 0.0 
0.4 -1.7965056592203599 -1.079641177824863 -1.9908544941528967 4.63406246299848 1.5708460247229674 1.5707651902407707 -0.1832977786949122 0.5631563700443438 -0.2589101423075763 -0.3042553370185372 -0.0013251463049406703 -0.1832929888040962 -150.0 -151.25 300.0 2.2214 2.2214 0.0 0.0 150.0 0.0 0.0 0.0 0.0 0.0 0.0 0.0 0.0 0.0 0.0 
0.408 -1.7979985136102936 -1.0752768351577835 -1.9928512075560731 4.631598261776901 1.5708460711499141 1.570765264467209 -0.18547474327160984 0.5622405338030447 -0.2559609770312783 -0.30628878284565436 -0.0013587957958209702 -0.18546976613662744 -150.0 -150.05 300.0 2.2214 2.2214 0.0 0.0 150.0 0.0 0.0 0.0 0.0 0.0 0.0 0.0 0.0 0.0 0.0 
0.416 -1.7995094728543464 -1.0709227213149775 -1.9948236970703206 4.629118244464601 1.570846118027023 1.570765339664331 -0.1876861917556824 0.5612942460666924 -0.25301499741456657 -0.3082885935213086 -0.0013934634628848008 -0.18768101907932777 -150.0 -148.85 300.0 2.2214 2.2214 0.0 0.0 150.0 0.0 0.0 0.0 0.0 0.0 0.0 0.0 0.0 0.0 0.0 
0.424 -1.801038834917418 -1.0665791505020996 -1.996771981182234 4.626622700625494 1.5708461653593169 1.5707654158493616 -0.18993273826476037 0.5603169561129483 -0.2500724371466837 -0.310253984673294 -0.0014291843766419238 -0.18992736134208557 -150.0 -147.65 300.0 2.2214 2.2214 0.0 0.0 150.0 0.0 0.0 0.0 0.0 0.0 0.0 0.0 0.0 0.0 0.0 
0.432 -1.8025869034922883 -1.0622464432699763 -1.9986960801741191 4.624111926772912 1.5708462131518426 1.5707654930398856 -0.19221500664329189 0.5593081106191105 -0.24713353686949802 -0.31218416237716035 -0.0014659949317925392 -0.1922094163397893 -150.0 -146.45 300.0 2.2214 2.2214 0.0 0.0 150.0 0.0 0.0 0.0 0.0 0.0 0.0 0.0 0.0 0.0 0.0 
0.44 -1.8041539881104418 -1.0579249265955393 -2.000596016178008 4.621586226468332 1.570846261409672 1.5707655712538562 -0.19453363046706648 0.5582671537677899 -0.244198544204495 -0.3140783232349056 -0.001503932900023228 -0.1945278171956002 -150.0 -145.25 300.0 2.2214 2.2214 0.0 0.0 150.0 0.0 0.0 0.0 0.0 0.0 0.0 0.0 0.0 0.0 0.0 
0.448 -1.8057404042543337 -1.0536149339639085 -2.0024718132298105 4.619045910420242 1.5708463101379022 1.5707656505096035 -0.1968892530348857 0.5571935273576732 -0.24126771377689427 -0.3159356544616291 -0.001543037484924337 -0.19688320673129614 -150.0 -144.05 300.0 2.2214 2.2214 0.0 0.0 150.0 0.0 0.0 0.0 0.0 0.0 0.0 0.0 0.0 0.0 0.0 
0.456 -1.8073464734710574 -1.0493168054516628 -2.0043234973235617 4.616491296583142 1.5708463593416528 1.5707657308258416 -0.19928252734634272 0.5560866709195981 -0.23834130723667638 -0.31775533398058475 -0.0015833493791007228 -0.19927623744364603 -150.0 -142.85 300.0 2.2214 2.2214 0.0 0.0 150.0 0.0 0.0 0.0 0.0 0.0 0.0 0.0 0.0 0.0 0.0 
0.464 -1.8089725234873653 -1.0450308878113157 -2.006151096465744 4.61392271025659 1.5708464090260639 1.5707658122216777 -0.2017141160646366 0.5549460218381725 -0.2354195932762819 -0.3195365305271088 -0.0016249108235650992 -0.2017075714657307 -150.0 -141.64999999999998 300.0 2.2214 2.2214 0.0 0.0 150.0 0.0 0.0 0.0 0.0 0.0 0.0 0.0 0.0 0.0 0.0 
0.472 -1.810618888325986 -1.0407575345570277 -2.0079546407296376 4.6113404841843 1.5708464591962872 1.57076589471662 -0.2041846914632598 0.5537710154792108 -0.23250284764475213 -0.3212784037619153 -0.0016677656694885034 -0.2041778805120487 -150.0 -140.45 300.0 2.2214 2.2214 0.0 0.0 150.0 0.0 0.0 0.0 0.0 0.0 0.0 0.0 0.0 0.0 0.0 
0.48 -1.812285908423183 -1.0364971060515717 -2.009734162309671 4.608744958653199 1.5708465098574922 1.5707659783305867 -0.2066949353553581 0.5525610853232428 -0.22959135315804 -0.32298010439430225 -0.0017119594423976017 -0.20668784580619726 -150.0 -139.25 300.0 2.2214 2.2214 0.0 0.0 150.0 0.0 0.0 0.0 0.0 0.0 0.0 0.0 0.0 0.0 0.0 
0.488 -1.8139739307474771 -1.0322499695945844 -2.011489695575725 4.606136481592432 1.570846561014857 1.5707660630839142 -0.20924553900447018 0.5513156631054098 -0.22668539970523233 -0.3246407743158257 -0.0017575394089006599 -0.20923815798982937 -150.0 -138.05 300.0 2.2214 2.2214 0.0 0.0 150.0 0.0 0.0 0.0 0.0 0.0 0.0 0.0 0.0 0.0 0.0 
0.496 -1.8156833089194597 -1.0280164995121135 -2.0132212771273537 4.603515408672214 1.570846612673566 1.5707661489973663 -0.21183720301530035 0.5500341789620535 -0.22378528425039432 -0.3262595467450458 -0.0018045546460349108 -0.2118295170115365 -150.0 -136.85 300.0 2.2214 2.2214 0.0 0.0 150.0 0.0 0.0 0.0 0.0 0.0 0.0 0.0 0.0 0.0 0.0 
0.504 -1.8174144033326192 -1.0237970772475018 -2.014928945847868 4.60088210340252 1.5708466648388113 1.5707662360921433 -0.21447063720310125 0.5487160615843346 -0.22089131082973668 -0.3278355463839807 -0.001853056113319607 -0.21446263199422605 -150.0 -135.65 300.0 2.2214 2.2214 0.0 0.0 150.0 0.0 0.0 0.0 0.0 0.0 0.0 0.0 0.0 0.0 0.0 
0.512 -1.8191675812750718 -1.0195920914536032 -2.0166127429582383 4.598236937231489 1.5708467175157814 1.5707663243898902 -0.21714656044016478 0.5473607383792459 -0.21800379054378996 -0.32936788958694313 -0.0019030967276098968 -0.2171382210794807 -150.0 -134.45 300.0 2.2214 2.2214 0.0 0.0 150.0 0.0 0.0 0.0 0.0 0.0 0.0 0.0 0.0 0.0 0.0 
0.52 -1.8209432170521076 -1.0154019380863786 -2.0182727120707638 4.5955802896435305 1.570846770709658 1.570766413912707 -0.21986570047784007 0.5459676356383999 -0.21512304154425865 -0.3308556845424716 -0.0019547314408406347 -0.2198570112473185 -150.0 -133.25 300.0 2.2214 2.2214 0.0 0.0 150.0 0.0 0.0 0.0 0.0 0.0 0.0 0.0 0.0 0.0 0.0 
0.528 -1.8227416921094401 -1.011227020499864 -2.019908899242443 4.592912548257006 1.5708468244256217 1.5707665046831576 -0.22262879374243155 0.5445361787149947 -0.21224938901519363 -0.33229803146912346 -0.002008017320755478 -0.22261973810969013 -150.0 -132.05 300.0 2.2214 2.2214 0.0 0.0 150.0 0.0 0.0 0.0 0.0 0.0 0.0 0.0 0.0 0.0 0.0 
0.536 -1.8245633951570182 -1.0070677495425406 -2.0215213530279987 4.590234108921436 1.5708468786688323 1.5707665967242783 -0.225436585103219 0.5430657922093999 -0.20938316514813027 -0.33369402282591465 -0.002063013634713665 -0.225427145675953 -150.0 -130.85 300.0 2.2214 2.2214 0.0 0.0 150.0 0.0 0.0 0.0 0.0 0.0 0.0 0.0 0.0 0.0 0.0 
0.544 -1.8264087222932912 -1.0029245436551197 -2.0231101245324767 4.5875453758141225 1.5708469334444373 1.5707666900595891 -0.228289827610788 0.5415559001638157 -0.20652470911079435 -0.3350427435382696 -0.002119781936671751 -0.22827998608849656 -150.0 -129.65 300.0 2.2214 2.2214 0.0 0.0 150.0 0.0 0.0 0.0 0.0 0.0 0.0 0.0 0.0 0.0 0.0 
0.552 -1.8282780771297604 -0.998797828969741 -2.024675267463362 4.5848467615361095 1.5708469887575571 1.5707667847131017 -0.23118928220374346 0.5400059262664929 -0.20367436700897226 -0.3363432712403607 -0.0021783861574297425 -0.23117901932658558 -150.0 -128.45 300.0 2.2214 2.2214 0.0 0.0 150.0 0.0 0.0 0.0 0.0 0.0 0.0 0.0 0.0 0.0 0.0 
0.56 -1.8301718709156711 -0.9946880394106095 -2.0262168381821293 4.582138687207355 1.570847044613286 1.57076688070933 -0.23413571738181138 0.538415294066034 -0.2008324918411243 -0.337594676534788 -0.0022388926982448275 -0.23412501287641277 -150.0 -127.25 300.0 2.2214 2.2214 0.0 0.0 150.0 0.0 0.0 0.0 0.0 0.0 0.0 0.0 0.0 0.0 0.0 
0.568 -1.8320905226626665 -0.9905956167960608 -2.0277348957551586 4.579421582561025 1.5708471010166838 1.5707669780733 -0.23712990884322369 0.5367834271963186 -0.1979994434452859 -0.33879602327059133 -0.002301370527899313 -0.23711874136524722 -150.0 -126.05 300.0 2.2214 2.2214 0.0 0.0 150.0 0.0 0.0 0.0 0.0 0.0 0.0 0.0 0.0 0.0 0.0 
0.576 -1.8340344592692182 -0.986521010942059 -2.029229502003917 4.576695886036763 1.5708471579727674 1.570767076830559 -0.24017263908419975 0.5351097496126269 -0.19517558843778882 -0.33994636884063795 -0.0023658912833224945 -0.24016098615747694 -150.0 -124.85 300.0 2.2214 2.2214 0.0 0.0 150.0 0.0 0.0 0.0 0.0 0.0 0.0 0.0 0.0 0.0 0.0 
0.584 -1.836004115644636 -0.9824646797671259 -2.030700721554333 4.573962044872831 1.5708472154865072 1.5707671770071863 -0.24326469695823918 0.533393685839575 -0.1923613001433134 -0.3410447644994888 -0.00243252937385365 -0.24325253491025361 -150.0 -123.65 300.0 2.2214 2.2214 0.0 0.0 150.0 0.0 0.0 0.0 0.0 0.0 0.0 0.0 0.0 0.0 0.0 
0.592 -1.837999934832439 -0.9784270893986919 -2.0321486218852547 4.571220515196961 1.5708472735628212 1.5707672786298021 -0.24640687719284296 0.5316346612314893 -0.18955695851575335 -0.34209025570289225 -0.0025013620892414385 -0.24639418108633332 -150.0 -122.45 300.0 2.2214 2.2214 0.0 0.0 150.0 0.0 0.0 0.0 0.0 0.0 0.0 0.0 0.0 0.0 0.0 
0.6 -1.8400223681328476 -0.9744087142808509 -2.0335732733758993 4.568471762115779 1.5708473322065657 1.5707673817255787 -0.24959997986118257 0.5298321022459066 -0.18676295004935242 -0.3430818824701239 -0.0025724697114648345 -0.24958672342163177 -150.0 -121.25 300.0 2.2214 2.2214 0.0 0.0 150.0 0.0 0.0 0.0 0.0 0.0 0.0 0.0 0.0 0.0 0.0 
0.608 -1.842071875224157 -0.9704100372834956 -2.0349747493521804 4.565716259802621 1.5708473914225263 1.57076748632225 -0.252844809806143 0.5279854367308925 -0.18397966767954943 -0.34401867977043593 -0.0026459356304620874 -0.25283096534489347 -150.0 -120.05000000000001 300.0 2.2214 2.2214 0.0 0.0 150.0 0.0 0.0 0.0 0.0 0.0 0.0 0.0 0.0 0.0 0.0 
0.616 -1.8441489242827136 -0.9664315498128246 -2.0363531261317975 4.5629544915835885 1.5708474512154085 1.5707675924481215 -0.25614217601406253 0.5260940942269202 -0.1812075106729477 -0.3448996779349398 -0.0027218464638497078 -0.2561277143467864 -150.0 -118.85000000000001 300.0 2.2214 2.2214 0.0 0.0 150.0 0.0 0.0 0.0 0.0 0.0 0.0 0.0 0.0 0.0 0.0 
0.624 -1.8462539921012162 -0.9624737519231656 -2.0377084830679695 4.560186950021643 1.570847511589839 1.57076770013208 -0.2594928909354086 0.5241575062840769 -0.17844688450578342 -0.3457239030953155 -0.002800292180704568 -0.2594777812956474 -150.0 -117.65 300.0 2.2214 2.2214 0.0 0.0 150.0 0.0 0.0 0.0 0.0 0.0 0.0 0.0 0.0 0.0 0.0 
0.632 -1.8483875642050158 -0.9585371524300825 -2.0390409025916774 4.557414136998535 1.570847572550342 1.5707678094036037 -0.2628977697495062 0.5221751067954093 -0.17569820073026174 -0.34649037765078405 -0.002881366229486829 -0.2628819796969726 -150.0 -116.45 300.0 2.2214 2.2214 0.0 0.0 150.0 0.0 0.0 0.0 0.0 0.0 0.0 0.0 0.0 0.0 0.0 
0.64 -1.8505501349661042 -0.9546222690247221 -2.0403504702522834 4.5546365637943556 1.5708476341013407 1.5707679202927736 -0.26635762957037856 0.5201463323472368 -0.17296187682808994 -0.3471981207648544 -0.002965165670163346 -0.26634112489369416 -150.0 -115.25 300.0 2.2214 2.2214 0.0 0.0 150.0 0.0 0.0 0.0 0.0 0.0 0.0 0.0 0.0 0.0 0.0 
0.648 -1.8527422077144218 -0.9507296283893285 -2.041637274756374 4.551854751164486 1.5708476962471396 1.5707680328302809 -0.26987328859063753 0.5180706225873057 -0.17023833605051344 -0.3478461488933964 -0.0030517913105903975 -0.26985603320416435 -150.0 -114.05 300.0 2.2214 2.2214 0.0 0.0 150.0 0.0 0.0 0.0 0.0 0.0 0.0 0.0 0.0 0.0 0.0 
0.656 -1.8549642948461198 -0.9468597663138714 -2.0429014080046723 4.549069229413677 1.5708477589919196 1.570768147047439 -0.2734455651602908 0.5159474206116852 -0.1675280072441388 -0.3484334763456716 -0.0031413478472089237 -0.2734275209946888 -150.0 -112.85 300.0 2.2214 2.2214 0.0 0.0 150.0 0.0 0.0 0.0 0.0 0.0 0.0 0.0 0.0 0.0 0.0 
0.664 -1.8572169179283708 -0.9430132278136916 -2.044142965126868 4.54628053846702 1.5708478223397238 1.5707682629761917 -0.2770752767972488 0.513776173371335 -0.16483132466179284 -0.3489591158799914 -0.00323394401008446 -0.2770564036833723 -150.0 -111.64999999999999 300.0 2.2214 2.2214 0.0 0.0 150.0 0.0 0.0 0.0 0.0 0.0 0.0 0.0 0.0 0.0 0.0 
0.672 -1.8595006078002991 -0.9391905672480849 -2.0453620445141665 4.543489227937496 1.570847886294445 1.5707683806491233 -0.28076323912622797 0.5115563320993065 -0.16214872775765127 -0.34942207933573566 -0.00332969271232749 -0.2807434946719483 -150.0 -110.45 300.0 2.2214 2.2214 0.0 0.0 150.0 0.0 0.0 0.0 0.0 0.0 0.0 0.0 0.0 0.0 0.0 
0.68 -1.8618159046695864 -0.9353923484397142 -2.0465587478493936 4.540695857189819 1.5708479508598165 1.5707685000994687 -0.28451026474269187 0.5092873527595626 -0.15948066096583569 -0.3498213783035169 -0.0034287112039056754 -0.28448960420221037 -150.0 -109.25 300.0 2.2214 2.2214 0.0 0.0 150.0 0.0 0.0 0.0 0.0 0.0 0.0 0.0 0.0 0.0 0.0 
0.688 -1.8641633582042596 -0.93161914479473 -2.047733180134456 4.537900995400255 1.5708480160393936 1.5707686213611212 -0.28831716199838886 0.5069686965184346 -0.15682757346166115 -0.3501560248353247 -0.003531121229848838 -0.28829553813357633 -150.0 -108.05 300.0 2.2214 2.2214 0.0 0.0 150.0 0.0 0.0 0.0 0.0 0.0 0.0 0.0 0.0 0.0 0.0 
0.696 -1.8665435276191653 -0.9278715394234709 -2.0488854497149434 4.535105221612039 1.5708480818365422 1.5707687444686422 -0.2921847337050213 0.5045998302397392 -0.15418991890468312 -0.35042503219652804 -0.0036370491928398416 -0.29216209663829346 -150.0 -106.85 300.0 2.2214 2.2214 0.0 0.0 150.0 0.0 0.0 0.0 0.0 0.0 0.0 0.0 0.0 0.0 0.0 
0.704 -1.8689569817565794 -0.9241501252615905 -2.050015668301663 4.53230912478606 1.5708481482544268 1.5707688694572708 -0.2961137757525073 0.5021802270046188 -0.1515681551626801 -0.35062741566165734 -0.0037466263201484376 -0.2960900728107174 -150.0 -105.65 300.0 2.2214 2.2214 0.0 0.0 150.0 0.0 0.0 0.0 0.0 0.0 0.0 0.0 0.0 0.0 0.0 
0.712 -1.8714042991603859 -0.9204555051914509 -2.0511239509888752 4.529513303846407 1.570848215295991 1.5707689963629299 -0.3001050756382857 0.4997093666571737 -0.14896274401568332 -0.3507621933559255 -0.0038599888348681824 -0.30008025118708315 -150.0 -104.45 300.0 2.2214 2.2214 0.0 0.0 150.0 0.0 0.0 0.0 0.0 0.0 0.0 0.0 0.0 0.0 0.0 
0.72 -1.8738860681432223 -0.9167882921635924 -2.0522104162689834 4.526718367720347 1.5708482829639445 1.5707691252222369 -0.30415941090410614 0.4971867363769527 -0.14637415083913907 -0.3508283871444706 -0.003977278131376177 -0.30413340617217544 -150.0 -103.25000000000001 300.0 2.2214 2.2214 0.0 0.0 150.0 0.0 0.0 0.0 0.0 0.0 0.0 0.0 0.0 0.0 0.0 
0.728 -1.8764028868459541 -0.9131491093180752 -2.0532751860434333 4.52392493537231 1.570848351260744 1.5707692560725093 -0.30827754747672537 0.4946118312794037 -0.14380284426528173 -0.3508250235713388 -0.004098640954923733 -0.30825030036929163 -150.0 -102.05000000000001 300.0 2.2214 2.2214 0.0 0.0 150.0 0.0 0.0 0.0 0.0 0.0 0.0 0.0 0.0 0.0 0.0 
0.736 -1.8789553632888083 -0.9095385901054831 -2.05431838562954 4.5211336358314105 1.5708484201885773 1.5707693889517733 -0.31246023790897126 0.4919841550453554 -0.1412492958217799 -0.3507511348502191 -0.004224229585231116 -0.31243168280991956 -150.0 -100.85000000000001 300.0 2.2214 2.2214 0.0 0.0 150.0 0.0 0.0 0.0 0.0 0.0 0.0 0.0 0.0 0.0 0.0 
0.744 -1.8815441154134582 -0.9059573784073227 -2.055340143762972 4.5183451082119905 1.5708484897493422 1.57076952389877 -0.3167082195176658 0.4893032205806143 -0.13871397954669712 -0.3506057599089725 -0.0043542020239401655 -0.31667828707958157 -150.0 -99.65 300.0 2.2214 2.2214 0.0 0.0 150.0 0.0 0.0 0.0 0.0 0.0 0.0 0.0 0.0 0.0 0.0 
0.752 -1.8841697711153245 -0.9024061286555676 -2.056340592595588 4.5155600017266835 1.570848559944632 1.570769660952962 -0.32102221241497436 0.486568550706738 -0.1361973715788119 -0.350387945489971 -0.004488722185736545 -0.3209908293363769 -150.0 -98.45 300.0 2.2214 2.2214 0.0 0.0 150.0 0.0 0.0 0.0 0.0 0.0 0.0 0.0 0.0 0.0 0.0 
0.76 -1.8868329682653018 -0.8988855059510374 -2.0573198676883226 4.512778975691405 1.5708486307757068 1.5707698001545385 -0.32540291742981325 0.4837796788840312 -0.13369994972233115 -0.35009674730825374 -0.004627960092931363 -0.3253700062188114 -150.0 -97.25 300.0 2.2214 2.2214 0.0 0.0 150.0 0.0 0.0 0.0 0.0 0.0 0.0 0.0 0.0 0.0 0.0 
0.768 -1.8895343547201104 -0.8953961861803097 -2.0582781079987833 4.510002699521731 1.5708487022434827 1.5707699415444207 -0.3298510139161027 0.4809361499677642 -0.13122219298503085 -0.3497312312694784 -0.004772092073237293 -0.32981649263965945 -150.0 -96.05 300.0 2.2214 2.2214 0.0 0.0 150.0 0.0 0.0 0.0 0.0 0.0 0.0 0.0 0.0 0.0 0.0 
0.776 -1.8922745883204026 -0.891938856130797 -2.0592154558632307 4.5072318527199835 1.5708487743485018 1.5707700851642672 -0.33436715744476125 0.47803752099859886 -0.12876458108886735 -0.34929047474959274 -0.0049213009604601645 -0.33433093946270803 -150.0 -94.85 300.0 2.2214 2.2214 0.0 0.0 150.0 0.0 0.0 0.0 0.0 0.0 0.0 0.0 0.0 0.0 0.0 
0.784 -1.8950543368757424 -0.8885142136036301 -2.0601320569725745 4.504467124852414 1.5708488470909114 1.5707702310564753 -0.33895197737655286 0.4750833620281266 -0.12632759395210968 -0.34877356793809233 -0.005075776297753296 -0.33891397105944965 -150.0 -93.65 300.0 2.2214 2.2214 0.0 0.0 150.0 0.0 0.0 0.0 0.0 0.0 0.0 0.0 0.0 0.0 0.0 
0.792 -1.8978742781355176 -0.8851229675239258 -2.0610280603420144 4.501709215515769 1.5708489204704414 1.5707703792641863 -0.3436060743130984 0.4720732569803793 -0.1239117111420575 -0.34817961524665675 -0.005235714543059585 -0.3435661827429843 -150.0 -92.45 300.0 2.2214 2.2214 0.0 0.0 150.0 0.0 0.0 0.0 0.0 0.0 0.0 0.0 0.0 0.0 0.0 
0.8 -1.9007350997448196 -0.8817658380480102 -2.061903618273937 4.498958834292522 1.5708489944863764 1.5707705298312857 -0.3483300174236343 0.4690068045500843 -0.12151741129744295 -0.34750773678483515 -0.005401319276301179 -0.34828813807666487 -150.0 -91.25 300.0 2.2214 2.2214 0.0 0.0 150.0 0.0 0.0 0.0 0.0 0.0 0.0 0.0 0.0 0.0 0.0 
0.808 -1.9036374991842728 -0.8784435566671158 -2.062758886313664 4.496216700694004 1.5708490691375292 1.5707706828024053 -0.3531243416453993 0.46588361913835663 -0.11914517151963092 -0.34675706990436034 -0.005572801407830124 -0.35308036605531473 -150.0 -90.05 300.0 2.2214 2.2214 0.0 0.0 150.0 0.0 0.0 0.0 0.0 0.0 0.0 0.0 0.0 0.0 0.0 
0.816 -1.9065821836927692 -0.8751568663070466 -2.063594023197623 4.493483544090627 1.5708491444222183 1.5707708382229217 -0.357989544755887 0.46270333182639656 -0.11679546673178486 -0.34592677081349626 -0.005750379387591294 -0.35794335815719813 -150.0 -88.85 300.0 2.2214 2.2214 0.0 0.0 150.0 0.0 0.0 0.0 0.0 0.0 0.0 0.0 0.0 0.0 0.0 
0.824 -1.9095698701720125 -0.8719065214232691 -2.0644091907935085 4.490760103628386 1.5708492203382358 1.5707709961389569 -0.36292608431559614 0.45946559138765825 -0.11446876900520815 -0.3450160162626663 -0.005934279414389526 -0.3628775652653222 -150.0 -87.64999999999999 300.0 2.2214 2.2214 0.0 0.0 150.0 0.0 0.0 0.0 0.0 0.0 0.0 0.0 0.0 0.0 0.0 
0.832 -1.9126012850717444 -0.8686932880908289 -2.065204554031975 4.488047128130724 1.5708492968828138 1.5707711565973745 -0.3679343744803769 0.4561700653387991 -0.11216554685212275 -0.34402400530241484 -0.006124735644586277 -0.3678833944571107 -150.0 -86.44999999999999 300.0 2.2214 2.2214 0.0 0.0 150.0 0.0 0.0 0.0 0.0 0.0 0.0 0.0 0.0 0.0 0.0 
0.84 -1.9156771642544959 -0.8655179440884901 -2.065980280829386 4.485345375984883 1.5708493740526015 1.5707713196457764 -0.37301478268297666 0.45281644102956403 -0.10988626448422718 -0.3429499611145183 -0.006321990399483226 -0.37296120566199137 -150.0 -85.25000000000001 300.0 2.2214 2.2214 0.0 0.0 150.0 0.0 0.0 0.0 0.0 0.0 0.0 0.0 0.0 0.0 0.0 
0.848 -1.918798252838652 -0.8623812789764163 -2.0667365420011388 4.482655615011774 1.570849451843632 1.5707714853324977 -0.3781676261839664 0.44940442677158626 -0.10763138103644747 -0.3417931329168042 -0.006526294370572095 -0.37811130818702 -150.0 -84.05000000000001 300.0 2.2214 2.2214 0.0 0.0 150.0 0.0 0.0 0.0 0.0 0.0 0.0 0.0 0.0 0.0 0.0 
0.856 -1.9219653050185914 -0.8592840941666768 -2.067473511165052 4.479978622318354 1.5708495302512806 1.5707716537066005 -0.3833931684928625 0.44593375300587895 -0.10540134975538298 -0.34055279794195403 -0.006737906821761572 -0.3833339571112911 -150.0 -82.85000000000001 300.0 2.2214 2.2214 0.0 0.0 150.0 0.0 0.0 0.0 0.0 0.0 0.0 0.0 0.0 0.0 0.0 
0.864 -1.9251790838606464 -0.8562272029858491 -2.0681913646343126 4.477315184131516 1.5708496092702402 1.570771824817865 -0.38869161566097415 0.4424041735085703 -0.10319661715206585 -0.3392282634902299 -0.006957095787601894 -0.3886293495506047 -150.0 -81.65 300.0 2.2214 2.2214 0.0 0.0 150.0 0.0 0.0 0.0 0.0 0.0 0.0 0.0 0.0 0.0 0.0 
0.872 -1.9284403610735685 -0.8532114307288889 -2.068890281299426 4.47466609561239 1.5708496888944847 1.5707719987167805 -0.39406311244827696 0.43881546663418924 -0.10101762211875237 -0.33781886905570513 -0.007184138266447231 -0.3939976207946225 -150.0 -80.45 300.0 2.2214 2.2214 0.0 0.0 150.0 0.0 0.0 0.0 0.0 0.0 0.0 0.0 0.0 0.0 0.0 
0.88 -1.9317499167521741 -0.8502376147034365 -2.069570442498649 4.472032160649969 1.570849769117225 1.5707721754545323 -0.39950773836745157 0.43516743659554946 -0.09886479500961427 -0.3363239885251798 -0.007419320407407099 -0.3994388403195916 -150.0 -79.25 300.0 2.2214 2.2214 0.0 0.0 150.0 0.0 0.0 0.0 0.0 0.0 0.0 0.0 0.0 0.0 0.0 
0.888 -1.9351085390928269 -0.8473066042636637 -2.07023203187633 4.469414191632916 1.5708498499308796 1.5707723550829904 -0.40502550360917633 0.43145991477896917 -0.09673855668533006 -0.33474303244852543 -0.0076629376898467915 -0.40495300768065184 -150.0 -78.05 300.0 2.2214 2.2214 0.0 0.0 150.0 0.0 0.0 0.0 0.0 0.0 0.0 0.0 0.0 0.0 0.0 
0.896 -1.93851702407937 -0.8444192608327103 -2.070875235228592 4.466813009198358 1.5708499313270323 1.5707725376546915 -0.41061634485373416 0.4276927610932614 -0.09463931752174848 -0.3330754503787138 -0.007915295094102753 -0.4105400482887308 -150.0 -76.85 300.0 2.2214 2.2214 0.0 0.0 150.0 0.0 0.0 0.0 0.0 0.0 0.0 0.0 0.0 0.0 0.0 
0.904 -1.9419761751381266 -0.8415764579127192 -2.0715002403357845 4.4642294419564825 1.5708500132963896 1.5707727232228228 -0.416280120975099 0.4238658653505714 -0.09256747638296407 -0.3313207332792681 -0.008176707261974659 -0.4161998090781196 -150.0 -75.65 300.0 2.2214 2.2214 0.0 0.0 150.0 0.0 0.0 0.0 0.0 0.0 0.0 0.0 0.0 0.0 0.0 
0.912 -1.9454868027605605 -0.8387790810814262 -2.0721072367811084 4.461664326189685 1.5708500958287417 1.570772911841202 -0.4220166086448062 0.4199791486767818 -0.09052341955935128 -0.3294784159963153 -0.00844749864546761 -0.4219320540719712 -150.0 -74.45 300.0 2.2214 2.2214 0.0 0.0 150.0 0.0 0.0 0.0 0.0 0.0 0.0 0.0 0.0 0.0 0.0 
0.92 -1.9490497240921902 -0.8360280279742098 -2.0726964157548307 4.45911850552499 1.5708501789129203 1.5707731035642538 -0.42782549784416535 0.4160325649487971 -0.08850751967130183 -0.3275480797918032 -0.008728003642147862 -0.42773645985421854 -150.0 -73.25 300.0 2.2214 2.2214 0.0 0.0 150.0 0.0 0.0 0.0 0.0 0.0 0.0 0.0 0.0 0.0 0.0 
0.928 -1.9526657624863422 -0.8333242082504526 -2.0732679698434877 4.456592830578472 1.5708502625367546 1.5707732984469862 -0.43370638729467753 0.4120261022556061 -0.08652013453964694 -0.32552935493379886 -0.0090185667153749 -0.433612610957711 -150.0 -72.05 300.0 2.2214 2.2214 0.0 0.0 150.0 0.0 0.0 0.0 0.0 0.0 0.0 0.0 0.0 0.0 0.0 
0.936 -1.9563357470213356 -0.8306685435430112 -2.0738220928034865 4.454088158570343 1.5708503466870205 1.5707734965449622 -0.4396587798179226 0.4079597843795769 -0.08456160602398395 -0.323421923339103 -0.009319542497572133 -0.4395599951797759 -150.0 -70.85 300.0 2.2214 2.2214 0.0 0.0 150.0 0.0 0.0 0.0 0.0 0.0 0.0 0.0 0.0 0.0 0.0 
0.944 -1.9600605119797185 -0.8280619673895662 -2.0743589793185016 4.451605352909398 1.5708504313494067 1.5707736979142701 -0.44568207763764406 0.4038336722939539 -0.08263225883039373 -0.32122552126267506 -0.009631295874589638 -0.44557799883787935 -150.0 -69.64999999999999 300.0 2.2214 2.2214 0.0 0.0 150.0 0.0 0.0 0.0 0.0 0.0 0.0 0.0 0.0 0.0 0.0 
0.952 -1.9638408962881577 -0.82550542514453 -2.074878824740087 4.449145282745441 1.5708505165084559 1.57077390261149 -0.4517755776382874 0.39964786567206523 -0.08073239929031102 -0.31893994202759496 -0.009954202049126374 -0.4516659019795834 -150.0 -68.44999999999999 300.0 2.2214 2.2214 0.0 0.0 150.0 0.0 0.0 0.0 0.0 0.0 0.0 0.0 0.0 0.0 0.0 
0.96 -1.9676777429166683 -0.822999873870188 -2.0753818248109175 4.446708822488379 1.570850602147524 1.5707741106936572 -0.4579384665958741 0.39540250440319763 -0.07886231411259804 -0.3165650387884908 -0.01028864658105375 -0.45782287356264595 -150.0 -67.25000000000001 300.0 2.2214 2.2214 0.0 0.0 150.0 0.0 0.0 0.0 0.0 0.0 0.0 0.0 0.0 0.0 0.0 
0.968 -1.9715718982358554 -0.820546282205671 -2.075868175370097 4.444296851292602 1.570850688248727 1.5707743222182236 -0.46416981639871435 0.3910977701096049 -0.07702226911119237 -0.31410072732051275 -0.010635025402419642 -0.4640479666227117 -150.0 -66.05000000000001 300.0 2.2214 2.2214 0.0 0.0 150.0 0.0 0.0 0.0 0.0 0.0 0.0 0.0 0.0 0.0 0.0 
0.976 -1.9755242113309244 -0.8181456302123236 -2.0763380720399773 4.441910252505314 1.570850774792894 1.5707745372430142 -0.47046857927720787 0.3867338876585395 -0.07521250791100845 -0.31154698882507353 -0.01099374480479415 -0.47034011344781795 -150.0 -64.85000000000001 300.0 2.2214 2.2214 0.0 0.0 150.0 0.0 0.0 0.0 0.0 0.0 0.0 0.0 0.0 0.0 0.0 
0.984 -1.979535533271258 -0.8157989091939948 -2.076791709893966 4.4395499130774745 1.5708508617595143 1.570774755826182 -0.4768335830636976 0.38231112666266426 -0.07343325063512039 -0.308903872742681 -0.01136522139655038 -0.4766981207806475 -150.0 -63.650000000000006 300.0 2.2214 2.2214 0.0 0.0 150.0 0.0 0.0 0.0 0.0 0.0 0.0 0.0 0.0 0.0 0.0 
0.992 -1.9836067163344393 -0.8135071214907272 -2.0772292831048187 4.437216722936048 1.5708509491266887 1.5707749780261573 -0.4832635265051358 0.3778298029616227 -0.07168469257658772 -0.30617149956228495 -0.011749882027590725 -0.48312066507127027 -150.0 -62.45 300.0 2.2214 2.2214 0.0 0.0 150.0 0.0 0.0 0.0 0.0 0.0 0.0 0.0 0.0 0.0 0.0 
1.0 -1.9877386131836712 -0.8112712802442958 -2.077650984572944 4.434911574316256 1.5708510368710769 1.5707752039015948 -0.4897569746530972 0.3732902800769855 -0.06996700285865146 -0.3033500636156248 -0.012148163678961241 -0.48960628780490006 -150.0 -61.25 300.0 2.2214 2.2214 0.0 0.0 150.0 0.0 0.0 0.0 0.0 0.0 0.0 0.0 0.0 0.0 0.0 
1.008 -1.9919320759976555 -0.8090924091340117 -2.078057005534297 4.4326353610525935 1.5708511249678443 1.5707754335113167 -0.496312354357465 0.36869297063223333 -0.068280323087382 -0.3004398358441625 -0.012560513314751125 -0.4961533909309936 -150.0 -60.05000000000001 300.0 2.2214 2.2214 0.0 0.0 150.0 0.0 0.0 0.0 0.0 0.0 0.0 0.0 0.0 0.0 0.0 
1.016 -1.9961879555520885 -0.806971542081178 -2.078447535147467 4.430388977827418 1.570851213390608 1.5707756669142514 -0.5029279498918813 0.36403833772886535 -0.06662476600122759 -0.2974411665252407 -0.0129873876936075 -0.5027602324217972 -150.0 -58.849999999999994 300.0 2.2214 2.2214 0.0 0.0 150.0 0.0 0.0 0.0 0.0 0.0 0.0 0.0 0.0 0.0 0.0 
1.024 -2.0005071002520696 -0.8049097229205762 -2.078822760059631 4.428173319375962 1.5708513021113906 1.5707759041693683 -0.5096018987407761 0.3593268962692056 -0.06500041412228044 -0.2943544879432274 -0.013429253137200375 -0.5094249219901847 -150.0 -57.650000000000006 300.0 2.2214 2.2214 0.0 0.0 150.0 0.0 0.0 0.0 0.0 0.0 0.0 0.0 0.0 0.0 0.0 
1.032 -2.0048903551148403 -0.8029080050373181 -2.0791828639510905 4.425989279646697 1.5708513911005593 1.570776145335609 -0.5163321875794618 0.3545592142159407 -0.06340731841443405 -0.29118031699050023 -0.013886585252931995 -0.51614541699832 -150.0 -56.44999999999999 300.0 2.2214 2.2214 0.0 0.0 150.0 0.0 0.0 0.0 0.0 0.0 0.0 0.0 0.0 0.0 0.0 
1.04 -2.009338560702446 -0.8009674509674318 -2.079528027058184 4.423837750916068 1.5708514803267775 1.570776390471814 -0.5231166484803517 0.3497359137779591 -0.061845496953971416 -0.28791925768231263 -0.014359868608211666 -0.5229195185902568 -150.0 -55.25 300.0 2.2214 2.2214 0.0 0.0 150.0 0.0 0.0 0.0 0.0 0.0 0.0 0.0 0.0 0.0 0.0 
1.048 -2.01385255200407 -0.7990891319605122 -2.0798584256744324 4.421719622856704 1.5708515697569545 1.5707766396366438 -0.5299529553798472 0.34485767251159133 -0.06031493361845632 -0.284572003568768 -0.014849596353637563 -0.529744868083108 -150.0 -54.04999999999998 300.0 2.2214 2.2214 0.0 0.0 150.0 0.0 0.0 0.0 0.0 0.0 0.0 0.0 0.0 0.0 0.0 
1.056 -2.018433157267974 -0.7972741275027975 -2.0801742316298633 4.419635781558336 1.5708516593561885 1.570776892888499 -0.5368386208417494 0.3399252243259856 -0.058815576800145576 -0.2811393400264149 -0.015356269792479116 -0.5366189436527347 -150.0 -52.849999999999994 300.0 2.2214 2.2214 0.0 0.0 150.0 0.0 0.0 0.0 0.0 0.0 0.0 0.0 0.0 0.0 0.0 
1.064 -2.0230811967831945 -0.795523524799044 -2.080475611748551 4.417587108500745 1.5708517490877192 1.570777150285432 -0.543770993154248 0.3349393603809804 -0.05734733815043304 -0.27762214641132893 -0.01588039789393901 -0.5435390573511288 -150.0 -51.650000000000006 300.0 2.2214 2.2214 0.0 0.0 150.0 0.0 0.0 0.0 0.0 0.0 0.0 0.0 0.0 0.0 0.0 
1.072 -2.0277974816113518 -0.7938384182115916 -2.080762727284487 4.41557447947824 1.5708518389128778 1.5707774118850564 -0.5507472537984968 0.32990092986558583 -0.05591009136212959 -0.27402139805498105 -0.016422496747769348 -0.5505023524936487 -150.0 -50.44999999999999 300.0 2.2214 2.2214 0.0 0.0 150.0 0.0 0.0 0.0 0.0 0.0 0.0 0.0 0.0 0.0 0.0 
1.08 -2.032582812269166 -0.7922199086550679 -2.0810357333360434 4.413598763475287 1.5708519287910345 1.5707776777444522 -0.5577644153275172 0.3248108406450042 -0.05450367099664113 -0.27033816808376643 -0.016983088957959844 -0.5575058014550127 -150.0 -49.25 300.0 2.2214 2.2214 0.0 0.0 150.0 0.0 0.0 0.0 0.0 0.0 0.0 0.0 0.0 0.0 0.0 
1.088 -2.037437977362535 -0.7906691029452091 -2.081294778239356 4.411660821493115 1.5708520186795563 1.5707779479200659 -0.5648193196947029 0.31967005976398044 -0.05312787136330497 -0.2665736290427326 -0.01756270297337359 -0.5645462039135237 -150.0 -48.04999999999998 300.0 2.2214 2.2214 0.0 0.0 150.0 0.0 0.0 0.0 0.0 0.0 0.0 0.0 0.0 0.0 0.0 
1.096 -2.0423637521732836 -0.7891871131003501 -2.081540002941127 4.409761505327264 1.5708521085337568 1.5707782224676046 -0.5719086370713412 0.3144796137943196 -0.05178244545834341 -0.262729054303879 -0.01816187235341754 -0.5716201855831651 -150.0 -46.849999999999994 300.0 2.2214 2.2214 0.0 0.0 150.0 0.0 0.0 0.0 0.0 0.0 0.0 0.0 0.0 0.0 0.0 
1.104 -2.047360897199981 -0.7877750555942074 -2.081771540351446 4.407901656296294 1.5708521983068549 1.5707785014419289 -0.5790288651924822 0.3092405890144795 -0.050467103970998295 -0.2588058192393839 -0.018781134967053633 -0.5787241974731516 -150.0 -45.64999999999998 300.0 2.2214 2.2214 0.0 0.0 150.0 0.0 0.0 0.0 0.0 0.0 0.0 0.0 0.0 0.0 0.0 
1.112 -2.052430156654525 -0.7864340505586642 -2.081989514677388 4.4060821039220475 1.5708522879499331 1.5707787848969383 -0.58617632926999 0.30395413140939637 -0.04918151436449779 -0.2548054021402642 -0.01942103212373848 -0.5858545157140557 -150.0 -44.44999999999999 300.0 2.2214 2.2214 0.0 0.0 150.0 0.0 0.0 0.0 0.0 0.0 0.0 0.0 0.0 0.0 0.0 
1.12 -2.057572256916497 -0.785165220935375 -2.0821940407382855 4.40430366456212 1.570852377411895 1.5707790728854543 -0.5933471825107471 0.2986214464790547 -0.0479253000395155 -0.25072938486131974 -0.020082107635183366 -0.5930072419888002 -150.0 -43.25 300.0 2.2214 2.2214 0.0 0.0 150.0 0.0 0.0 0.0 0.0 0.0 0.0 0.0 0.0 0.0 0.0 
1.128 -2.062787904947612 -0.7839696915751198 -2.0823852232637536 4.402567139995438 1.5708524666394357 1.5707793654590978 -0.6005374072767301 0.2932437988448076 -0.04669803958772974 -0.24657945317377644 -0.020764906807162885 -0.6001783046055787 -150.0 -42.04999999999998 300.0 2.2214 2.2214 0.0 0.0 150.0 0.0 0.0 0.0 0.0 0.0 0.0 0.0 0.0 0.0 0.0 
1.136 -2.0680777866689235 -0.7828485882839735 -2.082563156175677 4.4008733159621 1.5708525555770028 1.5707796626681632 -0.6077428169219319 0.28782251164311384 -0.045499266142981394 -0.24235739680777993 -0.021469975360991926 -0.6073634602480751 -150.0 -40.849999999999994 300.0 2.2214 2.2214 0.0 0.0 150.0 0.0 0.0 0.0 0.0 0.0 0.0 0.0 0.0 0.0 0.0 
1.144 -2.0734425653037865 -0.7818030368155036 -2.0827279218555774 4.399222960658928 1.5708526441667705 1.5707799645614886 -0.6149590583389907 0.28235896569712754 -0.044328466837324526 -0.23806510916790322 -0.022197858284700233 -0.6145582964362485 -150.0 -39.64999999999998 300.0 2.2214 2.2214 0.0 0.0 150.0 0.0 0.0 0.0 0.0 0.0 0.0 0.0 0.0 0.0 0.0 
1.152 -2.078882879689929 -0.7808341618083707 -2.0828795903989348 4.39761682319247 1.5708527323486143 1.5707802711863221 -0.6221816152457119 0.2768545984575626 -0.04318508236900697 -0.23370458670604544 -0.022949098614392427 -0.6217582347283374 -150.0 -38.44999999999996 300.0 2.2214 2.2214 0.0 0.0 150.0 0.0 0.0 0.0 0.0 0.0 0.0 0.0 0.0 0.0 0.0 
1.16 -2.084399342564329 -0.7799430856688998 -2.083018218858236 4.396055631991496 1.570852820060087 1.5707805825881835 -0.6294058122385505 0.27131090270535707 -0.042068506689068856 -0.2292779279375634 -0.02372423614676647 -0.6289585346916275 -150.0 -37.25 300.0 2.2214 2.2214 0.0 0.0 150.0 0.0 0.0 0.0 0.0 0.0 0.0 0.0 0.0 0.0 0.0 
1.168 -2.0899925388249647 -0.7791309273983695 -2.0831438504767035 4.394540093181359 1.570852907236405 1.570780898810725 -0.6366268196365432 0.265729425009927 -0.04097808681280959 -0.22478733208818413 -0.02452380608429267 -0.6361542986660074 -150.0 -36.05000000000001 300.0 2.2214 2.2214 0.0 0.0 150.0 0.0 0.0 0.0 0.0 0.0 0.0 0.0 0.0 0.0 0.0 
1.176 -2.095663023773847 -0.7783988013649945 -2.0832565139148596 4.3930708889229235 1.5708529938104363 1.570781219895586 -0.6438396591350278 0.26011176393826724 -0.039913122761876314 -0.22023509736119812 -0.02534833761508618 -0.6433404773401982 -150.0 -34.849999999999994 300.0 2.2214 2.2214 0.0 0.0 150.0 0.0 0.0 0.0 0.0 0.0 0.0 0.0 0.0 0.0 0.0 
1.184 -2.1014113213460917 -0.7777478160207991 -2.0833562224722693 4.3916486757191 1.5708530797126907 1.5707815458822476 -0.651039210283929 0.2544595680117309 -0.038872867642129806 -0.2156236188166128 -0.026198352430107177 -0.6505118761560328 -150.0 -33.650000000000006 300.0 2.2214 2.2214 0.0 0.0 150.0 0.0 0.0 0.0 0.0 0.0 0.0 0.0 0.0 0.0 0.0 
1.192 -2.1072379223301625 -0.7771790725638343 -2.083442973307002 4.3902740826923665 1.5708531648713258 1.5707818768078836 -0.6582202178003255 0.24877453340906241 -0.03785652786176464 -0.2109553858563753 -0.027074363180904722 -0.6576631625511223 -150.0 -32.44999999999999 300.0 2.2214 2.2214 0.0 0.0 150.0 0.0 0.0 0.0 0.0 0.0 0.0 0.0 0.0 0.0 0.0 
1.2 -2.1131432825847036 -0.7766936635464354 -2.083516746655554 4.388947709837028 1.5708532492121468 1.570782212707209 -0.665377299719498 0.24305840141616775 -0.03686326349342853 -0.2062329793123904 -0.027976871881741933 -0.664788874044756 -150.0 -31.25 300.0 2.2214 2.2214 0.0 0.0 150.0 0.0 0.0 0.0 0.0 0.0 0.0 0.0 0.0 0.0 0.0 
1.208 -2.119127821257748 -0.7762926714305074 -2.0835775050561587 4.387670126250304 1.5708533326586198 1.5707825536123285 -0.6725049563827575 0.23731295562509166 -0.035892188783246924 -0.2014590681369108 -0.028906368260565887 -0.6718834271660139 -150.0 -30.049999999999983 300.0 2.2214 2.2214 0.0 0.0 150.0 0.0 0.0 0.0 0.0 0.0 0.0 0.0 0.0 0.0 0.0 
1.216 -2.1251919190143616 -0.7759771670911135 -2.083625192578595 4.386441868346699 1.57085341513189 1.5707828995525823 -0.6795975802540433 0.23154001888681383 -0.034942372808783324 -0.19663640569787866 -0.029863328063922934 -0.6789411272167899 -150.0 -28.849999999999994 300.0 2.2214 2.2214 0.0 0.0 150.0 0.0 0.0 0.0 0.0 0.0 0.0 0.0 0.0 0.0 0.0 
1.224 -2.131335916279087 -0.7757482082699383 -2.0836597340637986 4.385263438060453 1.5708534965508094 1.570783250554392 -0.686649466550671 0.22574145002469595 -0.0340128402870143 -0.19176782568497228 -0.03084821132155184 -0.6859561788558161 -150.0 -27.649999999999977 300.0 2.2214 2.2214 0.0 0.0 150.0 0.0 0.0 0.0 0.0 0.0 0.0 0.0 0.0 0.0 0.0 
1.232 -2.1375601114997833 -0.7756068379805074 -2.0836810343767445 4.384135301041244 1.5708535768319651 1.5707836066411063 -0.6936548246667296 0.2199191403176996 -0.03310257253240308 -0.1868562376353914 -0.031861460577003724 -0.6929226974829358 -150.0 -26.44999999999999 300.0 2.2214 2.2214 0.0 0.0 150.0 0.0 0.0 0.0 0.0 0.0 0.0 0.0 0.0 0.0 0.0 
1.24 -2.1438647594397278 -0.7755540828673828 -2.083688977676227 4.383057884848613 1.570853655889725 1.570783967832847 -0.7006077903605399 0.21407500976483068 -0.03221050856411243 -0.18190462209180336 -0.0329034990912651 -0.6998347213957844 -150.0 -25.25 300.0 2.2214 2.2214 0.0 0.0 150.0 0.0 0.0 0.0 0.0 0.0 0.0 0.0 0.0 0.0 0.0 
1.248 -2.150250069504996 -0.7755909515218633 -2.08368342670532 4.382031577150945 1.5708537336362813 1.570784334146356 -0.7075024386703829 0.2082110031446409 -0.03133554636033991 -0.17691602540828782 -0.03397472902692023 -0.7066862246838405 -150.0 -24.049999999999983 300.0 2.2214 2.2214 0.0 0.0 150.0 0.0 0.0 0.0 0.0 0.0 0.0 0.0 0.0 0.0 0.0 
1.256 -2.1567162041143435 -0.7757184327570807 -2.0836642221064334 4.381056723935135 1.570853809981709 1.5707847055948445 -0.7143327975154484 0.20232908588595241 -0.030476544256668205 -0.17189355422355967 -0.035075529620974155 -0.7134711308175596 -150.0 -22.849999999999994 300.0 2.2214 2.2214 0.0 0.0 150.0 0.0 0.0 0.0 0.0 0.0 0.0 0.0 0.0 0.0 0.0 
1.264 -2.1632632771189035 -0.7759374938457042 -2.083631181764981 4.380133627733374 1.5708538848340303 1.5707850821878424 -0.7210928619317636 0.1964312397682885 -0.02963232248424132 -0.16684036962413643 -0.03620625535492719 -0.7201833268831014 -150.0 -21.649999999999977 300.0 2.2214 2.2214 0.0 0.0 150.0 0.0 0.0 0.0 0.0 0.0 0.0 0.0 0.0 0.0 0.0 
1.272 -2.1698913522791097 -0.7762490787238159 -2.0835841001858006 4.379262545873748 1.5708539580992888 1.5707854639310537 -0.7277766088857706 0.19051945847273705 -0.02880166484250321 -0.16175968102344118 -0.03736723413120138 -0.7268166784060541 -150.0 -20.44999999999999 300.0 2.2214 2.2214 0.0 0.0 150.0 0.0 0.0 0.0 0.0 0.0 0.0 0.0 0.0 0.0 0.0 
1.28 -2.1766004418062797 -0.7766541061648695 -2.083522747906503 4.378443688761594 1.570854029681626 1.5707858508262122 -0.7343780126014133 0.18459574300608741 -0.02798332050019002 -0.15665473978597957 -0.038558765465396425 -0.7333650447007537 -150.0 -19.24999999999997 300.0 2.2214 2.2214 0.0 0.0 150.0 0.0 0.0 0.0 0.0 0.0 0.0 0.0 0.0 0.0 0.0 
1.288 -2.183390504976294 -0.7771534679279779 -2.0834468709520078 4.377677218198796 1.5708540994833786 1.570786242870944 -0.7408910603300738 0.178662097023076 -0.027176005917254567 -0.1515288326287599 -0.039781118704197566 -0.7398222946752153 -150.0 -18.049999999999983 300.0 2.2214 2.2214 0.0 0.0 150.0 0.0 0.0 0.0 0.0 0.0 0.0 0.0 0.0 0.0 0.0 
1.296 -2.190261446822716 -0.7777480268851082 -2.083356190334526 4.3769632457483585 1.5708541674051744 1.5707866400586332 -0.747309768486634 0.17272052207339145 -0.026378406879466135 -0.14638527483484287 -0.041034531279029694 -0.7461823230156363 -150.0 -16.849999999999994 300.0 2.2214 2.2214 0.0 0.0 150.0 0.0 0.0 0.0 0.0 0.0 0.0 0.0 0.0 0.0 0.0 
1.304 -2.1972131169166045 -0.7784386151320977 -2.083250401603249 4.376301831151755 1.5708542333460376 1.5707870423782941 -0.7536281990694068 0.1667730128016699 -0.025589180636539543 -0.14122740331640046 -0.042319207005758246 -0.7524390666688211 -150.0 -15.649999999999977 300.0 2.2214 2.2214 0.0 0.0 150.0 0.0 0.0 0.0 0.0 0.0 0.0 0.0 0.0 0.0 0.0 
1.312 -2.204245308240085 -0.7792260320887188 -2.083129174447967 4.375692980806704 1.5708542972035104 1.5707874498144492 -0.7598404762767406 0.16082155213008864 -0.02480695813386317 -0.13605856956682316 -0.04363531444079725 -0.7585865215359205 -150.0 -14.449999999999989 300.0 2.2214 2.2214 0.0 0.0 150.0 0.0 0.0 0.0 0.0 0.0 0.0 0.0 0.0 0.0 0.0 
1.32 -2.211357756160521 -0.7801110425933073 -2.0829921523607737 4.375136646313006 1.5708543588737736 1.5707878623470142 -0.7659408032289305 0.1548681064542276 -0.024030346327202884 -0.13088213254314945 -0.04498298530405191 -0.7646187592866303 -150.0 -13.249999999999972 300.0 2.2214 2.2214 0.0 0.0 150.0 0.0 0.0 0.0 0.0 0.0 0.0 0.0 0.0 0.0 0.0 
1.328 -2.2185501375118486 -0.7810943749977768 -2.082838952359901 4.374632723094203 1.570854418251782 1.5707882799511914 -0.7719234787006293 0.14891462088366336 -0.023257930569172604 -0.12570145152149803 -0.04636231297899634 -0.7705299441994997 -150.0 -12.049999999999983 300.0 2.2214 2.2214 0.0 0.0 150.0 0.0 0.0 0.0 0.0 0.0 0.0 0.0 0.0 0.0 0.0 
1.336 -2.225822069789295 -0.782176719269088 -2.0826691647796087 4.374181049102731 1.5708544752314082 1.5707887025973706 -0.7777829137664019 0.14296301455922322 -0.022488277055810656 -0.1205198789690771 -0.047773351100037484 -0.7763143499313784 -150.0 -10.849999999999966 300.0 2.2214 2.2214 0.0 0.0 150.0 0.0 0.0 0.0 0.0 0.0 0.0 0.0 0.0 0.0 0.0 
1.344 -2.2331731104633126 -0.7833587251034966 -2.082482353129871 4.373781403616198 1.5708545297055898 1.5707891302510397 -0.783513648260458 0.13701517607894062 -0.021719935321262186 -0.11534075347680695 -0.049216112237027924 -0.7819663761173444 -150.0 -9.649999999999977 300.0 2.2214 2.2214 0.0 0.0 150.0 0.0 0.0 0.0 0.0 0.0 0.0 0.0 0.0 0.0 0.0 
1.352 -2.24060275641812 -0.7846410000601041 -2.082278054029397 4.373433506132313 1.5708545815664887 1.5707895628727044 -0.7891103669509542 0.1310729590645102 -0.02095144076837209 -0.11016739279654196 -0.050690566686405765 -0.7874805647017267 -150.0 -8.44999999999996 300.0 2.2214 2.2214 0.0 0.0 150.0 0.0 0.0 0.0 0.0 0.0 0.0 0.0 0.0 0.0 0.0 
1.36 -2.248110443519749 -0.7860241077204453 -2.082055777215288 4.3731370153697835 1.5708546307056555 1.5707900004178181 -0.7945679153295845 0.12513817789945494 -0.020181317222939154 -0.10500308702634809 -0.05219664137798514 -0.7928516159010682 -150.0 -7.249999999999972 300.0 2.2214 2.2214 0.0 0.0 150.0 0.0 0.0 0.0 0.0 0.0 0.0 0.0 0.0 0.0 0.0 
1.368 -2.2556955463179476 -0.787508565880982 -2.0818150056323512 4.372891528382329 1.5708546770142011 1.5707904428367239 -0.7998813149185969 0.11921260366923794 -0.019408079499461883 -0.0998510919862269 -0.05373421890583394 -0.7980744037012122 -150.0 -6.049999999999983 300.0 2.2214 2.2214 0.0 0.0 150.0 0.0 0.0 0.0 0.0 0.0 0.0 0.0 0.0 0.0 0.0 
1.376 -2.2633573778857254 -0.7890948447855215 -2.08155519560478 4.372696579792668 1.5708547203829792 1.5707908900746066 -0.8050457779997755 0.1132979603322188 -0.01863023596642617 -0.09471462282513535 -0.0553031366910148 -0.8031439907929736 -150.0 -4.849999999999966 300.0 2.2214 2.2214 0.0 0.0 150.0 0.0 0.0 0.0 0.0 0.0 0.0 0.0 0.0 0.0 0.0 
1.384 -2.2710951897996767 -0.7907833654046312 -2.081275777092586 4.37255164115297 1.5708547607027659 1.5707913420714574 -0.8100567216733544 0.10739592114867585 -0.0178462910995478 -0.08959684789808892 -0.056903186283248364 -0.8080556428542044 -150.0 -3.6499999999999773 300.0 2.2214 2.2214 0.0 0.0 150.0 0.0 0.0 0.0 0.0 0.0 0.0 0.0 0.0 0.0 0.0 
1.392 -2.278908172263594 -0.7925744977692171 -2.0809761540347544 4.372456120437984 1.570854797864454 1.5707917987620503 -0.8149097811592728 0.10150810539307009 -0.017054748011856427 -0.08450088294964503 -0.05853411280768782 -0.8128048420903695 -150.0 -2.44999999999996 300.0 2.2214 2.2214 0.0 0.0 150.0 0.0 0.0 0.0 0.0 0.0 0.0 0.0 0.0 0.0 0.0 
1.4 -2.2867954543771694 -0.7944685593654102 -2.0806557047807472 4.372409361676531 1.570854831759246 1.5707922600759323 -0.8196008222585071 0.09563607537240372 -0.01625411095012421 -0.07942978563709535 -0.060195614562146 -0.8173872999509932 -150.0 -1.2499999999999716 300.0 2.2214 2.2214 0.0 0.0 150.0 0.0 0.0 0.0 0.0 0.0 0.0 0.0 0.0 0.0 0.0 
1.408 -2.2947561045508906 -0.7964658135978864 -2.0803137826114964 4.372410644726642 1.5708548622788545 1.5707927259374257 -0.824125952898521 0.08978133377084745 -0.015442887747838429 -0.07438655042334487 -0.06188734276914168 -0.8217989689455101 -150.0 -0.05000000000001137 300.0 2.2214 2.2214 0.0 0.0 150.0 0.0 0.0 0.0 0.0 0.0 0.0 0.0 0.0 0.0 0.0 
1.416 3.980396176112085 -0.7985664683286915 -2.0799497163506127 4.372459185199087 1.570854889315703 1.570793196265644 -0.8284815336938397 0.08394532133796333 -0.014619592225742502 -0.06937410386576243 -0.06360890148612441 -0.8260360534889154 -150.0 1.1500000000000057 300.0 2.2214 2.2214 0.0 0.0 150.0 0.0 0.0 0.0 0.0 0.0 0.0 0.0 0.0 0.0 0.0 
1.424 3.97229182438992 -0.8007706744985041 -2.0795628110660465 4.372554134533463 1.5708549127631382 1.5707936709745223 -0.832664187460609 0.07812941493466664 -0.013782746531831726 -0.06439530032326954 -0.06535984767621761 -0.8300950197153584 -150.0 2.3499999999999943 300.0 2.2214 2.2214 0.0 0.0 150.0 0.0 0.0 0.0 0.0 0.0 0.0 0.0 0.0 0.0 0.0 
1.432 3.9641172571668646 -0.8030785248371322 -2.079152348861948 4.37269458023044 1.5708549325156282 1.57079414997286 -0.8366708076323126 0.07233492594782208 -0.0129308834136677 -0.059452918099666276 -0.06713969144072039 -0.8339726042060208 -150.0 3.5500000000000114 300.0 2.2214 2.2214 0.0 0.0 150.0 0.0 0.0 0.0 0.0 0.0 0.0 0.0 0.0 0.0 0.0 
1.44 3.9558736417189078 -0.8054900526698341 -2.0787175897599774 4.372879546243096 1.57085494846898 1.5707946331643783 -0.8404985655327477 0.06656309908087722 -0.012062548416837278 -0.05454965603679557 -0.06894789641356917 -0.8376658215864415 -150.0 4.75 300.0 2.2214 2.2214 0.0 0.0 150.0 0.0 0.0 0.0 0.0 0.0 0.0 0.0 0.0 0.0 0.0 
1.448 3.947562201756708 -0.8080052308258043 -2.0782577726687945 4.3731079935296275 1.570854960520544 1.5707951204477917 -0.8441449164716301 0.06081511152443301 -0.011176302004429407 -0.04968813056654266 -0.07078388031682012 -0.8411719709576365 -150.0 5.950000000000017 300.0 2.2214 2.2214 0.0 0.0 150.0 0.0 0.0 0.0 0.0 0.0 0.0 0.0 0.0 0.0 0.0 
1.456 3.9391842161515678 -0.8106239706549028 -2.0777721164399408 4.373378820769002 1.5708549685694266 1.570795611716892 -0.8476076046377242 0.055092072507060934 -0.01027072159341573 -0.04487087322610331 -0.07264701567519241 -0.8444886411347688 -150.0 7.150000000000006 300.0 2.2214 2.2214 0.0 0.0 150.0 0.0 0.0 0.0 0.0 0.0 0.0 0.0 0.0 0.0 0.0 
1.464 3.9307410175280495 -0.8133461211583475 -2.077259821007818 4.373690865240424 1.570854972516698 1.5707961068606477 -0.8508846667740965 0.049395023223109985 -0.0093444035048482 -0.040100328636339215 -0.07453663068661952 -0.8476137146767555 -150.0 8.350000000000023 300.0 2.2214 2.2214 0.0 0.0 150.0 0.0 0.0 0.0 0.0 0.0 0.0 0.0 0.0 0.0 0.0 
1.472 3.92223399072789 -0.8161714682387444 -2.076720068610936 4.374042903866701 1.5708549722655938 1.570796605763316 -0.8539744346298024 0.04372493713072055 -0.00839596482577464 -0.03537885293853125 -0.07645201024476617 -0.8505453706998248 -150.0 9.550000000000011 300.0 2.2214 2.2214 0.0 0.0 150.0 0.0 0.0 0.0 0.0 0.0 0.0 0.0 0.0 0.0 0.0 
1.48 3.9136645711505107 -0.8190997340744275 -2.0761520250911194 4.374433654420912 1.5708549677217247 1.5707971083045675 -0.8568755361918606 0.03808272060987234 -0.007424045181718965 -0.03070871268052152 -0.07839239710846457 -0.8532820864775049 -150.0 10.75 300.0 2.2214 2.2214 0.0 0.0 150.0 0.0 0.0 0.0 0.0 0.0 0.0 0.0 0.0 0.0 0.0 
1.488 3.9050342429760327 -0.822130576622619 -2.075554841266844 4.374861776894944 1.5708549587932736 1.5707976143596243 -0.859586895710789 0.03246921396700859 -0.006427308419467073 -0.02609208413902551 -0.08035699321213464 -0.8558226378388848 -150.0 11.950000000000017 300.0 2.2214 2.2214 0.0 0.0 150.0 0.0 0.0 0.0 0.0 0.0 0.0 0.0 0.0 0.0 0.0 
1.496 3.8963445372772374 -0.8252635892554547 -2.074927654376426 4.375325875027741 1.5708549453911902 1.570798123799411 -0.8621077325419663 0.026885192769722385 -0.005404444200705106 -0.0215310530610625 -0.08234496111037806 -0.858166098385926 -150.0 13.150000000000006 300.0 2.2214 2.2214 0.0 0.0 150.0 0.0 0.0 0.0 0.0 0.0 0.0 0.0 0.0 0.0 0.0 
1.504 3.887597030027433 -0.8284983005324138 -2.074269589586308 4.375824497990342 1.5708549274293804 1.5707986364907163 -0.8644375588336735 0.021331369492146573 -0.004354169507789904 -0.017027614803862612 -0.08435542554915335 -0.8603118375591469 -150.0 14.350000000000023 300.0 2.2214 2.2214 0.0 0.0 150.0 0.0 0.0 0.0 0.0 0.0 0.0 0.0 0.0 0.0 0.0 
1.512 3.878793340011635 -0.8318341741121493 -2.0735797615592855 4.3763561422240125 1.5708549048248917 1.5707991522963676 -0.8665761761007001 0.015808395449121777 -0.0032752300635648037 -0.012583674849412892 -0.08638747515525598 -0.8622595175890013 -150.0 15.550000000000011 300.0 2.2214 2.2214 0.0 0.0 150.0 0.0 0.0 0.0 0.0 0.0 0.0 0.0 0.0 0.0 0.0 
1.52 3.869935126648868 -0.8352706088061499 -2.0728572760770954 4.376919253427052 1.5708548774980906 1.5707996710754153 -0.8685236707298395 0.01031686299493235 -0.0021664016676653576 -0.008201049666987145 -0.0884401642351721 -0.8640090893776932 -150.0 16.75000000000003 300.0 2.2214 2.2214 0.0 0.0 150.0 0.0 0.0 0.0 0.0 0.0 0.0 0.0 0.0 0.0 0.0 
1.528 3.861024087733748 -0.838806938776079 -2.0721012317114487 4.377512228685108 1.5708548453728295 1.5708001926833275 -0.8702804084702938 0.004857307960456853 -0.0010264914521887318 -0.0038814678946301234 -0.09051251467389043 -0.8655607873628477 -150.0 17.950000000000017 300.0 2.2214 2.2214 0.0 0.0 150.0 0.0 0.0 0.0 0.0 0.0 0.0 0.0 0.0 0.0 0.0 
1.536 3.852061957105754 -0.842442433876041 -2.071310721537245 4.37813341873917 1.5708548083766125 1.5708007169721945 -0.8718470279680061 -0.0005697876990441219 0.00014566094009018195 0.0003734281913518072 -0.09260351792376706 -0.8669151234204721 -150.0 19.150000000000006 300.0 2.2214 2.2214 0.0 0.0 150.0 0.0 0.0 0.0 0.0 0.0 0.0 0.0 0.0 0.0 0.0 
1.544 3.8430505022548784 -0.8461763001403879 -2.070484834881431 4.378781130384678 1.5708547664407422 1.5708012437909418 -0.8732244334081122 -0.00596399307452958 0.0013511822515510938 0.004562080951339659 -0.0947121370732472 -0.8680728798698049 -150.0 20.350000000000023 300.0 2.2214 2.2214 0.0 0.0 150.0 0.0 0.0 0.0 0.0 0.0 0.0 0.0 0.0 0.0 0.0 
1.552 3.833991521872434 -0.8500076804170722 -2.0696226591007267 4.379453628994627 1.5708547195004687 1.570801772985551 -0.8744137863340493 -0.011324925322104667 0.002591164576119433 0.008683015435191777 -0.09683730898494544 -0.8690351016470447 -150.0 21.55000000000001 300.0 2.2214 2.2214 0.0 0.0 150.0 0.0 0.0 0.0 0.0 0.0 0.0 0.0 0.0 0.0 0.0 
1.56 3.8248868433559666 -0.8539356551458854 -2.0687232813812266 4.380149141158846 1.570854667495119 1.5708023043992887 -0.8754164967154106 -0.01665224656073329 0.0038666643927063467 0.01273483724686277 -0.09897794649246411 -0.869803087718516 -150.0 22.75000000000003 300.0 2.2214 2.2214 0.0 0.0 150.0 0.0 0.0 0.0 0.0 0.0 0.0 0.0 0.0 0.0 0.0 
1.568 3.8157383202772137 -0.8579592432803174 -2.067785790552758 4.3808658574311625 1.5708546103682202 1.570802837872939 -0.8762342133392702 -0.021945660679377553 0.005178701662296649 0.016716230254874443 -0.10113294064525111 -0.8703783818065226 -150.0 23.950000000000017 300.0 2.2214 2.2214 0.0 0.0 150.0 0.0 0.0 0.0 0.0 0.0 0.0 0.0 0.0 0.0 0.0 
1.576 3.806547829822054 -0.8620774033511109 -2.066809278910747 4.381601935175594 1.5708545480676157 1.5708033732450457 -0.8768688136015784 -0.02720491008402592 0.0065282589854545265 0.020625954182330805 -0.1033011629907972 -0.870762762503063 -150.0 25.150000000000034 300.0 2.2214 2.2214 0.0 0.0 150.0 0.0 0.0 0.0 0.0 0.0 0.0 0.0 0.0 0.0 0.0 
1.584 3.797317270211333 -0.8662890346689469 -2.0657928440383113 4.382355501502223 1.5708544805455582 1.5708039103521552 -0.8773223927762656 -0.03242977241456621 0.007916280817270756 0.024462842109414382 -0.10548146788362042 -0.8709582328476833 -150.0 26.350000000000023 300.0 2.2214 2.2214 0.0 0.0 150.0 0.0 0.0 0.0 0.0 0.0 0.0 0.0 0.0 0.0 0.0 
1.592 3.788048558111288 -0.8705929786631148 -2.0647355906212743 4.383124656283086 1.5708544077588078 1.570804449029065 -0.8775972528399165 -0.03762005726062545 0.009343672737109005 0.02822579792010141 -0.10767269481060283 -0.8709670094460501 -150.0 27.55000000000001 300.0 2.2214 2.2214 0.0 0.0 150.0 0.0 0.0 0.0 0.0 0.0 0.0 0.0 0.0 0.0 0.0 
1.6 3.7787436260421625 -0.8749880203523737 -2.0636366322488477 4.383907475237916 1.570854329668703 1.5708049891090745 -0.8776958909294315 -0.04277560290437063 0.010811300770859763 0.03191379372340314 -0.10987367072256643 -0.8707915112054418 -150.0 28.75000000000003 300.0 2.2214 2.2214 0.0 0.0 150.0 0.0 0.0 0.0 0.0 0.0 0.0 0.0 0.0 0.0 0.0 
1.608 3.7694044197933394 -0.8794728899436466 -2.0624950931928097 4.384702013079391 1.5708542462412307 1.5708055304242379 -0.8776209875089123 -0.0478962731168838 0.012319990763849086 0.03552586727757039 -0.1120832123622369 -0.8704343477622882 -150.0 29.950000000000017 300.0 2.2214 2.2214 0.0 0.0 150.0 0.0 0.0 0.0 0.0 0.0 0.0 0.0 0.0 0.0 0.0 
1.616 3.7600328958530893 -0.8840462645536227 -2.0613101101581517 4.385506306707218 1.5708541574470787 1.5708060728056177 -0.8773753943201988 -0.05298195403307745 0.01387052780297073 0.03906111944366987 -0.11430012857914762 -0.8698983076751485 -150.0 31.150000000000034 300.0 2.2214 2.2214 0.0 0.0 150.0 0.0 0.0 0.0 0.0 0.0 0.0 0.0 0.0 0.0 0.0 
1.624 3.7506310188606955 -0.888706770047806 -2.060080833998337 4.386318378440233 1.570854063261675 1.5708066160835386 -0.8769621221891281 -0.05803255112828049 0.015463655687077695 0.04251871169261441 -0.11652322262247422 -0.8691863464542811 -150.0 32.35000000000002 300.0 2.2214 2.2214 0.0 0.0 150.0 0.0 0.0 0.0 0.0 0.0 0.0 0.0 0.0 0.0 0.0 
1.632 3.7412007590883904 -0.8934529829910449 -2.058806431388545 4.387136239275547 1.5708539636652212 1.5708071600878406 -0.876384328756688 -0.06304798631760615 0.01710007644512732 0.0458978636872547 -0.11875129440323874 -0.8683015744961462 -150.0 33.55000000000004 300.0 2.2214 2.2214 0.0 0.0 150.0 0.0 0.0 0.0 0.0 0.0 0.0 0.0 0.0 0.0 0.0 
1.64 3.731744089960173 -0.8982834327030882 -2.0574860864505293 4.3879578921637075 1.570853858642708 1.57080770464813 -0.875645306200958 -0.06802819519705244 0.018780449902017896 0.04919785095854857 -0.12098314271786711 -0.8672472449880267 -150.0 34.75000000000003 300.0 2.2214 2.2214 0.0 0.0 150.0 0.0 0.0 0.0 0.0 0.0 0.0 0.0 0.0 0.0 0.0 
1.648 3.7222629856141545 -0.9031966034123187 -2.0561190023230376 4.388781335288856 1.5708537481839226 1.5708082495940294 -0.8747484690119723 -0.07297312444300294 0.0205053932924894 0.0524180026920905 -0.12321756742560894 -0.8660267418442829 -150.0 35.950000000000045 300.0 2.2214 2.2214 0.0 0.0 150.0 0.0 0.0 0.0 0.0 0.0 0.0 0.0 0.0 0.0 0.0 
1.656 3.7127594185146897 -0.9081909365003602 -2.0547044026720522 4.389604565342879 1.5708536322834397 1.5708087947554226 -0.8736973418777313 -0.07788272938446944 0.022275480923855995 0.05555769963857616 -0.12545337157289374 -0.864643567731983 -150.0 37.150000000000034 300.0 2.2214 2.2214 0.0 0.0 150.0 0.0 0.0 0.0 0.0 0.0 0.0 0.0 0.0 0.0 0.0 
1.664 3.703235357120078 -0.9132648328299724 -2.0532415331354996 4.390425580782701 1.570853510940607 1.5708093399626972 -0.872495547735256 -0.0827569717600051 0.02409124388870327 0.05861637215898326 -0.1276893634583059 -0.8631013322394097 -150.0 38.35000000000002 300.0 2.2214 2.2214 0.0 0.0 150.0 0.0 0.0 0.0 0.0 0.0 0.0 0.0 0.0 0.0 0.0 
1.672 3.693692763611194 -0.9184166551482695 -2.0517296626974613 4.391242385060011 1.570853384159515 1.5708098850469816 -0.8711467960362694 -0.08759581766883939 0.025953169828988407 0.061593498412587495 -0.1299243586324319 -0.8614037402367576 -150.0 39.55000000000001 300.0 2.2214 2.2214 0.0 0.0 150.0 0.0 0.0 0.0 0.0 0.0 0.0 0.0 0.0 0.0 0.0 
1.68 3.6841335916859297 -0.9236447305570894 -2.05016808498734 4.392052989812938 1.5708532519489589 1.5708104298403769 -0.8696548712724854 -0.09239923572338746 0.02786170275325054 0.06448860269324497 -0.13215718182745792 -0.8595545804738405 -150.0 40.75 300.0 2.2214 2.2214 0.0 0.0 150.0 0.0 0.0 0.0 0.0 0.0 0.0 0.0 0.0 0.0 0.0 
1.688 3.6745597844238667 -0.928947353042108 -2.0485561194998847 4.392855418009518 1.5708531143223856 1.5708109741761833 -0.8680236218009441 -0.0971671954079535 0.02981724290883174 0.06730125391686496 -0.13438666881196593 -0.8575577144551865 -150.0 41.95000000000002 300.0 2.2214 2.2214 0.0 0.0 150.0 0.0 0.0 0.0 0.0 0.0 0.0 0.0 0.0 0.0 0.0 
1.696 3.6649732722251214 -0.9343227860521099 -2.046893112732417 4.3936477070330335 1.570852971297835 1.5708115178891195 -0.8662569490052657 -0.10189966564620866 0.031820146711165946 0.07003106426058123 -0.13661166816701328 -0.8554170656284532 -150.0 43.150000000000006 300.0 2.2214 2.2214 0.0 0.0 150.0 0.0 0.0 0.0 0.0 0.0 0.0 0.0 0.0 0.0 0.0 
1.704 3.655375970826845 -0.9397692651197547 -2.0451784392360888 4.394427911699795 1.5708528228978722 1.5708120608155351 -0.8643587968241169 -0.10659661357782688 0.033870726732261165 0.07267768795188179 -0.13883104298012303 -0.8531366089175986 -150.0 44.349999999999994 300.0 2.2214 2.2214 0.0 0.0 150.0 0.0 0.0 0.0 0.0 0.0 0.0 0.0 0.0 0.0 0.0 
1.712 3.6457697794003963 -0.9452850005150575 -2.043411502578477 4.395194107200263 1.5708526691495033 1.5708126027936153 -0.8623331416737696 -0.11125800354263778 0.03596925175051939 0.0752408202039142 -0.14104367245440902 -0.8507203606279589 -150.0 45.55000000000001 300.0 2.2214 2.2214 0.0 0.0 150.0 0.0 0.0 0.0 0.0 0.0 0.0 0.0 0.0 0.0 0.0 
1.72 3.63615657873174 -0.9508681799228378 -2.041591736215292 4.395944391954946 1.5708525100840907 1.5708131436635782 -0.8601839827872928 -0.11588379626872941 0.038115946864005865 0.07772019629126901 -0.14324845343059198 -0.8481723687461014 -150.0 46.75 300.0 2.2214 2.2214 0.0 0.0 150.0 0.0 0.0 0.0 0.0 0.0 0.0 0.0 0.0 0.0 0.0 
1.728 3.626538229487183 -0.9565169711353825 -2.0397186042694853 4.396676890376957 1.570852345737256 1.5708136832678634 -0.857915332988759 -0.1204739482591814 0.04031099366916361 0.08011559075893555 -0.145444301820217 -0.8454967036532876 -150.0 47.95000000000002 300.0 2.2214 2.2214 0.0 0.0 150.0 0.0 0.0 0.0 0.0 0.0 0.0 0.0 0.0 0.0 0.0 
1.736 3.61691657056614 -0.962229524751669 -2.037791602216494 4.397389755533688 1.5708521761487764 1.570814221451311 -0.8555312099168804 -0.12502841137048543 0.04255453050681292 0.08242681675563943 -0.1476301539488617 -0.842697449267474 -150.0 49.150000000000006 300.0 2.2214 2.2214 0.0 0.0 150.0 0.0 0.0 0.0 0.0 0.0 0.0 0.0 0.0 0.0 0.0 
1.744 3.607293417542178 -0.9680039768746198 -2.035810257474872 4.398081171700619 1.5708520013624698 1.5708147580613334 -0.8530356277087011 -0.12954713257429398 0.04484665277706557 0.08465372548157213 -0.14980496780860658 -0.8397786946250817 -150.0 50.35000000000002 300.0 2.2214 2.2214 0.0 0.0 150.0 0.0 0.0 0.0 0.0 0.0 0.0 0.0 0.0 0.0 0.0 
1.752 3.597670561193213 -0.9738384517980139 -2.033774129901997 4.398749356800862 1.5708518214260832 1.5708152929480765 -0.8504325891504608 -0.13403005389286998 0.047187413324523635 0.08679620573950748 -0.15196772421951785 -0.8367445259103226 -150.0 51.55000000000001 300.0 2.2214 2.2214 0.0 0.0 150.0 0.0 0.0 0.0 0.0 0.0 0.0 0.0 0.0 0.0 0.0 
1.76 3.5880497661213386 -0.9797310646749153 -2.0316828121950086 4.399392564724638 1.5708516363911615 1.570815825964571 -0.8477260782994283 -0.13847711249752717 0.04957682289482336 0.08885418357754311 -0.15411742790029057 -0.8335990189366185 -150.0 52.75000000000003 300.0 2.2214 2.2214 0.0 0.0 150.0 0.0 0.0 0.0 0.0 0.0 0.0 0.0 0.0 0.0 0.0 
1.768 3.578432769462398 -0.9856799241597147 -2.0295359301975804 4.400009087523588 1.5708514463129233 1.5708163569668756 -0.8449200535774606 -0.14288824095845873 0.0520148506632609 0.0908276220111135 -0.15625310844857662 -0.8303462320816734 -150.0 53.95000000000002 300.0 2.2214 2.2214 0.0 0.0 150.0 0.0 0.0 0.0 0.0 0.0 0.0 0.0 0.0 0.0 0.0 
1.776 3.568821279685088 -0.991683135016173 -2.0273331431135353 4.400597257475352 1.5708512512501234 1.5708168858142093 -0.8420184413342704 -0.14726336763362477 0.05450142483585621 0.09271652081159645 -0.15837382123193763 -0.8269901996750296 -150.0 55.150000000000006 300.0 2.2214 2.2214 0.0 0.0 150.0 0.0 0.0 0.0 0.0 0.0 0.0 0.0 0.0 0.0 0.0 
1.784 3.5592169754790492 -0.9977388006841843 -2.0250741436287316 4.401155449014595 1.5708510512649143 1.5708174123690741 -0.8390251298758158 -0.15160241718381412 0.05703643332282863 0.0945209163486507 -0.16047864819063704 -0.8235349258344276 -150.0 56.35000000000002 300.0 2.2214 2.2214 0.0 0.0 150.0 0.0 0.0 0.0 0.0 0.0 0.0 0.0 0.0 0.0 0.0 
1.792 3.549621504731097 -1.0038450257983298 -2.022758657943019 4.401682080527278 1.5708508464227031 1.5708179364973687 -0.8359439639509834 -0.15590531120063209 0.059619724484053574 0.09624088147346443 -0.16256669855381956 -0.8199843787450793 -150.0 57.55000000000001 300.0 2.2214 2.2214 0.0 0.0 150.0 0.0 0.0 0.0 0.0 0.0 0.0 0.0 0.0 0.0 0.0 
1.8 3.5400364835884863 -1.0099999186516713 -2.020386445714414 4.402175616005584 1.5708506367920079 1.57081845806849 -0.8327787396876936 -0.1601719689339348 0.06225110794565265 0.09787652543028154 -0.1646371094708971 -0.8163424853739591 -150.0 58.75000000000003 300.0 2.2214 2.2214 0.0 0.0 150.0 0.0 0.0 0.0 0.0 0.0 0.0 0.0 0.0 0.0 0.0 
1.808 3.5304634956078416 -1.016201593598645 -2.0179572999179936 4.402634566561645 1.5708504224443058 1.5708189769554288 -0.8295331999677718 -0.16440230810516265 0.0649303554864465 0.0994279937839353 -0.16668904656017805 -0.8126131266094645 -150.0 59.95000000000002 300.0 2.2214 2.2214 0.0 0.0 150.0 0.0 0.0 0.0 0.0 0.0 0.0 0.0 0.0 0.0 0.0 
1.816 3.520904090988148 -1.0224481733913482 -2.015471046622285 4.403057491798771 1.570850203453883 1.570819493034851 -0.8262110302284033 -0.16859624579311774 0.06765720199259902 0.10089546835159606 -0.16872170437702202 -0.8088001328152783 -150.0 61.150000000000034 300.0 2.2214 2.2214 0.0 0.0 150.0 0.0 0.0 0.0 0.0 0.0 0.0 0.0 0.0 0.0 0.0 
1.824 3.511359785886007 -1.0287377914439415 -2.012927544686226 4.403443001039562 1.5708499798976825 1.5708200061871738 -0.8228158546766615 -0.1727536993789193 0.07043134647836444 0.10227916712756013 -0.17073430680395835 -0.8049072797859812 -150.0 62.35000000000002 300.0 2.2214 2.2214 0.0 0.0 150.0 0.0 0.0 0.0 0.0 0.0 0.0 0.0 0.0 0.0 0.0 
1.832 3.5018320618111547 -1.035068594020378 -2.010326685379999 4.403789754410847 1.5708497518551503 1.5708205162966289 -0.8193512329024882 -0.1768745875372026 0.07325245317046457 0.10357934419061798 -0.17272610736539978 -0.8009382850908199 -150.0 63.55000000000001 300.0 2.2214 2.2214 0.0 0.0 150.0 0.0 0.0 0.0 0.0 0.0 0.0 0.0 0.0 0.0 0.0 
1.84 3.492322365100091 -1.0414387423411053 -2.0076683919332785 4.404096463786039 1.570849519408081 1.570821023251319 -0.8158206568746298 -0.18095883126106704 0.07612015265325231 0.10479628958434976 -0.17469638946967425 -0.7968968047912112 -150.0 64.75000000000003 300.0 2.2214 2.2214 0.0 0.0 150.0 0.0 0.0 0.0 0.0 0.0 0.0 0.0 0.0 0.0 0.0 
1.848 3.48283210646552 -1.0478464146048796 -2.0049526190146048 4.404361893586003 1.5708492826404625 1.5708215269432633 -0.8122275483033113 -0.1850063549087962 0.07903404307147131 0.10593032916156336 -0.17664446658125643 -0.7927864305168048 -150.0 65.95000000000002 300.0 2.2214 2.2214 0.0 0.0 150.0 0.0 0.0 0.0 0.0 0.0 0.0 0.0 0.0 0.0 0.0 
1.856 3.4733626606191668 -1.0542898079223244 -2.0021793521457654 4.404584861440122 1.5708490416383198 1.5708220272684357 -0.8085752563528779 -0.1890170872609773 0.08199369138710119 0.1069818243850145 -0.17856968232613094 -0.788610686884381 -150.0 67.15000000000003 300.0 2.2214 2.2214 0.0 0.0 150.0 0.0 0.0 0.0 0.0 0.0 0.0 0.0 0.0 0.0 0.0 
1.864 3.463915365965444 -1.0607671401583123 -1.999348607055191 4.404764238709729 1.5708487964895659 1.5708225241267937 -0.8048670556873067 -0.1929909625773423 0.08499863468649914 0.10795117207751093 -0.18047141053329702 -0.7843730292435335 -150.0 68.35000000000002 300.0 2.2214 2.2214 0.0 0.0 150.0 0.0 0.0 0.0 0.0 0.0 0.0 0.0 0.0 0.0 0.0 
1.872 3.4544915243633465 -1.0672766516807513 -1.9964604289744843 4.4048989508765555 1.5708485472838467 1.5708230174222986 -0.8011061448312164 -0.19692792164335474 0.08804838153377965 0.1088388041154997 -0.1823490552155037 -0.7800768417327668 -150.0 69.55000000000001 300.0 2.2214 2.2214 0.0 0.0 150.0 0.0 0.0 0.0 0.0 0.0 0.0 0.0 0.0 0.0 0.0 
1.88 3.445092400953894 -1.0738166070138058 -1.9935148918822696 4.4049879777993155 1.570848294112385 1.5708235070629288 -0.7972956448289567 -0.20082791279736106 0.09114241336616445 0.10964518706121769 -0.18420205049227079 -0.7757254356296123 -150.0 70.75000000000006 300.0 2.2214 2.2214 0.0 0.0 150.0 0.0 0.0 0.0 0.0 0.0 0.0 0.0 0.0 0.0 0.0 
1.888 3.4357192240503536 -1.0803852963940734 -1.9905120976995994 4.405030353841957 1.5708480370678406 1.5708239929606846 -0.7934385981843403 -0.20469089292992793 0.09428018592686745 0.11037082172944963 -0.1860298604583313 -0.7713220479782876 -150.0 71.95000000000005 300.0 2.2214 2.2214 0.0 0.0 150.0 0.0 0.0 0.0 0.0 0.0 0.0 0.0 0.0 0.0 0.0 
1.896 3.426373185088493 -1.0869810372286333 -1.9874521754411818 4.405025167877448 1.5708477762441517 1.5708244750315852 -0.789537968063788 -0.20851682844780073 0.0974611307308961 0.11101624268597914 -0.18783197900058932 -0.7668698404786282 -150.0 73.15000000000003 300.0 2.2214 2.2214 0.0 0.0 150.0 0.0 0.0 0.0 0.0 0.0 0.0 0.0 0.0 0.0 0.0 
1.904 3.4170554386340246 -1.0936021754543788 -1.984335280326691 4.404971563171401 1.570847511736399 1.5708249531956604 -0.7855966377457975 -0.21230569619576986 0.10068465655909747 0.1115820176756556 -0.1896079295666724 -0.7623718986201257 -150.0 74.35000000000002 300.0 2.2214 2.2214 0.0 0.0 150.0 0.0 0.0 0.0 0.0 0.0 0.0 0.0 0.0 0.0 0.0 
1.912 3.407767102444452 -1.1002470867984129 -1.9811615928564026 4.404868737150043 1.5708472436406604 1.5708254273769324 -0.7816174103000498 -0.2160574843305504 0.10395015097565885 0.1120687469790021 -0.19135726488815594 -0.7578312310452696 -150.0 75.55000000000001 300.0 2.2214 2.2214 0.0 0.0 150.0 0.0 0.0 0.0 0.0 0.0 0.0 0.0 0.0 0.0 0.0 
1.92 3.3985092575824822 -1.1069141779397045 -1.9779313178553468 4.404715941057384 1.5708469720538678 1.5708258975033953 -0.7776030084797924 -0.21977219314162205 0.10725698186427249 0.11247706269709325 -0.1930795666614751 -0.7532507691266934 -150.0 76.75 300.0 2.2214 2.2214 0.0 0.0 150.0 0.0 0.0 0.0 0.0 0.0 0.0 0.0 0.0 0.0 0.0 
1.928 3.3892829485782086 -1.1136018875725942 -1.974644683490107 4.404512479506667 1.5708466970736767 1.570826363506984 -0.7735560748116033 -0.22344983581478 0.11060449897817397 0.11280762796523505 -0.1947744451894774 -0.748633366743044 -150.0 77.94999999999999 300.0 2.2214 2.2214 0.0 0.0 150.0 0.0 0.0 0.0 0.0 0.0 0.0 0.0 0.0 0.0 0.0 
1.936 3.3800891836372804 -1.1203086873730679 -1.9713019402623195 4.404257709931308 1.57084641879833 1.5708268253235411 -0.7694791718671474 -0.22709043913493301 0.11399203549928594 0.11306113609677079 -0.1964415389865682 -0.7439818002389638 -150.0 79.14999999999998 300.0 2.2214 2.2214 0.0 0.0 150.0 0.0 0.0 0.0 0.0 0.0 0.0 0.0 0.0 0.0 0.0 
1.944 3.370928934892312 -1.1270330828690747 -1.9679033599828182 4.403951041940828 1.570846137326529 1.5708272828927765 -0.7653747827020471 -0.23069404412544436 0.1174189096017883 0.11323830965897448 -0.19808051435025226 -0.7392987685550517 -150.0 80.35000000000002 300.0 2.2214 2.2214 0.0 0.0 150.0 0.0 0.0 0.0 0.0 0.0 0.0 0.0 0.0 0.0 0.0 
1.952 3.3618031386948224 -1.1337736142164658 -1.9644492347302576 4.403591936587272 1.5708458527573097 1.5708277361582221 -0.7612453114475881 -0.23426070662203693 0.12088442601552644 0.11333989948364813 -0.1996910649018755 -0.734586893514223 -150.0 81.55000000000001 300.0 2.2214 2.2214 0.0 0.0 150.0 0.0 0.0 0.0 0.0 0.0 0.0 0.0 0.0 0.0 0.0 
1.96 3.352712695945039 -1.1405288568824234 -1.9609398757979282 4.4031799055477965 1.5708455651899196 1.5708281850671821 -0.7570930840415515 -0.23779049777996147 0.12438787758479929 0.11336668361558201 -0.20127291109925682 -0.7298487202514067 -150.0 82.75 300.0 2.2214 2.2214 0.0 0.0 150.0 0.0 0.0 0.0 0.0 0.0 0.0 0.0 0.0 0.0 0.0 
1.968 3.343658472456969 -1.1472974222385068 -1.9573756126323223 4.402714510229134 1.5708452747237016 1.5708286295706786 -0.7529203490850918 -0.24128350451377165 0.12792854681822569 0.11331946620252113 -0.20282579972380904 -0.7250867177741294 -150.0 83.94999999999999 300.0 2.2214 2.2214 0.0 0.0 150.0 0.0 0.0 0.0 0.0 0.0 0.0 0.0 0.0 0.0 0.0 
1.976 3.3346412993561882 -1.154077958065682 -1.9537567917668788 4.402195360799679 1.5708449814579777 1.5708290696233935 -0.7487292788131991 -0.24473982986964302 0.13150570742555726 0.11319907633071247 -0.204349503344693 -0.7203032796420827 -150.0 85.15000000000003 300.0 2.2214 2.2214 0.0 0.0 150.0 0.0 0.0 0.0 0.0 0.0 0.0 0.0 0.0 0.0 0.0 
1.984 3.32566197350786 -1.160869148973925 -1.950083775754154 4.4016221151549395 1.5708446854919442 1.5708295051836063 -0.7445219701669092 -0.24815959333072476 0.13511862583751744 0.11300636681043512 -0.2058438197624233 -0.7155007247543768 -150.0 86.35000000000002 300.0 2.2214 2.2214 0.0 0.0 150.0 0.0 0.0 0.0 0.0 0.0 0.0 0.0 0.0 0.0 0.0 
1.992 3.3167212579725867 -1.1676697167391583 -1.9463569420995233 4.40099447782208 1.5708443869245643 1.5708299362131286 -0.7403004459560657 -0.25154293105650427 0.1387665627049378 0.11274221291623417 -0.20730857143427395 -0.7106812982337612 -150.0 87.55000000000001 300.0 2.2214 2.2214 0.0 0.0 150.0 0.0 0.0 0.0 0.0 0.0 0.0 0.0 0.0 0.0 0.0 
2.0 3.3078198824877516 -1.17447842056046 -1.9425766821993316 4.400312198809219 1.570844085854465 1.5708303626772355 -0.7360666561020622 -0.25488999605762724 0.14244877437371375 0.11240751108677363 -0.20874360488372906 -0.7058471723976952 -150.0 88.75 300.0 2.2214 2.2214 0.0 0.0 150.0 0.0 0.0 0.0 0.0 0.0 0.0 0.0 0.0 0.0 0.0 
2.008 3.298958543972083 -1.1812940572406245 -1.9387434002862385 4.399575072405076 1.5708437823798496 1.5708307845445946 -0.7318224789506056 -0.2582009583080068 0.14616451433233202 0.11200317758938447 -0.2101487900961224 -0.7010004478067028 -150.0 89.94999999999999 300.0 2.2214 2.2214 0.0 0.0 150.0 0.0 0.0 0.0 0.0 0.0 0.0 0.0 0.0 0.0 0.0 
2.016 3.2901379070512773 -1.1881154612932578 -1.9348575123843348 4.398782935934443 1.570843476598396 1.570831201787191 -0.7275697226451727 -0.26147600479641664 0.14991303462896496 0.11153014715452732 -0.2115240199025369 -0.6961431543810476 -150.0 91.15000000000003 300.0 2.2214 2.2214 0.0 0.0 150.0 0.0 0.0 0.0 0.0 0.0 0.0 0.0 0.0 0.0 0.0 
2.024 3.281358604602565 -1.194941504979708 -1.930919445276413 4.397935668474888 1.5708431686071727 1.5708316143802523 -0.7233101265523966 -0.26471533952005577 0.15369358725539795 0.1109893715853738 -0.21286920935388595 -0.6912772525772882 -150.0 92.35000000000002 300.0 2.2214 2.2214 0.0 0.0 150.0 0.0 0.0 0.0 0.0 0.0 0.0 0.0 0.0 0.0 0.0 
2.032 3.2726212383162023 -1.2017710982791947 -1.9269296354856014 4.39703318953989 1.570842858502559 1.5708320223021701 -0.7190453627312295 -0.2679191834228583 0.15750542549531601 0.11038181834775787 -0.2141842950870723 -0.686404634616839 -150.0 93.55000000000001 300.0 2.2214 2.2214 0.0 0.0 150.0 0.0 0.0 0.0 0.0 0.0 0.0 0.0 0.0 0.0 0.0 
2.04 3.263926379271968 -1.208603188795538 -1.9228885282733996 4.3960754577334935 1.5708425463801652 1.5708324255344197 -0.7147770374382826 -0.271087774281503 0.16134780523471653 0.10970846914569587 -0.21546923468495854 -0.6815271257591805 -150.0 94.75 300.0 2.2214 2.2214 0.0 0.0 150.0 0.0 0.0 0.0 0.0 0.0 0.0 0.0 0.0 0.0 0.0 
2.048 3.2552745685287996 -1.215436761603959 -1.9187965766559625 4.395062469381402 1.5708422323347533 1.5708328240614793 -0.710506692662281 -0.2742213665422785 0.16521998623250717 0.10897031848756811 -0.21672400603183825 -0.6766464856128651 -150.0 95.95000000000005 300.0 2.2214 2.2214 0.0 0.0 150.0 0.0 0.0 0.0 0.0 0.0 0.0 0.0 0.0 0.0 0.0 
2.056 3.2466663177258033 -1.22227083904141 -1.9146542404403055 4.393994257143232 1.5708419164601746 1.5708332178707476 -0.7062358076810998 -0.2773202311120837 0.16912123334959686 0.10816837224792374 -0.21794860666596128 -0.6717644094779536 -150.0 97.15000000000003 300.0 2.2214 2.2214 0.0 0.0 150.0 0.0 0.0 0.0 0.0 0.0 0.0 0.0 0.0 0.0 0.0 
2.064 3.23810210969296 -1.2291044804439037 -1.9104619852819447 4.392870888610455 1.5708415988492965 1.5708336069524604 -0.701965800635357 -0.2803846551069366 0.1730508177350338 0.10730364622974958 -0.2191430531306121 -0.6668825297139942 -150.0 98.35000000000002 300.0 2.2214 2.2214 0.0 0.0 150.0 0.0 0.0 0.0 0.0 0.0 0.0 0.0 0.0 0.0 0.0 
2.072 3.229582399069917 -1.2359367818342986 -1.9062202817653007 4.391692464894385 1.5708412795939481 1.5708339912996065 -0.6976980301130006 -0.2834149415614333 0.17700801796802065 0.10637716473179391 -0.2203073803251165 -0.6620024171280916 -150.0 99.55000000000001 300.0 2.2214 2.2214 0.0 0.0 150.0 0.0 0.0 0.0 0.0 0.0 0.0 0.0 0.0 0.0 0.0 
2.08 3.2211076129313527 -1.2427668755639463 -1.9019296045080496 4.390459119208303 1.5708409587848564 1.5708343709078427 -0.6934337967398229 -0.28641140910262813 0.1809921211548542 0.10538995912538876 -0.22144164085709914 -0.6571255823780574 -150.0 100.75 300.0 2.2214 2.2214 0.0 0.0 150.0 0.0 0.0 0.0 0.0 0.0 0.0 0.0 0.0 0.0 0.0 
2.088 3.2126781514174696 -1.2495939299116028 -1.8975904312904266 4.389171015447657 1.570840636511597 1.570834745775409 -0.6891743447712064 -0.2893743915917999 0.18500242398009833 0.10434306644491123 -0.2225459043971885 -0.6522534773860057 -150.0 101.95000000000005 300.0 2.2214 2.2214 0.0 0.0 150.0 0.0 0.0 0.0 0.0 0.0 0.0 0.0 0.0 0.0 0.0 
2.096 3.2042943883682584 -1.2564171486428977 -1.8932032422103546 4.387828346772022 1.57084031286254 1.570835115903044 -0.6849208636809011 -0.29230423773755604 0.18903823371150666 0.10323752799583483 -0.223620257037316 -0.647387496758194 -150.0 103.15000000000003 300.0 2.2214 2.2214 0.0 0.0 150.0 0.0 0.0 0.0 0.0 0.0 0.0 0.0 0.0 0.0 0.0 
2.104 3.195956671960242 -1.26323577053364 -1.8887685188651107 4.3864313341922845 1.5708399879248123 1.5708354812938994 -0.6806744897429412 -0.295201310683675 0.19309886915845287 0.10207438798399533 -0.22466480065365818 -0.6425289792072155 -150.0 104.35000000000002 300.0 2.2214 2.2214 0.0 0.0 150.0 0.0 0.0 0.0 0.0 0.0 0.0 0.0 0.0 0.0 0.0 
2.112 3.1876653253445113 -1.2700490688601138 -1.8842867435601147 4.3849802251663155 1.5708396617842433 1.570835841953455 -0.6764363076032491 -0.29806598757500263 0.19718366158379066 0.10085469216949322 -0.22567965227519401 -0.6376792089730486 -150.0 105.55000000000001 300.0 2.2214 2.2214 0.0 0.0 150.0 0.0 0.0 0.0 0.0 0.0 0.0 0.0 0.0 0.0 0.0 
2.12 3.1794206472848936 -1.2768563508594815 -1.8797583985452837 4.3834752922061435 1.5708393345253402 1.5708361978894347 -0.6722073518377636 -0.30089865910466385 0.20129195556932727 0.09957948654827424 -0.2266649434587832 -0.632839417239737 -150.0 106.75000000000006 300.0 2.2214 2.2214 0.0 0.0 150.0 0.0 0.0 0.0 0.0 0.0 0.0 0.0 0.0 0.0 0.0 
2.128 3.1712229127952187 -1.283656957163271 -1.8751839652792737 4.3819168314994545 1.5708390062312416 1.5708365491117229 -0.6679886084942964 -0.30369972904570686 0.20542310983519793 0.09824981606425688 -0.22762081967158196 -0.6280107835448306 -150.0 107.95000000000005 300.0 2.2214 2.2214 0.0 0.0 150.0 0.0 0.0 0.0 0.0 0.0 0.0 0.0 0.0 0.0 0.0 
2.136 3.1630723737746678 -1.2904502612068671 -1.8705639237218112 4.3803051615480015 1.5708386769836915 1.57083689563228 -0.6637810166156003 -0.3064696137702234 0.20957649801367503 0.09686672335448587 -0.22854743968155625 -0.6231944371789627 -150.0 109.15000000000003 300.0 2.2214 2.2214 0.0 0.0 150.0 0.0 0.0 0.0 0.0 0.0 0.0 0.0 0.0 0.0 0.0 
2.144 3.154969259640297 -1.2972356686177906 -1.8658987516542067 4.37864062182529 1.570838346863011 1.570837237465061 -0.659585469741434 -0.3092087417588255 0.21375150937804893 0.0954312475295737 -0.2294449749567869 -0.6183914585732245 -150.0 110.35000000000002 300.0 2.2214 2.2214 0.0 0.0 150.0 0.0 0.0 0.0 0.0 0.0 0.0 0.0 0.0 0.0 0.0 
2.152 3.1469137779558727 -1.3040126165854637 -1.861188924028041 4.376923571455729 1.5708380159480702 1.5708375746259335 -0.6554028173876592 -0.31191755310324687 0.21794754952739523 0.09394442299137905 -0.23031360907418083 -0.6136028806722414 -150.0 111.55000000000001 300.0 2.2214 2.2214 0.0 0.0 150.0 0.0 0.0 0.0 0.0 0.0 0.0 0.0 0.0 0.0 0.0 
2.16 3.1389061150562134 -1.310780573215037 -1.8564349123419062 4.375154387917198 1.5708376843162717 1.5708379071325975 -0.6512338665006672 -0.31459649900468806 0.22216404102816836 0.09240727828959698 -0.23115353713815315 -0.6088296902910912 -150.0 112.75000000000006 300.0 2.2214 2.2214 0.0 0.0 150.0 0.0 0.0 0.0 0.0 0.0 0.0 0.0 0.0 0.0 0.0 
2.168 3.1309464366663224 -1.3175390368677302 -1.8516371840460144 4.373333465768771 1.570837352043525 1.5708382350045056 -0.6470793828856568 -0.31724604127037137 0.22640042401367436 0.09082083501868599 -0.23196496520980145 -0.6040728294544101 -150.0 113.95000000000005 300.0 2.2214 2.2214 0.0 0.0 150.0 0.0 0.0 0.0 0.0 0.0 0.0 0.0 0.0 0.0 0.0 
2.176 3.1230348885146104 -1.3242875354900598 -1.846796201974382 4.371461215405221 1.570837019204234 1.5708385582627846 -0.642940092607486 -0.31986665181063245 0.23065615674260898 0.08918610675625994 -0.23274810974698806 -0.5993331967162476 -150.0 115.15000000000003 300.0 2.2214 2.2214 0.0 0.0 150.0 0.0 0.0 0.0 0.0 0.0 0.0 0.0 0.0 0.0 0.0 
2.184 3.115171596939603 -1.3310256259341555 -1.8419124238042357 4.369538061839634 1.5708366858712837 1.570838876930159 -0.6388166833630398 -0.32245881213871364 0.23493071611791677 0.08750409804386267 -0.23350319705575534 -0.5946116484593943 -150.0 116.35000000000002 300.0 2.2214 2.2214 0.0 0.0 150.0 0.0 0.0 0.0 0.0 0.0 0.0 0.0 0.0 0.0 0.0 
2.192 3.1073566694895614 -1.337752893271301 -1.8369863015422152 4.36756444351537 1.5708363521160285 1.5708391910308745 -0.6347098058242185 -0.32502301287527935 0.2392235981673403 0.08577580341077495 -0.2342304627534097 -0.5899090001731065 -150.0 117.55000000000001 300.0 2.2214 2.2214 0.0 0.0 150.0 0.0 0.0 0.0 0.0 0.0 0.0 0.0 0.0 0.0 0.0 
2.2 3.0995901955144927 -1.3444689501006866 -1.832018281036878 4.3655408111483975 1.5708360180082817 1.570839500590626 -0.6306200749508247 -0.32755975325951625 0.24353431848708448 0.08400220644129358 -0.2349301512435628 -0.5852260277082829 -150.0 118.75000000000006 300.0 2.2214 2.2214 0.0 0.0 150.0 0.0 0.0 0.0 0.0 0.0 0.0 0.0 0.0 0.0 0.0 
2.208 3.09187224675009 -1.3511734358552534 -1.8270088015169639 4.363467626600886 1.5708356836163138 1.5708398056364812 -0.6265480712727797 -0.3300695406685382 0.24786241265010237 0.08218427888569031 -0.23560251520338737 -0.5805634685093101 -150.0 119.95000000000005 300.0 2.2214 2.2214 0.0 0.0 150.0 0.0 0.0 0.0 0.0 0.0 0.0 0.0 0.0 0.0 0.0 
2.216 3.084202877893172 -1.3578660161064118 -1.821958295154816 4.3613453617867375 1.5708353490068467 1.5708401061968131 -0.62249434214124 -0.332552890146668 0.2522074365805599 0.08032297981487255 -0.23624781508331175 -0.5759220228219146 -150.0 121.15000000000003 300.0 2.2214 2.2214 0.0 0.0 150.0 0.0 0.0 0.0 0.0 0.0 0.0 0.0 0.0 0.0 0.0 
2.224 3.0765821271682503 -1.3645463818692658 -1.816867186654326 4.359174497609675 1.570835014245049 1.570840402301228 -0.6184594029483141 -0.33501032394602076 0.2565689668960729 0.07841925481857737 -0.2368663186192979 -0.5713023548765006 -150.0 122.35000000000002 300.0 2.2214 2.2214 0.0 0.0 150.0 0.0 0.0 0.0 0.0 0.0 0.0 0.0 0.0 0.0 0.0 
2.232 3.0690100168848833 -1.3712142489099115 -1.8117358928627074 4.356955522934285 1.5708346793945407 1.570840693980498 -0.6144437383151897 -0.33744237107968883 0.26094660121937563 0.0764740352467304 -0.23745830035785057 -0.5667050940465415 -150.0 123.55000000000007 300.0 2.2214 2.2214 0.0 0.0 150.0 0.0 0.0 0.0 0.0 0.0 0.0 0.0 0.0 0.0 0.0 
2.24 3.0614865539855227 -1.377869357056232 -1.8065648224053947 4.354688933590328 1.5708343445173925 1.5708409812664956 -0.6104478032485959 -0.339849566888681 0.2653399584610757 0.07448823749348178 -0.2380240411938549 -0.5621308359817128 -150.0 124.75000000000006 300.0 2.2214 2.2214 0.0 0.0 150.0 0.0 0.0 0.0 0.0 0.0 0.0 0.0 0.0 0.0 0.0 
2.248 3.054011730583588 -1.3845114695135339 -1.8013543753433114 4.3523752314105 1.5708340096741351 1.5708412641921274 -0.6064720242656113 -0.34223245262365737 0.26974867907520733 0.07246276232323363 -0.23856382792129271 -0.5575801437155378 -150.0 125.95000000000005 300.0 2.2214 2.2214 0.0 0.0 150.0 0.0 0.0 0.0 0.0 0.0 0.0 0.0 0.0 0.0 0.0 
2.256 3.0465855244915545 -1.3911403721862463 -1.7961049428517444 4.350014923301686 1.5708336749237568 1.5708415427912723 -0.6025168004869248 -0.3445915750423676 0.27417242528927643 0.07039849423789077 -0.2390779527968941 -0.553053548747404 -150.0 127.15000000000003 300.0 2.2214 2.2214 0.0 0.0 150.0 0.0 0.0 0.0 0.0 0.0 0.0 0.0 0.0 0.0 0.0 
2.264 3.0392078997388547 -1.397755873006826 -1.7908169069200297 4.347608520349697 1.5708333403237165 1.5708418170987197 -0.5985825046987253 -0.3469274860235996 0.27861088131053563 0.06829630088438578 -0.23956671311670377 -0.5485515520988923 -150.0 128.35000000000002 300.0 2.2214 2.2214 0.0 0.0 150.0 0.0 0.0 0.0 0.0 0.0 0.0 0.0 0.0 0.0 0.0 
2.272 3.031878807079436 -1.4043578012729094 -1.7854906400712416 4.345156536957338 1.5708330059299522 1.5708420871501092 -0.5946694843834642 -0.349240742198327 0.28306375351020463 0.06615703250146358 -0.2400304108055498 -0.5440746253444132 -150.0 129.55000000000007 300.0 2.2214 2.2214 0.0 0.0 150.0 0.0 0.0 0.0 0.0 0.0 0.0 0.0 0.0 0.0 0.0 
2.28 3.02459818448885 -1.4109460069936524 -1.7801265051010655 4.342659490015555 1.57083267179689 1.5708423529818742 -0.5907780627198107 -0.3515319045986521 0.2875307705873583 0.0639815214045963 -0.24046935201937475 -0.5396232116162251 -150.0 130.75000000000006 300.0 2.2214 2.2214 0.0 0.0 150.0 0.0 0.0 0.0 0.0 0.0 0.0 0.0 0.0 0.0 0.0 
2.288 3.017365957650763 -1.4175203602461344 -1.774724854835028 4.340117898107369 1.5708323379774567 1.5708426146311845 -0.5869085395521523 -0.3538015383250438 0.2920116837142096 0.0617705815078006 -0.2408838467603501 -0.5351977265839504 -150.0 131.95000000000005 300.0 2.2214 2.2214 0.0 0.0 150.0 0.0 0.0 0.0 0.0 0.0 0.0 0.0 0.0 0.0 0.0 
2.296 3.0101820404328183 -1.4240807505425979 -1.7692860319032406 4.337532280744211 1.5708320045230915 1.5708428721358918 -0.5830611923300589 -0.35605021223228245 0.29650626666448276 0.059525007881075016 -0.2412742085046822 -0.5307985594087695 -150.0 133.15000000000003 300.0 2.2214 2.2214 0.0 0.0 150.0 0.0 0.0 0.0 0.0 0.0 0.0 0.0 0.0 0.0 0.0 
2.304 3.0030463353517933 -1.4306270862092334 -1.7638103685318274 4.334903157634176 1.570831671483764 1.5708431255344781 -0.5792362770181649 -0.3582784986344496 0.30101431592658556 0.057245576342082286 -0.24164075384300526 -0.5264260736725007 -150.0 134.35000000000008 300.0 2.2214 2.2214 0.0 0.0 150.0 0.0 0.0 0.0 0.0 0.0 0.0 0.0 0.0 0.0 0.0 
2.312 2.9959587340280294 -1.437159293777125 -1.758298186350193 4.332231047981679 1.5708313389079824 1.570843374866003 -0.5754340289769588 -0.3604869730292172 0.3055356508032428 0.05493304308068112 -0.24198380213323056 -0.5220806082818324 -150.0 135.55 300.0 2.2214 2.2214 0.0 0.0 150.0 0.0 0.0 0.0 0.0 0.0 0.0 0.0 0.0 0.0 0.0 
2.32 2.988919117629111 -1.4436773173859363 -1.7527497962132876 4.329516469817956 1.5708310068428137 1.5708436201700555 -0.5716546638149982 -0.362676213841641 0.3100701134992718 0.05258814431481407 -0.2423036751657038 -0.5177624783479879 -150.0 136.75 300.0 2.2214 2.2214 0.0 0.0 150.0 0.0 0.0 0.0 0.0 0.0 0.0 0.0 0.0 0.0 0.0 
2.328 2.9819273573028218 -1.4501811182008026 -1.7471654980380484 4.326759939361738 1.570830675333906 1.5708438614867062 -0.5678983782131042 -0.36484680218758475 0.3146175691991216 0.05021159597626725 -0.24260069684051835 -0.5134719760421527 -150.0 137.95 300.0 2.2214 2.2214 0.0 0.0 150.0 0.0 0.0 0.0 0.0 0.0 0.0 0.0 0.0 0.0 0.0 
2.336 2.9749833145994002 -1.4566706738428712 -1.741545580653178 4.323961970409455 1.5708303444254943 1.5708440988564605 -0.5641653507211059 -0.36699932165685817 0.31917790613579716 0.047804093424770384 -0.24287519285680928 -0.5092093714270105 -150.0 139.14999999999998 300.0 2.2214 2.2214 0.0 0.0 150.0 0.0 0.0 0.0 0.0 0.0 0.0 0.0 0.0 0.0 0.0 
