Fleaurent/UniversalRobot/csv/robolib_movel_x400_Singular.csv
timestamp target_q_0 target_q_1 target_q_2 target_q_3 target_q_4 target_q_5 target_qd_0 target_qd_1 target_dq_2 target_qd_3 target_qd_4 target_qd_5 target_TCP_pose_0 target_TCP_pose_1 target_TCP_pose_2 target_TCP_pose_3 target_TCP_pose_4 target_TCP_pose_5 target_TCP_speed_0 target_TCP_speed_1 target_TCP_speed_2 target_TCP_speed_3 target_TCP_speed_4 target_TCP_speed_5 target_TCP_acc_0 target_TCP_acc_1 target_TCP_acc_2 target_TCP_acc_3 target_TCP_acc_4 target_TCP_acc_5
0.0 -0.5325564462264847 -1.595267091148341 -1.9351178277208148 0.3887636286132983 2.103514506141045 -0.00013977898740433916 -1.3357957807658276 3.146720762458496 0.9966395082103483 2.418588120052196 -1.5770183296911444e+16 1.5770183296911442e+16 200.0 -200.0 400.0 2.4186 -2.4185 2.4185 0.0 0.0 0.0 0.0 0.0 0.0 0.0 1000.0 0.0 0.0 0.0 0.0 
0.008 -0.5324208250519904 -1.5951391347010322 -1.9352496397794192 0.38876704455610067 2.103378884967877 -0.0001397678130313183 -1.5681141160361096 2.6782419672867928 1.6969892000997535 2.4185279378532556 2.2147034511548588e+16 -2.2147034511548584e+16 200.0 -199.968 400.0 2.4186 -2.4185 2.4185 0.0 8.0 0.0 0.0 0.0 0.0 0.0 1000.0 0.0 0.0 0.0 0.0 
0.016 -0.5320137704061803 -1.594755231905445 -1.9356449891760668 0.38877935482496184 2.102971830326041 -0.00013973430032161943 -1.5834565295958813 2.6467450269531545 1.7439738252066552 2.418595625806575 -1.0489834145366338e+16 1.0489834145366344e+16 200.0 -199.872 400.0 2.4186 -2.4185 2.4185 0.0 16.0 0.0 0.0 0.0 0.0 0.0 1000.0 0.0 0.0 0.0 0.0 
0.024 -0.5313347083331683 -1.5941152822313018 -1.9363036155795625 0.38879780582576906 2.102292768259656 -0.00013967848055173741 -1.6423975296888056 2.524973155496369 1.9229418430151388 2.4186093142188847 -1.2085136492172956e+16 1.2085136492172958e+16 200.0 -199.712 400.0 2.4186 -2.4185 2.4185 0.0 24.0 0.0 0.0 0.0 0.0 0.0 1000.0 0.0 0.0 0.0 0.0 
0.032 -0.5303826802740335 -1.593219117564007 -1.9372250851244561 0.3888236592395753 2.1013407402098023 -0.00013960040601092495 -1.9687191942522586 1.8650573190794395 2.9080067783783026 2.4185710324626015 -1.9880453172788588e+16 1.988045317278859e+16 200.0 -199.488 400.0 2.4186 -2.4185 2.4185 0.0 32.0 0.0 0.0 0.0 0.0 0.0 1000.0 0.0 0.0 0.0 0.0 
0.04 -0.5291563401085577 -1.5920665013591735 -1.9384087904368557 0.38885476035343736 2.1001144000562677 -0.00013950015024530088 -0.08770372312197505 5.648279102118434 -2.757154495782208 2.4185897392091182 7.93975936261368e+16 -7.93975936261368e+16 200.0 -199.2 400.0 2.4186 -2.4185 2.4185 0.0 40.0 0.0 0.0 0.0 0.0 0.0 1000.0 0.0 0.0 0.0 0.0 
0.048 -0.5276539499944155 -1.5906571274604255 -1.9398539506625834 0.3888913644424088 2.0986120099567325 -0.00013937780840255507 0.7850567710836809 7.3947451110586755 -5.383191772699204 2.41854550757228 -1.1205916058041872e+17 1.1205916058041866e+17 200.0 -198.848 400.0 2.4186 -2.4185 2.4185 0.0 48.0 0.0 0.0 0.0 0.0 0.0 1000.0 0.0 0.0 0.0 0.0 
0.056 -0.5258733749844704 -1.588990618581951 -1.941559611489708 0.3889309920624413 2.0968314349640638 -0.00013923349768025164 -1.2515399118190353 3.291586897654507 0.7559221768896842 2.4185894914520056 -5.843626148514417e+16 5.8436261485144184e+16 200.0 -198.432 400.0 2.4186 -2.4185 2.4185 0.0 56.0 0.0 0.0 0.0 0.0 0.0 1000.0 0.0 0.0 0.0 0.0 
0.064 -0.523812076397185 -1.5870665244577775 -1.9435246451552428 0.388972524636757 2.0947701363967344 -0.00013906735788166169 -1.3644403183626324 3.058553929333155 1.099869165566342 2.4186199785530142 1.1016274210611524e+16 -1.101627421061152e+16 200.0 -197.952 400.0 2.4186 -2.4185 2.4185 0.0 64.0 0.0 0.0 0.0 0.0 0.0 1000.0 0.0 0.0 0.0 0.0 
0.072 -0.5214671039093517 -1.5848843196601865 -1.9457477504235776 0.38901418951279876 2.092425163931545 -0.00013887955208403998 -2.1827307267266676 1.404095613812245 3.569050148325843 2.418674092797299 2.555789481946152e+16 -2.555789481946152e+16 200.0 -197.408 400.0 2.4186 -2.4185 2.4185 0.0 72.00000000000001 0.0 0.0 0.0 0.0 0.0 1000.0 0.0 0.0 0.0 0.0 
0.08 -0.518835086334501 -1.5824434010902837 -1.9482274525220014 0.3890532366336217 2.08979314638204 -0.00013867026742531434 -1.5686789876420237 2.630156226907358 1.7242297927803996 2.4186397274420672 1.4790770145566924e+16 -1.4790770145566916e+16 200.0 -196.8 400.0 2.4186 -2.4185 2.4185 0.0 80.0 0.0 0.0 0.0 0.0 0.0 1000.0 0.0 0.0 0.0 0.0 
0.088 -0.5159122210442737 -1.5797430851442709 -1.9509621030165105 0.389089383580127 2.0868702811198685 -0.00013843971601629418 -2.125609578108226 1.4989543718256662 3.406838540234797 2.4184434925884775 -5.895427800672621e+16 5.895427800672622e+16 200.0 -196.12800000000001 400.0 2.4186 -2.4185 2.4185 0.0 88.0 0.0 0.0 0.0 0.0 0.0 1000.0 0.0 0.0 0.0 0.0 
0.096 -0.512694261983897 -1.5767826045596904 -1.9539498796089336 0.38911723760659545 2.0836523220902716 -0.00013818813598674996 -1.3454278395390595 3.059118797372717 1.062672088326602 2.4185120365280817 2.257728969526296e+16 -2.257728969526295e+16 200.0 -195.392 400.0 2.4186 -2.4185 2.4185 0.0 96.0 0.0 0.0 0.0 0.0 0.0 1000.0 0.0 0.0 0.0 0.0 
0.104 -0.5091765062265203 -1.5735611049466274 -1.957188785834297 0.3891364405138882 2.080134566366417 -0.00013791579267507929 -1.583977455913827 2.567598313947011 1.7871032214894553 2.418579494869018 1.6177779856292352e+16 -1.6177779856292352e+16 200.0 -194.59199999999998 400.0 2.4186 -2.4185 2.4185 0.0 104.00000000000001 0.0 0.0 0.0 0.0 0.0 1000.0 0.0 0.0 0.0 0.0 
0.112 -0.5053537790046518 -1.5700776410097377 -1.9606766506352624 0.389141412962255 2.076311839180827 -0.00013762297997278766 -1.636874286765762 2.448574419434987 1.952780620481756 2.418534931018597 -1.0933701701881858e+16 1.0933701701881862e+16 200.0 -193.728 400.0 2.4186 -2.4185 2.4185 0.0 112.0 0.0 0.0 0.0 0.0 0.0 1000.0 0.0 0.0 0.0 0.0 
0.12 -0.5012204171502344 -1.566331172467998 -1.964411127788396 0.3891305638388465 2.0721784773654623 -0.00013731002183669762 -2.072157811670188 1.5598945769910308 3.270367350465055 2.4184630077483975 -5.657850538500714e+16 5.6578505385007144e+16 200.0 -192.8 400.0 2.4186 -2.4185 2.4185 0.0 120.0 0.0 0.0 0.0 0.0 0.0 1000.0 0.0 0.0 0.0 0.0 
0.128 -0.4967702508680176 -1.5623205596802339 -1.968389695154991 0.3891009973339994 2.0677283111250953 -0.00013697727398368463 -1.8487927624249503 1.995565390656215 2.604710837765382 2.4185514960986447 -1.2223515978152026e+16 1.2223515978152028e+16 200.0 -191.808 400.0 2.4186 -2.4185 2.4185 0.0 128.0 0.0 0.0 0.0 0.0 0.0 1000.0 0.0 0.0 0.0 0.0 
0.136 -0.4919965837598399 -1.5580445589858982 -1.972609653727158 0.38904454556507595 2.062954644061586 -0.00013662512578485996 -1.8179480279343867 2.042564937672388 2.519186906399368 2.4185745193159596 1.5345985398754732e+16 -1.5345985398754732e+16 200.0 -190.752 400.0 2.4186 -2.4185 2.4185 0.0 136.0 0.0 0.0 0.0 0.0 0.0 1000.0 0.0 0.0 0.0 0.0 
0.144 -0.48689217101028337 -1.553501817772236 -1.9770681264378738 0.38896292747196615 2.057850231359542 -0.0001362540023785208 -1.6067349167788563 2.4534851035290006 1.8904822474926455 2.4185897359841464 1.3268039003614232e+16 -1.3268039003614228e+16 200.0 -189.632 400.0 2.4186 -2.4185 2.4185 0.0 144.00000000000003 0.0 0.0 0.0 0.0 0.0 1000.0 0.0 0.0 0.0 0.0 
0.152 -0.48144919563689115 -1.5486908692809447 -1.9817620567017107 0.38884337375609324 2.0524072560365303 -0.00013586436702390655 -0.8925696182520954 3.8747549384264905 -0.25350037172911133 2.4184555506553305 -7.32923609858709e+16 7.329236098587088e+16 200.0 -188.448 400.0 2.4186 -2.4185 2.4185 0.0 152.0 0.0 0.0 0.0 0.0 0.0 1000.0 0.0 0.0 0.0 0.0 
0.16 -0.4756592427008588 -1.5436101271698053 -1.9866882066509717 0.3886996158191991 2.0466173031537767 -0.00013545672372090314 -1.440311392052086 2.7570205322641996 1.4045603923602643 2.4185200924941737 -1.2297615342820584e+16 1.2297615342820588e+16 200.0 -187.2 400.0 2.4186 -2.4185 2.4185 0.0 160.0 0.0 0.0 0.0 0.0 0.0 1000.0 0.0 0.0 0.0 0.0 
0.168 -0.4695132713668544 -1.5382578798475897 -1.9918431550299889 0.388497108324354 2.0404713318759775 -0.00013503162012437384 -1.7872725351809642 2.0416363362628918 2.4584291903059694 2.418557284315975 1.3578074908463626e+16 -1.3578074908463624e+16 200.0 -185.888 400.0 2.4186 -2.4185 2.4185 0.0 168.0 0.0 0.0 0.0 0.0 0.0 1000.0 0.0 0.0 0.0 0.0 
0.176 -0.46300158469356134 -1.5326322846039206 -1.9972232947083508 0.38825712473750684 2.0339596452618554 -0.00013458965078585956 -1.9394088485432956 1.7178952767225046 2.9255872561041603 2.4185249186666358 -1.8436967933857332e+16 1.843696793385734e+16 200.0 -184.512 400.0 2.4186 -2.4185 2.4185 0.0 176.0 0.0 0.0 0.0 0.0 0.0 1000.0 0.0 0.0 0.0 0.0 
0.184 -0.4561137970297455 -1.5267313615598126 -2.0028248297718387 0.3879349189004131 2.0270718576602116 -0.00013413146076005523 -4.157864649046039 -2.754336275553449 9.627379351576735 2.418948244305528 6.010610039703168e+17 -6.010610039703165e+17 200.0 -183.072 400.0 2.4186 -2.4185 2.4185 0.0 184.0 0.0 0.0 0.0 0.0 0.0 1000.0 0.0 0.0 0.0 0.0 
0.192 -0.44883879888438827 -1.5205529874694443 -2.0086437721478587 0.3874779349309767 2.019796859580065 -0.00013365774961885448 -1.859035271127336 1.8430220201158434 2.701044673905808 2.4190651419130362 1.2830521875969296e+16 -1.2830521875969294e+16 200.0 -181.56799999999998 400.0 2.4186 -2.4185 2.4185 0.0 192.0 0.0 0.0 0.0 0.0 0.0 1000.0 0.0 0.0 0.0 0.0 
0.2 -0.4411647191339019 -1.5140948894095019 -2.014675937720117 0.38717817353982564 2.012122779897874 -0.00013316927592198 4.747518042412553 15.166276815962782 -17.24959277296416 2.4184999999999994 -3.137026091785455e+17 3.137026091785454e+17 200.0 -180.0 400.0 2.4186 -2.4185 2.4185 0.0 200.0 0.0 0.0 0.0 0.0 0.0 0.0 0.0 0.0 0.0 0.0 
0.208 -0.4332384060701804 -1.507486984261904 -2.020794936253874 0.38677533508013395 2.0041964669041743 -0.00013267665364685968 -2.028389822837464 1.4629342264154563 3.229396888304328 2.418711201989038 -4.568242428946081e+16 4.568242428946081e+16 200.0 -178.4 400.0 2.4186 -2.4185 2.4185 0.0 200.0 0.0 0.0 0.0 0.0 0.0 0.0 0.0 0.0 0.0 0.0 
0.216 -0.42521401015643456 -1.500860565884619 -2.026877202968175 0.3861473714108934 1.9961720710607962 -0.00013219006255072834 -1.6051498404774227 2.303249492109881 1.9576701600618986 2.418493339337571 1.1294700237689832e+16 -1.1294700237689826e+16 200.0 -176.8 400.0 2.4186 -2.4185 2.4185 0.0 200.0 0.0 0.0 0.0 0.0 0.0 0.0 0.0 0.0 0.0 0.0 
0.224 -0.4170900012000667 -1.4942153132214482 -2.032922636241991 0.38555814656259346 1.98804806217515 -0.00013170966105258253 -1.3154792243617992 2.8740895906130395 1.0873430146484782 2.418451767654492 -1.133008473578897e+16 1.1330084735788974e+16 200.0 -175.2 400.0 2.4186 -2.4185 2.4185 0.0 200.0 0.0 0.0 0.0 0.0 0.0 0.0 0.0 0.0 0.0 0.0 
0.232 -0.4088648262602588 -1.4875509087082222 -2.0389311264062817 0.3849029881266546 1.9798228873064279 -0.00013123561310894046 -1.4696743264246077 2.545535718893154 1.5607290018721225 2.4184598401748443 1.5972569688157408e+16 -1.5972569688157404e+16 200.0 -173.6 400.0 2.4186 -2.4185 2.4185 0.0 200.0 0.0 0.0 0.0 0.0 0.0 0.0 0.0 0.0 0.0 0.0 
0.24 -0.40053690962476374 -1.4808670385078533 -2.044902555759438 0.3841894113527715 1.9714949707423912 -0.00013076808845511456 -1.8181671604439131 1.8214087850629064 2.6245971423746255 2.4183802343266705 -2.8246586442306384e+16 2.8246586442306384e+16 200.0 -172.0 400.0 2.4186 -2.4185 2.4185 0.0 200.0 0.0 0.0 0.0 0.0 0.0 0.0 0.0 0.0 0.0 0.0 
0.248 -0.3921046528151926 -1.47416339276135 -2.0508367985815528 0.3834249910819052 1.963062714004662 -0.00013030726285905407 -1.4082368364517943 2.641536435206694 1.3851931796460346 2.4183615832174805 1.5896294042100512e+16 -1.5896294042100508e+16 200.0 -170.4 400.0 2.4186 -2.4185 2.4185 0.0 200.0 0.0 0.0 0.0 0.0 0.0 0.0 0.0 0.0 0.0 0.0 
0.256 -0.38356643462319795 -1.4674396658554674 -2.056733721147689 0.38260005819813214 1.954524495884903 -0.00012985331838851724 -1.7447747426589566 1.9391616628872592 2.414381987720508 2.418517222395466 1.9526086388233624e+16 -1.952608638823362e+16 200.0 -168.8 400.0 2.4186 -2.4185 2.4185 0.0 200.0 0.0 0.0 0.0 0.0 0.0 0.0 0.0 0.0 0.0 0.0 
0.264 -0.37492061118012665 -1.4606955567077486 -2.062593181740331 0.38171691865303403 1.9458786725144723 -0.00012940644369238694 -0.022526566006333404 5.451000093369038 -2.830189872720247 2.4185624078735644 8.832738613240432e+16 -8.832738613240434e+16 200.0 -167.2 400.0 2.4186 -2.4185 2.4185 0.0 200.0 0.0 0.0 0.0 0.0 0.0 0.0 0.0 0.0 0.0 0.0 
0.272 -0.3661655160628716 -1.4539307690697112 -2.06841503066119 0.38077642531748745 1.9371235774702744 -0.0001289668342969973 -1.6203204758768648 2.165867021285789 2.0454479282238562 2.4183950411667783 1.3708235888425406e+16 -1.3708235888425404e+16 200.0 -165.6 400.0 2.4186 -2.4185 2.4185 0.0 200.0 0.0 0.0 0.0 0.0 0.0 0.0 0.0 0.0 0.0 0.0 
0.28 -0.35729946043883 -1.447145011848996 -2.07419911024257 0.3797772927061196 1.928257521919717 -0.00012853469291840256 -0.8555694938070247 3.728132944555905 -0.2893097488768892 2.4184784592171558 -5.483082901761338e+16 5.483082901761338e+16 200.0 -164.0 400.0 2.4186 -2.4185 2.4185 0.0 200.0 0.0 0.0 0.0 0.0 0.0 0.0 0.0 0.0 0.0 0.0 
0.288 -0.34832073325305757 -1.4403379994513394 -2.0799452548584534 0.37871870740877345 1.919278794807868 -0.0001281102297915819 -1.6174128025072039 2.1460169878203406 2.0447922719416893 2.4183938972315215 1.975085850958698e+16 -1.9750858509586984e+16 200.0 -162.4 400.0 2.4186 -2.4185 2.4185 0.0 200.0 0.0 0.0 0.0 0.0 0.0 0.0 0.0 0.0 0.0 0.0 
0.296 -0.339227601460907 -1.4335094521432614 -2.0856532909355217 0.37760125805686107 1.9101856630900929 -0.00012769366301764636 -2.3353189232098632 0.6482785733791436 4.252063165824538 2.4184117626024375 4.211087818257293e+16 -4.211087818257293e+16 200.0 -160.8 400.0 2.4186 -2.4185 2.4185 0.0 200.0 0.0 0.0 0.0 0.0 0.0 0.0 0.0 0.0 0.0 0.0 
0.304 -0.33001831030963436 -1.4266590964364179 -2.091323036964297 0.3764235479224407 1.9009763720136605 -0.00012728521893018915 -1.437513117568749 2.4957319592525367 1.49792732093787 2.418362889285649 2.0700007029996492e+16 -2.0700007029996496e+16 200.0 -159.2 400.0 2.4186 -2.4185 2.4185 0.0 200.0 0.0 0.0 0.0 0.0 0.0 0.0 0.0 0.0 0.0 0.0 
0.312 -0.32069108367268395 -1.4197866654946207 -2.0969543035106 0.37518464204333735 1.8916491454520297 -0.00012688513248200283 -1.274775371054998 2.826342642475619 0.9975700998536989 2.418300789495922 3.481928479468389e+16 -3.481928479468389e+16 200.0 -157.6 400.0 2.4186 -2.4185 2.4185 0.0 200.0 0.0 0.0 0.0 0.0 0.0 0.0 0.0 0.0 0.0 0.0 
0.32 -0.31124412444057814 -1.412891899564571 -2.1025468932275406 0.37388533450207095 1.8822021862957348 -0.00012649364765347594 -1.100637805549357 3.182026315559072 0.4593627772054589 2.418464673370892 2.004065093435628e+16 -2.004065093435627e+16 200.0 -156.0 400.0 2.4186 -2.4185 2.4185 0.0 200.0 0.0 0.0 0.0 0.0 0.0 0.0 0.0 0.0 0.0 0.0 
0.328 -0.30167561497259054 -1.405974546431418 -2.1081006008682346 0.37252419535152015 1.8726336769040666 -0.0001261110178840769 0.3784242941371605 6.276452371076333 -4.122818065632952 2.4185498160338645 -1.4502724446479587e+17 1.4502724446479587e+17 200.0 -154.4 400.0 2.4186 -2.4185 2.4185 0.0 200.0 0.0 0.0 0.0 0.0 0.0 0.0 0.0 0.0 0.0 0.0 
0.336 -0.2919837176136113 -1.399034361900311 -2.1136152132994734 0.37110154649612914 1.8629417796219274 -0.00012573750652843623 -2.8246849663017883 -0.4546431972271101 5.806209653597017 2.4181803920986944 -5.6249014010805304e+16 5.624901401080531e+16 200.0 -152.8 400.0 2.4186 -2.4185 2.4185 0.0 200.0 0.0 0.0 0.0 0.0 0.0 0.0 0.0 0.0 0.0 0.0 
0.344 -0.28216657528090616 -1.3920711103051797 -2.119090509516551 0.369616291775114 1.8531246373666004 -0.0001253733873386522 -1.7760446430626544 1.7415628794042477 2.5529299866227664 2.418505987274005 -1.5432220207479074e+16 1.543222020747908e+16 200.0 -151.2 400.0 2.4186 -2.4185 2.4185 0.0 200.0 0.0 0.0 0.0 0.0 0.0 0.0 0.0 0.0 0.0 0.0 
0.352 -0.2722223121257157 -1.3850845650460415 -2.1245262606594837 0.36806826795216585 1.843180374289342 -0.00012501894497456316 -0.32378907388091793 4.812112537042535 -1.9777784356144732 2.4185893120656843 -6.405831399126691e+16 6.405831399126691e+16 200.0 -149.6 400.0 2.4186 -2.4185 2.4185 0.0 200.0 0.0 0.0 0.0 0.0 0.0 0.0 0.0 0.0 0.0 0.0 
0.36 -0.2621490342749577 -1.3780745091562123 -2.12992223003084 0.3664568998439408 1.8331070965170868 -0.00012467447554386423 -2.332237518999659 0.5407901523735281 4.296092449052048 2.4184618886635185 5.4339169570889256e+16 -5.433916957088925e+16 200.0 -148.0 400.0 2.4186 -2.4185 2.4185 0.0 200.0 0.0 0.0 0.0 0.0 0.0 0.0 0.0 0.0 0.0 0.0 
0.368 -0.25194483065858764 -1.371040735900873 -2.135278173115419 0.3647818250379826 1.822902892979809 -0.00012434028717408637 -1.7874235846795212 1.6936750078521157 2.591607162347353 2.4183499814866076 -1.446989766231619e+16 1.4469897662316192e+16 200.0 -146.4 400.0 2.4186 -2.4185 2.4185 0.0 200.0 0.0 0.0 0.0 0.0 0.0 0.0 0.0 0.0 0.0 0.0 
0.376 -0.24160777392849142 -1.3639830494085277 -2.140593837602018 0.3630427946841408 1.8125658363294113 -0.0001240167006186103 -1.6607774876152919 1.9584204194834722 2.193045971927648 2.4173925503200753 -8.26945446620488e+16 8.26945446620488e+16 200.0 -144.8 400.0 2.4186 -2.4185 2.4185 0.0 200.0 0.0 0.0 0.0 0.0 0.0 0.0 0.0 0.0 0.0 0.0 
0.384 -0.2311359214751303 -1.3569012653369856 -2.1458689634075205 0.36123887698986823 1.8020939839563748 -0.00012370404989905714 11.133923692765343 29.60738389325899 -38.231749816733746 2.4167318189994083 -1.4250148353801336e+18 1.4250148353801336e+18 200.0 -143.2 400.0 2.4186 -2.4185 2.4185 0.0 200.0 0.0 0.0 0.0 0.0 0.0 0.0 0.0 0.0 0.0 0.0 
0.392 -0.22052731654848845 -1.3497952115755756 -2.151103282703572 0.35937011460090984 1.791485379110704 -0.00012340268298657593 -2.0484233556524334 1.1103088926428164 3.4177580851289453 2.4181588606541777 -2.281788848489781e+16 2.2817888484897816e+16 200.0 -141.6 400.0 2.4186 -2.4185 2.4185 0.0 200.0 0.0 0.0 0.0 0.0 0.0 0.0 0.0 0.0 0.0 0.0 
0.4 -0.20977998949026366 -1.3426647289854334 -2.1562965199460797 0.35743567351048666 1.780738052134117 -0.00012311296252474842 -1.2305077222283245 2.886268834746831 0.8175043951118202 2.4181812245082632 -1.839101518094594e+16 1.839101518094594e+16 200.0 -140.0 400.0 2.4186 -2.4185 2.4185 0.0 200.0 0.0 0.0 0.0 0.0 0.0 0.0 0.0 0.0 0.0 0.0 
0.408 -0.19889195908460255 -1.3355096721797932 -2.161448391907809 0.3554354855471744 1.7698500218107815 -0.0001228352665970445 -1.904847569993593 1.4107181569329272 2.961997582913949 2.418359526254683 1.982125668419505e+16 -1.982125668419504e+16 200.0 -138.4 400.0 2.4186 -2.4185 2.4185 0.0 200.0 0.0 0.0 0.0 0.0 0.0 0.0 0.0 0.0 0.0 0.0 
0.416 -0.1878612340350998 -1.328329910346335 -2.166558607714333 0.3533688679507254 1.7588192968443164 -0.0001225699895419948 -1.553241527604108 2.1814237288002856 1.8340006903120336 2.418179892052935 1.837540411518028e+16 -1.8375404115180276e+16 200.0 -136.8 400.0 2.4186 -2.4185 2.4185 0.0 200.0 0.0 0.0 0.0 0.0 0.0 0.0 0.0 0.0 0.0 0.0 
0.424 -0.1766858145761807 -1.3211253281137878 -2.1716268688836107 0.35123537904214985 1.7476438774691687 -0.00012231754281949998 -1.3896490359784979 2.5456291545899217 1.3013577221765074 2.418175095097288 -1.0871309550874288e+16 1.0871309550874296e+16 200.0 -135.2 400.0 2.4186 -2.4185 2.4185 0.0 200.0 0.0 0.0 0.0 0.0 0.0 0.0 0.0 0.0 0.0 0.0 
0.432 -0.16536369422744124 -1.3138958264651048 -2.1766528693694656 0.34903487847682513 1.7363217572049598 -0.00012207835593197386 -2.7420066275374055 -0.4699676544549636 5.662459716203632 2.4186844094605338 -5.181921817873939e+16 5.181921817873939e+16 200.0 -133.6 400.0 2.4186 -2.4185 2.4185 0.0 200.0 0.0 0.0 0.0 0.0 0.0 0.0 0.0 0.0 0.0 0.0 
0.44 -0.15389286169995176 -1.306641323699697 -2.1816362956092434 0.34676682459999086 1.7248509247627868 -0.00012185287740431501 -1.2616890905989862 2.8425117709722922 0.866933166908225 2.4181946967385453 -1.5320604546933036e+16 1.5320604546933036e+16 200.0 -132.0 400.0 2.4186 -2.4185 2.4185 0.0 200.0 0.0 0.0 0.0 0.0 0.0 0.0 0.0 0.0 0.0 0.0 
0.448 -0.14227130296402213 -1.2993617564473683 -2.1865768265759398 0.3444307774453146 1.713229366112985 -0.00012164157582703099 -1.9499635865704543 1.2956435883623745 3.097795969888819 2.41838949044598 1.5786756143440704e+16 -1.5786756143440702e+16 200.0 -130.4 400.0 2.4186 -2.4185 2.4185 0.0 200.0 0.0 0.0 0.0 0.0 0.0 0.0 0.0 0.0 0.0 0.0 
0.456 -0.13049700348840654 -1.2920570807367768 -2.191474133835075 0.34202648986328854 1.7014550667243369 -0.00012144494096719507 -1.2884159927792829 2.799619320823154 0.9277719186818363 2.418662048128899 -2.995584979206655e+16 2.9955849792066548e+16 200.0 -128.8 400.0 2.4186 -2.4185 2.4185 0.0 200.0 0.0 0.0 0.0 0.0 0.0 0.0 0.0 0.0 0.0 0.0 
0.464 -0.11856795066143722 -1.2847272731214394 -2.196327881606628 0.3395534545814898 1.6895260139852035 -0.00012126348495230385 -1.4065441794494673 2.540677856284087 1.3017850169190959 2.4178860485178406 -2.6629918759716844e+16 2.662991875971685e+16 200.0 -127.19999999999999 400.0 2.4186 -2.4185 2.4185 0.0 200.0 0.0 0.0 0.0 0.0 0.0 0.0 0.0 0.0 0.0 0.0 
0.472 -0.10648213640512094 -1.2773723318665184 -2.201137726832297 0.3370114491147027 1.6774401998176236 -0.00012109774353252949 -1.70646838024706 1.8589134905009705 2.2800244393002744 2.418474437556762 -1.239860492476179e+16 1.2398604924761788e+16 200.0 -125.6 400.0 2.4186 -2.4185 2.4185 0.0 200.0 0.0 0.0 0.0 0.0 0.0 0.0 0.0 0.0 0.0 0.0 
0.48 -0.0942375599937586 -1.26999227819984 -2.2059033192484256 0.33440010894593786 1.6651956234959295 -0.00012094827742732232 -1.3768560755758927 2.631877902458136 1.174296538456413 2.4183290307511074 4.733483207414077e+16 -4.7334832074140776e+16 200.0 -124.0 400.0 2.4186 -2.4185 2.4185 0.0 200.0 0.0 0.0 0.0 0.0 0.0 0.0 0.0 0.0 0.0 0.0 
0.488 -0.08183223108925608 -1.2625871576308785 -2.2106243014648537 0.3317190992938768 1.6527902946820607 -0.00012081567376282652 -1.7143781160171836 1.8553458991222131 2.285903317312192 2.4184543756196573 -1.224991611821514e+16 1.2249916118215142e+16 200.0 -122.4 400.0 2.4186 -2.4185 2.4185 0.0 200.0 0.0 0.0 0.0 0.0 0.0 0.0 0.0 0.0 0.0 0.0 
0.496 -0.06926417300586074 -1.2551570413416822 -2.2153003090500367 0.3289681313269277 1.6402222366902999 -0.00012070054760712378 -1.552684390674167 2.247235752839683 1.730522379367881 2.418187401454039 1.0889238779622608e+16 -1.0889238779622604e+16 200.0 -120.80000000000001 400.0 2.4186 -2.4185 2.4185 0.0 200.0 0.0 0.0 0.0 0.0 0.0 0.0 0.0 0.0 0.0 0.0 
0.504 -0.05653142621768881 -1.2477020276540438 -2.2199309706227153 0.3261469398836989 1.6274894899948003 -0.00012060354361092442 -1.692879460462032 1.9265655940299773 2.1888456828626586 2.418370488658451 -1.379803322506245e+16 1.3798033225062452e+16 200.0 -119.2 400.0 2.4186 -2.4185 2.4185 0.0 200.0 0.0 0.0 0.0 0.0 0.0 0.0 0.0 0.0 0.0 0.0 
0.512 -0.04363205212305532 -1.2402222435775418 -2.224515907950452 0.3232552943379412 1.6145901159939156 -0.00012052533776198622 -1.2776360538199374 2.937260495726672 0.7616803217586703 2.418280852346287 4.149424253730679e+16 -4.149424253730678e+16 200.0 -117.6 400.0 2.4186 -2.4185 2.4185 0.0 200.0 0.0 0.0 0.0 0.0 0.0 0.0 0.0 0.0 0.0 0.0 
0.52 -0.030564137080268505 -1.2327178464434334 -2.229054736055347 0.3202929476334371 1.601522201045994 -0.00012046663926226432 -1.7409965065930115 1.838215406054558 2.323450384917638 2.418292788633142 -3.5646092504754404e+16 3.5646092504754404e+16 200.0 -116.0 400.0 2.4186 -2.4185 2.4185 0.0 200.0 0.0 0.0 0.0 0.0 0.0 0.0 0.0 0.0 0.0 0.0 
0.528 -0.017325796730261134 -1.2251890256297928 -2.23354706332723 0.31725967497221275 1.5882838607920124 -0.00012042819253758742 -1.0153931811256522 3.628320820946066 -0.19287546694321112 2.4184180744922914 8.347175217474966e+16 -8.347175217474965e+16 200.0 -114.39999999999999 400.0 2.4186 -2.4185 2.4185 0.0 200.0 0.0 0.0 0.0 0.0 0.0 0.0 0.0 0.0 0.0 0.0 
0.536 -0.0039151806221260355 -1.2176360043837098 -2.237992491644648 0.31415529599732106 1.574873244781107 -0.000120410779390521 -2.2549377530360335 0.5989233060183681 4.073976468638314 2.418304707094844 5.775336232200155e+16 -5.775336232200155e+16 200.0 -112.8 400.0 2.4186 -2.4185 2.4185 0.0 200.0 0.0 0.0 0.0 0.0 0.0 0.0 0.0 0.0 0.0 0.0 
0.544 0.009669522841606604 -1.210059041746856 -2.242390616503941 0.31097973030756654 1.5612885414158557 -0.00012041522130802909 -1.4901512989814807 2.5137028323040767 1.3955669276697489 2.41761998375331 3.0849346035056252e+16 -3.0849346035056252e+16 200.0 -111.19999999999999 400.0 2.4186 -2.4185 2.4185 0.0 200.0 0.0 0.0 0.0 0.0 0.0 0.0 0.0 0.0 0.0 0.0 
0.552 0.02343008112236422 -1.2024584345912432 -2.246741027156718 0.3077328524131573 1.54752798323488 -0.00012044238193658392 -1.7394707805737917 1.9132194755462237 2.2462917803766356 2.418215838371967 -1.6161099002966196e+16 1.6161099002966198e+16 200.0 -109.6 400.0 2.4186 -2.4185 2.4185 0.0 200.0 0.0 0.0 0.0 0.0 0.0 0.0 0.0 0.0 0.0 0.0 
0.56 0.037368211907185866 -1.1948345197725834 -2.251043306756019 0.30441446440163045 1.5335898525511935 -0.00012049316973851408 -0.8540090167178909 4.18830043257044 -0.914775157504812 2.418341938741378 8.112260925509157e+16 -8.112260925509155e+16 200.0 -107.99999999999999 400.0 2.4186 -2.4185 2.4185 0.0 200.0 0.0 0.0 0.0 0.0 0.0 0.0 0.0 0.0 0.0 0.0 
0.568 0.05148557709539903 -1.1871876764092897 -2.2552970325114683 0.30102470540113835 1.5194724874655234 -0.00012056854084462987 5.055936829476156 19.434494404182665 -22.079368517185223 2.428561378578404 -6.688108396282502e+17 6.688108396282501e+17 200.0 -106.39999999999999 400.0 2.4186 -2.4185 2.4185 0.0 200.0 0.0 0.0 0.0 0.0 0.0 0.0 0.0 0.0 0.0 0.0 
0.576 0.06578377639019806 -1.1795183282958763 -2.2595017758536895 0.2975634280071031 1.5051742882747328 -0.00012066950211953275 -1.996752883329483 1.318549461209592 3.1022540370708676 2.4175345191256508 4.6751909088818264e+16 -4.6751909088818264e+16 200.0 -104.79999999999998 400.0 2.4186 -2.4185 2.4185 0.0 200.0 0.0 0.0 0.0 0.0 0.0 0.0 0.0 0.0 0.0 0.0 
0.584 0.0802643404740917 -1.1718269464602578 -2.263657102608273 0.2940307413443788 1.4906937242963738 -0.00012079711445751884 -2.658098048134664 -0.4012386464126714 5.485332948471947 2.416031071404038 1.4295020774915218e+17 -1.4295020774915218e+17 200.0 -103.2 400.0 2.4186 -2.4185 2.4185 0.0 200.0 0.0 0.0 0.0 0.0 0.0 0.0 0.0 0.0 0.0 0.0 
0.592 0.0949287237462344 -1.1641140518753268 -2.2677625731795543 0.29042671011922305 1.4760293411313559 -0.00012095249632862947 -1.877408424777783 1.6840304080662263 2.6233322466582645 2.418372778784995 -1.174992877502432e+16 1.1749928775024322e+16 200.0 -101.60000000000001 400.0 2.4186 -2.4185 2.4185 0.0 200.0 0.0 0.0 0.0 0.0 0.0 0.0 0.0 0.0 0.0 0.0 
0.6 0.10977829659864469 -1.156380218336099 -2.271817742744469 0.2867514451041786 1.461179768387728 -0.00012113682759620652 -1.8385991025109418 1.8197793341684365 2.452279213443836 2.4179650756194575 2.3052225585018908e+16 -2.3052225585018904e+16 200.0 -100.0 400.0 2.4186 -2.4185 2.4185 0.0 200.0 0.0 0.0 0.0 0.0 0.0 0.0 0.0 0.0 0.0 0.0 
0.608 0.12481433720726298 -1.148626075514763 -2.2758221614567193 0.283005154900668 1.4461437278896214 -0.00012135135362928635 -1.9773972802334847 1.4766635611553203 2.938884623798698 2.418220999260676 -2.7940628126654384e+16 2.7940628126654388e+16 200.0 -98.4 400.0 2.4186 -2.4185 2.4185 0.0 200.0 0.0 0.0 0.0 0.0 0.0 0.0 0.0 0.0 0.0 0.0 
0.616 0.14003802281269162 -1.1408523122070764 -2.279775374661499 0.27918803263335157 1.4309200423965083 -0.00012159738973533252 -1.7504115744145818 2.138373084981367 2.0546986218481873 2.4182172591119273 -1.1507133103775476e+16 1.1507133103775478e+16 200.0 -96.8 400.0 2.4186 -2.4185 2.4185 0.0 200.0 0.0 0.0 0.0 0.0 0.0 0.0 0.0 0.0 0.0 0.0 
0.624 0.1554504204642666 -1.1330596797848225 -2.283676923120977 0.27530040921146615 1.4155076448591335 -0.00012187632594117806 -1.9410365854410252 1.6487286144906028 2.7404144966591684 2.418261098423983 1.5858744581398074e+16 -1.5858744581398072e+16 200.0 -95.2 400.0 2.4186 -2.4185 2.4185 0.0 200.0 0.0 0.0 0.0 0.0 0.0 0.0 0.0 0.0 0.0 0.0 
0.632 0.17105247719989247 -1.1252489958703777 -2.287526343250753 0.2713426158453558 1.3999055882396763 -0.00012218963215264496 -1.7528793232627007 2.2268888115385006 1.9807251153300651 2.4185709097745995 1.9550362448803084e+16 -1.955036244880308e+16 200.0 -93.6 400.0 2.4186 -2.4185 2.4185 0.0 200.0 0.0 0.0 0.0 0.0 0.0 0.0 0.0 0.0 0.0 0.0 
0.64 0.18684500963271367 -1.1174211482509562 -2.29132316736746 0.267315092957336 1.3841130559250807 -0.0001225388637261478 -2.3601700302367785 0.5264323272431011 4.295632251304882 2.4191979872019265 -6.163982000997602e+16 6.163982000997602e+16 200.0 -92.0 400.0 2.4186 -2.4185 2.4185 0.0 200.0 0.0 0.0 0.0 0.0 0.0 0.0 0.0 0.0 0.0 0.0 
0.648 0.20282869291430794 -1.1095770990517266 -2.2950669239476698 0.2632183235365515 1.3681293727638641 -0.00012292566748869045 -1.8670521860838125 2.0037347254260807 2.3326930970244617 2.4186021642136635 1.2408211625576398e+16 -1.2408211625576398e+16 200.0 -90.39999999999999 400.0 2.4186 -2.4185 2.4185 0.0 200.0 0.0 0.0 0.0 0.0 0.0 0.0 0.0 0.0 0.0 0.0 
0.656 0.21900404904256865 -1.1017178891888109 -2.298757137898253 0.2590528521164499 1.3519540167582327 -0.0001233517882460516 -2.1432015274828555 1.2378430086162453 3.3825655957292895 2.420152344259662 4.573146390184742e+16 -4.573146390184742e+16 200.0 -88.8 400.0 2.4186 -2.4185 2.4185 0.0 200.0 0.0 0.0 0.0 0.0 0.0 0.0 0.0 0.0 0.0 0.0 
0.664 0.23537143448083597 -1.0938446431251077 -2.3023933308382896 0.2548193519180293 1.335586631444951 -0.00012381907582264572 -1.9260505519882338 1.9462653234161411 2.467374904978079 2.4183198373930153 -2.016660786273884e+16 2.0166607862738844e+16 200.0 -87.19999999999999 400.0 2.4186 -2.4185 2.4185 0.0 200.0 0.0 0.0 0.0 0.0 0.0 0.0 0.0 0.0 0.0 0.0 
0.672 0.2519310270530988 -1.085958573954069 -2.3059750213926367 0.25051853524216394 1.3190270390001446 -0.00012432949268055999 -2.0955797006423325 1.488719436057724 3.104055845455033 2.4188479008927573 -5.788471750111605e+16 5.788471750111604e+16 200.0 -85.6 400.0 2.4186 -2.4185 2.4185 0.0 200.0 0.0 0.0 0.0 0.0 0.0 0.0 0.0 0.0 0.0 0.0 
0.68 0.2686828120782656 -1.0780609888388497 -2.3095017254971966 0.24615124265418542 1.3022752541050233 -0.00012488512216962802 -2.1378757578464387 1.418342061263181 3.227940528128321 2.417644878514246 -3.20377264230912e+16 3.20377264230912e+16 200.0 -83.99999999999999 400.0 2.4186 -2.4185 2.4185 0.0 200.0 0.0 0.0 0.0 0.0 0.0 0.0 0.0 0.0 0.0 0.0 
0.688 0.28562656770448847 -1.070153294836797 -2.312972956715926 0.24171839526816274 1.2853314986115627 -0.00012548817746511995 -2.3015540275159014 0.9643743765674979 3.8591373315740687 2.4168253399341983 -6.175750937638198e+16 6.175750937638199e+16 200.0 -82.39999999999999 400.0 2.4186 -2.4185 2.4185 0.0 200.0 0.0 0.0 0.0 0.0 0.0 0.0 0.0 0.0 0.0 0.0 
0.696 0.30276184940244333 -1.0622370051419958 -2.3163882265695803 0.2372209982272735 1.2681962170492196 -0.00012614101125472293 -2.045059461811676 1.857816440565123 2.721524991361796 2.4184244240250563 1.997827240689384e+16 -1.9978272406893836e+16 200.0 -80.79999999999998 400.0 2.4186 -2.4185 2.4185 0.0 200.0 0.0 0.0 0.0 0.0 0.0 0.0 0.0 0.0 0.0 0.0 
0.704 0.32008797357418617 -1.0543137457815037 -2.319747044876153 0.2326602070643351 1.2508700930160832 -0.0001268461262419625 -2.0165677237825563 2.0344744789080393 2.5294921467642846 2.418199782971119 1.229578283242084e+16 -1.229578283242084e+16 200.0 -79.2 400.0 2.4186 -2.4185 2.4185 0.0 200.0 0.0 0.0 0.0 0.0 0.0 0.0 0.0 0.0 0.0 0.0 
0.712 0.3376040002318472 -1.0463852628040797 -2.3230489201029427 0.22803727235796067 1.2333540665001754 -0.00012760618653907777 -2.165435044093616 1.6276483026828217 3.1015277560837418 2.4185134106607413 1.5057097721213024e+16 -1.505709772121302e+16 200.0 -77.6 400.0 2.4186 -2.4185 2.4185 0.0 200.0 0.0 0.0 0.0 0.0 0.0 0.0 0.0 0.0 0.0 0.0 
0.72 0.3553087146978815 -1.0384534300035737 -2.3262933597301396 0.2233535722585307 1.2156493521792033 -0.00012842403002859745 -2.553458308672757 0.38319215148944985 4.750571625683819 2.4190949248585096 4.9865863729279464e+16 -4.986586372927946e+16 200.0 -76.0 400.0 2.4186 -2.4185 2.4185 0.0 200.0 0.0 0.0 0.0 0.0 0.0 0.0 0.0 0.0 0.0 0.0 
0.728 0.37320060827600576 -1.0305202572226762 -2.3294798706257698 0.21861062225857797 1.1977574587496234 -0.00012930268177945226 -2.0666454080963215 2.167313697581682 2.496713189257093 2.4184953037555887 -1.657959370564533e+16 1.6579593705645334e+16 200.0 -74.39999999999999 400.0 2.4186 -2.4185 2.4185 0.0 200.0 0.0 0.0 0.0 0.0 0.0 0.0 0.0 0.0 0.0 0.0 
0.736 0.3912778578392504 -1.022587899286446 -2.332607959431821 0.2138100783959378 1.1796802093385907 -0.00013024536861035364 -2.74829481595089 -0.15778268730949563 5.526643167447439 2.414849226776759 -1.2396779582759557e+17 1.2396779582759558e+17 200.0 -72.8 400.0 2.4186 -2.4185 2.4185 0.0 200.0 0.0 0.0 0.0 0.0 0.0 0.0 0.0 0.0 0.0 0.0 
0.744 0.40953830427887294 -1.0146586656188625 -2.3356771329613024 0.20895379286127458 1.161419763055045 -0.0001312555349003041 -2.2836062567016935 1.6166880454257897 3.3034155344334097 2.4179177115679886 -1.4282620053826766e+16 1.4282620053826768e+16 200.0 -71.19999999999999 400.0 2.4186 -2.4185 2.4185 0.0 200.0 0.0 0.0 0.0 0.0 0.0 0.0 0.0 0.0 0.0 0.0 
0.752 0.42797942975523506 -1.0067350305995437 -2.338686898605965 0.2040437058919795 1.1429786377388338 -0.00013233685975337815 -2.291123518589678 1.7116740355546614 3.2378926585509413 2.4179108568138497 -1.845686371876726e+16 1.8456863718767264e+16 200.0 -69.6 400.0 2.4186 -2.4185 2.4185 0.0 200.0 0.0 0.0 0.0 0.0 0.0 0.0 0.0 0.0 0.0 0.0 
0.76 0.44659833368932356 -0.9988196447216371 -2.3416367647543526 0.19908199481579958 1.1243597339691977 -0.00013349327563218026 -2.093196494413239 2.609481829658707 2.165124746820205 2.417218683091965 -6.2280086670665576e+16 6.228008667066558e+16 200.0 -67.99999999999999 400.0 2.4186 -2.4185 2.4185 0.0 200.0 0.0 0.0 0.0 0.0 0.0 0.0 0.0 0.0 0.0 0.0 
0.768 0.4653917074314764 -0.9909153466156138 -2.3445262412198105 0.1940710105272032 1.1055663603960384 -0.00013472898858144354 -2.272540753939733 2.068068619505137 2.910816943932047 2.41824639957217 -1.6899729577421136e+16 1.6899729577421138e+16 200.0 -66.39999999999999 400.0 2.4186 -2.4185 2.4185 0.0 200.0 0.0 0.0 0.0 0.0 0.0 0.0 0.0 0.0 0.0 0.0 
0.776 0.48435580754233953 -0.9830251760071351 -2.347354839678023 0.18901331569494983 1.0866022604589674 -0.0001360485001698117 -2.3440562833161622 1.942978606640862 3.1336918770133755 2.418279635886387 -1.3871515321386444e+16 1.3871515321386444e+16 200.0 -64.79999999999998 400.0 2.4186 -2.4185 2.4185 0.0 200.0 0.0 0.0 0.0 0.0 0.0 0.0 0.0 0.0 0.0 0.0 
0.784 0.5034864276203928 -0.9751523876800641 -2.350122074113609 0.18391166896278488 1.067471640559782 -0.00013745663128357765 -2.344993017580714 2.1152288079304045 2.9911090786330745 2.417309596286222 -3.2082220017342376e+16 3.2082220017342384e+16 200.0 -63.19999999999999 400.0 2.4186 -2.4185 2.4185 0.0 200.0 0.0 0.0 0.0 0.0 0.0 0.0 0.0 0.0 0.0 0.0 
0.792 0.5227788686109287 -0.96730046651781 -2.352827461275245 0.17876908031328487 1.048179199753485 -0.00013895854791056114 -2.4394327851935724 1.9031408551317277 3.3274817124507203 2.418028300919866 1.8147228810470024e+16 -1.8147228810470024e+16 200.0 -61.59999999999998 400.0 2.4186 -2.4185 2.4185 0.0 200.0 0.0 0.0 0.0 0.0 0.0 0.0 0.0 0.0 0.0 0.0 
0.8 0.5422279075336363 -0.9594731436971777 -2.355470521138739 0.17358880183839132 1.0287301610207042 -0.00014055978905476446 -2.4953470983677883 1.8585696805108411 3.459903409808047 2.4184690653966463 1.3821688201914764e+16 -1.3821688201914764e+16 200.0 -59.999999999999986 400.0 2.4186 -2.4185 2.4185 0.0 200.0 0.0 0.0 0.0 0.0 0.0 0.0 0.0 0.0 0.0 0.0 
0.808 0.5618277645706149 -0.9516744141082238 -2.358050777377408 0.16837435431049963 1.0091303041796822 -0.00014226629692215556 -2.5679404742765577 1.7455967169390842 3.6794788434066423 2.41825578684853 -2.325903786319405e+16 2.325903786319405e+16 200.0 -58.39999999999998 400.0 2.4186 -2.4185 2.4185 0.0 200.0 0.0 0.0 0.0 0.0 0.0 0.0 0.0 0.0 0.0 0.0 
0.816 0.581572068464516 -0.9439085550707675 -2.3605677578391004 0.16312954879129427 0.9893860004881304 -0.00014408444951385853 -3.218098079856264 -1.0755607690969722 7.187616260127889 2.414342183687475 -2.1862773285226986e+17 2.186277328522699e+17 200.0 -56.79999999999998 400.0 2.4186 -2.4185 2.4185 0.0 200.0 0.0 0.0 0.0 0.0 0.0 0.0 0.0 0.0 0.0 0.0 
0.824 0.6014538201886337 -0.9361801464123847 -2.363020995029083 0.15785849929104412 0.9695042489731491 -0.00014602109575389478 -2.5829815482963636 2.1671889253244716 3.3488302754501915 2.4177215245879626 -3.3512391411546336e+16 3.3512391411546336e+16 200.0 -55.199999999999974 400.0 2.4186 -2.4185 2.4185 0.0 200.0 0.0 0.0 0.0 0.0 0.0 0.0 0.0 0.0 0.0 0.0 
0.832 0.6214653548684941 -0.9284940919629845 -2.3654100265980276 0.15256566589716236 0.9494927145096322 -0.00014808359326278812 -2.7638786419164396 1.5463128615403836 4.191263838894222 2.4183968461058907 3.405610067637107e+16 -3.405610067637107e+16 200.0 -53.59999999999998 400.0 2.4186 -2.4185 2.4185 0.0 200.0 0.0 0.0 0.0 0.0 0.0 0.0 0.0 0.0 0.0 0.0 
0.84 0.6415983019594269 -0.9208556425063135 -2.367734395834239 0.1472558262140824 0.929359767642703 -0.00015027984886381126 -3.8295443568637744 -3.653385274484724 10.519140143141254 2.3737151027621546 -1.0282212452393408e+18 1.0282212452393409e+18 200.0 -52.000000000000014 400.0 2.4186 -2.4185 2.4185 0.0 200.0 0.0 0.0 0.0 0.0 0.0 0.0 0.0 0.0 0.0 0.0 
0.848 0.6618435437187757 -0.9132704202074562 -2.3699936521592138 0.141934170602811 0.909114526115505 -0.00015261836187293408 -2.88914052296822 1.49297860367944 4.460906526132421 2.4183126547089833 -3.2339496421676476e+16 3.233949642167647e+16 200.0 -50.400000000000006 400.0 2.4186 -2.4185 2.4185 0.0 200.0 0.0 0.0 0.0 0.0 0.0 0.0 0.0 0.0 0.0 0.0 
0.856 0.6821911720572806 -0.9057444445059644 -2.3721873516255845 0.13660629037733552 0.888766898017822 -0.00015510827017362573 -2.9173484416384703 1.6844000919268134 4.348446809248948 2.418046664557175 -1.5574968524808368e+16 1.5574968524808368e+16 200.0 -48.80000000000001 400.0 2.4186 -2.4185 2.4185 0.0 200.0 0.0 0.0 0.0 0.0 0.0 0.0 0.0 0.0 0.0 0.0 
0.864 0.7026304439147173 -0.8982841594244775 -2.37431505741645 0.13127818665995905 0.8683276264104405 -0.0001577593990099548 -2.5416812488855167 4.256746165079931 1.4516879588893914 2.4199346230082903 1.7652554904612294e+17 -1.7652554904612294e+17 200.0 -47.20000000000002 400.0 2.4186 -2.4185 2.4185 0.0 200.0 0.0 0.0 0.0 0.0 0.0 0.0 0.0 0.0 0.0 0.0 
0.872 0.7231497353835137 -0.8908964621902227 -2.376376340345031 0.12595634151750268 0.8478083352015373 -0.00016058231234163613 -3.0427081362247965 1.7513458376070652 4.515871495814757 2.4187331109464343 2.220221515289469e+16 -2.220221515289469e+16 200.0 -45.60000000000002 400.0 2.4186 -2.4185 2.4185 0.0 200.0 0.0 0.0 0.0 0.0 0.0 0.0 0.0 0.0 0.0 0.0 
0.88 0.7437364949049778 -0.8835887329987218 -2.378370779353568 0.12064772169268645 0.8272215759504544 -0.0001635883664878423 -3.076683576832053 2.0112142885226953 4.351325200353981 2.4178380523101586 -3.0322976882752264e+16 3.0322976882752264e+16 200.0 -44.0 400.0 2.4186 -2.4185 2.4185 0.0 200.0 0.0 0.0 0.0 0.0 0.0 0.0 0.0 0.0 0.0 0.0 
0.888 0.7643771959904246 -0.8763688656621214 -2.380297962010324 0.11535983101280145 0.8065808751465777 -0.0001667897656370568 -2.998081199076759 3.059816953043865 3.2871181759005497 2.4199678643198714 1.393653738811294e+17 -1.393653738811294e+17 200.0 -42.400000000000006 400.0 2.4186 -2.4185 2.4185 0.0 200.0 0.0 0.0 0.0 0.0 0.0 0.0 0.0 0.0 0.0 0.0 
0.896 0.7850572900790671 -0.8692452987753292 -2.3821574850035208 0.11010069625501684 0.7859007813514427 -0.00017019961861178813 -3.315700539652055 1.496311179741882 5.238231897403126 2.418919736838052 4.734574388343472e+16 -4.734574388343472e+16 200.0 -40.80000000000001 400.0 2.4186 -2.4185 2.4185 0.0 200.0 0.0 0.0 0.0 0.0 0.0 0.0 0.0 0.0 0.0 0.0 
0.904 0.8057611603413052 -0.8622270468977264 -2.3839489546310233 0.1048789645661583 0.7651969113954565 -0.00017383199604294677 -2.7763527830610193 3.2103152381610034 2.3147841747162614 2.4138544011627907 -1.5309478191583283e+17 1.5309478191583283e+17 200.0 -39.20000000000002 400.0 2.4186 -2.4185 2.4185 0.0 200.0 0.0 0.0 0.0 0.0 0.0 0.0 0.0 0.0 0.0 0.0 
0.912 0.8264720774753986 -0.8553237310829109 -2.385671987284555 0.09970388705312772 0.7444859945812233 -0.00017770198682251866 -6.0195038269657495 1.4330591070025744 12.959797624505992 2.419028669243288 1.652053620512472e+16 -1.6520536205124722e+16 200.0 -37.599999999999994 400.0 2.4186 -2.4185 2.4185 0.0 200.0 0.0 0.0 0.0 0.0 0.0 0.0 0.0 0.0 0.0 0.0 
0.92 0.8471721588321235 -0.8485456078903524 -2.3873262099272097 0.09458536140844309 0.7237859135588927 -0.00018182575235884475 -2.5076809593938894 1.4840313331560238 2.6150334393707224 2.415801230789117 1.2396801039985638e+17 -1.2396801039985638e+17 200.0 -36.0 400.0 2.4186 -2.4185 2.4185 0.0 200.0 0.0 0.0 0.0 0.0 0.0 0.0 0.0 0.0 0.0 0.0 
0.928 0.8678423325393525 -0.8419035957785055 -2.3889112605630625 0.08953395733522429 0.7031157402015816 -0.00018622057675191228 -3.2384445214658486 0.868709946613942 5.112687842712453 2.4202654215722244 -1.1284886961891882e+17 1.1284886961891882e+17 200.0 -34.400000000000006 400.0 2.4186 -2.4185 2.4185 0.0 200.0 0.0 0.0 0.0 0.0 0.0 0.0 0.0 0.0 0.0 0.0 
0.936 0.888462308687394 -0.8354092975080647 -2.3904267886976536 0.08456095475803638 0.6824957644200388 -0.00019090491053504698 1.5467412287291502 2.76330408986781 -10.392448870770906 2.4152722036671603 1.087910823570025e+17 -1.087910823570025e+17 200.0 -32.80000000000001 400.0 2.4186 -2.4185 2.4185 0.0 200.0 0.0 0.0 0.0 0.0 0.0 0.0 0.0 0.0 0.0 0.0 
0.944 0.9090105600733022 -0.829075016878674 -2.3918724557881985 0.07967832219456739 0.6619475134183345 -0.00019589840509750615 -2.782848543228676 2.0746816606837752 2.612619422251933 2.4183977496715867 -2.7087042020684744e+16 2.7087042020684744e+16 200.0 -31.19999999999999 400.0 2.4186 -2.4185 2.4185 0.0 200.0 0.0 0.0 0.0 0.0 0.0 0.0 0.0 0.0 0.0 0.0 
0.952 0.9294643154790363 -0.822913767788588 -2.393247935682393 0.07489878296991925 0.6414937584157067 -0.0002012219343200613 -3.0718577043561903 2.0929690726602845 3.3094402089204555 2.4197359081845256 6.674865504646789e+16 -6.674865504646789e+16 200.0 -29.599999999999994 400.0 2.4186 -2.4185 2.4185 0.0 200.0 0.0 0.0 0.0 0.0 0.0 0.0 0.0 0.0 0.0 0.0 
0.96 0.949799568956671 -0.8169392732564669 -2.3945529150447995 0.0702357662097044 0.6211585053613452 -0.000206897599343159 -2.830713194176275 1.9134134369064892 2.6218048189263765 2.417887961946253 -5.117937215020265e+16 5.117937215020265e+16 200.0 -28.0 400.0 2.4186 -2.4185 2.4185 0.0 200.0 0.0 0.0 0.0 0.0 0.0 0.0 0.0 0.0 0.0 0.0 
0.968 0.9699911090849598 -0.8111659516973617 -2.395787093769866 0.06570341321564444 0.6009669656778307 -0.00021294871177849882 -3.4786254901520706 2.2067109161366707 4.120402963964831 2.4177715240209396 3.620678466408832e+16 -3.620678466408833e+16 200.0 -26.400000000000006 400.0 2.4186 -2.4185 2.4185 0.0 200.0 0.0 0.0 0.0 0.0 0.0 0.0 0.0 0.0 0.0 0.0 
0.976 0.9900125726024499 -0.8056088874303349 -2.396950185380789 0.061316549859674385 0.5809455026280202 -0.00021939975012056674 -3.36398157998448 1.8653073705761287 3.9265988062561865 2.4182469221647573 -5.1472567077537704e+16 5.1472567077537704e+16 200.0 -24.799999999999983 400.0 2.4186 -2.4185 2.4185 0.0 200.0 0.0 0.0 0.0 0.0 0.0 0.0 0.0 0.0 0.0 0.0 
0.984 1.0098365271535155 -0.8002837821538575 -2.398041917413565 0.05709062942454901 0.5611215485690022 -0.00022627628368535009 -16.87451143143862 -2.69129006536453 46.94919210340463 2.4201858415361786 3.9843344193433894e+17 -3.9843344193433894e+17 200.0 -23.19999999999999 400.0 2.4186 -2.4185 2.4185 0.0 200.0 0.0 0.0 0.0 0.0 0.0 0.0 0.0 0.0 0.0 0.0 
0.992 1.0294345880278097 -0.7952068840102169 -2.399062031785774 0.05304167633753876 0.5415234882126437 -0.00023360485819105803 -3.667715016030146 1.9809133723977552 4.394098172962647 2.417624095675421 3.607857084335123e+16 -3.607857084335123e+16 200.0 -21.599999999999994 400.0 2.4186 -2.4185 2.4185 0.0 200.0 0.0 0.0 0.0 0.0 0.0 0.0 0.0 0.0 0.0 0.0 
1.0 1.0487775736367415 -0.790394890936291 -2.400010285149798 0.049186167805888026 0.5221805031491037 -0.00024141283721237388 -3.999420009547375 2.265068386207072 4.937916130933127 2.418409233488466 2.793776549757457e+16 -2.793776549757457e+16 200.0 -20.0 400.0 2.4186 -2.4185 2.4185 0.0 200.0 0.0 0.0 0.0 0.0 0.0 0.0 0.0 0.0 0.0 0.0 
1.008 1.06783570394663 -0.7858648253383036 -2.4008864492304403 0.045540932264077405 0.5031223734136644 -0.00024972819431249926 -3.94840993298486 1.9182611316050244 4.914532103381304 2.4177883624910934 3.5499409062327376e+16 -3.5499409062327376e+16 200.0 -18.399999999999977 400.0 2.4186 -2.4185 2.4185 0.0 200.0 0.0 0.0 0.0 0.0 0.0 0.0 0.0 0.0 0.0 0.0 
1.016 1.0865788450689142 -0.7816338778073271 -2.401690311147025 0.04212298420280547 0.4843792328965098 -0.00025857925181616026 -2.7995544026945716 2.570726429271393 0.8028372129096182 2.4181141087240916 -5.417164171280435e+16 5.417164171280435e+16 200.0 -16.799999999999983 400.0 2.4186 -2.4185 2.4185 0.0 200.0 0.0 0.0 0.0 0.0 0.0 0.0 0.0 0.0 0.0 0.0 
1.024 1.1049768015987333 -0.7777192186759749 -2.4024216737202844 0.038949315843727295 0.4659812770041244 -0.0002679943640461693 -5.085315215062728 2.1050905583788118 7.6632065244267675 2.4189942764518144 2.904949209557016e+16 -2.904949209557017e+16 200.0 -15.199999999999989 400.0 2.4186 -2.4185 2.4185 0.0 200.0 0.0 0.0 0.0 0.0 0.0 0.0 0.0 0.0 0.0 0.0 
1.032 1.1229996560359918 -0.7741377777458274 -2.4030803557644207 0.03603671962600208 0.44795842323820545 -0.00027800154547799914 -4.993086991468418 1.970681537512513 7.307331571677178 2.4181611911274103 2.339686156465044e+17 -2.339686156465044e+17 200.0 -13.599999999999994 400.0 2.4186 -2.4185 2.4185 0.0 200.0 0.0 0.0 0.0 0.0 0.0 0.0 0.0 0.0 0.0 0.0 
1.04 1.1406181517227867 -0.7709059944872863 -2.4036661923647458 0.033401492118954934 0.43033992825821976 -0.00028862804766797653 -4.793229600483327 2.3756451973000825 6.135423812141513 2.418725100846618 -2.3925414243617907e+17 2.3925414243617907e+17 200.0 -11.999999999999972 400.0 2.4186 -2.4185 2.4185 0.0 200.0 0.0 0.0 0.0 0.0 0.0 0.0 0.0 0.0 0.0 0.0 
1.048 1.1578041122846248 -0.7680395433634981 -2.4041790351412335 0.0310591970330667 0.41315396844014984 -0.0002998998928691861 -2.0667967992892424 2.239140350585655 -1.8964922327629878 2.415406055585646 -9.542938296154586e+16 9.542938296154586e+16 200.0 -10.399999999999977 400.0 2.4186 -2.4185 2.4185 0.0 200.0 0.0 0.0 0.0 0.0 0.0 0.0 0.0 0.0 0.0 0.0 
1.056 1.1745308867812263 -0.7655530415140372 -2.4046187524980986 0.0290243473063736 0.39642719472566645 -0.00031184137671690874 -4.049149138344158 2.299576992932972 3.565405035559417 2.418251144659254 3.2627295315174464e+16 -3.2627295315174464e+16 200.0 -8.799999999999983 400.0 2.4186 -2.4185 2.4185 0.0 200.0 0.0 0.0 0.0 0.0 0.0 0.0 0.0 0.0 0.0 0.0 
1.064 1.1907738059892794 -0.7634597486243786 -2.4049852298591476 0.027310108621683593 0.3801842763393419 -0.0003244745568485103 -10.316293314844437 1.8388591732557868 21.954610716173033 2.420667075936883 7.652271391983722e+16 -7.652271391983723e+16 200.0 -7.199999999999989 400.0 2.4186 -2.4185 2.4185 0.0 200.0 0.0 0.0 0.0 0.0 0.0 0.0 0.0 0.0 0.0 0.0 
1.072 1.206510631894068 -0.7617712711027629 -2.4052783698881828 0.025928021872465568 0.36444745129700334 -0.0003378187482997393 -9.82753891266632 1.9244736794334878 20.187808115236713 2.419254451561561 -2.6464770169093484e+16 2.646477016909348e+16 200.0 -5.599999999999966 400.0 2.4186 -2.4185 2.4185 0.0 200.0 0.0 0.0 0.0 0.0 0.0 0.0 0.0 0.0 0.0 0.0 
1.08 1.221721980059809 -0.7604972843437166 -2.40549809269313 0.024887696837014417 0.34923610403535327 -0.00035189004939611425 -0.9957325547051357 2.5936644920539504 -6.388648231541522 2.4190780411849917 -6.524066597018295e+16 6.524066597018297e+16 200.0 -3.9999999999999716 400.0 2.4186 -2.4185 2.4185 0.0 200.0 0.0 0.0 0.0 0.0 0.0 0.0 0.0 0.0 0.0 0.0 
1.088 1.2363916935646648 -0.7596452875444042 -2.4056443360119473 0.024196593157166824 0.33456639147694067 -0.0003667009230573401 -6.185962915390183 2.484709487075203 8.506457970026045 2.417503811093819 -1.7887010068742816e+17 1.7887010068742816e+17 200.0 -2.3999999999999773 400.0 2.4186 -2.4185 2.4185 0.0 200.0 0.0 0.0 0.0 0.0 0.0 0.0 0.0 0.0 0.0 0.0 
1.096 1.250507147999686 -0.7592204049989921 -2.405717055377759 0.023859797893418744 0.3204509380312046 -0.00038225985750884337 -6.413963212106927 2.375134130820495 8.9671880233925 2.4185749721467458 -6.313835950391559e+16 6.313835950391558e+16 200.0 -0.799999999999983 400.0 2.4186 -2.4185 2.4185 0.0 200.0 0.0 0.0 0.0 0.0 0.0 0.0 0.0 0.0 0.0 0.0 
1.104 1.2640594698084078 -0.7592252459118245 -2.4057162242601664 0.023879908214329948 0.3068986172548513 -0.00039857112714697585 -17.332841458687007 1.7944512279197453 40.93163150900325 2.4190828968045515 -5.0914041036102714e+17 5.0914041036102714e+17 200.0 0.8000000000000398 400.0 2.4186 -2.4185 2.4185 0.0 200.0 0.0 0.0 0.0 0.0 0.0 0.0 0.0 0.0 0.0 0.0 
1.112 1.277043654876734 -0.7596598316160592 -2.405641834179395 0.024256935717075656 0.2939144332619766 -0.00041563466886065416 -16.518684341775966 2.0862292928930684 37.96057736563178 2.4205950650659305 1.3119587172052893e+17 -1.3119587172052896e+17 200.0 2.400000000000034 400.0 2.4186 -2.4185 2.4185 0.0 200.0 0.0 0.0 0.0 0.0 0.0 0.0 0.0 0.0 0.0 0.0 
1.12 1.2894585803681557 -0.7605215949359061 -2.405493894789858 0.02498832260212902 0.2814995088888321 -0.0004334460819494242 -12.683421718067216 2.6047221387373716 25.984226097559343 2.424228225069008 -3.5723058008756045e+17 3.5723058008756045e+17 200.0 4.000000000000028 400.0 2.4186 -2.4185 2.4185 0.0 200.0 0.0 0.0 0.0 0.0 0.0 0.0 0.0 0.0 0.0 0.0 
1.128 1.301306909685958 -0.7618054517336343 -2.405272433929975 0.02606901349813917 0.2696511807316437 -0.0004519967516684119 -7.655319189658061 2.6082108166561486 11.012658796785548 2.4199069510570426 -1.0601908172714931e+17 1.060190817271493e+17 200.0 5.600000000000023 400.0 2.4186 -2.4185 2.4185 0.0 200.0 0.0 0.0 0.0 0.0 0.0 0.0 0.0 0.0 0.0 0.0 
1.136 1.312594897338184 -0.7635039399807075 -2.404977497635535 0.0274915768233579 0.2583631942816423 -0.00047127408831635996 -21.623016022857325 2.6899380119646388 51.16725196101725 2.419348815813085 -1.7819502365092454e+17 1.781950236509245e+17 200.0 7.2000000000000455 400.0 2.4186 -2.4185 2.4185 0.0 200.0 0.0 0.0 0.0 0.0 0.0 0.0 0.0 0.0 0.0 0.0 
1.144 1.32333210658742 -0.7656074175305072 -2.4046091501146316 0.02924642233289587 0.24762598627531512 -0.000491261866606575 -4.288478421642322 2.577705466965356 0.5115186025854919 2.4181627500366454 -4.9789649554846136e+16 4.9789649554846136e+16 200.0 8.80000000000004 400.0 2.4186 -2.4185 2.4185 0.0 200.0 0.0 0.0 0.0 0.0 0.0 0.0 0.0 0.0 0.0 0.0 
1.152 1.3335310574315604 -0.7681043065961601 -2.4041674736830223 0.03132203875424677 0.23742703671365614 -0.0005119406445974311 -8.651110925707783 2.919140084389001 12.487354792532019 2.420649331813765 5.656159417004465e+16 -5.656159417004466e+16 200.0 10.400000000000034 400.0 2.4186 -2.4185 2.4185 0.0 200.0 0.0 0.0 0.0 0.0 0.0 0.0 0.0 0.0 0.0 0.0 
1.16 1.3432068252757492 -0.7709813710297961 -2.4036525686596617 0.03370527194576001 0.22775127019024816 -0.0005332882381898222 -9.164672494935953 3.1764851647983505 13.346013387013482 2.4202634100001474 7.996636432315698e+16 -7.9966364323157e+16 200.0 12.0 400.0 2.4186 -2.4185 2.4185 0.0 200.0 0.0 0.0 0.0 0.0 0.0 0.0 0.0 0.0 0.0 0.0 
1.168 1.3523766115060738 -0.7742240119361434 -2.4030645532230204 0.036381616332682665 0.21858148531760188 -0.0005552802262550414 -9.402541210868742 2.8044637948908435 13.968569456366554 2.4211801102550856 -1.485130847188554e+17 1.485130847188554e+17 200.0 13.599999999999994 400.0 2.4186 -2.4185 2.4185 0.0 200.0 0.0 0.0 0.0 0.0 0.0 0.0 0.0 0.0 0.0 0.0 
1.176 1.361059306225121 -0.7778165678210729 -2.4024035632295235 0.03933552137879115 0.20989879199163736 -0.0005778904626402986 -11.211791604917215 3.3298728162469433 18.333606563978552 2.4219154703134396 -8.333640998429274e+16 8.333640998429274e+16 200.0 15.199999999999989 400.0 2.4186 -2.4185 2.4185 0.0 200.0 0.0 0.0 0.0 0.0 0.0 0.0 0.0 0.0 0.0 0.0 
1.184 1.3692750610293172 -0.7817426071193982 -2.4016697519960513 0.04255068499078929 0.20168303861435713 -0.0006010915741666014 -17.525805159719877 3.5488437080427793 36.06382383823739 2.4216237120386688 -5.2695249809258376e+16 5.269524980925836e+16 200.0 16.80000000000001 400.0 2.4186 -2.4185 2.4185 0.0 200.0 0.0 0.0 0.0 0.0 0.0 0.0 0.0 0.0 0.0 0.0 
1.192 1.3770448863818288 -0.785985203233623 -2.400863290048807 0.046010321948250166 0.19391321472098833 -0.0006248554277081595 3.142327445319711 1.0271678005585319 -22.205927071506828 2.4153122093518458 -2.1774287915662646e+17 2.1774287915662646e+17 200.0 18.400000000000006 400.0 2.4186 -2.4185 2.4185 0.0 200.0 0.0 0.0 0.0 0.0 0.0 0.0 0.0 0.0 0.0 0.0 
1.2 1.3843902843633586 -0.7905271848031723 -2.39998436484112 0.049697420767612854 0.18656781822918983 -0.0006491535539286989 -9.605714906519786 2.6930729476427855 12.92182609696432 2.419822453479522 9.61181660386122e+16 -9.611816603861221e+16 200.0 20.0 400.0 2.4186 -2.4185 2.4185 0.0 200.0 0.0 0.0 0.0 0.0 0.0 0.0 0.0 0.0 0.0 0.0 
1.208 1.3913329238075782 -0.795351356509717 -2.399033180442799 0.053594964115506016 0.17962518030366778 -0.0006739575197251197 -11.831204899259461 4.596100914219756 17.2846920003078 2.415281405291156 3.0206632814271846e+17 -3.0206632814271846e+17 200.0 21.599999999999994 400.0 2.4186 -2.4185 2.4185 0.0 200.0 0.0 0.0 0.0 0.0 0.0 0.0 0.0 0.0 0.0 0.0 
1.216 1.3978943613833708 -0.8004406880793811 -2.398009957203618 0.05768611267221413 0.17306374427392646 -0.0006992392454970058 -12.789953668103289 4.09042398613747 20.05847281359246 2.420728375928359 -5.982436609541701e+16 5.9824366095417e+16 200.0 23.19999999999999 400.0 2.4186 -2.4185 2.4185 0.0 200.0 0.0 0.0 0.0 0.0 0.0 0.0 0.0 0.0 0.0 0.0 
1.224 1.4040958092854814 -0.8057784711218274 -2.3969149313933826 0.06195436903660845 0.16686229794365073 -0.0007249712667719083 -22.805181376489795 4.9615989336827395 47.97163952644828 2.42153832288721 4.879052531605756e+16 -4.879052531605758e+16 200.0 24.80000000000001 400.0 2.4186 -2.4185 2.4185 0.0 200.0 0.0 0.0 0.0 0.0 0.0 0.0 0.0 0.0 0.0 0.0 
1.232 1.4099579479369768 -0.8113484449829222 -2.3957483548208502 0.06638369536400157 0.16100016088824537 -0.0007511269423577172 -10.15337819788928 3.2652176853142154 12.162360634373561 2.4258300136684987 2.55216803468658e+17 -2.55216803468658e+17 200.0 26.400000000000006 400.0 2.4186 -2.4185 2.4185 0.0 200.0 0.0 0.0 0.0 0.0 0.0 0.0 0.0 0.0 0.0 0.0 
1.24 1.4155007804973567 -0.8171348938786513 -2.394510494433592 0.07095861905548606 0.15545732994674363 -0.0007776806130608059 -13.889059050072413 6.25435625978575 20.079628022119568 2.418433308283373 -3.197126481216347e+17 3.197126481216347e+17 200.0 28.0 400.0 2.4186 -2.4185 2.4185 0.0 200.0 0.0 0.0 0.0 0.0 0.0 0.0 0.0 0.0 0.0 0.0 
1.248 1.420743524951635 -0.8231227182634759 -2.3932016319006717 0.07566429858116264 0.1502145871327267 -0.0008046077161735993 -13.222725134700646 3.2611612821716567 20.119786841448697 2.4242416154456636 1.825516803994516e+17 -1.8255168039945162e+17 200.0 29.600000000000023 400.0 2.4186 -2.4185 2.4185 0.0 200.0 0.0 0.0 0.0 0.0 0.0 0.0 0.0 0.0 0.0 0.0 
1.256 1.4257045390339673 -0.8292974837317582 -2.3918220631798577 0.08048656915182839 0.1452535747106928 -0.0008318848615119388 -18.081848962411026 4.8129279314585185 32.5091405156614 2.4196620219733114 -5.800753895861192e+16 5.800753895861191e+16 200.0 31.200000000000017 400.0 2.4186 -2.4185 2.4185 0.0 200.0 0.0 0.0 0.0 0.0 0.0 0.0 0.0 0.0 0.0 0.0 
1.264 1.430401273106205 -0.8356454508309299 -2.390372098070922 0.0854119812018066 0.14055684231751914 -0.0008594898749015497 -14.226298166017187 5.250790459872826 20.48085880290181 2.4202947116967697 6.554044827828864e+16 -6.554044827828866e+16 200.0 32.80000000000001 400.0 2.4186 -2.4185 2.4185 0.0 200.0 0.0 0.0 0.0 0.0 0.0 0.0 0.0 0.0 0.0 0.0 
1.272 1.434850246260824 -0.8421535890529039 -2.3888520597564513 0.09042780501548098 0.13610787085953896 -0.0008874018148012313 -8.909782367438215 5.014439130095222 4.735112027120363 2.4187707247019046 1.241186761967493e+17 -1.241186761967493e+17 200.0 34.400000000000006 400.0 2.4186 -2.4185 2.4185 0.0 200.0 0.0 0.0 0.0 0.0 0.0 0.0 0.0 0.0 0.0 0.0 
1.28 1.439067041254697 -0.8488095780306675 -2.3872622843315003 0.09552203729923514 0.13189107757874663 -0.0009156009673207734 -8.925301776067306 3.3768374243334223 5.5419003284656005 2.41810867233594 -1.1938630785545438e+17 1.1938630785545438e+17 200.0 36.0 400.0 2.4186 -2.4185 2.4185 0.0 200.0 0.0 0.0 0.0 0.0 0.0 0.0 0.0 0.0 0.0 0.0 
1.288 1.4430663143274378 -0.8556017986533648 -2.385603120323333 0.10068338882885142 0.12789180623446875 -0.00094406882433607 -16.368376344913433 6.3341249476976245 24.44633836080295 2.4203674142185196 9.983441797645371e+16 -9.983441797645373e+16 200.0 37.60000000000002 400.0 2.4186 -2.4185 2.4185 0.0 200.0 0.0 0.0 0.0 0.0 0.0 0.0 0.0 0.0 0.0 0.0 
1.296 1.4468618164557523 -0.8625193164663436 -2.383874928202447 0.10590126658858123 0.12409630584900429 -0.0009727880487937516 -23.518647555252844 13.780824767525049 39.26784143996903 2.4052989535611164 -3.497628070018005e+18 3.497628070018005e+18 200.0 39.20000000000002 400.0 2.4186 -2.4185 2.4185 0.0 200.0 0.0 0.0 0.0 0.0 0.0 0.0 0.0 0.0 0.0 0.0 
1.304 1.4504664231000246 -0.8695518593723017 -2.382078079886016 0.11116575621537717 0.12049170096104213 -0.001001742430683249 -10.343924502106265 3.590103401659894 7.963769539811573 2.4205948107623745 7.778894892715184e+16 -7.778894892715186e+16 200.0 40.80000000000001 400.0 2.4186 -2.4185 2.4185 0.0 200.0 0.0 0.0 0.0 0.0 0.0 0.0 0.0 0.0 0.0 0.0 
1.312 1.4538921699821736 -0.876689791315501 -2.380212958234883 0.11646758696418402 0.11706595584779822 -0.0010309168365701172 -24.103587840867824 6.566105433221319 45.316062758946984 2.42355743688682 8.990005695977725e+16 -8.990005695977728e+16 200.0 42.400000000000034 400.0 2.4186 -2.4185 2.4185 0.0 200.0 0.0 0.0 0.0 0.0 0.0 0.0 0.0 0.0 0.0 0.0 
1.32 1.4571502928767996 -0.8839240833251267 -2.3782799565451787 0.12179810984103012 0.11380783473385735 -0.0010602971550508287 -44.24942847350174 13.395754847772922 98.61631985889613 2.425193077900346 3.5889305248740595e+17 -3.58893052487406e+17 200.0 44.00000000000003 400.0 2.4186 -2.4185 2.4185 0.0 200.0 0.0 0.0 0.0 0.0 0.0 0.0 0.0 0.0 0.0 0.0 
1.328 1.4602512697915064 -0.8912462830224661 -2.376279478035637 0.127149262131383 0.11070685961087036 -0.0010898702400166601 -18.13193669526541 4.9134188758514465 28.116575082906504 2.4243287487052423 -1.3851697306677674e+17 1.385169730667767e+17 200.0 45.60000000000002 400.0 2.4186 -2.4185 2.4185 0.0 200.0 0.0 0.0 0.0 0.0 0.0 0.0 0.0 0.0 0.0 0.0 
1.336 1.463204864253854 -0.8986484834616446 -2.3742119353316737 0.1325135371327706 0.1077532669505754 -0.0011196238532061597 -18.723355774136035 5.616942992901667 28.84925819368349 2.426443983688619 -1.3172303603472986e+17 1.3172303603472984e+17 200.0 47.20000000000002 400.0 2.4186 -2.4185 2.4185 0.0 200.0 0.0 0.0 0.0 0.0 0.0 0.0 0.0 0.0 0.0 0.0 
1.344 1.4660201687124848 -0.9061232919745157 -2.37207774994724 0.1378839518257302 0.10493796430367944 -0.0011495466071801276 -17.929042798094965 5.398853303533269 26.175731570407535 2.416803587259511 -1.1592785845334046e+17 1.1592785845334046e+17 200.0 48.80000000000001 400.0 2.4186 -2.4185 2.4185 0.0 200.0 0.0 0.0 0.0 0.0 0.0 0.0 0.0 0.0 0.0 0.0 
1.352 1.4687056473020113 -0.9136637995244823 -2.3698773517654885 0.14325401662512727 0.10225248753495456 -0.0011796279095660422 -20.55706527037473 7.40551959910793 32.0067011600614 2.419098517723368 8.516170242537078e+16 -8.516170242537082e+16 200.0 50.400000000000034 400.0 2.4186 -2.4185 2.4185 0.0 200.0 0.0 0.0 0.0 0.0 0.0 0.0 0.0 0.0 0.0 0.0 
1.36 1.471269177419976 -0.9212635509381597 -2.3676111785192324 0.14861770316917822 0.09968895924629928 -0.0012098579091840526 -28.22196609286061 0.6289841288360576 58.05717548382667 2.4070930739817715 -1.4895494433202314e+18 1.4895494433202314e+18 200.0 52.00000000000003 400.0 2.4186 -2.4185 2.4185 0.0 200.0 0.0 0.0 0.0 0.0 0.0 0.0 0.0 0.0 0.0 0.0 
1.368 1.4737180897249786 -0.9289165162741355 -2.3652796752721694 0.15396941846485568 0.09724004877858877 -0.0012402274444776524 -22.01078927820424 2.165067210633116 38.477778201970224 2.4231172057548767 -4.149541345415996e+17 4.1495413454159955e+17 200.0 53.60000000000002 400.0 2.4186 -2.4185 2.4185 0.0 200.0 0.0 0.0 0.0 0.0 0.0 0.0 0.0 0.0 0.0 0.0 
1.376 1.4760592062932951 -0.9366170635008548 -2.3628832939018194 0.1593039725561023 0.09489893405505907 -0.0012707279945221904 -47.92626491647408 10.084292353667658 108.43245440950037 2.4217385098069557 3.785275330435508e+17 -3.785275330435509e+17 200.0 55.200000000000045 400.0 2.4186 -2.4185 2.4185 0.0 200.0 0.0 0.0 0.0 0.0 0.0 0.0 0.0 0.0 0.0 0.0 
1.384 1.4782988767721077 -0.9443599325873109 -2.3604224925850854 0.16461655580652534 0.09265926542807801 -0.0013013516327671304 -20.974313910487933 6.913932707166458 31.526656859167293 2.418068650167078 1.0724919153686413e+17 -1.0724919153686414e+17 200.0 56.80000000000004 400.0 2.4186 -2.4185 2.4185 0.0 200.0 0.0 0.0 0.0 0.0 0.0 0.0 0.0 0.0 0.0 0.0 
1.392 1.4804430124455235 -0.9521402110575004 -2.3578977352873225 0.16990271201507623 0.09051513161310511 -0.0013320909835781575 -23.16362621693161 12.923704022416384 33.90763904750317 2.4270488384287012 2.711860290680755e+17 -2.7118602906807552e+17 200.0 58.400000000000034 400.0 2.4186 -2.4185 2.4185 0.0 200.0 0.0 0.0 0.0 0.0 0.0 0.0 0.0 0.0 0.0 0.0 
1.4 1.4824971181889248 -0.9599533110196687 -2.355309491255751 0.17515831586016573 0.08846102773437481 -0.0013629391815770185 -23.730464801937817 11.530633408952353 35.90662820416775 2.418490510330751 -3.086704568024532e+17 3.086704568024532e+17 200.0 60.00000000000003 400.0 2.4186 -2.4185 2.4185 0.0 200.0 0.0 0.0 0.0 0.0 0.0 0.0 0.0 0.0 0.0 0.0 
1.408 1.4844663223315355 -0.9677949476517522 -2.3526582345180334 0.18037954971515058 0.08649182546230655 -0.0013938898337274306 -20.829925152393397 8.438528673070604 28.729631433813054 2.4261385237337674 -4.783648382200106e+17 4.783648382200106e+17 200.0 61.599999999999994 400.0 2.4186 -2.4185 2.4185 0.0 200.0 0.0 0.0 0.0 0.0 0.0 0.0 0.0 0.0 0.0 0.0 
1.416 1.486355404479286 -0.9756611191030498 -2.349944443386766 0.18556288395619802 0.08460274519059802 -0.001424936984079226 -23.584435766445864 8.807557440746894 36.035675105547284 2.421989133103979 -1.692508260783189e+17 1.6925082607831888e+17 200.0 63.19999999999999 400.0 2.4186 -2.4185 2.4185 0.0 200.0 0.0 0.0 0.0 0.0 0.0 0.0 0.0 0.0 0.0 0.0 
1.424 1.4881688213727462 -0.9835480877572929 -2.34716859997062 0.19070505723022535 0.08278933017839267 -0.0014560750810585293 -18.736602310751195 7.490206984370865 22.148173478221178 2.421291428850524 1.1667508383200363e+17 -1.1667508383200365e+17 200.0 64.79999999999998 400.0 2.4186 -2.4185 2.4185 0.0 200.0 0.0 0.0 0.0 0.0 0.0 0.0 0.0 0.0 0.0 0.0 
1.432 1.4899107308700912 -0.9914523627924905 -2.344331189692805 0.19580305917197727 0.08104742256720512 -0.0014872989471760522 -23.36567481531247 2.919657228168944 37.43061126898713 2.419754207040553 -2.5258453192434125e+17 2.5258453192434122e+17 200.0 66.4 400.0 2.4186 -2.4185 2.4185 0.0 200.0 0.0 0.0 0.0 0.0 0.0 0.0 0.0 0.0 0.0 0.0 
1.44 1.491585014154445 -0.999370683967034 -2.3414327008174847 0.200854112419107 0.07937314117363582 -0.0015186037510161816 -18.856101926693558 7.698842144592974 21.35768080995194 2.4213797154643304 -9.84297530566748e+16 9.842975305667478e+16 200.0 68.0 400.0 2.4186 -2.4185 2.4185 0.0 200.0 0.0 0.0 0.0 0.0 0.0 0.0 0.0 0.0 0.0 0.0 
1.448 1.4931952962699553 -1.0073000065586686 -2.338473623984741 0.20585565842205122 0.0777628609532769 -0.001549984981365816 -51.25261339815706 32.796026456491894 102.67833227519404 2.4260760739799574 -4.5600077229700717e+17 4.560007722970071e+17 200.0 69.6 400.0 2.4186 -2.4185 2.4185 0.0 200.0 0.0 0.0 0.0 0.0 0.0 0.0 0.0 0.0 0.0 0.0 
1.456 1.4947449650925964 -1.0152374873822145 -2.3354544517546114 0.21080534209661428 0.07621319402990791 -0.001581438423341469 -26.157751572412952 11.981504191973404 39.488303538574975 2.4225558831576817 -2.1026840863136227e+17 2.1026840863136224e+17 200.0 71.19999999999999 400.0 2.4186 -2.4185 2.4185 0.0 200.0 0.0 0.0 0.0 0.0 0.0 0.0 0.0 0.0 0.0 0.0 
1.464 1.4962371888409176 -1.0231804718129012 -2.3323756781607075 0.21570099915611873 0.07472097218476506 -0.001612960136375711 -25.065468348735532 2.6912342745818068 40.16530639268708 2.4380393670660516 6.710101889765806e+17 -6.710101889765806e+17 200.0 72.80000000000001 400.0 2.4186 -2.4185 2.4185 0.0 200.0 0.0 0.0 0.0 0.0 0.0 0.0 0.0 0.0 0.0 0.0 
1.472 1.4976749322293978 -1.0311264817442511 -2.329237798273845 0.2205406423147247 0.07328323070315558 -0.0016445464339286048 167.74720822323357 40.959724637608794 -537.8955822746175 2.4028528010349985 3.341512728637477e+18 -3.3415127286374774e+18 200.0 74.4 400.0 2.4186 -2.4185 2.4185 0.0 200.0 0.0 0.0 0.0 0.0 0.0 0.0 0.0 0.0 0.0 0.0 
1.48 1.4990609713632699 -1.039073204412376 -2.3260413077760913 0.22532245101786508 0.0718971934796464 -0.0016761938647952884 -26.179937108703662 -2.7465858376034182 44.63413416424825 2.4301071649801274 5.920979684026035e+17 -5.920979684026035e+17 200.0 76.0 400.0 2.4186 -2.4185 2.4185 0.0 200.0 0.0 0.0 0.0 0.0 0.0 0.0 0.0 0.0 0.0 0.0 
1.488 1.5003979074690876 -1.0470184820219397 -2.3227867025455815 0.2300447602027127 0.07056025928749984 -0.001707899195887802 -38.18951228573659 38.36087272325382 61.182495214565236 2.417477862777753 1.1942825919960668e+18 -1.1942825919960668e+18 200.0 77.60000000000002 400.0 2.4186 -2.4185 2.4185 0.0 200.0 0.0 0.0 0.0 0.0 0.0 0.0 0.0 0.0 0.0 0.0 
1.496 1.5016881795501926 -1.0549603021127876 -2.319474478252404 0.2347060498903062 0.0692699891231937 -0.0017396593963762024 -28.188733139048235 12.360969283373139 42.83852148312547 2.4243694442276076 1.8525259589613955e+17 -1.852525958961396e+17 200.0 79.19999999999999 400.0 2.4186 -2.4185 2.4185 0.0 200.0 0.0 0.0 0.0 0.0 0.0 0.0 0.0 0.0 0.0 0.0 
1.504 1.5029340760508676 -1.0628967886100873 -2.3161051299658193 0.23930493606421388 0.06802409454229336 -0.0017714716230813104 -30.926132921948938 13.662553979855028 49.77615021007326 2.4208265297820786 5.143935563908653e+17 -5.143935563908653e+17 200.0 80.80000000000001 400.0 2.4186 -2.4185 2.4185 0.0 200.0 0.0 0.0 0.0 0.0 0.0 0.0 0.0 0.0 0.0 0.0 
1.512 1.5041377456075113 -1.070826193504736 -2.312679151773036 0.2438401620530133 0.06682042690824493 -0.0018033332070188273 -30.11823849858772 20.767053482345133 44.13855839935478 2.422048748215771 4.11010251010796e+17 -4.11010251010796e+17 200.0 82.40000000000003 400.0 2.4186 -2.4185 2.4185 0.0 200.0 0.0 0.0 0.0 0.0 0.0 0.0 0.0 0.0 0.0 0.0 
1.52 1.505301206959757 -1.078746889114596 -2.3091970364097065 0.24831059027167068 0.06565696748125965 -0.0018352416410016355 18.349071338501613 19.21073822255899 -96.43875895621005 2.4223855413802977 -7.87309362389649e+17 7.873093623896492e+17 200.0 84.0 400.0 2.4186 -2.4185 2.4185 0.0 200.0 0.0 0.0 0.0 0.0 0.0 0.0 0.0 0.0 0.0 0.0 
1.528 1.5064263580891897 -1.08665736088086 -2.305659274902292 0.2527151949130295 0.06453181827964155 -0.0018671945682141873 -28.247017434226635 0.6896601789710188 45.43717528402259 2.430619191166813 4.4465389690568435e+17 -4.4465389690568435e+17 200.0 85.60000000000002 400.0 2.4186 -2.4185 2.4185 0.0 200.0 0.0 0.0 0.0 0.0 0.0 0.0 0.0 0.0 0.0 0.0 
1.536 1.5075149846482423 -1.0945562006573568 -2.302066356222383 0.25705305441349857 0.0634431936508078 -0.0018991897716793544 -30.56067044245418 18.063479536853087 45.20165485591468 2.4242901349108354 1.2486391797762182e+17 -1.2486391797762186e+17 200.0 87.19999999999999 400.0 2.4186 -2.4185 2.4185 0.0 200.0 0.0 0.0 0.0 0.0 0.0 0.0 0.0 0.0 0.0 0.0 
1.544 1.5085687677370299 -1.1024421004540033 -2.2984187669530463 0.26132334519499656 0.06238941249453342 -0.0019312251645443863 -119.66256392914602 44.844410303522345 294.0582745527457 2.4230002321297945 -1.1608581745987543e+18 1.160858174598754e+18 200.0 88.80000000000001 400.0 2.4186 -2.4185 2.4185 0.0 200.0 0.0 0.0 0.0 0.0 0.0 0.0 0.0 0.0 0.0 0.0 
1.552 1.5095892910813253 -1.1103138465987366 -2.2947169909672027 0.26552533542117684 0.06136889108492969 -0.0019632987811186585 -121.10785552551957 37.121681296898714 300.73663241414414 2.455638864968625 -1.470905827659283e+18 1.4709058276592827e+18 200.0 90.40000000000003 400.0 2.4186 -2.4185 2.4185 0.0 200.0 0.0 0.0 0.0 0.0 0.0 0.0 0.0 0.0 0.0 0.0 
1.56 1.5105780476606094 -1.118170314285226 -2.290961509118053 0.2696583791888485 0.06038013644240935 -0.0019954087686012744 -31.780259818278132 16.419592884993577 47.96276804243003 2.4225419668160493 -1.7957150704859942e+17 1.795715070485994e+17 200.0 92.0 400.0 2.4186 -2.4185 2.4185 0.0 200.0 0.0 0.0 0.0 0.0 0.0 0.0 0.0 0.0 0.0 0.0 
1.568 1.5115364458311347 -1.126010462476382 -2.2871527989414857 0.27372191134326096 0.05942174021063585 -0.0020275533794415906 -32.320624289127686 24.466568145458467 46.45241245193857 2.416221070561696 -2.4398840893134445e+17 2.439884089313444e+17 200.0 93.60000000000002 400.0 2.4186 -2.4185 2.4185 0.0 200.0 0.0 0.0 0.0 0.0 0.0 0.0 0.0 0.0 0.0 0.0 
1.576 1.5124658149852566 -1.1338333291362224 -2.283291334370414 0.2777154418579588 0.058492372997124176 -0.002059730964280972 -43.55812461156696 18.77381912056526 80.48673360042261 2.4272635908086206 -2.2481547900057933e+17 2.2481547900057926e+17 200.0 95.20000000000005 400.0 2.4186 -2.4185 2.4185 0.0 200.0 0.0 0.0 0.0 0.0 0.0 0.0 0.0 0.0 0.0 0.0 
1.584 1.513367410784829 -1.141638026764995 -2.2793775854609315 0.2816385517657394 0.057590779139972584 -0.0020919399654275345 -10.429003120785357 0.7039531650559359 -10.653511088736412 2.427140745358516 -4.532545513237557e+17 4.532545513237557e+17 200.0 96.80000000000001 400.0 2.4186 -2.4185 2.4185 0.0 200.0 0.0 0.0 0.0 0.0 0.0 0.0 0.0 0.0 0.0 0.0 
1.592 1.5142424200033322 -1.149423738214571 -2.2754120181301665 0.285490888426414 0.05671577186558721 -0.0021241789108208797 -30.373936458611684 8.25124186671791 44.4073467306489 2.421344869202835 -5.171255191222993e+17 5.1712551912229926e+17 200.0 98.40000000000003 400.0 2.4186 -2.4185 2.4185 0.0 200.0 0.0 0.0 0.0 0.0 0.0 0.0 0.0 0.0 0.0 0.0 
1.6 1.515091965008454 -1.1571897127631217 -2.2713950939056877 0.2892721610870628 0.05586622880620845 -0.0021564464084463477 -33.479541231423546 14.71174734727001 51.0138467331195 2.422156331890627 -3.360089625809984e+17 3.360089625809984e+17 200.0 100.0 400.0 2.4186 -2.4185 2.4185 0.0 200.0 0.0 0.0 0.0 0.0 0.0 0.0 0.0 0.0 0.0 0.0 
1.608 1.515917107914189 -1.164935262429867 -2.2673272696862874 0.2929821371759984 0.05504108784777007 -0.0021887411411625523 -29.972210543406142 -55.256431042848114 59.807756636198604 2.5023375278447073 2.8848857833429996e+18 -2.8848857833429996e+18 200.0 101.60000000000002 400.0 2.4186 -2.4185 2.4185 0.0 200.0 0.0 0.0 0.0 0.0 0.0 0.0 0.0 0.0 0.0 0.0 
1.616 1.5167188544290562 -1.1726597585123288 -2.26320899751395 0.2966206390196744 0.054239343281676455 -0.002221061861908696 -57.9997113336191 32.004405413770485 116.54493247736129 2.430701396321886 3.5175813067764806e+17 -3.517581306776482e+17 200.0 103.20000000000005 400.0 2.4186 -2.4185 2.4185 0.0 200.0 0.0 0.0 0.0 0.0 0.0 0.0 0.0 0.0 0.0 0.0 
1.624 1.5174981574247797 -1.1803626283300264 -2.2590407243568 0.3001875395036331 0.05346004223614408 -0.002253407389261082 -34.76606254115221 22.045084624389524 51.3219928865612 2.4228496187554063 1.4822093579795485e+17 -1.4822093579795488e+17 200.0 104.80000000000001 400.0 2.4186 -2.4185 2.4185 0.0 200.0 0.0 0.0 0.0 0.0 0.0 0.0 0.0 0.0 0.0 0.0 
1.632 1.5182559202477255 -1.1880433521599096 -2.254822891902798 0.3036827595466769 0.052702281364726496 -0.0022857766033108923 -121.82804671856198 48.82771007011415 296.8900515127221 2.4672119016591654 -1.392972184230553e+18 1.392972184230553e+18 200.0 106.40000000000003 400.0 2.4186 -2.4185 2.4185 0.0 200.0 0.0 0.0 0.0 0.0 0.0 0.0 0.0 0.0 0.0 0.0 
1.64 1.5189929997934906 -1.1957014603500675 -2.250555936363946 0.30710626443553224 0.051965203771791646 -0.002318168441837571 -25.046204192045497 16.15809744543041 23.63802631035956 2.426381495338264 -1.800679795293409e+17 1.800679795293409e+17 200.0 108.00000000000006 400.0 2.4186 -2.4185 2.4185 0.0 200.0 0.0 0.0 0.0 0.0 0.0 0.0 0.0 0.0 0.0 0.0 
1.648 1.5197102093633297 -1.2033365305993815 -2.246240288290744 0.3104580615315462 0.051247996156006836 -0.0023505818967545643 -37.94769308048602 29.365270905047932 57.46537714702892 2.426480974146659 3.102039145194585e+17 -3.102039145194585e+17 200.0 109.60000000000002 400.0 2.4186 -2.4185 2.4185 0.0 200.0 0.0 0.0 0.0 0.0 0.0 0.0 0.0 0.0 0.0 0.0 
1.656 1.5204083213195196 -1.2109481853918207 -2.241876372396633 0.3137381968454127 0.0505498861550387 -0.002383016010805771 -37.3051389275408 38.83727290522287 53.02583237648745 2.427426023630391 -5.282319841540857e+17 5.282319841540856e+17 200.0 111.20000000000005 400.0 2.4186 -2.4185 2.4185 0.0 200.0 0.0 0.0 0.0 0.0 0.0 0.0 0.0 0.0 0.0 0.0 
1.664 1.5210880695553328 -1.218536089575002 -2.237464607392146 0.3169467531765351 0.049870139875583294 -0.0024154698744932603 -37.248574505297725 24.515153745578186 55.691734659570564 2.426389447966256 -3.265830287883116e+17 3.265830287883116e+17 200.0 112.80000000000001 400.0 2.4186 -2.4185 2.4185 0.0 200.0 0.0 0.0 0.0 0.0 0.0 0.0 0.0 0.0 0.0 0.0 
1.672 1.5217501517939764 -1.2260999480734989 -2.2330054058284783 0.32008384714616334 0.04920805959436235 -0.002447942623218337 -47.87929266386712 24.45305030223166 86.11403264513542 2.423477091551921 -1.603005619655391e+17 1.6030056196553904e+17 200.0 114.39999999999998 400.0 2.4186 -2.4185 2.4185 0.0 200.0 0.0 0.0 0.0 0.0 0.0 0.0 0.0 0.0 0.0 0.0 
1.68 1.522395231729648 -1.2336395037281478 -2.2284991739501843 0.32314962681066683 0.048562981617130845 -0.0024804334346191516 -48.64712336298925 30.86132590288568 86.55997771453539 2.4253251440384895 1.8498758985541645e+17 -1.849875898554165e+17 200.0 116.0 400.0 2.4186 -2.4185 2.4185 0.0 200.0 0.0 0.0 0.0 0.0 0.0 0.0 0.0 0.0 0.0 0.0 
1.688 1.5230239410227826 -1.2411545352532893 -2.223946311556701 0.3261442698748034 0.04793427428341995 -0.0025129415260902645 -49.363873893703186 36.9686111846122 87.00370258718041 2.423390400555623 1.8475173447067638e+17 -1.8475173447067648e+17 200.0 117.60000000000002 400.0 2.4186 -2.4185 2.4185 0.0 200.0 0.0 0.0 0.0 0.0 0.0 0.0 0.0 0.0 0.0 0.0 
1.696 1.5236368811605485 -1.2486448553045466 -2.2193472118723934 0.329067981583665 0.04732133610602469 -0.0025454661524699704 -49.42453661453696 33.58539177840451 87.44909181654597 2.425609347771541 2.2722043739162166e+17 -2.2722043739162176e+17 200.0 119.19999999999999 400.0 2.4186 -2.4185 2.4185 0.0 200.0 0.0 0.0 0.0 0.0 0.0 0.0 0.0 0.0 0.0 0.0 
1.704 1.524234625192752 -1.2561103086502916 -2.2147022614248026 0.33192099245488293 0.046723594035100666 -0.002578006603882808 -41.34844385684728 54.342978333240026 59.73709775000438 2.4463891763827976 8.87015981826386e+17 -8.87015981826386e+17 200.0 120.80000000000001 400.0 2.4186 -2.4185 2.4185 0.0 200.0 0.0 0.0 0.0 0.0 0.0 0.0 0.0 0.0 0.0 0.0 
1.712 1.5248177193524737 -1.2635507704404974 -2.210011839930803 0.3347035565835246 0.0461405018374895 -0.0026105622037256933 -49.233602052740274 -15.267580611488983 94.82189553986956 2.2421476814527734 9.36675422491444e+18 -9.36675422491444e+18 200.0 122.39999999999998 400.0 2.4186 -2.4185 2.4185 0.0 200.0 0.0 0.0 0.0 0.0 0.0 0.0 0.0 0.0 0.0 0.0 
1.72 1.5253866845699955 -1.2709661445671454 -2.205276320190329 0.33741595008122793 0.045571538582907994 -0.002643132306786739 -40.00928781575039 29.509330209418923 59.57155148841782 2.427015368874338 -1.80818386014882e+17 1.8081838601488192e+17 200.0 124.0 400.0 2.4186 -2.4185 2.4185 0.0 200.0 0.0 0.0 0.0 0.0 0.0 0.0 0.0 0.0 0.0 0.0 
1.728 1.5259420178878975 -1.2783563621107896 -2.2004960679873813 0.3400584690492414 0.04501620722874892 -0.0026757162974873 -39.20897397726715 9.5873517373391 60.11368005353771 2.4221976089507833 6.73890420262314e+17 -6.738904202623141e+17 200.0 125.60000000000002 400.0 2.4186 -2.4185 2.4185 0.0 200.0 0.0 0.0 0.0 0.0 0.0 0.0 0.0 0.0 0.0 0.0 
1.736 1.526484193784552 -1.2857213798682932 -2.1956714419979786 0.3426314284789165 0.044474033296582116 -0.002708313588237939 -40.79855049979883 24.166217544667045 61.80563054341098 2.4204527657140655 -2.483193890983962e+17 2.4831938909839613e+17 200.0 127.19999999999999 400.0 2.4186 -2.4185 2.4185 0.0 200.0 0.0 0.0 0.0 0.0 0.0 0.0 0.0 0.0 0.0 0.0 
1.744 1.5270136654126727 -1.2930611789570876 -2.190802793704743 0.34513516032970193 0.04394456363366482 -0.002740923617900037 -41.42137731042913 36.665671068740345 61.18298781604595 2.4266409657339585 -1.9440671185601782e+17 1.9440671185601776e+17 200.0 128.8 400.0 2.4186 -2.4185 2.4185 0.0 200.0 0.0 0.0 0.0 0.0 0.0 0.0 0.0 0.0 0.0 0.0 
1.752 1.5275308657590494 -1.3003757634916666 -2.1858904673178152 0.3475700124068579 0.0434273652531841 -0.0027735458503455016 -41.44827829107675 40.07475448221516 60.323603052415734 2.4281972763325053 1.9299829473315126e+17 -1.9299829473315133e+17 200.0 130.40000000000003 400.0 2.4186 -2.4185 2.4185 0.0 200.0 0.0 0.0 0.0 0.0 0.0 0.0 0.0 0.0 0.0 0.0 
1.76 1.5280362087311052 -1.307665159328304 -2.1809347997017783 0.349936346876365 0.04292202424769418 -0.0028061797731075365 -51.96306031166898 27.021150603542008 92.2927156070524 2.4264679577810195 1.7699313538374157e+17 -1.7699313538374163e+17 200.0 132.0 400.0 2.4186 -2.4185 2.4185 0.0 200.0 0.0 0.0 0.0 0.0 0.0 0.0 0.0 0.0 0.0 0.0 
1.768 1.5285300901754786 -1.3149294128742768 -2.175936120308277 0.35223453895071577 0.04242814477049524 -0.0028388248961159625 -72.62509030248579 39.78549633607817 149.99519804009446 2.4310820773072384 -1.702852531803736e+17 1.702852531803735e+17 200.0 133.60000000000002 400.0 2.4186 -2.4185 2.4185 0.0 200.0 0.0 0.0 0.0 0.0 0.0 0.0 0.0 0.0 0.0 0.0 
1.776 1.5290128888334165 -1.3221685899581166 -2.1708947511140453 0.3544649761200427 0.04194534808035374 -0.00287148075051095 -33.13690496039686 31.70378612640501 36.04538559856382 2.424642811852289 -1.839097177427859e+17 1.8390971774278586e+17 200.0 135.2 400.0 2.4186 -2.4185 2.4185 0.0 200.0 0.0 0.0 0.0 0.0 0.0 0.0 0.0 0.0 0.0 0.0 
1.784 1.5294849672374076 -1.3293827747576552 -2.1658110065640135 0.35662805655306284 0.04147327164473726 -0.0029041468875300722 -43.86690535878213 54.35582855883143 63.80863594190279 2.4179448025605685 -4.778832949346105e+17 4.778832949346104e+17 200.0 136.8 400.0 2.4186 -2.4185 2.4185 0.0 200.0 0.0 0.0 0.0 0.0 0.0 0.0 0.0 0.0 0.0 0.0 
1.792 1.5299466725531272 -1.3365720687828306 -2.1606851935192193 0.3587241880676151 0.04101156829796409 -0.002936822877463157 -43.135928217527045 29.807361553410132 64.32812986348362 2.4258582023396853 1.8551087120587843e+17 -1.8551087120587846e+17 200.0 138.40000000000003 400.0 2.4186 -2.4185 2.4185 0.0 200.0 0.0 0.0 0.0 0.0 0.0 0.0 0.0 0.0 0.0 0.0 
1.8 1.530398337370465 -1.3437365899104217 -2.155517611209217 0.3607537873346285 0.040559905450092006 -0.002969508308670461 -42.689142492108715 33.41150380104507 62.10656917984419 2.42763636719651 -3.1783014532629965e+17 3.178301453262996e+17 200.0 140.0 400.0 2.4186 -2.4185 2.4185 0.0 200.0 0.0 0.0 0.0 0.0 0.0 0.0 0.0 0.0 0.0 0.0 
1.808 1.5308402804471166 -1.3508764714680632 -2.150308551188693 0.362717278971445 0.04011796434341022 -0.0030022027866598707 -45.36678646800682 69.09378967342305 65.3381548648688 2.4268679838509337 -6.450318822393124e+17 6.450318822393124e+17 200.0 141.60000000000002 400.0 2.4186 -2.4185 2.4185 0.0 200.0 0.0 0.0 0.0 0.0 0.0 0.0 0.0 0.0 0.0 0.0 
1.816 1.5312728074079542 -1.357991861365044 -2.1450582972980143 0.3646150942546833 0.03968543935303566 -0.0030349059332189367 -45.95095497693829 51.987870773127966 68.56261251769989 2.427651401516187 4.1353447818659405e+17 -4.1353447818659405e+17 200.0 143.20000000000005 400.0 2.4186 -2.4185 2.4185 0.0 200.0 0.0 0.0 0.0 0.0 0.0 0.0 0.0 0.0 0.0 0.0 
1.824 1.531696211403157 -1.3650829212675601 -2.1397671256274178 0.36644767048106974 0.039262037328754044 -0.003067617385598293 -84.14257764935788 59.965232413526174 178.10635000618615 2.4448927784827856 -7.714050640991238e+17 7.714050640991237e+17 200.0 144.8 400.0 2.4186 -2.4185 2.4185 0.0 200.0 0.0 0.0 0.0 0.0 0.0 0.0 0.0 0.0 0.0 0.0 
1.832 1.532110773727851 -1.372149825816225 -2.134435304484572 0.36821545034660463 0.038847476975441705 -0.00310033679574279 -45.86375958062447 45.33696267894207 68.13113630113467 2.4316899156404657 -3.376872062999726e+17 3.3768720629997254e+17 200.0 146.40000000000003 400.0 2.4186 -2.4185 2.4185 0.0 200.0 0.0 0.0 0.0 0.0 0.0 0.0 0.0 0.0 0.0 0.0 
1.84 1.5325167644058142 -1.3791927618837643 -2.1290630943652458 0.36991888081825675 0.0384414882692866 -0.0031330638295673147 35.12985631118889 -92.93978565474052 -153.91800194571445 2.4030713874768583 1.242465715031775e+18 -1.2424657150317747e+18 200.0 148.0 400.0 2.4186 -2.4185 2.4185 0.0 200.0 0.0 0.0 0.0 0.0 0.0 0.0 0.0 0.0 0.0 0.0 
1.848 1.532914442739607 -1.3862119278709664 -2.1236507479268076 0.37155841260976064 0.03804381190769846 -0.0031657981662743598 -26.386236403273852 9.589104747255682 14.018213236326535 2.4186482080049325 -2.802220976305111e+17 2.802220976305111e+17 200.0 149.60000000000002 400.0 2.4186 -2.4185 2.4185 0.0 200.0 0.0 0.0 0.0 0.0 0.0 0.0 0.0 0.0 0.0 0.0 
1.856 1.533304057829319 -1.393207533039035 -2.1181985099643152 0.3731344994795749 0.037654198790616926 -0.0031985394977103246 -46.143527205876225 36.256624742098275 68.34357457512377 2.4248651453573418 -1.9523160517776746e+17 1.952316051777674e+17 200.0 151.20000000000005 400.0 2.4186 -2.4185 2.4185 0.0 200.0 0.0 0.0 0.0 0.0 0.0 0.0 0.0 0.0 0.0 0.0 
1.864 1.5336858490619694 -1.400179796876631 -2.112706617388927 0.37464759759853505 0.037272409530942664 -0.0032312875277587427 -46.46255686088971 35.289437055056666 68.83618990180285 2.4361611289133673 2.267249647418352e+17 -2.2672496474183526e+17 200.0 152.8 400.0 2.4186 -2.4185 2.4185 0.0 200.0 0.0 0.0 0.0 0.0 0.0 0.0 0.0 0.0 0.0 0.0 
1.872 1.5340600465734406 -1.4071289484999605 -2.107175299208394 0.37609816461840895 0.036898213992808876 -0.00326404197176708 -46.59560841861293 27.693164355111172 69.32282665983708 2.426290893837593 -4.3173332405576256e+17 4.317333240557625e+17 200.0 154.40000000000003 400.0 2.4186 -2.4185 2.4185 0.0 200.0 0.0 0.0 0.0 0.0 0.0 0.0 0.0 0.0 0.0 0.0 
1.88 1.5344268716847012 -1.4140552260843706 -2.1016047765094 0.37748665967420925 0.0365313908552347 -0.003296802556005816 -56.65233203874898 56.261754449691985 95.67702061565414 2.4293589584652224 -2.049404140658606e+17 2.049404140658605e+17 200.0 156.00000000000006 400.0 2.4186 -2.4185 2.4185 0.0 200.0 0.0 0.0 0.0 0.0 0.0 0.0 0.0 0.0 0.0 0.0 
1.888 1.534786537313944 -1.4209588763259857 -2.0959952624414946 0.37881354232398934 0.03617172719999325 -0.003329569017157365 -26.98046937326147 -0.46484652713861563 13.462575965353935 2.413854837876626 -4.098887839323447e+17 4.0988878393234477e+17 200.0 157.60000000000002 400.0 2.4186 -2.4185 2.4185 0.0 200.0 0.0 0.0 0.0 0.0 0.0 0.0 0.0 0.0 0.0 0.0 
1.896 1.5351392483661508 -1.4278401539320171 -2.090346962202403 0.38007927204171743 0.03581901812212507 -0.003362341101832802 -47.48461947237864 38.134487545083815 69.46284485106882 2.4238889463688453 -2.984144590346358e+17 2.984144590346357e+17 200.0 159.20000000000005 400.0 2.4186 -2.4185 2.4185 0.0 200.0 0.0 0.0 0.0 0.0 0.0 0.0 0.0 0.0 0.0 0.0 
1.904 1.5354852021014949 -1.4346993211384196 -2.0846600730244864 0.38128430823819537 0.03547306636139319 -0.003395118566115255 -85.67942893722923 48.73724988449483 178.9422485235365 2.434921287623247 -8.195494170180402e+17 8.195494170180399e+17 200.0 160.8 400.0 2.4186 -2.4185 2.4185 0.0 200.0 0.0 0.0 0.0 0.0 0.0 0.0 0.0 0.0 0.0 0.0 
1.912 1.5358245884838837 -1.4415366472536761 -2.078934784162122 0.38242910914969563 0.035133681953913684 -0.0034279011751274955 -67.31156680880198 46.15608182831277 125.33381444142299 2.4331581249504013 -2.3546662292979498e+17 2.3546662292979488e+17 200.0 162.40000000000003 400.0 2.4186 -2.4185 2.4185 0.0 200.0 0.0 0.0 0.0 0.0 0.0 0.0 0.0 0.0 0.0 0.0 
1.92 1.5361575905108686 -1.4483524082275128 -2.073171276879801 0.3835141317427302 0.03480068190210835 -0.0034606887026230274 -86.05039504311114 47.80276877546635 179.03188468474897 2.4284199184930118 4.772442092469401e+17 -4.7724420924694016e+17 200.0 164.0 400.0 2.4186 -2.4185 2.4185 0.0 200.0 0.0 0.0 0.0 0.0 0.0 0.0 0.0 0.0 0.0 0.0 
1.928 1.536484384526052 -1.4551468862434538 -2.0673697244407174 0.38453983126371494 0.034473889862367685 -0.003493480930598783 -49.770186230435606 57.91693341511042 72.66559847401108 2.433110311375995 -3.1289406182120256e+17 3.128940618212025e+17 200.0 165.60000000000002 400.0 2.4186 -2.4185 2.4185 0.0 200.0 0.0 0.0 0.0 0.0 0.0 0.0 0.0 0.0 0.0 0.0 
1.936 1.53680514051505 -1.4619203693341383 -2.0615302920956595 0.3855066607563826 0.03415313584905514 -0.0035262776489280163 -49.81323793225402 43.67338631904066 73.13634921592367 2.4277912904771544 2.2806876092217747e+17 -2.2806876092217757e+17 200.0 167.2 400.0 2.4186 -2.4185 2.4185 0.0 200.0 0.0 0.0 0.0 0.0 0.0 0.0 0.0 0.0 0.0 0.0 
1.944 1.537120022386002 -1.4686731510184128 -2.055653137071987 0.38641507079730175 0.03383825595403886 -0.003559078655012688 -69.13987966364542 34.50272073616259 129.15140763258665 2.431797936404138 -3.835111111532439e+17 3.8351111115324384e+17 200.0 168.8 400.0 2.4186 -2.4185 2.4185 0.0 200.0 0.0 0.0 0.0 0.0 0.0 0.0 0.0 0.0 0.0 0.0 
1.952 1.537429188235545 -1.475405529959232 -2.0497384085625034 0.38726550898228984 0.03352909208064399 -0.0035918837534537913 -52.722913446015895 57.37263451326717 79.68608810240077 2.4161022319017595 -1.0478348147896457e+18 1.0478348147896457e+18 200.0 170.39999999999998 400.0 2.4186 -2.4185 2.4185 0.0 200.0 0.0 0.0 0.0 0.0 0.0 0.0 0.0 0.0 0.0 0.0 
1.96 1.537732790601111 -1.4821178096414767 -2.0437862477140265 0.38805841982546063 0.03322549169145211 -0.0036246927557384455 -51.000724896438115 50.567513017680355 74.52414031114203 2.429567040607713 -2.6108093910106048e+17 2.610809391010604e+17 200.0 172.0 400.0 2.4186 -2.4185 2.4185 0.0 200.0 0.0 0.0 0.0 0.0 0.0 0.0 0.0 0.0 0.0 0.0 
1.968 1.5380309767003524 -1.488810298068818 -2.0377967876154695 0.3887942441387864 0.03292730756880059 -0.0036575054799432116 -51.26070151995685 45.50582344642538 74.98553939725404 2.4282854576884096 2.5696244319201654e+17 -2.5696244319201664e+17 200.0 173.60000000000002 400.0 2.4186 -2.4185 2.4185 0.0 200.0 0.0 0.0 0.0 0.0 0.0 0.0 0.0 0.0 0.0 0.0 
1.976 1.5383238886584483 -1.495483307478818 -2.0317701532852444 0.38947341901215315 0.03263439758745003 -0.003690321750452459 -643.7143402511418 75.9711357981916 1790.2086148186986 2.529847450020891 -7.369109911273076e+18 7.369109911273076e+18 200.0 175.2 400.0 2.4186 -2.4185 2.4185 0.0 200.0 0.0 0.0 0.0 0.0 0.0 0.0 0.0 0.0 0.0 0.0 
1.984 1.5386116637239826 -1.5021371540754966 -2.0257064616578004 0.39009637745220216 0.032346624498883626 -0.003723141397690463 -52.32845187991022 15.449448963522391 78.42395517702836 2.4295520391474836 5.463625612724934e+17 -5.463625612724933e+17 200.0 176.8 400.0 2.4186 -2.4185 2.4185 0.0 200.0 0.0 0.0 0.0 0.0 0.0 0.0 0.0 0.0 0.0 0.0 
1.992 1.5388944344740654 -1.5087721577786124 -2.019605821569124 0.39066354802301806 0.032063855725927376 -0.003755964257867569 -52.557723226867495 14.939044637728516 78.48697138911037 2.4280132281198483 -8.479259699137422e+17 8.479259699137422e+17 200.0 178.40000000000003 400.0 2.4186 -2.4185 2.4185 0.0 200.0 0.0 0.0 0.0 0.0 0.0 0.0 0.0 0.0 0.0 0.0 
2.0 1.539172329009296 -1.5153886419889728 -2.013468333741012 0.3911753546672294 0.03178596316798706 -0.003788790172738345 -54.98297062667951 79.6167297289733 81.82332779516166 2.434322708958467 1.0890304533692924e+18 -1.0890304533692924e+18 200.0 180.0 400.0 2.4186 -2.4185 2.4185 0.0 200.0 0.0 0.0 0.0 0.0 -0.0 -1000.0 -0.0 0.0 0.0 0.0 
2.008 1.5394400540893232 -1.5218551437034642 -2.0074179352643284 0.3916236150302028 0.031518240025889814 -0.0038209623855662463 -53.62199909638547 79.73626145211789 77.32218116623326 2.377889189639417 3.290192582181574e+18 -3.290192582181574e+18 200.0 181.56799999999998 400.0 2.4186 -2.4185 2.4185 0.0 192.0 0.0 0.0 0.0 0.0 -0.0 -1000.0 -0.0 0.0 0.0 0.0 
2.016 1.5396926675379714 -1.5280415769240472 -2.0015813978069867 0.39200435812503454 0.031265628436162984 -0.003851823936340666 -71.82467535213327 87.09698120014829 129.2008456542464 2.4361280114218498 -3.1362722444255584e+17 3.1362722444255565e+17 200.0 183.0719999999999 400.0 2.4186 -2.4185 2.4185 0.0 184.0 0.0 0.0 0.0 0.0 -0.0 -1000.0 -0.0 0.0 0.0 0.0 
2.024 1.5399307826627808 -1.5339502165657597 -1.995962917929989 0.39232405494300626 0.031027515091307366 -0.0038813744023578063 -35.49524916355494 36.91033276910193 25.645753804322112 2.411614242561224 4.2402729512724595e+17 -4.24027295127246e+17 200.0 184.51200000000017 400.0 2.4186 -2.4185 2.4185 0.0 176.0 0.0 0.0 0.0 0.0 -0.0 -1000.0 -0.0 0.0 0.0 0.0 
2.032 1.5401549650759692 -1.5395831873924006 -1.9905664957600027 0.3925888299515812 0.030803334379062127 -0.003909613405581782 -56.63991559657411 216.1870959298617 78.47898256272846 2.4659656631029234 3.590936325910153e+18 -3.590936325910153e+18 200.0 185.88799999999992 400.0 2.4186 -2.4185 2.4185 0.0 168.0 0.0 0.0 0.0 0.0 -0.0 -1000.0 -0.0 0.0 0.0 0.0 
2.04 1.5403657363092678 -1.544942470379958 -1.9853959388692137 0.3928044713750116 0.03059256476767586 -0.003936540608176488 -53.80469760182031 10.99647881424778 78.78807014975244 2.442418778234243 -9.169347534054755e+17 9.169347534054753e+17 200.0 187.2000000000001 400.0 2.4186 -2.4185 2.4185 0.0 160.0 0.0 0.0 0.0 0.0 -0.0 -1000.0 -0.0 0.0 0.0 0.0 
2.048 1.5405635770596244 -1.550029908964675 -1.9804548656419687 0.39297644064473625 0.030394725560199037 -0.0039621557084941195 -361.56540530040496 20450.892064038144 86.79669761051377 3.912498799848179 3.71050033435527e+20 -3.71050033435527e+20 200.0 188.4480000000002 400.0 2.4186 -2.4185 2.4185 0.0 152.0 0.0 0.0 0.0 0.0 -0.0 -1000.0 -0.0 0.0 0.0 0.0 
2.056 1.5407489301053963 -1.554847215139573 -1.975746708173752 0.39310988162087535 0.030209373978237444 -0.003986458437471675 -73.25096568514289 70.07565429271939 131.62093444929272 2.428234913363708 2.3873259924313123e+17 -2.3873259924313136e+17 200.0 189.6320000000002 400.0 2.4186 -2.4185 2.4185 0.0 144.0 0.0 0.0 0.0 0.0 -0.0 -1000.0 -0.0 0.0 0.0 0.0 
2.064 1.540922202927618 -1.5593959753689333 -1.9712747147460847 0.3932096287260942 0.030036102540773796 -0.004009448555392079 -91.10387584047018 61.12696743734817 183.2890747037134 2.4357371408228317 4.081528049461995e+17 -4.081528049461996e+17 200.0 190.75200000000018 400.0 2.4186 -2.4185 2.4185 0.0 136.0 0.0 0.0 0.0 0.0 -0.0 -1000.0 -0.0 0.0 0.0 0.0 
2.072 1.5410837700665887 -1.5636776562951191 -1.9670419519188824 0.39328021498035803 0.02987453670748073 -0.004031125848973021 -2.8675159442915845 23.99721551862631 -71.19342589315615 2.4267867151120592 -2.907753224963286e+17 2.9077532249632864e+17 200.0 191.8080000000001 400.0 2.4186 -2.4185 2.4185 0.0 128.0 0.0 0.0 0.0 0.0 -0.0 -1000.0 -0.0 0.0 0.0 0.0 
2.08 1.5412339752402389 -1.5676936102161299 -1.9630513062798118 0.3933258790523251 0.029724332760401158 -0.004051490128750025 -55.24193784635333 20.07912391105529 80.31368521599188 2.410633425742081 -4.2188352295019213e+18 4.2188352295019213e+18 200.0 192.79999999999993 400.0 2.4186 -2.4185 2.4185 0.0 120.0 0.0 0.0 0.0 0.0 -0.0 -1000.0 -0.0 0.0 0.0 0.0 
2.088 1.541373133247467 -1.5714450803156605 -1.9593054858881882 0.3933505719771373 0.029585175900644658 -0.004070541226725737 -39.04715784176678 54.21253609045042 31.57643866717396 2.429177474642202 -4.3088119213161574e+17 4.308811921316157e+17 200.0 193.72800000000012 400.0 2.4186 -2.4185 2.4185 0.0 112.0 0.0 0.0 0.0 0.0 -0.0 -1000.0 -0.0 0.0 0.0 0.0 
2.096 1.541501531676767 -1.574933205630235 -1.9558070214489804 0.39335796338247087 0.029456778539735624 -0.004088278994259841 -56.79492784330727 97.44384110198418 80.81309083616888 2.4294738368875626 1.013273609899277e+18 -1.0132736098992772e+18 200.0 194.59199999999984 400.0 2.4186 -2.4185 2.4185 0.0 104.0 0.0 0.0 0.0 0.0 -0.0 -1000.0 -0.0 0.0 0.0 0.0 
2.104 1.5416194324379662 -1.5781590257403897 -1.9525582672504442 0.39335144691285784 0.029338878767789782 -0.00410470330017772 -73.65628728772853 84.64836821796189 129.87443169365028 2.4349541540803252 -3.345704609573411e+17 3.3457046095734106e+17 200.0 195.39199999999994 400.0 2.4186 -2.4185 2.4185 0.0 96.0 0.0 0.0 0.0 0.0 -0.0 -1000.0 -0.0 0.0 0.0 0.0 
2.112 1.541727073132688 -1.5811234851747704 -1.9495614018969847 0.3933341456247006 0.029231238983176176 -0.004119814029078317 -56.49324590447296 59.84196338033461 80.90517100743523 2.433845425092029 3.143042840988426e+17 -3.143042840988427e+17 200.0 196.12799999999996 400.0 2.4186 -2.4185 2.4185 0.0 88.0 0.0 0.0 0.0 0.0 -0.0 -1000.0 -0.0 0.0 0.0 0.0 
2.12 1.5418246682772245 -1.5838274375177512 -1.946818428866739 0.3933089164441368 0.02913364466968409 -0.004133611079824415 -56.10070228596581 43.363550374450696 80.1916165830296 2.419164609597367 2.743516482723093e+17 -2.743516482723094e+17 200.0 196.79999999999993 400.0 2.4186 -2.4185 2.4185 0.0 80.0 0.0 0.0 0.0 0.0 -0.0 -1000.0 -0.0 0.0 0.0 0.0 
2.128 1.5419124103897819 -1.5862716492125162 -1.9443311769214147 0.3932783545322873 0.029045903308994703 -0.004146094364200836 -126.93290388383028 108.28036856107258 282.35998617906864 2.430533012765046 1.0312882949877709e+18 -1.0312882949877713e+18 200.0 197.40799999999984 400.0 2.4186 -2.4185 2.4185 0.0 72.0 0.0 0.0 0.0 0.0 -0.0 -1000.0 -0.0 0.0 0.0 0.0 
2.136 1.541990470952533 -1.588456803052746 -1.9421013003938126 0.3932447968563664 0.028967843418964623 -0.004157263805726696 -57.24764880740607 45.97610310793141 82.92933777812304 2.431009490802239 -2.8642000148223338e+17 2.8642000148223328e+17 200.0 197.9520000000001 400.0 2.4186 -2.4185 2.4185 0.0 64.0 0.0 0.0 0.0 0.0 -0.0 -1000.0 -0.0 0.0 0.0 0.0 
2.144 1.542059001257562 -1.5903835013570569 -1.9401302793764206 0.3932103258159536 0.028899313707543877 -0.004167119338611354 -56.91537840275542 44.20132887686823 81.8442857644204 2.422579220478941 -8.510508467502013e+17 8.510508467502012e+17 200.0 198.4319999999999 400.0 2.4186 -2.4185 2.4185 0.0 56.0 0.0 0.0 0.0 0.0 -0.0 -1000.0 -0.0 0.0 0.0 0.0 
2.152 1.5421181331445568 -1.5920522688212215 -1.9384194198323121 0.3931767718984105 0.028840182335011438 -0.004175660906844414 -5.197281798775248 31.034363577383594 -67.5680298211044 2.4232480566642307 -3.3346946935536224e+17 3.3346946935536224e+17 200.0 198.84800000000007 400.0 2.4186 -2.4185 2.4185 0.0 48.0 0.0 0.0 0.0 0.0 -0.0 -1000.0 -0.0 0.0 0.0 0.0 
2.16 1.5421679796369938 -1.5934635550438987 -1.9369698536475095 0.39314571668535203 0.02879033627790079 -0.004182888463410345 -55.31712569374847 68.80986404046337 75.8432212240545 2.483358030073211 1.9604402050329426e+18 -1.9604402050329426e+18 200.0 199.20000000000016 400.0 2.4186 -2.4185 2.4185 0.0 40.0 0.0 0.0 0.0 0.0 -0.0 -1000.0 -0.0 0.0 0.0 0.0 
2.168 1.5422086354825681 -1.594617736722346 -1.935782538641739 0.3931184945798125 0.028749680788510652 -0.0041888019696217854 -326.9778937639591 189.2916439702166 857.4124188588507 2.538009976525118 6.993663768829271e+18 -6.993663768829272e+18 200.0 199.4880000000001 400.0 2.4186 -2.4185 2.4185 0.0 32.0 0.0 0.0 0.0 0.0 -0.0 -1000.0 -0.0 0.0 0.0 0.0 
2.176 1.5422401776026937 -1.5955151195151007 -1.934858258552365 0.39309619488579406 0.02871813894539465 -0.0041934013945650475 -57.160006840388796 40.3881921180523 82.18603695352253 2.4250379914930833 -5.434000176480189e+17 5.434000176480188e+17 200.0 199.71200000000005 400.0 2.4186 -2.4185 2.4185 0.0 24.0 0.0 0.0 0.0 0.0 -0.0 -1000.0 -0.0 0.0 0.0 0.0 
2.184 1.542262665455043 -1.596155939569199 -1.9341976230040392 0.39307966344910983 0.028695651290904404 -0.004196686714652614 -55.28888691287907 -22.955121244615196 79.42215200767626 2.4314717330784656 2.3131121233361193e+18 -2.3131121233361193e+18 200.0 199.87199999999996 400.0 2.4186 -2.4185 2.4185 0.0 16.0 0.0 0.0 0.0 0.0 -0.0 -1000.0 -0.0 0.0 0.0 0.0 
2.192 1.542276141312311 -1.596540364709982 -1.9338010674743702 0.39306950349304826 0.02868217555236391 -0.004198657913279399 -57.48310393308768 58.2471131148542 82.24769899160064 2.4292289375518257 2.5677237167344096e+17 -2.5677237167344106e+17 200.0 199.9679999999998 400.0 2.4186 -2.4185 2.4185 0.0 8.0 0.0 0.0 0.0 0.0 -0.0 -1000.0 -0.0 0.0 0.0 0.0 
2.2 1.5422806304596242 -1.5966684952920036 -1.9336688532636466 0.3930660766923013 0.028677686444634472 -0.004199314980579184 -57.44455908519296 55.00901659135287 82.26187122032272 2.4294134871178543 -2.7247364949363066e+17 2.7247364949363056e+17 200.0 200.0 400.0 2.4186 -2.4185 2.4185 0.0 0.0 0.0 0.0 0.0 0.0 -0.0 -1000.0 -0.0 0.0 0.0 0.0 
