Fleaurent/UniversalRobot/csv/robot_movej_Trapez.csv
timestamp target_q_0 target_q_1 target_q_2 target_q_3 target_q_4 target_q_5 target_qd_0 target_qd_1 target_qd_2 target_qd_3 target_qd_4 target_qd_5 target_qdd_0 target_qdd_1 target_qdd_2 target_qdd_3 target_qdd_4 target_qdd_5 target_current_0 target_current_1 target_current_2 target_current_3 target_current_4 target_current_5 target_moment_0 target_moment_1 target_moment_2 target_moment_3 target_moment_4 target_moment_5 actual_q_0 actual_q_1 actual_q_2 actual_q_3 actual_q_4 actual_q_5 actual_qd_0 actual_qd_1 actual_qd_2 actual_qd_3 actual_qd_4 actual_qd_5 actual_current_0 actual_current_1 actual_current_2 actual_current_3 actual_current_4 actual_current_5 joint_control_output_0 joint_control_output_1 joint_control_output_2 joint_control_output_3 joint_control_output_4 joint_control_output_5 actual_TCP_pose_0 actual_TCP_pose_1 actual_TCP_pose_2 actual_TCP_pose_3 actual_TCP_pose_4 actual_TCP_pose_5 actual_TCP_speed_0 actual_TCP_speed_1 actual_TCP_speed_2 actual_TCP_speed_3 actual_TCP_speed_4 actual_TCP_speed_5 actual_TCP_force_0 actual_TCP_force_1 actual_TCP_force_2 actual_TCP_force_3 actual_TCP_force_4 actual_TCP_force_5 target_TCP_pose_0 target_TCP_pose_1 target_TCP_pose_2 target_TCP_pose_3 target_TCP_pose_4 target_TCP_pose_5 target_TCP_speed_0 target_TCP_speed_1 target_TCP_speed_2 target_TCP_speed_3 target_TCP_speed_4 target_TCP_speed_5
2335.1279999999997 0.0 -1.5707963267948966 -1.5707963267948966 0.0 1.5707963267948966 0.0 0.0 0.0 0.0 0.0 0.0 0.0 0.0 0.0 0.0 0.0 0.0 0.0 -1.8327750199862536e-26 0.555172973447796 0.7573864583558305 0.07057808899065858 -9.380070923910231e-28 0.0 -2.1032924999364705e-25 6.394759450000002 6.3947594500000005 0.2913103000000004 -3.894025929994733e-27 0.0 0.0 -1.5707839171039026 -1.5707715193377894 -1.6514454976856996e-05 1.570719599723816 -5.990663637334137e-05 0.0 0.0 -0.0 0.0 0.0 0.0 0.0493469275534153 0.5405731797218323 0.6847434639930725 -0.008951950818300247 -0.027974845841526985 -0.134279265999794 0.0403747595846653 0.5607605576515198 0.6832184791564941 -0.007832957431674004 -0.02685585245490074 -0.12868429720401764 0.29580468073656446 -0.1130410397604868 0.48156222121859393 -1.2101322681288986 1.2098500911090697 -1.209085889949962 0.0 0.0 0.0 0.0 0.0 0.0 2.034485510784896 -4.661925654968511 1.482434691679328 0.6234013475365261 -0.41982526570960216 0.5140906943902571 0.29580949455060795 -0.11303468883756389 0.4815525763646191 -1.210139742515539 1.2098370768821622 -1.20897546102981 0.0 0.0 0.0 0.0 0.0 0.0
2335.136 0.0 -1.5707963267948966 -1.5707963267948966 0.0 1.5707963267948966 0.0 0.0 0.0 0.0 0.0 0.0 0.0 0.0 0.0 0.0 0.0 0.0 0.0 -1.8327750199862536e-26 0.555172973447796 0.7573864583558305 0.07057808899065858 -9.380070923910231e-28 0.0 -2.1032924999364705e-25 6.394759450000002 6.3947594500000005 0.2913103000000004 -3.894025929994733e-27 0.0 -1.1746083394825746e-05 -1.5707724730121058 -1.5707715193377894 -4.593526021778871e-06 1.5707556009292603 -5.990663637334137e-05 0.0 0.0 -0.0 0.0 0.0 0.0 0.0471038855612278 0.5630035996437073 0.6801683902740479 -0.008951950818300247 -0.022379877045750618 -0.12756529450416565 0.0403747595846653 0.5607605576515198 0.6862685084342957 -0.011189938522875309 -0.02685585245490074 -0.12868429720401764 0.29579856647052033 -0.11304155391725214 0.4815665859933826 -1.2101265295221943 1.2098150389996882 -1.2090791060859463 0.0 0.0 0.0 0.0 0.0 0.0 3.398179831536938 -5.1266892179041 1.6855653283015273 0.5922540141245491 -0.5195035975441711 0.5262447024040254 0.29580949455060795 -0.11303468883756389 0.4815525763646191 -1.210139742515539 1.2098370768821622 -1.20897546102981 0.0 0.0 0.0 0.0 0.0 0.0
2335.144 0.0 -1.5707963267948966 -1.5707963267948966 0.0 1.5707963267948966 0.0 0.0 0.0 0.0 0.0 0.0 0.0 0.0 0.0 0.0 0.0 0.0 0.0 -1.8327750199862536e-26 0.555172973447796 0.7573864583558305 0.07057808899065858 -9.380070923910231e-28 0.0 -2.1032924999364705e-25 6.394759450000002 6.3947594500000005 0.2913103000000004 -3.894025929994733e-27 0.0 0.0 -1.5707362333880823 -1.5708192030536097 -4.593526021778871e-06 1.5707316398620605 -7.230440248662262e-05 0.0 0.0 -0.0 0.0 0.0 0.0 0.0336456336081028 0.5495453476905823 0.6862685084342957 -0.006713963113725185 -0.03021283447742462 -0.11637535691261292 0.0403747595846653 0.5607605576515198 0.6847434639930725 -0.008951950818300247 -0.02685585245490074 -0.12868429720401764 0.29579203152375416 -0.1130400113652876 0.4815632071721162 -1.2101384004468618 1.2098264807155341 -1.2090917455704326 0.0 0.0 0.0 0.0 0.0 0.0 2.4522195728315106 -3.9855670035479425 1.467124903273215 0.5402937153460258 -0.4463848207468896 0.46878066842896915 0.29580949455060795 -0.11303468883756389 0.4815525763646191 -1.210139742515539 1.2098370768821622 -1.20897546102981 0.0 0.0 0.0 0.0 0.0 0.0
2335.152 0.0 -1.5707963267948966 -1.5707963267948966 0.0 1.5707963267948966 0.0 0.0 0.0 0.0 0.0 0.0 0.0 0.0 0.0 0.0 0.0 0.0 0.0 -1.8327750199862536e-26 0.555172973447796 0.7573864583558305 0.07057808899065858 -9.380070923910231e-28 0.0 -2.1032924999364705e-25 6.394759450000002 6.3947594500000005 0.2913103000000004 -3.894025929994733e-27 0.0 0.0 -1.5707600752459925 -1.5707953611956995 -2.8912221090138246e-05 1.57077956199646 -4.7985707418263246e-05 0.0 0.0 -0.0 0.0 0.0 0.0 0.0426178015768528 0.5271149277687073 0.6862685084342957 -0.002237987704575062 -0.04252176731824875 -0.13092228770256042 0.0403747595846653 0.5607605576515198 0.6847434639930725 -0.004475975409150124 -0.027974845841526985 -0.12868429720401764 0.2957999282888712 -0.11303608198018773 0.48156120150665327 -1.2101610348717426 1.2098206264997773 -1.2090270707807076 0.0 0.0 0.0 0.0 0.0 0.0 1.264761500447952 -4.166145464297673 1.5622082066648761 0.6078928846145564 -0.3165272223172449 0.5410173300533193 0.29580949455060795 -0.11303468883756389 0.4815525763646191 -1.210139742515539 1.2098370768821622 -1.20897546102981 0.0 0.0 0.0 0.0 0.0 0.0
2335.16 0.0 -1.5707963267948966 -1.5707963267948966 0.0 1.5707963267948966 0.0 0.0 0.0 0.0 0.0 0.0 0.0 0.0 0.0 0.0 0.0 0.0 0.0 -1.8327750199862536e-26 0.555172973447796 0.7573864583558305 0.07057808899065858 -9.380070923910231e-28 0.0 -2.1032924999364705e-25 6.394759450000002 6.3947594500000005 0.2913103000000004 -3.894025929994733e-27 0.0 1.1984225238848012e-05 -1.570796314870016 -1.5707476774798792 -5.2754079000294496e-05 1.5707316398620605 -5.990663637334137e-05 0.0 0.0 -0.0 0.0 0.0 0.0 0.0426178015768528 0.5517883896827698 0.6801683902740479 -0.002237987704575062 -0.025736859068274498 -0.13987423479557037 0.0403747595846653 0.5607605576515198 0.6847434639930725 -0.007832957431674004 -0.031331829726696014 -0.12868429720401764 0.2958111738282554 -0.1130365239348835 0.4815626187033633 -1.210161859004398 1.2098506875415693 -1.2090564878585839 0.0 0.0 0.0 0.0 0.0 0.0 2.8058747137318876 -4.61543774808719 1.8323443886267043 0.6493651034022285 -0.42575922339094263 0.4997672188789317 0.29580949455060795 -0.11303468883756389 0.4815525763646191 -1.210139742515539 1.2098370768821622 -1.20897546102981 0.0 0.0 0.0 0.0 0.0 0.0
2335.168 0.0 -1.5707963267948966 -1.5707963267948966 0.0 1.5707963267948966 0.0 0.0 0.0 0.0 0.0 0.0 0.0 0.0 0.0 0.0 0.0 0.0 0.0 -1.8327750199862536e-26 0.555172973447796 0.7573864583558305 0.07057808899065858 -9.380070923910231e-28 0.0 -2.1032924999364705e-25 6.394759450000002 6.3947594500000005 0.2913103000000004 -3.894025929994733e-27 0.0 0.0 -1.5707362333880823 -1.5707595984088343 -1.6514454976856996e-05 1.570719599723816 -5.990663637334137e-05 0.0 0.0 -0.0 0.0 0.0 0.0 0.0358886756002903 0.5540314316749573 0.6893185973167419 -0.008951950818300247 -0.019022895023226738 -0.12644630670547485 0.0403747595846653 0.5607605576515198 0.6847434639930725 -0.007832957431674004 -0.02685585245490074 -0.12868429720401764 0.2957879403540851 -0.11304107023728072 0.4815798451122921 -1.2100883134074643 1.209806288853909 -1.2091141625063153 0.0 0.0 0.0 0.0 0.0 0.0 2.570716844725012 -3.939693886749062 1.2827875170825362 0.5869304499725275 -0.4820147609423744 0.4129367053070372 0.29580949455060795 -0.11303468883756389 0.4815525763646191 -1.210139742515539 1.2098370768821622 -1.20897546102981 0.0 0.0 0.0 0.0 0.0 0.0
2335.176 0.0 -1.5707963267948966 -1.5707963267948966 0.0 1.5707963267948966 0.0 0.0 0.0 0.0 0.0 0.0 0.0 0.0 0.0 0.0 0.0 0.0 0.0 -1.8327750199862536e-26 0.555172973447796 0.7573864583558305 0.07057808899065858 -9.380070923910231e-28 0.0 -2.1032924999364705e-25 6.394759450000002 6.3947594500000005 0.2913103000000004 -3.894025929994733e-27 0.0 -2.366701234990387e-05 -1.5707243124591272 -1.5707715193377894 7.152557373046875e-06 1.57077956199646 -7.230440248662262e-05 0.0 0.0 -0.0 0.0 0.0 0.0 0.0493469275534153 0.5787048935890198 0.6755932569503784 -0.004475975409150124 -0.025736859068274498 -0.1353982537984848 0.0403747595846653 0.5607605576515198 0.6847434639930725 -0.01007094420492649 -0.03245082125067711 -0.12868429720401764 0.29578034233484474 -0.11304312398985543 0.48158179334484574 -1.2100972123201355 1.209756249065859 -1.209107766243012 0.0 0.0 0.0 0.0 0.0 0.0 4.40509695660607 -5.868754506086221 1.9846388742196217 0.628633040744452 -0.5601803610044551 0.6029479173579166 0.29580949455060795 -0.11303468883756389 0.4815525763646191 -1.210139742515539 1.2098370768821622 -1.20897546102981 0.0 0.0 0.0 0.0 0.0 0.0
2335.1839999999997 0.0 -1.5707963267948966 -1.5707963267948966 0.0 1.5707963267948966 0.0 0.0 0.0 0.0 0.0 0.0 0.0 0.0 0.0 0.0 0.0 0.0 0.0 -1.8327750199862536e-26 0.555172973447796 0.7573864583558305 0.07057808899065858 -9.380070923910231e-28 0.0 -2.1032924999364705e-25 6.394759450000002 6.3947594500000005 0.2913103000000004 -3.894025929994733e-27 0.0 -2.366701234990387e-05 -1.5707243124591272 -1.5707715193377894 -5.2754079000294496e-05 1.5707675218582153 -4.7985707418263246e-05 0.0 0.0 -0.0 0.0 0.0 0.0 0.0403747595846653 0.5562744736671448 0.6771183013916016 -0.0055949692614376545 -0.034688808023929596 -0.1365172564983368 0.0403747595846653 0.5607605576515198 0.6801683902740479 -0.008951950818300247 -0.031331829726696014 -0.12756529450416565 0.2957854548314497 -0.11304411254814792 0.4815768614384247 -1.2101177351275763 1.2098207013893914 -1.2090703457257839 0.0 0.0 0.0 0.0 0.0 0.0 3.1612979137556816 -4.864396386912394 1.8952276551601526 0.6338234707272198 -0.4665422055559344 0.5619483534795097 0.29580949455060795 -0.11303468883756389 0.4815525763646191 -1.210139742515539 1.2098370768821622 -1.20897546102981 0.0 0.0 0.0 0.0 0.0 0.0
2335.192 0.0 -1.5707963267948966 -1.5707963267948966 0.0 1.5707963267948966 0.0 0.0 0.0 0.0 0.0 0.0 0.0 0.0 0.0 0.0 0.0 0.0 0.0 -1.8327750199862536e-26 0.555172973447796 0.7573864583558305 0.07057808899065858 -9.380070923910231e-28 0.0 -2.1032924999364705e-25 6.394759450000002 6.3947594500000005 0.2913103000000004 -3.894025929994733e-27 0.0 -1.1746083394825746e-05 -1.5707600752459925 -1.5707715193377894 -5.2754079000294496e-05 1.5707675218582153 -0.000108067189351857 0.0 0.0 -0.0 0.0 0.0 0.0 0.0403747595846653 0.5719757676124573 0.6923686861991882 -0.0055949692614376545 -0.022379877045750618 -0.11749435216188431 0.0403747595846653 0.5607605576515198 0.6832184791564941 -0.008951950818300247 -0.02909383922815323 -0.12868429720401764 0.2957985915799379 -0.1130405739677103 0.4815662864768155 -1.21019400193581 1.20980978185319 -1.209088836929688 0.0 0.0 0.0 0.0 0.0 0.0 3.4006579246800697 -4.722231024282276 1.2187116678227163 0.5455227976924667 -0.5425961130475769 0.4929137352810674 0.29580949455060795 -0.11303468883756389 0.4815525763646191 -1.210139742515539 1.2098370768821622 -1.20897546102981 0.0 0.0 0.0 0.0 0.0 0.0
2335.2 0.0 -1.5707963267948966 -1.5707963267948966 0.0 1.5707963267948966 0.0 0.0 0.0 0.0 0.0 0.0 0.0 0.0 0.0 0.0 0.0 0.0 0.0 -1.8327750199862536e-26 0.555172973447796 0.7573864583558305 0.07057808899065858 -9.380070923910231e-28 0.0 -2.1032924999364705e-25 6.394759450000002 6.3947594500000005 0.2913103000000004 -3.894025929994733e-27 0.0 0.0 -1.5707481543170374 -1.5707595984088343 -2.8912221090138246e-05 1.57077956199646 -2.366701234990387e-05 0.0 0.0 -0.0 0.0 0.0 0.0 0.0403747595846653 0.5473023056983948 0.6847434639930725 -0.007832957431674004 -0.031331829726696014 -0.12308932095766068 0.0403747595846653 0.5607605576515198 0.6832184791564941 -0.0055949692614376545 -0.031331829726696014 -0.12868429720401764 0.2957929341925315 -0.11303612694085034 0.4815752980866585 -1.210107908965673 1.2097971488371795 -1.2090318198712966 0.0 0.0 0.0 0.0 0.0 0.0 2.3916729083327346 -4.383644415540385 1.5089135404050362 0.5714877921938283 -0.4429714678886055 0.5068023745190647 0.29580949455060795 -0.11303468883756389 0.4815525763646191 -1.210139742515539 1.2098370768821622 -1.20897546102981 0.0 0.0 0.0 0.0 0.0 0.0
2335.208 0.0 -1.5707963267948966 -1.5707963267948966 0.0 1.5707963267948966 0.0 0.0 0.0 0.0 0.0 0.0 0.0 0.0 0.0 0.0 0.0 0.0 0.0 -1.8327750199862536e-26 0.555172973447796 0.7573864583558305 0.07057808899065858 -9.380070923910231e-28 0.0 -2.1032924999364705e-25 6.394759450000002 6.3947594500000005 0.2913103000000004 -3.894025929994733e-27 0.0 2.3968450477696024e-05 -1.5707600752459925 -1.5707715193377894 -5.2754079000294496e-05 1.5707435607910156 -8.422533144170075e-05 0.0 0.0 -0.0 0.0 0.0 0.0 0.0471038855612278 0.5540314316749573 0.6771183013916016 -0.004475975409150124 -0.031331829726696014 -0.12980328500270844 0.0403747595846653 0.5607605576515198 0.6832184791564941 -0.007832957431674004 -0.031331829726696014 -0.12756529450416565 0.29580262633687926 -0.11303198298943305 0.48156628701783116 -1.2101819903622997 1.2098123974737165 -1.209062641452059 0.0 0.0 0.0 0.0 0.0 0.0 3.0421781406076045 -5.133151857684772 1.9180618145922952 0.6027151871129768 -0.44923922807683314 0.5684492827045319 0.29580949455060795 -0.11303468883756389 0.4815525763646191 -1.210139742515539 1.2098370768821622 -1.20897546102981 0.0 0.0 0.0 0.0 0.0 0.0
2335.216 0.0 -1.5707963267948966 -1.5707963267948966 0.0 1.5707963267948966 0.0 0.0 0.0 0.0 0.0 0.0 0.0 0.0 0.0 0.0 0.0 0.0 0.0 -1.8327750199862536e-26 0.555172973447796 0.7573864583558305 0.07057808899065858 -9.380070923910231e-28 0.0 -2.1032924999364705e-25 6.394759450000002 6.3947594500000005 0.2913103000000004 -3.894025929994733e-27 0.0 2.3968450477696024e-05 -1.570796314870016 -1.5708072821246546 7.152557373046875e-06 1.5707675218582153 -3.5587941304981996e-05 0.0 0.0 -0.0 0.0 0.0 0.0 0.0426178015768528 0.5562744736671448 0.6847434639930725 -0.0055949692614376545 -0.031331829726696014 -0.11637535691261292 0.0403747595846653 0.5607605576515198 0.6832184791564941 -0.006713963113725185 -0.031331829726696014 -0.12868429720401764 0.2958125252078667 -0.11302995894400455 0.48154993101220345 -1.2101664865886632 1.2098265544704692 -1.2090034076770764 0.0 0.0 0.0 0.0 0.0 0.0 2.866028326062488 -4.76926060802806 1.5565460142989411 0.5404070025314077 -0.4691384629304556 0.5384954449310626 0.29580949455060795 -0.11303468883756389 0.4815525763646191 -1.210139742515539 1.2098370768821622 -1.20897546102981 0.0 0.0 0.0 0.0 0.0 0.0
2335.2239999999997 0.0 -1.5707963267948966 -1.5707963267948966 0.0 1.5707963267948966 0.0 0.0 0.0 0.0 0.0 0.0 0.0 0.0 0.0 0.0 0.0 0.0 0.0 -1.8327750199862536e-26 0.555172973447796 0.7573864583558305 0.07057808899065858 -9.380070923910231e-28 0.0 -2.1032924999364705e-25 6.394759450000002 6.3947594500000005 0.2913103000000004 -3.894025929994733e-27 0.0 1.1984225238848012e-05 -1.5707839171039026 -1.570735279713766 -1.6514454976856996e-05 1.5707675218582153 -2.366701234990387e-05 0.0 0.0 -0.0 0.0 0.0 0.0 0.0381317175924778 0.5742188096046448 0.6725431680679321 -0.004475975409150124 -0.031331829726696014 -0.13092228770256042 0.0403747595846653 0.5607605576515198 0.6832184791564941 -0.008951950818300247 -0.03021283447742462 -0.13204127550125122 0.2958029347668779 -0.11303358927377731 0.48157293263425927 -1.2101071380174284 1.2097965341562766 -1.2090323381790147 0.0 0.0 0.0 0.0 0.0 0.0 4.288161826425794 -5.251875212573176 2.1226344789590312 0.6078876070643906 -0.5387859412982104 0.5781718388716932 0.29580949455060795 -0.11303468883756389 0.4815525763646191 -1.210139742515539 1.2098370768821622 -1.20897546102981 0.0 0.0 0.0 0.0 0.0 0.0
2335.232 0.0 -1.5707963267948966 -1.5707963267948966 0.0 1.5707963267948966 0.0 0.0 0.0 0.0 0.0 0.0 0.0 0.0 0.0 0.0 0.0 0.0 0.0 -1.8327750199862536e-26 0.555172973447796 0.7573864583558305 0.07057808899065858 -9.380070923910231e-28 0.0 -2.1032924999364705e-25 6.394759450000002 6.3947594500000005 0.2913103000000004 -3.894025929994733e-27 0.0 -1.1746083394825746e-05 -1.5707839171039026 -1.5707834402667444 -2.8912221090138246e-05 1.5707075595855713 -7.230440248662262e-05 0.0 0.0 -0.0 0.0 0.0 0.0 0.0358886756002903 0.5473023056983948 0.6877935528755188 -0.004475975409150124 -0.021260883659124374 -0.13987423479557037 0.0403747595846653 0.5607605576515198 0.6832184791564941 -0.0055949692614376545 -0.027974845841526985 -0.12756529450416565 0.29580543130411696 -0.11304549169826043 0.4815576768210212 -1.2101480919355754 1.2098796116950168 -1.2091009848771763 0.0 0.0 0.0 0.0 0.0 0.0 2.273902200945688 -3.830839707544211 1.4472832547851535 0.6492584959414761 -0.4224186440915413 0.4143481478920972 0.29580949455060795 -0.11303468883756389 0.4815525763646191 -1.210139742515539 1.2098370768821622 -1.20897546102981 0.0 0.0 0.0 0.0 0.0 0.0
2335.24 0.0 -1.5707963267948966 -1.5707963267948966 0.0 1.5707963267948966 0.0 0.0 0.0 0.0 0.0 0.0 0.0 0.0 0.0 0.0 0.0 0.0 0.0 -1.8327750199862536e-26 0.555172973447796 0.7573864583558305 0.07057808899065858 -9.380070923910231e-28 0.0 -2.1032924999364705e-25 6.394759450000002 6.3947594500000005 0.2913103000000004 -3.894025929994733e-27 0.0 1.1984225238848012e-05 -1.5707839171039026 -1.5707715193377894 7.152557373046875e-06 1.5707075595855713 -5.990663637334137e-05 0.0 0.0 -0.0 0.0 0.0 0.0 0.0381317175924778 0.5787048935890198 0.6877935528755188 -0.008951950818300247 -0.02685585245490074 -0.12308932095766068 0.0403747595846653 0.5607605576515198 0.6862685084342957 -0.007832957431674004 -0.02909383922815323 -0.12868429720401764 0.29580401409767654 -0.1130384876505236 0.48156417010484204 -1.2101148012234506 1.2098327178887465 -1.2090971459281337 0.0 0.0 0.0 0.0 0.0 0.0 3.9341437164899755 -4.9668730004906045 1.3488820183970394 0.5714746537674973 -0.5929611839434131 0.5338693757375008 0.29580949455060795 -0.11303468883756389 0.4815525763646191 -1.210139742515539 1.2098370768821622 -1.20897546102981 0.0 0.0 0.0 0.0 0.0 0.0
2335.248 0.0 -1.5707963267948966 -1.5707963267948966 0.0 1.5707963267948966 0.0 0.0 0.0 0.0 0.0 0.0 0.0 0.0 0.0 0.0 0.0 0.0 0.0 -1.8327750199862536e-26 0.555172973447796 0.7573864583558305 0.07057808899065858 -9.380070923910231e-28 0.0 -2.1032924999364705e-25 6.394759450000002 6.3947594500000005 0.2913103000000004 -3.894025929994733e-27 0.0 0.0 -1.5707009474383753 -1.5708072821246546 -2.8912221090138246e-05 1.5707316398620605 -2.366701234990387e-05 0.0 0.0 -0.0 0.0 0.0 0.0 0.0448608435690403 0.5405731797218323 0.6908436417579651 -0.008951950818300247 -0.038045790046453476 -0.1365172564983368 0.0403747595846653 0.5607605576515198 0.6801683902740479 -0.007832957431674004 -0.02909383922815323 -0.13204127550125122 0.29578145393091404 -0.11304003615987586 0.4815751624732009 -1.2100856659662809 1.2098327008436984 -1.2090668191296905 0.0 0.0 0.0 0.0 0.0 0.0 1.7984014353684006 -4.4867525060480515 1.2126701308637886 0.6338016944720799 -0.42192778947054255 0.5465810137722562 0.29580949455060795 -0.11303468883756389 0.4815525763646191 -1.210139742515539 1.2098370768821622 -1.20897546102981 0.0 0.0 0.0 0.0 0.0 0.0
2335.256 0.0 -1.5707963267948966 -1.5707963267948966 0.0 1.5707963267948966 0.0 0.0 0.0 0.0 0.0 0.0 0.0 0.0 0.0 0.0 0.0 0.0 0.0 -1.8327750199862536e-26 0.555172973447796 0.7573864583558305 0.07057808899065858 -9.380070923910231e-28 0.0 -2.1032924999364705e-25 6.394759450000002 6.3947594500000005 0.2913103000000004 -3.894025929994733e-27 0.0 -4.7985707418263246e-05 -1.5707362333880823 -1.5707476774798792 -4.0356312887013246e-05 1.5707675218582153 -7.230440248662262e-05 0.0 0.0 -0.0 0.0 0.0 0.0 0.0403747595846653 0.5787048935890198 0.6694930791854858 -0.006713963113725185 -0.02685585245490074 -0.12420831620693207 0.0403747595846653 0.5607605576515198 0.6801683902740479 -0.007832957431674004 -0.02909383922815323 -0.12868429720401764 0.29578353401432467 -0.11305132926042512 0.4815814049169038 -1.2101061876970494 1.2098092793779196 -1.209117698609136 0.0 0.0 0.0 0.0 0.0 0.0 4.642967428437139 -5.478081428765436 2.2091299218583553 0.5766951164182507 -0.5723604919829878 0.5759294179777994 0.29580949455060795 -0.11303468883756389 0.4815525763646191 -1.210139742515539 1.2098370768821622 -1.20897546102981 0.0 0.0 0.0 0.0 0.0 0.0
2335.2639999999997 0.0 -1.5707963267948966 -1.5707963267948966 0.0 1.5707963267948966 0.0 0.0 0.0 0.0 0.0 0.0 0.0 0.0 0.0 0.0 0.0 0.0 0.0 -1.8327750199862536e-26 0.555172973447796 0.7573864583558305 0.07057808899065858 -9.380070923910231e-28 0.0 -2.1032924999364705e-25 6.394759450000002 6.3947594500000005 0.2913103000000004 -3.894025929994733e-27 0.0 2.3968450477696024e-05 -1.5707724730121058 -1.5707715193377894 -1.6514454976856996e-05 1.5707435607910156 -5.990663637334137e-05 0.0 0.0 -0.0 0.0 0.0 0.0 0.0381317175924778 0.5607605576515198 0.6801683902740479 -0.001118993852287531 -0.02909383922815323 -0.12532731890678406 0.0403747595846653 0.5607605576515198 0.6832184791564941 -0.007832957431674004 -0.03245082125067711 -0.12868429720401764 0.29580361991388143 -0.11303198049167593 0.48156560476570437 -1.2101465087374348 1.2098063604433427 -1.209056034215703 0.0 0.0 0.0 0.0 0.0 0.0 3.2811226795930555 -4.669962774405521 1.8576374536590803 0.5818886031172122 -0.459073207350845 0.5198781594124774 0.29580949455060795 -0.11303468883756389 0.4815525763646191 -1.210139742515539 1.2098370768821622 -1.20897546102981 0.0 0.0 0.0 0.0 0.0 0.0
2335.272 0.0 -1.5707963267948966 -1.5707963267948966 0.0 1.5707963267948966 0.0 0.0 0.0 0.0 0.0 0.0 0.0 0.0 0.0 0.0 0.0 0.0 0.0 -1.8327750199862536e-26 0.555172973447796 0.7573864583558305 0.07057808899065858 -9.380070923910231e-28 0.0 -2.1032924999364705e-25 6.394759450000002 6.3947594500000005 0.2913103000000004 -3.894025929994733e-27 0.0 -2.366701234990387e-05 -1.5707362333880823 -1.5707953611956995 -4.0356312887013246e-05 1.5707316398620605 -5.990663637334137e-05 0.0 0.0 -0.0 0.0 0.0 0.0 0.0426178015768528 0.5854340195655823 0.6862685084342957 0.002237987704575062 -0.027974845841526985 -0.12644630670547485 0.0403747595846653 0.5607605576515198 0.6832184791564941 -0.007832957431674004 -0.031331829726696014 -0.12980328500270844 0.29579036583861656 -0.11304703713403617 0.48156731035921513 -1.210126805554664 1.209858619706689 -1.209094426679324 0.0 0.0 0.0 0.0 0.0 0.0 4.3481671785336 -5.481197446593882 1.6580832128343794 0.5871067743690708 -0.5510926654028068 0.5813734665880539 0.29580949455060795 -0.11303468883756389 0.4815525763646191 -1.210139742515539 1.2098370768821622 -1.20897546102981 0.0 0.0 0.0 0.0 0.0 0.0
2335.2799999999997 0.0 -1.5707963267948966 -1.5707963267948966 0.0 1.5707963267948966 0.0 0.0 0.0 0.0 0.0 0.0 0.0 0.0 0.0 0.0 0.0 0.0 0.0 -1.8327750199862536e-26 0.555172973447796 0.7573864583558305 0.07057808899065858 -9.380070923910231e-28 0.0 -2.1032924999364705e-25 6.394759450000002 6.3947594500000005 0.2913103000000004 -3.894025929994733e-27 0.0 -5.990663637334137e-05 -1.5707600752459925 -1.5707715193377894 -1.6514454976856996e-05 1.5707556009292603 -4.7985707418263246e-05 0.0 0.0 -0.0 0.0 0.0 0.0 0.0426178015768528 0.5383301377296448 0.6893185973167419 -0.0033569815568625927 -0.03692679852247238 -0.13987423479557037 0.0403747595846653 0.5585175156593323 0.6832184791564941 -0.007832957431674004 -0.031331829726696014 -0.12868429720401764 0.2957900526596034 -0.11305580318690989 0.4815692705406164 -1.2100946102887895 1.209855824477161 -1.2091060100206172 0.0 0.0 0.0 0.0 0.0 0.0 1.7390840441857958 -4.295585465054805 1.4022615034154555 0.6493527568336203 -0.37541679269741346 0.5256133926104907 0.29580949455060795 -0.11303468883756389 0.4815525763646191 -1.210139742515539 1.2098370768821622 -1.20897546102981 0.0 0.0 0.0 0.0 0.0 0.0
2335.288 0.0 -1.5707963267948966 -1.5707963267948966 0.0 1.5707963267948966 0.0 0.0 0.0 0.0 0.0 0.0 0.0 0.0 0.0 0.0 0.0 0.0 0.0 -1.8327750199862536e-26 0.555172973447796 0.7573864583558305 0.07057808899065858 -9.380070923910231e-28 0.0 -2.1032924999364705e-25 6.394759450000002 6.3947594500000005 0.2913103000000004 -3.894025929994733e-27 0.0 -1.1746083394825746e-05 -1.5707362333880823 -1.5707476774798792 -1.6514454976856996e-05 1.5707316398620605 -3.5587941304981996e-05 0.0 0.0 -0.0 0.0 0.0 0.0 0.0426178015768528 0.5226288437843323 0.6908436417579651 -0.01007094420492649 -0.025736859068274498 -0.10742340981960297 0.0403747595846653 0.5630035996437073 0.6877935528755188 -0.007832957431674004 -0.031331829726696014 -0.12980328500270844 0.2957855921080669 -0.11304356653574354 0.48158336863990253 -1.2100617297377938 1.2098088414189123 -1.2091017099816428 0.0 0.0 0.0 0.0 0.0 0.0 0.8505471061720727 -3.5813993509349302 1.1903174572828714 0.49869341156343316 -0.34799567204897813 0.41481293432647054 0.29580949455060795 -0.11303468883756389 0.4815525763646191 -1.210139742515539 1.2098370768821622 -1.20897546102981 0.0 0.0 0.0 0.0 0.0 0.0
2335.296 0.0 -1.5707963267948966 -1.5707963267948966 0.0 1.5707963267948966 0.0 0.0 0.0 0.0 0.0 0.0 0.0 0.0 0.0 0.0 0.0 0.0 0.0 -1.8327750199862536e-26 0.555172973447796 0.7573864583558305 0.07057808899065858 -9.380070923910231e-28 0.0 -2.1032924999364705e-25 6.394759450000002 6.3947594500000005 0.2913103000000004 -3.894025929994733e-27 0.0 0.0 -1.5707724730121058 -1.5707595984088343 -4.0356312887013246e-05 1.5707316398620605 -4.7985707418263246e-05 0.0 0.0 -0.0 0.0 0.0 0.0 0.0403747595846653 0.5652466416358948 0.6893185973167419 -0.004475975409150124 -0.0335698164999485 -0.12308932095766068 0.0403747595846653 0.5607605576515198 0.6801683902740479 -0.007832957431674004 -0.03021283447742462 -0.13204127550125122 0.29580192307783215 -0.11304006452175075 0.48156716587232123 -1.2101295060140014 1.2098472477564053 -1.2090680470132764 0.0 0.0 0.0 0.0 0.0 0.0 3.163059340857201 -4.840407747617371 1.3781359031516511 0.571525322490928 -0.5040452436012512 0.5547462611063808 0.29580949455060795 -0.11303468883756389 0.4815525763646191 -1.210139742515539 1.2098370768821622 -1.20897546102981 0.0 0.0 0.0 0.0 0.0 0.0
2335.304 0.0 -1.5707963267948966 -1.5707963267948966 0.0 1.5707963267948966 0.0 0.0 0.0 0.0 0.0 0.0 0.0 0.0 0.0 0.0 0.0 0.0 0.0 -1.8327750199862536e-26 0.555172973447796 0.7573864583558305 0.07057808899065858 -9.380070923910231e-28 0.0 -2.1032924999364705e-25 6.394759450000002 6.3947594500000005 0.2913103000000004 -3.894025929994733e-27 0.0 -4.7985707418263246e-05 -1.5707481543170374 -1.5707834402667444 -5.2754079000294496e-05 1.5707556009292603 -5.990663637334137e-05 0.0 0.0 -0.0 0.0 0.0 0.0 0.0471038855612278 0.5226288437843323 0.6771183013916016 -0.007832957431674004 -0.024617865681648254 -0.13316026329994202 0.0403747595846653 0.5607605576515198 0.6832184791564941 -0.007832957431674004 -0.027974845841526985 -0.13092228770256042 0.29579158543965817 -0.11305226582172133 0.4815662879071831 -1.2101357542426117 1.2098680356052223 -1.209088825360729 0.0 0.0 0.0 0.0 0.0 0.0 1.3815272030268042 -4.10820454683172 1.8462338307350306 0.6181625350355437 -0.3289866708998684 0.4529004652765884 0.29580949455060795 -0.11303468883756389 0.4815525763646191 -1.210139742515539 1.2098370768821622 -1.20897546102981 0.0 0.0 0.0 0.0 0.0 0.0
2335.312 0.0 -1.5707963267948966 -1.5707963267948966 0.0 1.5707963267948966 0.0 0.0 0.0 0.0 0.0 0.0 0.0 0.0 0.0 0.0 0.0 0.0 0.0 -1.8327750199862536e-26 0.555172973447796 0.7573864583558305 0.07057808899065858 -9.380070923910231e-28 0.0 -2.1032924999364705e-25 6.394759450000002 6.3947594500000005 0.2913103000000004 -3.894025929994733e-27 0.0 -2.366701234990387e-05 -1.5707600752459925 -1.570735279713766 -4.593526021778871e-06 1.5707435607910156 -3.5587941304981996e-05 0.0 0.0 -0.0 0.0 0.0 0.0 0.0471038855612278 0.5540314316749573 0.6694930791854858 -0.01342792622745037 -0.03580780327320099 -0.12980328500270844 0.0403747595846653 0.5607605576515198 0.6832184791564941 -0.007832957431674004 -0.03245082125067711 -0.13092228770256042 0.29579002529458864 -0.11304611721548148 0.481580964685905 -1.210061362668191 1.2098085151011277 -1.2091019450387335 0.0 0.0 0.0 0.0 0.0 0.0 3.3374686205559914 -5.38780466732174 2.0621309597530573 0.6026772566097167 -0.5041146110987372 0.6102839196024044 0.29580949455060795 -0.11303468883756389 0.4815525763646191 -1.210139742515539 1.2098370768821622 -1.20897546102981 0.0 0.0 0.0 0.0 0.0 0.0
2335.3199999999997 0.0 -1.5707963267948966 -1.5707963267948966 0.0 1.5707963267948966 0.0 0.0 0.0 0.0 0.0 0.0 0.0 0.0 0.0 0.0 0.0 0.0 0.0 -1.8327750199862536e-26 0.555172973447796 0.7573864583558305 0.07057808899065858 -9.380070923910231e-28 0.0 -2.1032924999364705e-25 6.394759450000002 6.3947594500000005 0.2913103000000004 -3.894025929994733e-27 0.0 -3.5587941304981996e-05 -1.5707839171039026 -1.5708072821246546 -4.593526021778871e-06 1.5707075595855713 -7.230440248662262e-05 0.0 0.0 -0.0 0.0 0.0 0.0 0.0426178015768528 0.5674896836280823 0.681693434715271 -0.0033569815568625927 -0.034688808023929596 -0.12532731890678406 0.0403747595846653 0.5607605576515198 0.6832184791564941 -0.007832957431674004 -0.031331829726696014 -0.12868429720401764 0.2958027029359211 -0.11305251834688934 0.4815526313842298 -1.2101365107259578 1.2098967700164251 -1.2091187243221473 0.0 0.0 0.0 0.0 0.0 0.0 3.576776904369402 -5.2190249759326495 1.7398361310604722 0.5819274912104259 -0.5044325264127323 0.5910735430900906 0.29580949455060795 -0.11303468883756389 0.4815525763646191 -1.210139742515539 1.2098370768821622 -1.20897546102981 0.0 0.0 0.0 0.0 0.0 0.0
2335.328 0.0 -1.5707963267948966 -1.5707963267948966 0.0 1.5707963267948966 0.0 0.0 0.0 0.0 0.0 0.0 0.0 0.0 0.0 0.0 0.0 0.0 0.0 -1.8327750199862536e-26 0.555172973447796 0.7573864583558305 0.07057808899065858 -9.380070923910231e-28 0.0 -2.1032924999364705e-25 6.394759450000002 6.3947594500000005 0.2913103000000004 -3.894025929994733e-27 0.0 -2.366701234990387e-05 -1.5707600752459925 -1.5707834402667444 -2.8912221090138246e-05 1.5707435607910156 -3.5587941304981996e-05 0.0 0.0 -0.0 0.0 0.0 0.0 0.0426178015768528 0.5787048935890198 0.6740682125091553 -0.012308932840824127 -0.031331829726696014 -0.13875523209571838 0.0403747595846653 0.5607605576515198 0.6832184791564941 -0.007832957431674004 -0.027974845841526985 -0.12868429720401764 0.29579622807480116 -0.11304606121638958 0.48156472619248586 -1.2101148618132311 1.2098617167618346 -1.20906753486406 0.0 0.0 0.0 0.0 0.0 0.0 4.465121638321178 -5.6162352718169135 1.8835364269068358 0.644236079509958 -0.6098511158059862 0.6081322804429142 0.29580949455060795 -0.11303468883756389 0.4815525763646191 -1.210139742515539 1.2098370768821622 -1.20897546102981 0.0 0.0 0.0 0.0 0.0 0.0
2335.336 0.0 -1.5707963267948966 -1.5707963267948966 0.0 1.5707963267948966 0.0 0.0 0.0 0.0 0.0 0.0 0.0 0.0 0.0 0.0 0.0 0.0 0.0 -1.8327750199862536e-26 0.555172973447796 0.7573864583558305 0.07057808899065858 -9.380070923910231e-28 0.0 -2.1032924999364705e-25 6.394759450000002 6.3947594500000005 0.2913103000000004 -3.894025929994733e-27 0.0 -1.1746083394825746e-05 -1.5707243124591272 -1.5707715193377894 -1.6514454976856996e-05 1.5707556009292603 -5.990663637334137e-05 0.0 0.0 -0.0 0.0 0.0 0.0 0.0358886756002903 0.5585175156593323 0.6847434639930725 -0.006713963113725185 -0.0335698164999485 -0.1365172564983368 0.0403747595846653 0.5607605576515198 0.6832184791564941 -0.007832957431674004 -0.03021283447742462 -0.12980328500270844 0.2957837078611366 -0.11304157017816216 0.4815798453915594 -1.2100998150654776 1.209788395940065 -1.209096291989854 0.0 0.0 0.0 0.0 0.0 0.0 2.984966537169159 -4.476316104266909 1.5336726359386574 0.6337665791593259 -0.48643181959426607 0.524815418912357 0.29580949455060795 -0.11303468883756389 0.4815525763646191 -1.210139742515539 1.2098370768821622 -1.20897546102981 0.0 0.0 0.0 0.0 0.0 0.0
2335.344 0.0 -1.5707963267948966 -1.5707963267948966 0.0 1.5707963267948966 0.0 0.0 0.0 0.0 0.0 0.0 0.0 0.0 0.0 0.0 0.0 0.0 0.0 -1.8327750199862536e-26 0.555172973447796 0.7573864583558305 0.07057808899065858 -9.380070923910231e-28 0.0 -2.1032924999364705e-25 6.394759450000002 6.3947594500000005 0.2913103000000004 -3.894025929994733e-27 0.0 1.1984225238848012e-05 -1.5707243124591272 -1.5707715193377894 -2.8912221090138246e-05 1.57077956199646 -3.5587941304981996e-05 0.0 0.0 -0.0 0.0 0.0 0.0 0.0314025916159153 0.5652466416358948 0.6847434639930725 -0.006713963113725185 -0.03245082125067711 -0.14099322259426117 0.0403747595846653 0.5585175156593323 0.6832184791564941 -0.011189938522875309 -0.02909383922815323 -0.13092228770256042 0.29578745081344693 -0.11303257703571065 0.4815788241292856 -1.2101135951543103 1.2097738849702917 -1.2090374117100375 0.0 0.0 0.0 0.0 0.0 0.0 3.3414312822323726 -4.3699435215436955 1.5345017347992875 0.6545463335100503 -0.5167595735902587 0.5108257894100815 0.29580949455060795 -0.11303468883756389 0.4815525763646191 -1.210139742515539 1.2098370768821622 -1.20897546102981 0.0 0.0 0.0 0.0 0.0 0.0
2335.352 0.0 -1.5707963267948966 -1.5707963267948966 0.0 1.5707963267948966 0.0 0.0 0.0 0.0 0.0 0.0 0.0 0.0 0.0 0.0 0.0 0.0 0.0 -1.8327750199862536e-26 0.555172973447796 0.7573864583558305 0.07057808899065858 -9.380070923910231e-28 0.0 -2.1032924999364705e-25 6.394759450000002 6.3947594500000005 0.2913103000000004 -3.894025929994733e-27 0.0 1.1984225238848012e-05 -1.5707362333880823 -1.5707476774798792 -4.593526021778871e-06 1.5707435607910156 -5.990663637334137e-05 0.0 0.0 -0.0 0.0 0.0 0.0 0.0426178015768528 0.5719757676124573 0.6725431680679321 -0.0033569815568625927 -0.024617865681648254 -0.11413737386465073 0.0403747595846653 0.5585175156593323 0.6832184791564941 -0.008951950818300247 -0.02909383922815323 -0.12980328500270844 0.29578725813135504 -0.11303556627172939 0.48158434980921017 -1.2100877298968458 1.2097622947638658 -1.2090990151761158 0.0 0.0 0.0 0.0 0.0 0.0 4.169144004622693 -5.313407075677055 2.1465400372660053 0.5299570589302608 -0.5214770717366658 0.5520120419424211 0.29580949455060795 -0.11303468883756389 0.4815525763646191 -1.210139742515539 1.2098370768821622 -1.20897546102981 0.0 0.0 0.0 0.0 0.0 0.0
2335.3599999999997 0.0 -1.5707963267948966 -1.5707963267948966 0.0 1.5707963267948966 0.0 0.0 0.0 0.0 0.0 0.0 0.0 0.0 0.0 0.0 0.0 0.0 0.0 -1.8327750199862536e-26 0.555172973447796 0.7573864583558305 0.07057808899065858 -9.380070923910231e-28 0.0 -2.1032924999364705e-25 6.394759450000002 6.3947594500000005 0.2913103000000004 -3.894025929994733e-27 0.0 -1.1746083394825746e-05 -1.5707839171039026 -1.5707953611956995 -4.0356312887013246e-05 1.5707316398620605 -2.366701234990387e-05 0.0 0.0 -0.0 0.0 0.0 0.0 0.0493469275534153 0.5540314316749573 0.6862685084342957 -0.011189938522875309 -0.03021283447742462 -0.13987423479557037 0.0403747595846653 0.5630035996437073 0.6832184791564941 -0.007832957431674004 -0.03245082125067711 -0.13204127550125122 0.29580743180888325 -0.11304349431630009 0.48155321008254104 -1.2101408880507893 1.2099020462183123 -1.2090363707560154 0.0 0.0 0.0 0.0 0.0 0.0 2.686713857374797 -5.055750252730472 1.3655732400613754 0.649417094528979 -0.49548460554265766 0.5568645973831218 0.29580949455060795 -0.11303468883756389 0.4815525763646191 -1.210139742515539 1.2098370768821622 -1.20897546102981 0.0 0.0 0.0 0.0 0.0 0.0
2335.368 0.0 -1.5707963267948966 -1.5707963267948966 0.0 1.5707963267948966 0.0 0.0 0.0 0.0 0.0 0.0 0.0 0.0 0.0 0.0 0.0 0.0 0.0 -1.8327750199862536e-26 0.555172973447796 0.7573864583558305 0.07057808899065858 -9.380070923910231e-28 0.0 -2.1032924999364705e-25 6.394759450000002 6.3947594500000005 0.2913103000000004 -3.894025929994733e-27 0.0 1.1984225238848012e-05 -1.5707243124591272 -1.5707715193377894 -2.8912221090138246e-05 1.57077956199646 0.0 0.0 0.0 -0.0 0.0 0.0 0.0 0.0426178015768528 0.5585175156593323 0.6908436417579651 -0.0055949692614376545 -0.031331829726696014 -0.13316026329994202 0.0403747595846653 0.5630035996437073 0.6832184791564941 -0.006713963113725185 -0.03245082125067711 -0.13092228770256042 0.29578745081344693 -0.11303257703571065 0.4815788241292856 -1.2100873747300647 1.2097907251035132 -1.209011216841125 0.0 0.0 0.0 0.0 0.0 0.0 2.7476667694897787 -4.707397537679639 1.285806447241642 0.6182310134347585 -0.4813686173140133 0.5334487469680032 0.29580949455060795 -0.11303468883756389 0.4815525763646191 -1.210139742515539 1.2098370768821622 -1.20897546102981 0.0 0.0 0.0 0.0 0.0 0.0
2335.3759999999997 0.0 -1.5707963267948966 -1.5707963267948966 0.0 1.5707963267948966 0.0 0.0 0.0 0.0 0.0 0.0 0.0 0.0 0.0 0.0 0.0 0.0 0.0 -1.8327750199862536e-26 0.555172973447796 0.7573864583558305 0.07057808899065858 -9.380070923910231e-28 0.0 -2.1032924999364705e-25 6.394759450000002 6.3947594500000005 0.2913103000000004 -3.894025929994733e-27 0.0 -1.1746083394825746e-05 -1.5707243124591272 -1.5707953611956995 -4.593526021778871e-06 1.5707556009292603 -7.230440248662262e-05 0.0 0.0 -0.0 0.0 0.0 0.0 0.0426178015768528 0.5473023056983948 0.6984688639640808 -0.0055949692614376545 -0.02685585245490074 -0.134279265999794 0.0403747595846653 0.5630035996437073 0.6832184791564941 -0.011189938522875309 -0.031331829726696014 -0.13092228770256042 0.2957847334299574 -0.1130415436643748 0.4815737792309438 -1.2101177812529071 1.209791238778142 -1.209099734642341 0.0 0.0 0.0 0.0 0.0 0.0 1.8589831507651469 -4.139520078680297 0.9478386156400396 0.6233402883849142 -0.4333411544841769 0.46590000311489177 0.29580949455060795 -0.11303468883756389 0.4815525763646191 -1.210139742515539 1.2098370768821622 -1.20897546102981 0.0 0.0 0.0 0.0 0.0 0.0
2335.384 0.0 -1.5707963267948966 -1.5707963267948966 0.0 1.5707963267948966 0.0 0.0 0.0 0.0 0.0 0.0 0.0 0.0 0.0 0.0 0.0 0.0 0.0 -1.8327750199862536e-26 0.555172973447796 0.7573864583558305 0.07057808899065858 -9.380070923910231e-28 0.0 -2.1032924999364705e-25 6.394759450000002 6.3947594500000005 0.2913103000000004 -3.894025929994733e-27 0.0 -1.1746083394825746e-05 -1.5707123915301722 -1.570735279713766 7.152557373046875e-06 1.5707556009292603 -3.5587941304981996e-05 0.0 0.0 -0.0 0.0 0.0 0.0 0.0448608435690403 0.5585175156593323 0.6847434639930725 -0.011189938522875309 -0.02685585245490074 -0.12980328500270844 0.0403747595846653 0.5630035996437073 0.6832184791564941 -0.008951950818300247 -0.02685585245490074 -0.13204127550125122 0.29577465164915484 -0.11304161682834594 0.48159603092042547 -1.2100288989060526 1.2097471551351384 -1.2091124785549257 0.0 0.0 0.0 0.0 0.0 0.0 2.983761411180596 -4.870602300923748 1.434830238799924 0.6025796980317788 -0.5151846852567747 0.5260856821166191 0.29580949455060795 -0.11303468883756389 0.4815525763646191 -1.210139742515539 1.2098370768821622 -1.20897546102981 0.0 0.0 0.0 0.0 0.0 0.0
2335.392 0.0 -1.5707963267948966 -1.5707963267948966 0.0 1.5707963267948966 0.0 0.0 0.0 0.0 0.0 0.0 0.0 0.0 0.0 0.0 0.0 0.0 0.0 -1.8327750199862536e-26 0.555172973447796 0.7573864583558305 0.07057808899065858 -9.380070923910231e-28 0.0 -2.1032924999364705e-25 6.394759450000002 6.3947594500000005 0.2913103000000004 -3.894025929994733e-27 0.0 0.0 -1.5707243124591272 -1.5707715193377894 -4.0356312887013246e-05 1.5707556009292603 -4.7985707418263246e-05 0.0 0.0 -0.0 0.0 0.0 0.0 0.0381317175924778 0.5607605576515198 0.6832184791564941 -0.0055949692614376545 -0.03245082125067711 -0.12980328500270844 0.0403747595846653 0.5607605576515198 0.6832184791564941 -0.008951950818300247 -0.02909383922815323 -0.12980328500270844 0.295787070775966 -0.11303809460747843 0.4815778824541666 -1.2101141542665408 1.2098029218001896 -1.2090675756574818 0.0 0.0 0.0 0.0 0.0 0.0 3.162534234157956 -4.680940539283623 1.625173981185109 0.6026484021970735 -0.48885095458910277 0.5364329072218619 0.29580949455060795 -0.11303468883756389 0.4815525763646191 -1.210139742515539 1.2098370768821622 -1.20897546102981 0.0 0.0 0.0 0.0 0.0 0.0
2335.4 0.0 -1.5707963267948966 -1.5707963267948966 0.0 1.5707963267948966 0.0 0.0 0.0 0.0 0.0 0.0 0.0 0.0 0.0 0.0 0.0 0.0 0.0 -1.8327750199862536e-26 0.555172973447796 0.7573864583558305 0.07057808899065858 -9.380070923910231e-28 0.0 -2.1032924999364705e-25 6.394759450000002 6.3947594500000005 0.2913103000000004 -3.894025929994733e-27 0.0 1.1984225238848012e-05 -1.5707243124591272 -1.5708192030536097 -4.593526021778871e-06 1.5707316398620605 -4.7985707418263246e-05 0.0 0.0 -0.0 0.0 0.0 0.0 0.0471038855612278 0.5562744736671448 0.6786433458328247 -0.007832957431674004 -0.027974845841526985 -0.12532731890678406 0.0403747595846653 0.5630035996437073 0.6832184791564941 -0.007832957431674004 -0.02909383922815323 -0.12868429720401764 0.29578945655203437 -0.11303647079037545 0.4815667321121362 -1.2101173641998881 1.2098203912273289 -1.2090706769301416 0.0 0.0 0.0 0.0 0.0 0.0 3.1015792136702336 -5.0918564999930895 1.7776209675100902 0.5818975219117482 -0.48142231367902916 0.5494388084391664 0.29580949455060795 -0.11303468883756389 0.4815525763646191 -1.210139742515539 1.2098370768821622 -1.20897546102981 0.0 0.0 0.0 0.0 0.0 0.0
2335.408 0.0 -1.5707963267948966 -1.5707963267948966 0.0 1.5707963267948966 0.0 0.0 0.0 0.0 0.0 0.0 0.0 0.0 0.0 0.0 0.0 0.0 0.0 -1.8327750199862536e-26 0.555172973447796 0.7573864583558305 0.07057808899065858 -9.380070923910231e-28 0.0 -2.1032924999364705e-25 6.394759450000002 6.3947594500000005 0.2913103000000004 -3.894025929994733e-27 0.0 0.0 -1.5707724730121058 -1.5707953611956995 -4.0356312887013246e-05 1.5707675218582153 -5.990663637334137e-05 0.0 0.0 -0.0 0.0 0.0 0.0 0.0493469275534153 0.5652466416358948 0.6908436417579651 -0.0055949692614376545 -0.027974845841526985 -0.1186133474111557 0.0403747595846653 0.5607605576515198 0.6847434639930725 -0.008951950818300247 -0.02909383922815323 -0.12980328500270844 0.2958049907117052 -0.11303706859057026 0.48155659340697704 -1.2101816908927536 1.2098413911668775 -1.2090334081237766 0.0 0.0 0.0 0.0 0.0 0.0 3.1027270232213353 -5.227178887391716 1.284153099752072 0.5508038800021372 -0.5117809856763954 0.5605540568131256 0.29580949455060795 -0.11303468883756389 0.4815525763646191 -1.210139742515539 1.2098370768821622 -1.20897546102981 0.0 0.0 0.0 0.0 0.0 0.0
2335.4159999999997 0.0 -1.5707963267948966 -1.5707963267948966 0.0 1.5707963267948966 0.0 0.0 0.0 0.0 0.0 0.0 0.0 0.0 0.0 0.0 0.0 0.0 0.0 -1.8327750199862536e-26 0.555172973447796 0.7573864583558305 0.07057808899065858 -9.380070923910231e-28 0.0 -2.1032924999364705e-25 6.394759450000002 6.3947594500000005 0.2913103000000004 -3.894025929994733e-27 0.0 -3.5587941304981996e-05 -1.5707724730121058 -1.5707715193377894 -2.8912221090138246e-05 1.57077956199646 -8.422533144170075e-05 0.0 0.0 -0.0 0.0 0.0 0.0 0.0471038855612278 0.5607605576515198 0.6877935528755188 -0.01342792622745037 -0.04252176731824875 -0.11413737386465073 0.0403747595846653 0.5652466416358948 0.681693434715271 -0.008951950818300247 -0.02909383922815323 -0.12980328500270844 0.2957979493746995 -0.11304663165571124 0.4815645831805286 -1.2101624263377015 1.2098213399978144 -1.2090853917330782 0.0 0.0 0.0 0.0 0.0 0.0 2.9838427756074384 -5.34668925367907 1.2499930024027062 0.5300810729074421 -0.5407919436668279 0.6381392516646434 0.29580949455060795 -0.11303468883756389 0.4815525763646191 -1.210139742515539 1.2098370768821622 -1.20897546102981 0.0 0.0 0.0 0.0 0.0 0.0
2335.424 0.0 -1.5707963267948966 -1.5707963267948966 0.0 1.5707963267948966 0.0 0.0 0.0 0.0 0.0 0.0 0.0 0.0 0.0 0.0 0.0 0.0 0.0 -1.8327750199862536e-26 0.555172973447796 0.7573864583558305 0.07057808899065858 -9.380070923910231e-28 0.0 -2.1032924999364705e-25 6.394759450000002 6.3947594500000005 0.2913103000000004 -3.894025929994733e-27 0.0 -1.1746083394825746e-05 -1.5707481543170374 -1.5707834402667444 1.9073486328125e-05 1.5707316398620605 -8.422533144170075e-05 0.0 0.0 -0.0 0.0 0.0 0.0 0.0336456336081028 0.5405731797218323 0.6908436417579651 -0.006713963113725185 -0.034688808023929596 -0.12644630670547485 0.0403747595846653 0.5585175156593323 0.681693434715271 -0.008951950818300247 -0.031331829726696014 -0.12980328500270844 0.29578954882344966 -0.11304352350687358 0.4815722022718568 -1.210106553622199 1.2097946301432718 -1.209131723289197 0.0 0.0 0.0 0.0 0.0 0.0 1.800248887263888 -3.7382968264717533 1.264158479590428 0.5869923243481068 -0.4074859399972677 0.469323290323132 0.29580949455060795 -0.11303468883756389 0.4815525763646191 -1.210139742515539 1.2098370768821622 -1.20897546102981 0.0 0.0 0.0 0.0 0.0 0.0
2335.432 0.0 -1.5707963267948966 -1.5707963267948966 0.0 1.5707963267948966 0.0 0.0 0.0 0.0 0.0 0.0 0.0 0.0 0.0 0.0 0.0 0.0 0.0 -1.8327750199862536e-26 0.555172973447796 0.7573864583558305 0.07057808899065858 -9.380070923910231e-28 0.0 -2.1032924999364705e-25 6.394759450000002 6.3947594500000005 0.2913103000000004 -3.894025929994733e-27 0.0 0.0 -1.570796314870016 -1.5707953611956995 -2.8912221090138246e-05 1.5707675218582153 -8.422533144170075e-05 0.0 0.0 -0.0 0.0 0.0 0.0 0.0471038855612278 0.5540314316749573 0.6877935528755188 -0.004475975409150124 -0.02685585245490074 -0.13204127550125122 0.0403747595846653 0.5607605576515198 0.6832184791564941 -0.008951950818300247 -0.031331829726696014 -0.13204127550125122 0.29581187295203243 -0.1130370607474378 0.48155048538707423 -1.210208750574766 1.2098389943378953 -1.2090454251053397 0.0 0.0 0.0 0.0 0.0 0.0 2.628196518400138 -4.816200947483015 1.4443420057133918 0.6130693195772698 -0.4529043454273538 0.5215187229370404 0.29580949455060795 -0.11303468883756389 0.4815525763646191 -1.210139742515539 1.2098370768821622 -1.20897546102981 0.0 0.0 0.0 0.0 0.0 0.0
2335.44 0.0 -1.5707963267948966 -1.5707963267948966 0.0 1.5707963267948966 0.0 0.0 0.0 0.0 0.0 0.0 0.0 0.0 0.0 0.0 0.0 0.0 0.0 -1.8327750199862536e-26 0.555172973447796 0.7573864583558305 0.07057808899065858 -9.380070923910231e-28 0.0 -2.1032924999364705e-25 6.394759450000002 6.3947594500000005 0.2913103000000004 -3.894025929994733e-27 0.0 0.0 -1.5707724730121058 -1.5707834402667444 -6.467500795537262e-05 1.5707316398620605 -5.990663637334137e-05 0.0 0.0 -0.0 0.0 0.0 0.0 0.0403747595846653 0.5854340195655823 0.6725431680679321 -0.006713963113725185 -0.031331829726696014 -0.12420831620693207 0.0403747595846653 0.5630035996437073 0.6832184791564941 -0.008951950818300247 -0.02685585245490074 -0.12868429720401764 0.29580604158207513 -0.11304003607592697 0.48155811574369406 -1.210173822699377 1.2098769776467617 -1.209053967736196 0.0 0.0 0.0 0.0 0.0 0.0 4.880791509950282 -5.700493341875677 2.0731656937311342 0.5767947154983482 -0.6037659551593663 0.6150122950183209 0.29580949455060795 -0.11303468883756389 0.4815525763646191 -1.210139742515539 1.2098370768821622 -1.20897546102981 0.0 0.0 0.0 0.0 0.0 0.0
2335.448 0.0 -1.5707963267948966 -1.5707963267948966 0.0 1.5707963267948966 0.0 0.0 0.0 0.0 0.0 0.0 0.0 0.0 0.0 0.0 0.0 0.0 0.0 -1.8327750199862536e-26 0.555172973447796 0.7573864583558305 0.07057808899065858 -9.380070923910231e-28 0.0 -2.1032924999364705e-25 6.394759450000002 6.3947594500000005 0.2913103000000004 -3.894025929994733e-27 0.0 -2.366701234990387e-05 -1.5707362333880823 -1.5707953611956995 -6.467500795537262e-05 1.57077956199646 -5.990663637334137e-05 0.0 0.0 -0.0 0.0 0.0 0.0 0.0403747595846653 0.5921631455421448 0.6847434639930725 -0.011189938522875309 -0.02685585245490074 -0.13204127550125122 0.0403747595846653 0.5607605576515198 0.6832184791564941 -0.008951950818300247 -0.02909383922815323 -0.12980328500270844 0.2957924462403205 -0.11304308908986979 0.48156530695674404 -1.2101673998597924 1.209841206269867 -1.2090476239895889 0.0 0.0 0.0 0.0 0.0 0.0 4.763201267930415 -5.541201955412558 1.4346251169498228 0.6130929580379214 -0.6670454806262115 0.5810954690764051 0.29580949455060795 -0.11303468883756389 0.4815525763646191 -1.210139742515539 1.2098370768821622 -1.20897546102981 0.0 0.0 0.0 0.0 0.0 0.0
2335.4559999999997 0.0 -1.5707963267948966 -1.5707963267948966 0.0 1.5707963267948966 0.0 0.0 0.0 0.0 0.0 0.0 0.0 0.0 0.0 0.0 0.0 0.0 0.0 -1.8327750199862536e-26 0.555172973447796 0.7573864583558305 0.07057808899065858 -9.380070923910231e-28 0.0 -2.1032924999364705e-25 6.394759450000002 6.3947594500000005 0.2913103000000004 -3.894025929994733e-27 0.0 0.0 -1.5707481543170374 -1.5708072821246546 -1.6514454976856996e-05 1.5707556009292603 -2.366701234990387e-05 0.0 0.0 -0.0 0.0 0.0 0.0 0.0381317175924778 0.5428162217140198 0.6923686861991882 -0.006713963113725185 -0.021260883659124374 -0.13092228770256042 0.0403747595846653 0.5607605576515198 0.6832184791564941 -0.006713963113725185 -0.02909383922815323 -0.12868429720401764 0.29579595958555965 -0.11303804668539325 0.48156222399338117 -1.2101226647690677 1.209840639732835 -1.2090326719685898 0.0 0.0 0.0 0.0 0.0 0.0 1.8591250721209216 -3.746768717458799 1.195543161273611 0.6077376207108351 -0.41809113212619786 0.4074852420203083 0.29580949455060795 -0.11303468883756389 0.4815525763646191 -1.210139742515539 1.2098370768821622 -1.20897546102981 0.0 0.0 0.0 0.0 0.0 0.0
2335.464 0.0 -1.5707963267948966 -1.5707963267948966 0.0 1.5707963267948966 0.0 0.0 0.0 0.0 0.0 0.0 0.0 0.0 0.0 0.0 0.0 0.0 0.0 -1.8327750199862536e-26 0.555172973447796 0.7573864583558305 0.07057808899065858 -9.380070923910231e-28 0.0 -2.1032924999364705e-25 6.394759450000002 6.3947594500000005 0.2913103000000004 -3.894025929994733e-27 0.0 -5.990663637334137e-05 -1.5707243124591272 -1.5707715193377894 -1.6514454976856996e-05 1.5707435607910156 -3.5587941304981996e-05 0.0 0.0 -0.0 0.0 0.0 0.0 0.0358886756002903 0.5495453476905823 0.6832184791564941 -0.004475975409150124 -0.02685585245490074 -0.13204127550125122 0.0403747595846653 0.5585175156593323 0.6862685084342957 -0.006713963113725185 -0.02909383922815323 -0.12868429720401764 0.29577826215591757 -0.11305680676416369 0.4815798456633337 -1.2100534185389669 1.2098442627656087 -1.2091227044747976 0.0 0.0 0.0 0.0 0.0 0.0 2.5696712216101956 -4.11028314656247 1.6503903903521795 0.6129242577248709 -0.43103424222544207 0.4634329316346742 0.29580949455060795 -0.11303468883756389 0.4815525763646191 -1.210139742515539 1.2098370768821622 -1.20897546102981 0.0 0.0 0.0 0.0 0.0 0.0
2335.4719999999998 0.0 -1.5707963267948966 -1.5707963267948966 0.0 1.5707963267948966 0.0 0.0 0.0 0.0 0.0 0.0 0.0 0.0 0.0 0.0 0.0 0.0 0.0 -1.8327750199862536e-26 0.555172973447796 0.7573864583558305 0.07057808899065858 -9.380070923910231e-28 0.0 -2.1032924999364705e-25 6.394759450000002 6.3947594500000005 0.2913103000000004 -3.894025929994733e-27 0.0 -3.5587941304981996e-05 -1.570796314870016 -1.5707715193377894 -5.2754079000294496e-05 1.5707316398620605 -5.990663637334137e-05 0.0 0.0 -0.0 0.0 0.0 0.0 0.0381317175924778 0.5473023056983948 0.6801683902740479 -0.007832957431674004 -0.025736859068274498 -0.1365172564983368 0.0403747595846653 0.5607605576515198 0.6801683902740479 -0.007832957431674004 -0.02909383922815323 -0.12868429720401764 0.29580783882419603 -0.11305056910044467 0.48155557089594264 -1.210156970457743 1.2099032254009214 -1.2090801707932743 0.0 0.0 0.0 0.0 0.0 0.0 2.569140338828464 -4.219884042611962 1.712153170889373 0.6337471091321253 -0.4413768622909914 0.46719006192108486 0.29580949455060795 -0.11303468883756389 0.4815525763646191 -1.210139742515539 1.2098370768821622 -1.20897546102981 0.0 0.0 0.0 0.0 0.0 0.0
2335.48 0.0 -1.5707963267948966 -1.5707963267948966 0.0 1.5707963267948966 0.0 0.0 0.0 0.0 0.0 0.0 0.0 0.0 0.0 0.0 0.0 0.0 0.0 -1.8327750199862536e-26 0.555172973447796 0.7573864583558305 0.07057808899065858 -9.380070923910231e-28 0.0 -2.1032924999364705e-25 6.394759450000002 6.3947594500000005 0.2913103000000004 -3.894025929994733e-27 0.0 -5.990663637334137e-05 -1.570796314870016 -1.5707595984088343 -2.8912221090138246e-05 1.57077956199646 -3.5587941304981996e-05 0.0 0.0 -0.0 0.0 0.0 0.0 0.0426178015768528 0.5405731797218323 0.6801683902740479 -0.0055949692614376545 -0.0335698164999485 -0.13316026329994202 0.0403747595846653 0.5630035996437073 0.6832184791564941 -0.007832957431674004 -0.02909383922815323 -0.12868429720401764 0.29580203797871335 -0.1130538305814562 0.4815610568085835 -1.210123851334659 1.2098710685229626 -1.2090618533668807 0.0 0.0 0.0 0.0 0.0 0.0 2.212618625082971 -4.47269459855857 1.7597567650904125 0.6182300595783702 -0.39673393509506627 0.5245226514515345 0.29580949455060795 -0.11303468883756389 0.4815525763646191 -1.210139742515539 1.2098370768821622 -1.20897546102981 0.0 0.0 0.0 0.0 0.0 0.0
2335.488 0.0 -1.5707963267948966 -1.5707963267948966 0.0 1.5707963267948966 0.0 0.0 0.0 0.0 0.0 0.0 0.0 0.0 0.0 0.0 0.0 0.0 0.0 -1.8327750199862536e-26 0.555172973447796 0.7573864583558305 0.07057808899065858 -9.380070923910231e-28 0.0 -2.1032924999364705e-25 6.394759450000002 6.3947594500000005 0.2913103000000004 -3.894025929994733e-27 0.0 -1.1746083394825746e-05 -1.5707600752459925 -1.5707476774798792 -2.8912221090138246e-05 1.5707435607910156 -7.230440248662262e-05 0.0 0.0 -0.0 0.0 0.0 0.0 0.0426178015768528 0.5831909775733948 0.681693434715271 -0.006713963113725185 -0.031331829726696014 -0.13092228770256042 0.0403747595846653 0.5607605576515198 0.6832184791564941 -0.007832957431674004 -0.03245082125067711 -0.12868429720401764 0.29579451119413774 -0.11304257574267777 0.48157529773812546 -1.2101211316670777 1.209809338199288 -1.2091027819774427 0.0 0.0 0.0 0.0 0.0 0.0 4.406895257413509 -5.585483131918236 1.666816659838652 0.6078821658673926 -0.5968337292857403 0.6056239469857325 0.29580949455060795 -0.11303468883756389 0.4815525763646191 -1.210139742515539 1.2098370768821622 -1.20897546102981 0.0 0.0 0.0 0.0 0.0 0.0
2335.496 0.0 -1.5707963267948966 -1.5707963267948966 0.0 1.5707963267948966 0.0 0.0 0.0 0.0 0.0 0.0 0.0 0.0 0.0 0.0 0.0 0.0 0.0 -1.8327750199862536e-26 0.555172973447796 0.7573864583558305 0.07057808899065858 -9.380070923910231e-28 0.0 -2.1032924999364705e-25 6.394759450000002 6.3947594500000005 0.2913103000000004 -3.894025929994733e-27 0.0 -3.5587941304981996e-05 -1.5707481543170374 -1.5707476774798792 -4.0356312887013246e-05 1.5707316398620605 -5.990663637334137e-05 0.0 0.0 -0.0 0.0 0.0 0.0 0.0448608435690403 0.5652466416358948 0.6954187750816345 -0.008951950818300247 -0.04252176731824875 -0.13092228770256042 0.0403747595846653 0.5607605576515198 0.6832184791564941 -0.006713963113725185 -0.031331829726696014 -0.12868429720401764 0.2957888618409216 -0.11305061330681038 0.4815778807766298 -1.210094723451781 1.2098412105300191 -1.209120211023602 0.0 0.0 0.0 0.0 0.0 0.0 2.925446550445181 -5.1808475500618005 1.00902823888568 0.6078876395534261 -0.5349532043704791 0.6244876708691947 0.29580949455060795 -0.11303468883756389 0.4815525763646191 -1.210139742515539 1.2098370768821622 -1.20897546102981 0.0 0.0 0.0 0.0 0.0 0.0
2335.504 0.0 -1.5707963267948966 -1.5707963267948966 0.0 1.5707963267948966 0.0 0.0 0.0 0.0 0.0 0.0 0.0 0.0 0.0 0.0 0.0 0.0 0.0 -1.8327750199862536e-26 0.555172973447796 0.7573864583558305 0.07057808899065858 -9.380070923910231e-28 0.0 -2.1032924999364705e-25 6.394759450000002 6.3947594500000005 0.2913103000000004 -3.894025929994733e-27 0.0 3.5952674807049334e-05 -1.5707724730121058 -1.570735279713766 -4.0356312887013246e-05 1.5707316398620605 -9.614626039677887e-05 0.0 0.0 -0.0 0.0 0.0 0.0 0.0403747595846653 0.5921631455421448 0.6832184791564941 -0.007832957431674004 -0.031331829726696014 -0.12756529450416565 0.0403747595846653 0.5607605576515198 0.6832184791564941 -0.007832957431674004 -0.031331829726696014 -0.12756529450416565 0.2958039031202214 -0.11302945735391062 0.4815743545351397 -1.210164029210823 1.2097801339393197 -1.2090885899481076 0.0 0.0 0.0 0.0 0.0 0.0 4.822788394156249 -5.66988179883419 1.5752245165838659 0.5923397879780418 -0.6449952278267039 0.6125527840581764 0.29580949455060795 -0.11303468883756389 0.4815525763646191 -1.210139742515539 1.2098370768821622 -1.20897546102981 0.0 0.0 0.0 0.0 0.0 0.0
2335.5119999999997 0.0 -1.5707963267948966 -1.5707963267948966 0.0 1.5707963267948966 0.0 0.0 0.0 0.0 0.0 0.0 0.0 0.0 0.0 0.0 0.0 0.0 0.0 -1.8327750199862536e-26 0.555172973447796 0.7573864583558305 0.07057808899065858 -9.380070923910231e-28 0.0 -2.1032924999364705e-25 6.394759450000002 6.3947594500000005 0.2913103000000004 -3.894025929994733e-27 0.0 -2.366701234990387e-05 -1.5707839171039026 -1.5707834402667444 -1.6514454976856996e-05 1.57077956199646 -5.990663637334137e-05 0.0 0.0 -0.0 0.0 0.0 0.0 0.0448608435690403 0.5540314316749573 0.6755932569503784 -0.006713963113725185 -0.027974845841526985 -0.1365172564983368 0.0403747595846653 0.5607605576515198 0.6832184791564941 -0.007832957431674004 -0.027974845841526985 -0.12868429720401764 0.2958030325722507 -0.1130430885721076 0.48155869599223644 -1.2101582545483296 1.2098320967357437 -1.2090535003566238 0.0 0.0 0.0 0.0 0.0 0.0 3.1013363678936474 -4.9561836852252545 1.9375358572158503 0.6338255602556343 -0.46308222266350924 0.5382437197362584 0.29580949455060795 -0.11303468883756389 0.4815525763646191 -1.210139742515539 1.2098370768821622 -1.20897546102981 0.0 0.0 0.0 0.0 0.0 0.0
2335.52 0.0 -1.5707963267948966 -1.5707963267948966 0.0 1.5707963267948966 0.0 0.0 0.0 0.0 0.0 0.0 0.0 0.0 0.0 0.0 0.0 0.0 0.0 -1.8327750199862536e-26 0.555172973447796 0.7573864583558305 0.07057808899065858 -9.380070923910231e-28 0.0 -2.1032924999364705e-25 6.394759450000002 6.3947594500000005 0.2913103000000004 -3.894025929994733e-27 0.0 -5.990663637334137e-05 -1.5707600752459925 -1.5707114378558558 -2.8912221090138246e-05 1.5707435607910156 -3.5587941304981996e-05 0.0 0.0 -0.0 0.0 0.0 0.0 0.0403747595846653 0.5607605576515198 0.6893185973167419 -0.0033569815568625927 -0.02909383922815323 -0.12644630670547485 0.0403747595846653 0.5607605576515198 0.6832184791564941 -0.007832957431674004 -0.03245082125067711 -0.13316026329994202 0.2957859609371374 -0.1130568623319448 0.4815860101259037 -1.2100445236542754 1.2098356317043615 -1.2091284283807098 0.0 0.0 0.0 0.0 0.0 0.0 2.9255702047131154 -4.617817550879852 1.4027651909799235 0.5870032014021572 -0.47663727582528725 0.5156265866996351 0.29580949455060795 -0.11303468883756389 0.4815525763646191 -1.210139742515539 1.2098370768821622 -1.20897546102981 0.0 0.0 0.0 0.0 0.0 0.0
2335.528 0.0 -1.5707963267948966 -1.5707963267948966 0.0 1.5707963267948966 0.0 0.0 0.0 0.0 0.0 0.0 0.0 0.0 0.0 0.0 0.0 0.0 0.0 -1.8327750199862536e-26 0.555172973447796 0.7573864583558305 0.07057808899065858 -9.380070923910231e-28 0.0 -2.1032924999364705e-25 6.394759450000002 6.3947594500000005 0.2913103000000004 -3.894025929994733e-27 0.0 -1.1746083394825746e-05 -1.5707481543170374 -1.5707953611956995 -1.6514454976856996e-05 1.5707435607910156 -3.5587941304981996e-05 0.0 0.0 -0.0 0.0 0.0 0.0 0.0471038855612278 0.5405731797218323 0.6832184791564941 -0.011189938522875309 -0.0335698164999485 -0.1376362442970276 0.0403747595846653 0.5607605576515198 0.6832184791564941 -0.007832957431674004 -0.031331829726696014 -0.13092228770256042 0.29579360922170583 -0.11304252629852816 0.48156574812553826 -1.2101113871830327 1.2098437848383092 -1.209064621155533 0.0 0.0 0.0 0.0 0.0 0.0 2.0937171696467494 -4.680380741367466 1.501892033726327 0.6389993583279697 -0.433672051229418 0.5416605434647197 0.29580949455060795 -0.11303468883756389 0.4815525763646191 -1.210139742515539 1.2098370768821622 -1.20897546102981 0.0 0.0 0.0 0.0 0.0 0.0
2335.536 0.0 -1.5707963267948966 -1.5707963267948966 0.0 1.5707963267948966 0.0 0.0 0.0 0.0 0.0 0.0 0.0 0.0 0.0 0.0 0.0 0.0 0.0 -1.8327750199862536e-26 0.555172973447796 0.7573864583558305 0.07057808899065858 -9.380070923910231e-28 0.0 -2.1032924999364705e-25 6.394759450000002 6.3947594500000005 0.2913103000000004 -3.894025929994733e-27 0.0 0.0 -1.5707243124591272 -1.5707715193377894 -1.6514454976856996e-05 1.5707675218582153 -7.230440248662262e-05 0.0 0.0 -0.0 0.0 0.0 0.0 0.0381317175924778 0.5742188096046448 0.6877935528755188 -0.0033569815568625927 -0.021260883659124374 -0.134279265999794 0.0403747595846653 0.5607605576515198 0.6832184791564941 -0.007832957431674004 -0.02685585245490074 -0.13092228770256042 0.2957850367714736 -0.11303711407794914 0.4815798451224756 -1.2101201465309868 1.2097650910431226 -1.209087995882685 0.0 0.0 0.0 0.0 0.0 0.0 3.6967230333874 -4.719746725927384 1.4705570146036833 0.6233571766616124 -0.5367961166543006 0.48752161623170326 0.29580949455060795 -0.11303468883756389 0.4815525763646191 -1.210139742515539 1.2098370768821622 -1.20897546102981 0.0 0.0 0.0 0.0 0.0 0.0
2335.544 0.0 -1.5707963267948966 -1.5707963267948966 0.0 1.5707963267948966 0.0 0.0 0.0 0.0 0.0 0.0 0.0 0.0 0.0 0.0 0.0 0.0 0.0 -1.8327750199862536e-26 0.555172973447796 0.7573864583558305 0.07057808899065858 -9.380070923910231e-28 0.0 -2.1032924999364705e-25 6.394759450000002 6.3947594500000005 0.2913103000000004 -3.894025929994733e-27 0.0 2.3968450477696024e-05 -1.5707362333880823 -1.5707595984088343 -5.2754079000294496e-05 1.5707675218582153 -3.5587941304981996e-05 0.0 0.0 -0.0 0.0 0.0 0.0 0.0403747595846653 0.5585175156593323 0.6755932569503784 -0.0055949692614376545 -0.034688808023929596 -0.1197323426604271 0.0403747595846653 0.5585175156593323 0.6832184791564941 -0.007832957431674004 -0.03245082125067711 -0.13092228770256042 0.2957937476212979 -0.11303003182746946 0.481576860346566 -1.210131111708867 1.2097914903344646 -1.2090261718143767 0.0 0.0 0.0 0.0 0.0 0.0 3.3395442585656805 -4.958396265632221 1.963159723211347 0.5559845108783549 -0.47610986508616965 0.5696905926248373 0.29580949455060795 -0.11303468883756389 0.4815525763646191 -1.210139742515539 1.2098370768821622 -1.20897546102981 0.0 0.0 0.0 0.0 0.0 0.0
2335.5519999999997 0.0 -1.5707963267948966 -1.5707963267948966 0.0 1.5707963267948966 0.0 0.0 0.0 0.0 0.0 0.0 0.0 0.0 0.0 0.0 0.0 0.0 0.0 -1.8327750199862536e-26 0.555172973447796 0.7573864583558305 0.07057808899065858 -9.380070923910231e-28 0.0 -2.1032924999364705e-25 6.394759450000002 6.3947594500000005 0.2913103000000004 -3.894025929994733e-27 0.0 -2.366701234990387e-05 -1.5707243124591272 -1.5707476774798792 -4.0356312887013246e-05 1.5707435607910156 -5.990663637334137e-05 0.0 0.0 -0.0 0.0 0.0 0.0 0.0448608435690403 0.5652466416358948 0.671018123626709 -0.01007094420492649 -0.03021283447742462 -0.1376362442970276 0.0403747595846653 0.5630035996437073 0.681693434715271 -0.007832957431674004 -0.03021283447742462 -0.13092228770256042 0.29578235098305405 -0.11304611369131175 0.48158493036110406 -1.2100884303979402 1.2098061118702486 -1.2091139646924838 0.0 0.0 0.0 0.0 0.0 0.0 3.8714852285636785 -5.413366509230127 2.0676096406961446 0.6389973562288194 -0.5336917456076364 0.5862961109198243 0.29580949455060795 -0.11303468883756389 0.4815525763646191 -1.210139742515539 1.2098370768821622 -1.20897546102981 0.0 0.0 0.0 0.0 0.0 0.0
2335.56 0.0 -1.5707963267948966 -1.5707963267948966 0.0 1.5707963267948966 0.0 0.0 0.0 0.0 0.0 0.0 0.0 0.0 0.0 0.0 0.0 0.0 0.0 -1.8327750199862536e-26 0.555172973447796 0.7573864583558305 0.07057808899065858 -9.380070923910231e-28 0.0 -2.1032924999364705e-25 6.394759450000002 6.3947594500000005 0.2913103000000004 -3.894025929994733e-27 0.0 2.3968450477696024e-05 -1.570796314870016 -1.5708072821246546 -1.6514454976856996e-05 1.5707556009292603 -7.230440248662262e-05 0.0 0.0 -0.0 0.0 0.0 0.0 0.0403747595846653 0.5719757676124573 0.6786433458328247 -0.008951950818300247 -0.03021283447742462 -0.13204127550125122 0.0403747595846653 0.5585175156593323 0.6832184791564941 -0.007832957431674004 -0.031331829726696014 -0.12868429720401764 0.2958145441475682 -0.11303093943405747 0.48154798256961456 -1.2102053367879153 1.2098353730692697 -1.2090279946013398 0.0 0.0 0.0 0.0 0.0 0.0 3.9327513654735355 -5.174047629267656 1.7540627264675226 0.6131144279007127 -0.559451017945779 0.5665327323065127 0.29580949455060795 -0.11303468883756389 0.4815525763646191 -1.210139742515539 1.2098370768821622 -1.20897546102981 0.0 0.0 0.0 0.0 0.0 0.0
2335.5679999999998 0.0 -1.5707963267948966 -1.5707963267948966 0.0 1.5707963267948966 0.0 0.0 0.0 0.0 0.0 0.0 0.0 0.0 0.0 0.0 0.0 0.0 0.0 -1.8327750199862536e-26 0.555172973447796 0.7573864583558305 0.07057808899065858 -9.380070923910231e-28 0.0 -2.1032924999364705e-25 6.394759450000002 6.3947594500000005 0.2913103000000004 -3.894025929994733e-27 0.0 -2.366701234990387e-05 -1.5707362333880823 -1.5707476774798792 -4.593526021778871e-06 1.5707435607910156 -4.7985707418263246e-05 0.0 0.0 -0.0 0.0 0.0 0.0 0.0426178015768528 0.5674896836280823 0.6847434639930725 -0.008951950818300247 -0.02685585245490074 -0.12420831620693207 0.0403747595846653 0.5630035996437073 0.6832184791564941 -0.007832957431674004 -0.031331829726696014 -0.13204127550125122 0.2957832280855524 -0.11304611138170102 0.48158434980921017 -1.2100620838919034 1.209794206820334 -1.209116482250709 0.0 0.0 0.0 0.0 0.0 0.0 3.4585330805685226 -4.986365444150622 1.4836928356884402 0.5766419606114926 -0.5413255167226351 0.5355450367649335 0.29580949455060795 -0.11303468883756389 0.4815525763646191 -1.210139742515539 1.2098370768821622 -1.20897546102981 0.0 0.0 0.0 0.0 0.0 0.0
2335.576 0.0 -1.5707963267948966 -1.5707963267948966 0.0 1.5707963267948966 0.0 0.0 0.0 0.0 0.0 0.0 0.0 0.0 0.0 0.0 0.0 0.0 0.0 -1.8327750199862536e-26 0.555172973447796 0.7573864583558305 0.07057808899065858 -9.380070923910231e-28 0.0 -2.1032924999364705e-25 6.394759450000002 6.3947594500000005 0.2913103000000004 -3.894025929994733e-27 0.0 1.1984225238848012e-05 -1.570796314870016 -1.5707715193377894 -1.6514454976856996e-05 1.5707316398620605 -5.990663637334137e-05 0.0 0.0 -0.0 0.0 0.0 0.0 0.0403747595846653 0.5181427597999573 0.6847434639930725 -0.006713963113725185 -0.019022895023226738 -0.12308932095766068 0.0403747595846653 0.5607605576515198 0.6893185973167419 -0.007832957431674004 -0.02685585245490074 -0.13092228770256042 0.2958101233711837 -0.11303649870956896 0.4815585548026012 -1.210152772567898 1.2098415054811942 -1.2090623272495287 0.0 0.0 0.0 0.0 0.0 0.0 0.850201403372502 -3.2989352478511065 1.5342580402210975 0.5713632305415473 -0.3040588157974657 0.360251425682123 0.29580949455060795 -0.11303468883756389 0.4815525763646191 -1.210139742515539 1.2098370768821622 -1.20897546102981 0.0 0.0 0.0 0.0 0.0 0.0
2335.584 0.0 -1.5707963267948966 -1.5707963267948966 0.0 1.5707963267948966 0.0 0.0 0.0 0.0 0.0 0.0 0.0 0.0 0.0 0.0 0.0 0.0 0.0 -1.8327750199862536e-26 0.555172973447796 0.7573864583558305 0.07057808899065858 -9.380070923910231e-28 0.0 -2.1032924999364705e-25 6.394759450000002 6.3947594500000005 0.2913103000000004 -3.894025929994733e-27 0.0 0.0 -1.5707362333880823 -1.5707834402667444 -7.659593691045075e-05 1.5706956386566162 -5.990663637334137e-05 0.0 0.0 -0.0 0.0 0.0 0.0 0.0426178015768528 0.5450592637062073 0.6938937306404114 -0.007832957431674004 -0.03021283447742462 -0.11637535691261292 0.0403747595846653 0.5630035996437073 0.6847434639930725 -0.008951950818300247 -0.02909383922815323 -0.12756529450416565 0.29579510944337023 -0.11304301329985567 0.48156785120088985 -1.2101388588765398 1.2098856232428632 -1.2090920059504182 0.0 0.0 0.0 0.0 0.0 0.0 1.9180842702042007 -4.243609929432009 1.102599239562222 0.5403177038922417 -0.43597696346124787 0.4900485229674522 0.29580949455060795 -0.11303468883756389 0.4815525763646191 -1.210139742515539 1.2098370768821622 -1.20897546102981 0.0 0.0 0.0 0.0 0.0 0.0
2335.592 0.0 -1.5707963267948966 -1.5707963267948966 0.0 1.5707963267948966 0.0 0.0 0.0 0.0 0.0 0.0 0.0 0.0 0.0 0.0 0.0 0.0 0.0 -1.8327750199862536e-26 0.555172973447796 0.7573864583558305 0.07057808899065858 -9.380070923910231e-28 0.0 -2.1032924999364705e-25 6.394759450000002 6.3947594500000005 0.2913103000000004 -3.894025929994733e-27 0.0 -5.990663637334137e-05 -1.5707724730121058 -1.5707834402667444 -4.0356312887013246e-05 1.5707556009292603 -5.990663637334137e-05 0.0 0.0 -0.0 0.0 0.0 0.0 0.0426178015768528 0.5338440537452698 0.6771183013916016 -0.0055949692614376545 -0.022379877045750618 -0.13092228770256042 0.0403747595846653 0.5630035996437073 0.681693434715271 -0.007832957431674004 -0.02909383922815323 -0.13092228770256042 0.2957971959637836 -0.11305578437959654 0.48156011757341655 -1.2101389049633255 1.2098855815893759 -1.2090919431028258 0.0 0.0 0.0 0.0 0.0 0.0 1.9752014998107252 -4.103068629945713 1.8955923822665504 0.6077652706462359 -0.3652372923518729 0.44200372583912506 0.29580949455060795 -0.11303468883756389 0.4815525763646191 -1.210139742515539 1.2098370768821622 -1.20897546102981 0.0 0.0 0.0 0.0 0.0 0.0
2335.6 0.0 -1.5707963267948966 -1.5707963267948966 0.0 1.5707963267948966 0.0 0.0 0.0 0.0 0.0 0.0 0.0 0.0 0.0 0.0 0.0 0.0 0.0 -1.8327750199862536e-26 0.555172973447796 0.7573864583558305 0.07057808899065858 -9.380070923910231e-28 0.0 -2.1032924999364705e-25 6.394759450000002 6.3947594500000005 0.2913103000000004 -3.894025929994733e-27 0.0 -2.366701234990387e-05 -1.5707839171039026 -1.5708072821246546 -4.0356312887013246e-05 1.5706956386566162 -7.230440248662262e-05 0.0 0.0 -0.0 0.0 0.0 0.0 0.0426178015768528 0.5495453476905823 0.6755932569503784 -0.004475975409150124 -0.024617865681648254 -0.12868429720401764 0.0403747595846653 0.5607605576515198 0.6832184791564941 -0.007832957431674004 -0.02909383922815323 -0.13092228770256042 0.29580710183526143 -0.1130499720655959 0.48154968697462586 -1.210162859259456 1.20992307819981 -1.2091017815416236 0.0 0.0 0.0 0.0 0.0 0.0 2.8646585122562 -4.6222651444251115 1.986942785124921 0.5974346548491936 -0.4284179947784997 0.4950847766215672 0.29580949455060795 -0.11303468883756389 0.4815525763646191 -1.210139742515539 1.2098370768821622 -1.20897546102981 0.0 0.0 0.0 0.0 0.0 0.0
2335.6079999999997 0.0 -1.5707963267948966 -1.5707963267948966 0.0 1.5707963267948966 0.0 0.0 0.0 0.0 0.0 0.0 0.0 0.0 0.0 0.0 0.0 0.0 0.0 -1.8327750199862536e-26 0.555172973447796 0.7573864583558305 0.07057808899065858 -9.380070923910231e-28 0.0 -2.1032924999364705e-25 6.394759450000002 6.3947594500000005 0.2913103000000004 -3.894025929994733e-27 0.0 2.3968450477696024e-05 -1.570796314870016 -1.5707715193377894 -4.0356312887013246e-05 1.57077956199646 -8.422533144170075e-05 0.0 0.0 -0.0 0.0 0.0 0.0 0.0381317175924778 0.5338440537452698 0.6862685084342957 -0.01342792622745037 -0.03021283447742462 -0.12085133790969849 0.0403747595846653 0.5607605576515198 0.6847434639930725 -0.007832957431674004 -0.02909383922815323 -0.12868429720401764 0.29581351749423185 -0.11302900552931781 0.48155659063658884 -1.2102166017906566 1.2098034001787703 -1.2090248288559993 0.0 0.0 0.0 0.0 0.0 0.0 1.6214774931796265 -3.815809369732738 1.3207355189014895 0.5611000700535924 -0.41856640630148667 0.45485206379664617 0.29580949455060795 -0.11303468883756389 0.4815525763646191 -1.210139742515539 1.2098370768821622 -1.20897546102981 0.0 0.0 0.0 0.0 0.0 0.0
2335.616 0.0 -1.5707963267948966 -1.5707963267948966 0.0 1.5707963267948966 0.0 0.0 0.0 0.0 0.0 0.0 0.0 0.0 0.0 0.0 0.0 0.0 0.0 -1.8327750199862536e-26 0.555172973447796 0.7573864583558305 0.07057808899065858 -9.380070923910231e-28 0.0 -2.1032924999364705e-25 6.394759450000002 6.3947594500000005 0.2913103000000004 -3.894025929994733e-27 0.0 -2.366701234990387e-05 -1.5707839171039026 -1.5707595984088343 -1.6514454976856996e-05 1.5707075595855713 -5.990663637334137e-05 0.0 0.0 -0.0 0.0 0.0 0.0 0.0358886756002903 0.5809479355812073 0.6694930791854858 -0.011189938522875309 -0.027974845841526985 -0.12756529450416565 0.0403747595846653 0.5607605576515198 0.6786433458328247 -0.007832957431674004 -0.0335698164999485 -0.12868429720401764 0.2958009826730071 -0.11304904570656267 0.4815657453506506 -1.210106567740574 1.2098676623864797 -1.209117838927748 0.0 0.0 0.0 0.0 0.0 0.0 4.762351501626141 -5.294602178047531 2.1126456250005643 0.5922530754914841 -0.6111665352933648 0.565988582875719 0.29580949455060795 -0.11303468883756389 0.4815525763646191 -1.210139742515539 1.2098370768821622 -1.20897546102981 0.0 0.0 0.0 0.0 0.0 0.0
2335.624 0.0 -1.5707963267948966 -1.5707963267948966 0.0 1.5707963267948966 0.0 0.0 0.0 0.0 0.0 0.0 0.0 0.0 0.0 0.0 0.0 0.0 0.0 -1.8327750199862536e-26 0.555172973447796 0.7573864583558305 0.07057808899065858 -9.380070923910231e-28 0.0 -2.1032924999364705e-25 6.394759450000002 6.3947594500000005 0.2913103000000004 -3.894025929994733e-27 0.0 -1.1746083394825746e-05 -1.5707724730121058 -1.5707834402667444 -4.593526021778871e-06 1.5707075595855713 -9.614626039677887e-05 0.0 0.0 -0.0 0.0 0.0 0.0 0.0426178015768528 0.5674896836280823 0.6801683902740479 -0.008951950818300247 -0.027974845841526985 -0.11189938336610794 0.0403747595846653 0.5607605576515198 0.6847434639930725 -0.01007094420492649 -0.031331829726696014 -0.12980328500270844 0.2957995831610308 -0.11304549697347463 0.4815630632293851 -1.210139305551982 1.2098420235616916 -1.2091354814801352 0.0 0.0 0.0 0.0 0.0 0.0 3.6362265567368772 -5.104202361525508 1.6866382403947227 0.5195790772780449 -0.5397410989058008 0.5503973778173902 0.29580949455060795 -0.11303468883756389 0.4815525763646191 -1.210139742515539 1.2098370768821622 -1.20897546102981 0.0 0.0 0.0 0.0 0.0 0.0
2335.632 0.0 -1.5707963267948966 -1.5707963267948966 0.0 1.5707963267948966 0.0 0.0 0.0 0.0 0.0 0.0 0.0 0.0 0.0 0.0 0.0 0.0 0.0 -1.8327750199862536e-26 0.555172973447796 0.7573864583558305 0.07057808899065858 -9.380070923910231e-28 0.0 -2.1032924999364705e-25 6.394759450000002 6.3947594500000005 0.2913103000000004 -3.894025929994733e-27 0.0 0.0 -1.570676628743307 -1.5707953611956995 -1.6514454976856996e-05 1.5707556009292603 -5.990663637334137e-05 0.0 0.0 -0.0 0.0 0.0 0.0 0.0493469275534153 0.5764618515968323 0.6877935528755188 0.002237987704575062 -0.03580780327320099 -0.134279265999794 0.0403747595846653 0.5607605576515198 0.6832184791564941 -0.006713963113725185 -0.027974845841526985 -0.12980328500270844 0.2957713594696017 -0.11303808561009152 0.48158689699900964 -1.2100878393663128 1.2097621571261745 -1.2090989228611717 0.0 0.0 0.0 0.0 0.0 0.0 3.8135501688185993 -5.775382517919381 1.5889565902874148 0.623481431701468 -0.5111957169120505 0.6421679502421345 0.29580949455060795 -0.11303468883756389 0.4815525763646191 -1.210139742515539 1.2098370768821622 -1.20897546102981 0.0 0.0 0.0 0.0 0.0 0.0
2335.64 0.0 -1.5707963267948966 -1.5707963267948966 0.0 1.5707963267948966 0.0 0.0 0.0 0.0 0.0 0.0 0.0 0.0 0.0 0.0 0.0 0.0 0.0 -1.8327750199862536e-26 0.555172973447796 0.7573864583558305 0.07057808899065858 -9.380070923910231e-28 0.0 -2.1032924999364705e-25 6.394759450000002 6.3947594500000005 0.2913103000000004 -3.894025929994733e-27 0.0 -3.5587941304981996e-05 -1.5707362333880823 -1.5707953611956995 -2.8912221090138246e-05 1.5707556009292603 -2.366701234990387e-05 0.0 0.0 -0.0 0.0 0.0 0.0 0.0381317175924778 0.5787048935890198 0.6877935528755188 -0.001118993852287531 -0.03021283447742462 -0.12980328500270844 0.0403747595846653 0.5607605576515198 0.6847434639930725 -0.007832957431674004 -0.02909383922815323 -0.12868429720401764 0.295788043751228 -0.11304859039094937 0.4815682520691239 -1.2100973713137204 1.20985848061226 -1.2090643096276428 0.0 0.0 0.0 0.0 0.0 0.0 3.9337709807316186 -5.040363396960591 1.518731918519567 0.6026561250398169 -0.5427532230557109 0.5555300252805399 0.29580949455060795 -0.11303468883756389 0.4815525763646191 -1.210139742515539 1.2098370768821622 -1.20897546102981 0.0 0.0 0.0 0.0 0.0 0.0
2335.6479999999997 0.0 -1.5707963267948966 -1.5707963267948966 0.0 1.5707963267948966 0.0 0.0 0.0 0.0 0.0 0.0 0.0 0.0 0.0 0.0 0.0 0.0 0.0 -1.8327750199862536e-26 0.555172973447796 0.7573864583558305 0.07057808899065858 -9.380070923910231e-28 0.0 -2.1032924999364705e-25 6.394759450000002 6.3947594500000005 0.2913103000000004 -3.894025929994733e-27 0.0 -4.7985707418263246e-05 -1.5707243124591272 -1.5707715193377894 -6.467500795537262e-05 1.5707556009292603 -2.366701234990387e-05 0.0 0.0 -0.0 0.0 0.0 0.0 0.0358886756002903 0.5607605576515198 0.6801683902740479 -0.0055949692614376545 -0.04252176731824875 -0.1365172564983368 0.0403747595846653 0.5607605576515198 0.6847434639930725 -0.007832957431674004 -0.031331829726696014 -0.13092228770256042 0.2957837220166488 -0.11305228684067806 0.4815758802080396 -1.2100914550553246 1.2098676824245207 -1.2090734734614355 0.0 0.0 0.0 0.0 0.0 0.0 3.28070473271606 -4.828055491121701 1.7606670692587045 0.6338430637542861 -0.4878600274886584 0.5953883991090398 0.29580949455060795 -0.11303468883756389 0.4815525763646191 -1.210139742515539 1.2098370768821622 -1.20897546102981 0.0 0.0 0.0 0.0 0.0 0.0
2335.656 0.0 -1.5707963267948966 -1.5707963267948966 0.0 1.5707963267948966 0.0 0.0 0.0 0.0 0.0 0.0 0.0 0.0 0.0 0.0 0.0 0.0 0.0 -1.8327750199862536e-26 0.555172973447796 0.7573864583558305 0.07057808899065858 -9.380070923910231e-28 0.0 -2.1032924999364705e-25 6.394759450000002 6.3947594500000005 0.2913103000000004 -3.894025929994733e-27 0.0 -1.1746083394825746e-05 -1.5707600752459925 -1.5707114378558558 7.152557373046875e-06 1.5707556009292603 -3.5587941304981996e-05 0.0 0.0 -0.0 0.0 0.0 0.0 0.0381317175924778 0.5899201035499573 0.6832184791564941 -0.0055949692614376545 -0.025736859068274498 -0.12868429720401764 0.0403747595846653 0.5607605576515198 0.6832184791564941 -0.007832957431674004 -0.02909383922815323 -0.12868429720401764 0.2957883280335654 -0.1130416272487755 0.4815889789948123 -1.2100464302203722 1.2097647385064574 -1.2091012023653878 0.0 0.0 0.0 0.0 0.0 0.0 4.704276811189891 -5.350774582699163 1.6246681491829904 0.5974206688606853 -0.620525992347645 0.5602756223262932 0.29580949455060795 -0.11303468883756389 0.4815525763646191 -1.210139742515539 1.2098370768821622 -1.20897546102981 0.0 0.0 0.0 0.0 0.0 0.0
2335.6639999999998 0.0 -1.5707963267948966 -1.5707963267948966 0.0 1.5707963267948966 0.0 0.0 0.0 0.0 0.0 0.0 0.0 0.0 0.0 0.0 0.0 0.0 0.0 -1.8327750199862536e-26 0.555172973447796 0.7573864583558305 0.07057808899065858 -9.380070923910231e-28 0.0 -2.1032924999364705e-25 6.394759450000002 6.3947594500000005 0.2913103000000004 -3.894025929994733e-27 0.0 -3.5587941304981996e-05 -1.5707243124591272 -1.5708072821246546 -4.0356312887013246e-05 1.5707556009292603 -4.7985707418263246e-05 0.0 0.0 -0.0 0.0 0.0 0.0 0.0471038855612278 0.5181427597999573 0.6786433458328247 -0.006713963113725185 -0.031331829726696014 -0.13092228770256042 0.0403747595846653 0.5607605576515198 0.681693434715271 -0.008951950818300247 -0.02909383922815323 -0.12868429720401764 0.2957861123624506 -0.11304858036171658 0.48156731091005367 -1.21012374243207 1.2098553672292898 -1.2090767733433445 0.0 0.0 0.0 0.0 0.0 0.0 1.085222501798243 -4.09790373851708 1.802869784667819 0.6078120589276316 -0.302099965998904 0.4833330621019809 0.29580949455060795 -0.11303468883756389 0.4815525763646191 -1.210139742515539 1.2098370768821622 -1.20897546102981 0.0 0.0 0.0 0.0 0.0 0.0
2335.672 0.0 -1.5707963267948966 -1.5707963267948966 0.0 1.5707963267948966 0.0 0.0 0.0 0.0 0.0 0.0 0.0 0.0 0.0 0.0 0.0 0.0 0.0 -1.8327750199862536e-26 0.555172973447796 0.7573864583558305 0.07057808899065858 -9.380070923910231e-28 0.0 -2.1032924999364705e-25 6.394759450000002 6.3947594500000005 0.2913103000000004 -3.894025929994733e-27 0.0 -2.366701234990387e-05 -1.5707600752459925 -1.5707834402667444 -5.2754079000294496e-05 1.5707075595855713 -3.5587941304981996e-05 0.0 0.0 -0.0 0.0 0.0 0.0 0.0448608435690403 0.5630035996437073 0.6771183013916016 -0.006713963113725185 -0.02685585245490074 -0.12308932095766068 0.0403747595846653 0.5630035996437073 0.6832184791564941 -0.011189938522875309 -0.02909383922815323 -0.12980328500270844 0.2957982594921307 -0.1130490250141971 0.48156276394579245 -1.2101153918032845 1.2099057800510147 -1.2090827424240658 0.0 0.0 0.0 0.0 0.0 0.0 3.5167427041579686 -5.15174019066457 1.8699701677398703 0.5715087935169041 -0.5040882192493701 0.5490856452126159 0.29580949455060795 -0.11303468883756389 0.4815525763646191 -1.210139742515539 1.2098370768821622 -1.20897546102981 0.0 0.0 0.0 0.0 0.0 0.0
2335.68 0.0 -1.5707963267948966 -1.5707963267948966 0.0 1.5707963267948966 0.0 0.0 0.0 0.0 0.0 0.0 0.0 0.0 0.0 0.0 0.0 0.0 0.0 -1.8327750199862536e-26 0.555172973447796 0.7573864583558305 0.07057808899065858 -9.380070923910231e-28 0.0 -2.1032924999364705e-25 6.394759450000002 6.3947594500000005 0.2913103000000004 -3.894025929994733e-27 0.0 -1.1746083394825746e-05 -1.5707600752459925 -1.5707476774798792 -4.593526021778871e-06 1.5707675218582153 -5.990663637334137e-05 0.0 0.0 -0.0 0.0 0.0 0.0 0.0426178015768528 0.5517883896827698 0.6786433458328247 -0.01342792622745037 -0.03245082125067711 -0.13204127550125122 0.0403747595846653 0.5607605576515198 0.6832184791564941 -0.008951950818300247 -0.02909383922815323 -0.12868429720401764 0.29579243766883534 -0.11304060360374368 0.4815772993939155 -1.210105417890976 1.209779660433568 -1.2090875393148857 0.0 0.0 0.0 0.0 0.0 0.0 2.8648081668363607 -4.793839331932195 1.6572883198431385 0.6130260435488246 -0.49706533846745793 0.5457772625199392 0.29580949455060795 -0.11303468883756389 0.4815525763646191 -1.210139742515539 1.2098370768821622 -1.20897546102981 0.0 0.0 0.0 0.0 0.0 0.0
2335.688 0.0 -1.5707963267948966 -1.5707963267948966 0.0 1.5707963267948966 0.0 0.0 0.0 0.0 0.0 0.0 0.0 0.0 0.0 0.0 0.0 0.0 0.0 -1.8327750199862536e-26 0.555172973447796 0.7573864583558305 0.07057808899065858 -9.380070923910231e-28 0.0 -2.1032924999364705e-25 6.394759450000002 6.3947594500000005 0.2913103000000004 -3.894025929994733e-27 0.0 -1.1746083394825746e-05 -1.5707481543170374 -1.5707834402667444 -1.6514454976856996e-05 1.5707435607910156 -7.230440248662262e-05 0.0 0.0 -0.0 0.0 0.0 0.0 0.0403747595846653 0.6078644394874573 0.6938937306404114 -0.012308932840824127 -0.024617865681648254 -0.12420831620693207 0.0403747595846653 0.5607605576515198 0.6832184791564941 -0.008951950818300247 -0.02909383922815323 -0.12868429720401764 0.29579258776030865 -0.113042539865209 0.48156927197364685 -1.2101296328724227 1.209817670883794 -1.209097311563027 0.0 0.0 0.0 0.0 0.0 0.0 5.238776265265772 -5.74419811071988 1.0041224389857253 0.5767073661056232 -0.7482654580872341 0.5873834218234398 0.29580949455060795 -0.11303468883756389 0.4815525763646191 -1.210139742515539 1.2098370768821622 -1.20897546102981 0.0 0.0 0.0 0.0 0.0 0.0
2335.696 0.0 -1.5707963267948966 -1.5707963267948966 0.0 1.5707963267948966 0.0 0.0 0.0 0.0 0.0 0.0 0.0 0.0 0.0 0.0 0.0 0.0 0.0 -1.8327750199862536e-26 0.555172973447796 0.7573864583558305 0.07057808899065858 -9.380070923910231e-28 0.0 -2.1032924999364705e-25 6.394759450000002 6.3947594500000005 0.2913103000000004 -3.894025929994733e-27 0.0 -2.366701234990387e-05 -1.5707839171039026 -1.5707595984088343 -4.593526021778871e-06 1.5707556009292603 -8.422533144170075e-05 0.0 0.0 -0.0 0.0 0.0 0.0 0.0403747595846653 0.5428162217140198 0.6877935528755188 -0.006713963113725185 -0.031331829726696014 -0.12980328500270844 0.0403747595846653 0.5607605576515198 0.6832184791564941 -0.008951950818300247 -0.02909383922815323 -0.12868429720401764 0.29579996991875257 -0.11304508969107262 0.4815667257650892 -1.2101384366642771 1.2098119914249548 -1.2091060196448642 0.0 0.0 0.0 0.0 0.0 0.0 2.036085766478397 -4.195311967940321 1.3977920359480314 0.6026077442080632 -0.4166100580884305 0.49130042868320756 0.29580949455060795 -0.11303468883756389 0.4815525763646191 -1.210139742515539 1.2098370768821622 -1.20897546102981 0.0 0.0 0.0 0.0 0.0 0.0
2335.7039999999997 0.0 -1.5707963267948966 -1.5707963267948966 0.0 1.5707963267948966 0.0 0.0 0.0 0.0 0.0 0.0 0.0 0.0 0.0 0.0 0.0 0.0 0.0 -1.8327750199862536e-26 0.555172973447796 0.7573864583558305 0.07057808899065858 -9.380070923910231e-28 0.0 -2.1032924999364705e-25 6.394759450000002 6.3947594500000005 0.2913103000000004 -3.894025929994733e-27 0.0 -2.366701234990387e-05 -1.570796314870016 -1.5707476774798792 -4.593526021778871e-06 1.570719599723816 -7.230440248662262e-05 0.0 0.0 -0.0 0.0 0.0 0.0 0.0493469275534153 0.5630035996437073 0.6893185973167419 -0.0055949692614376545 -0.027974845841526985 -0.1197323426604271 0.0403747595846653 0.5607605576515198 0.6832184791564941 -0.0055949692614376545 -0.027974845841526985 -0.12868429720401764 0.29580303175273037 -0.11304806396133384 0.481566584307552 -1.210112947600668 1.2098445318278115 -1.2091235359875596 0.0 0.0 0.0 0.0 0.0 0.0 3.0431587678886647 -5.195926139092297 1.3519328367510304 0.5559240236641793 -0.5011616100940453 0.5579991195914868 0.29580949455060795 -0.11303468883756389 0.4815525763646191 -1.210139742515539 1.2098370768821622 -1.20897546102981 0.0 0.0 0.0 0.0 0.0 0.0
2335.712 0.0 -1.5707963267948966 -1.5707963267948966 0.0 1.5707963267948966 0.0 0.0 0.0 0.0 0.0 0.0 0.0 0.0 0.0 0.0 0.0 0.0 0.0 -1.8327750199862536e-26 0.555172973447796 0.7573864583558305 0.07057808899065858 -9.380070923910231e-28 0.0 -2.1032924999364705e-25 6.394759450000002 6.3947594500000005 0.2913103000000004 -3.894025929994733e-27 0.0 3.5952674807049334e-05 -1.5707481543170374 -1.5707715193377894 -1.6514454976856996e-05 1.5707316398620605 -4.7985707418263246e-05 0.0 0.0 -0.0 0.0 0.0 0.0 0.0448608435690403 0.5899201035499573 0.681693434715271 -0.0055949692614376545 -0.02909383922815323 -0.13204127550125122 0.0403747595846653 0.5607605576515198 0.6847434639930725 -0.006713963113725185 -0.02909383922815323 -0.12868429720401764 0.29579695678661316 -0.11302942620523201 0.48157279607868847 -1.210119828027739 1.2097940708116115 -1.209058744484919 0.0 0.0 0.0 0.0 0.0 0.0 4.7626053400547415 -5.859871864251796 1.690345391175107 0.6131042798959594 -0.6200232762714468 0.6177919131660174 0.29580949455060795 -0.11303468883756389 0.4815525763646191 -1.210139742515539 1.2098370768821622 -1.20897546102981 0.0 0.0 0.0 0.0 0.0 0.0
2335.72 0.0 -1.5707963267948966 -1.5707963267948966 0.0 1.5707963267948966 0.0 0.0 0.0 0.0 0.0 0.0 0.0 0.0 0.0 0.0 0.0 0.0 0.0 -1.8327750199862536e-26 0.555172973447796 0.7573864583558305 0.07057808899065858 -9.380070923910231e-28 0.0 -2.1032924999364705e-25 6.394759450000002 6.3947594500000005 0.2913103000000004 -3.894025929994733e-27 0.0 -1.1746083394825746e-05 -1.5707481543170374 -1.5707476774798792 -4.0356312887013246e-05 1.5707316398620605 -1.1746083394825746e-05 0.0 0.0 -0.0 0.0 0.0 0.0 0.0448608435690403 0.5787048935890198 0.6755932569503784 -0.004475975409150124 -0.03021283447742462 -0.13092228770256042 0.0403747595846653 0.5607605576515198 0.6801683902740479 -0.007832957431674004 -0.027974845841526985 -0.12868429720401764 0.2957915570935122 -0.11304356111866276 0.4815778807766298 -1.2100705158901384 1.2098464295690479 -1.2090672136966496 0.0 0.0 0.0 0.0 0.0 0.0 4.405909335551486 -5.695847660400664 1.985696978914868 0.6078829895551949 -0.5601357247892593 0.6094981645698744 0.29580949455060795 -0.11303468883756389 0.4815525763646191 -1.210139742515539 1.2098370768821622 -1.20897546102981 0.0 0.0 0.0 0.0 0.0 0.0
2335.728 0.0 -1.5707963267948966 -1.5707963267948966 0.0 1.5707963267948966 0.0 0.0 0.0 0.0 0.0 0.0 0.0 0.0 0.0 0.0 0.0 0.0 0.0 -1.8327750199862536e-26 0.555172973447796 0.7573864583558305 0.07057808899065858 -9.380070923910231e-28 0.0 -2.1032924999364705e-25 6.394759450000002 6.3947594500000005 0.2913103000000004 -3.894025929994733e-27 0.0 -1.1746083394825746e-05 -1.5707724730121058 -1.5707715193377894 7.152557373046875e-06 1.57077956199646 -5.990663637334137e-05 0.0 0.0 -0.0 0.0 0.0 0.0 0.0291595496237278 0.5428162217140198 0.6801683902740479 -0.007832957431674004 -0.02909383922815323 -0.13875523209571838 0.0381317175924778 0.5630035996437073 0.6832184791564941 -0.007832957431674004 -0.027974845841526985 -0.12980328500270844 0.29579756613601293 -0.11303958112508225 0.4815675525443493 -1.2101292136867061 1.2097887445714393 -1.2090670318462298 0.0 0.0 0.0 0.0 0.0 0.0 2.333267851520424 -3.6277590221290255 1.714375129918742 0.6440919409901372 -0.4210740413840127 0.4341338802115094 0.29580949455060795 -0.11303468883756389 0.4815525763646191 -1.210139742515539 1.2098370768821622 -1.20897546102981 0.0 0.0 0.0 0.0 0.0 0.0
2335.736 0.0 -1.5707963267948966 -1.5707963267948966 0.0 1.5707963267948966 0.0 0.0 0.0 0.0 0.0 0.0 0.0 0.0 0.0 0.0 0.0 0.0 0.0 -1.8327750199862536e-26 0.555172973447796 0.7573864583558305 0.07057808899065858 -9.380070923910231e-28 0.0 -2.1032924999364705e-25 6.394759450000002 6.3947594500000005 0.2913103000000004 -3.894025929994733e-27 0.0 0.0 -1.5708320776568812 -1.5707834402667444 -4.0356312887013246e-05 1.5707316398620605 -2.366701234990387e-05 0.0 0.0 -0.0 0.0 0.0 0.0 0.0403747595846653 0.5405731797218323 0.6832184791564941 -0.004475975409150124 -0.024617865681648254 -0.12085133790969849 0.0381317175924778 0.5585175156593323 0.6832184791564941 -0.011189938522875309 -0.027974845841526985 -0.13204127550125122 0.2958236133311968 -0.11304001624026565 0.48154249200038174 -1.2101731345838487 1.2099200635800476 -1.2090105564359432 0.0 0.0 0.0 0.0 0.0 0.0 2.0952788317860658 -4.079431161396073 1.649587861114551 0.5610901314028065 -0.390490827888578 0.4504384861840378 0.29580949455060795 -0.11303468883756389 0.4815525763646191 -1.210139742515539 1.2098370768821622 -1.20897546102981 0.0 0.0 0.0 0.0 0.0 0.0
2335.7439999999997 0.0 -1.5707963267948966 -1.5707963267948966 0.0 1.5707963267948966 0.0 0.0 0.0 0.0 0.0 0.0 0.0 0.0 0.0 0.0 0.0 0.0 0.0 -1.8327750199862536e-26 0.555172973447796 0.7573864583558305 0.07057808899065858 -9.380070923910231e-28 0.0 -2.1032924999364705e-25 6.394759450000002 6.3947594500000005 0.2913103000000004 -3.894025929994733e-27 0.0 1.1984225238848012e-05 -1.5707481543170374 -1.5707595984088343 -4.0356312887013246e-05 1.5707316398620605 -2.366701234990387e-05 0.0 0.0 -0.0 0.0 0.0 0.0 0.0448608435690403 0.5630035996437073 0.6801683902740479 -0.006713963113725185 -0.02349887043237686 -0.12420831620693207 0.0403747595846653 0.5630035996437073 0.6832184791564941 -0.0055949692614376545 -0.027974845841526985 -0.13092228770256042 0.2957952611325654 -0.11303652827092867 0.4815743569408168 -1.2100993318548645 1.2098320418127009 -1.2090528562112342 0.0 0.0 0.0 0.0 0.0 0.0 3.3986491531486385 -5.016105937202382 1.7348273839099364 0.5766776800919569 -0.5051086514932057 0.5223430618697712 0.29580949455060795 -0.11303468883756389 0.4815525763646191 -1.210139742515539 1.2098370768821622 -1.20897546102981 0.0 0.0 0.0 0.0 0.0 0.0
2335.752 0.0 -1.5707963267948966 -1.5707963267948966 0.0 1.5707963267948966 0.0 0.0 0.0 0.0 0.0 0.0 0.0 0.0 0.0 0.0 0.0 0.0 0.0 -1.8327750199862536e-26 0.555172973447796 0.7573864583558305 0.07057808899065858 -9.380070923910231e-28 0.0 -2.1032924999364705e-25 6.394759450000002 6.3947594500000005 0.2913103000000004 -3.894025929994733e-27 0.0 -1.1746083394825746e-05 -1.5707243124591272 -1.5707715193377894 7.152557373046875e-06 1.5707316398620605 -3.5587941304981996e-05 0.0 0.0 -0.0 0.0 0.0 0.0 0.0493469275534153 0.5585175156593323 0.6740682125091553 -0.006713963113725185 -0.02349887043237686 -0.12532731890678406 0.0403747595846653 0.5585175156593323 0.6832184791564941 -0.007832957431674004 -0.027974845841526985 -0.12868429720401764 0.2957816852600743 -0.11304354481044482 0.4815817944264611 -1.2100531202917995 1.209800143215022 -1.209107244087878 0.0 0.0 0.0 0.0 0.0 0.0 3.397143734021966 -5.286331538367051 2.004546134286636 0.5818487950390472 -0.4828265386951191 0.5446265032586819 0.29580949455060795 -0.11303468883756389 0.4815525763646191 -1.210139742515539 1.2098370768821622 -1.20897546102981 0.0 0.0 0.0 0.0 0.0 0.0
2335.7599999999998 0.0 -1.5707963267948966 -1.5707963267948966 0.0 1.5707963267948966 0.0 0.0 0.0 0.0 0.0 0.0 0.0 0.0 0.0 0.0 0.0 0.0 0.0 -1.8327750199862536e-26 0.555172973447796 0.7573864583558305 0.07057808899065858 -9.380070923910231e-28 0.0 -2.1032924999364705e-25 6.394759450000002 6.3947594500000005 0.2913103000000004 -3.894025929994733e-27 0.0 -1.1746083394825746e-05 -1.570796314870016 -1.5707953611956995 7.152557373046875e-06 1.5707435607910156 -2.366701234990387e-05 0.0 0.0 -0.0 0.0 0.0 0.0 0.0403747595846653 0.5540314316749573 0.6832184791564941 -0.015665914863348007 -0.0335698164999485 -0.1353982537984848 0.0403747595846653 0.5585175156593323 0.6832184791564941 -0.007832957431674004 -0.027974845841526985 -0.13092228770256042 0.29580746461797314 -0.11304251064759069 0.4815534554387051 -1.2101206633665476 1.2098674271877419 -1.2090442262856005 0.0 0.0 0.0 0.0 0.0 0.0 2.8063076228060586 -4.651529945495096 1.4058866147073819 0.6286178082124095 -0.5231052288524155 0.5392219932969753 0.29580949455060795 -0.11303468883756389 0.4815525763646191 -1.210139742515539 1.2098370768821622 -1.20897546102981 0.0 0.0 0.0 0.0 0.0 0.0
2335.768 0.0 -1.5707963267948966 -1.5707963267948966 0.0 1.5707963267948966 0.0 0.0 0.0 0.0 0.0 0.0 0.0 0.0 0.0 0.0 0.0 0.0 0.0 -1.8327750199862536e-26 0.555172973447796 0.7573864583558305 0.07057808899065858 -9.380070923910231e-28 0.0 -2.1032924999364705e-25 6.394759450000002 6.3947594500000005 0.2913103000000004 -3.894025929994733e-27 0.0 -3.5587941304981996e-05 -1.5707724730121058 -1.5707715193377894 -4.0356312887013246e-05 1.5707435607910156 -8.422533144170075e-05 0.0 0.0 -0.0 0.0 0.0 0.0 0.0426178015768528 0.5517883896827698 0.6938937306404114 -0.006713963113725185 -0.02909383922815323 -0.13204127550125122 0.0403747595846653 0.5630035996437073 0.6832184791564941 -0.008951950818300247 -0.027974845841526985 -0.12868429720401764 0.29579892265742147 -0.11304959609697643 0.4815636417303261 -1.2101538227346174 1.2098562826583739 -1.2091064728456435 0.0 0.0 0.0 0.0 0.0 0.0 2.2735063764500216 -4.407333252974506 1.1263510550472156 0.6129992752628534 -0.459221405117251 0.4983009355635454 0.29580949455060795 -0.11303468883756389 0.4815525763646191 -1.210139742515539 1.2098370768821622 -1.20897546102981 0.0 0.0 0.0 0.0 0.0 0.0
2335.776 0.0 -1.5707963267948966 -1.5707963267948966 0.0 1.5707963267948966 0.0 0.0 0.0 0.0 0.0 0.0 0.0 0.0 0.0 0.0 0.0 0.0 0.0 -1.8327750199862536e-26 0.555172973447796 0.7573864583558305 0.07057808899065858 -9.380070923910231e-28 0.0 -2.1032924999364705e-25 6.394759450000002 6.3947594500000005 0.2913103000000004 -3.894025929994733e-27 0.0 -1.1746083394825746e-05 -1.5707600752459925 -1.5707834402667444 -4.0356312887013246e-05 1.5707556009292603 -3.5587941304981996e-05 0.0 0.0 -0.0 0.0 0.0 0.0 0.0403747595846653 0.5697327256202698 0.6755932569503784 -0.011189938522875309 -0.027974845841526985 -0.12308932095766068 0.0403747595846653 0.5607605576515198 0.6832184791564941 -0.011189938522875309 -0.02685585245490074 -0.12868429720401764 0.295798553653854 -0.11304154283756088 0.4815637836580508 -1.210134630120069 1.209852481500891 -1.2090444744662578 0.0 0.0 0.0 0.0 0.0 0.0 3.9323119146026686 -5.12566415284839 1.8413521569158897 0.571529436103866 -0.5626264266653808 0.5521462100397302 0.29580949455060795 -0.11303468883756389 0.4815525763646191 -1.210139742515539 1.2098370768821622 -1.20897546102981 0.0 0.0 0.0 0.0 0.0 0.0
2335.784 0.0 -1.5707963267948966 -1.5707963267948966 0.0 1.5707963267948966 0.0 0.0 0.0 0.0 0.0 0.0 0.0 0.0 0.0 0.0 0.0 0.0 0.0 -1.8327750199862536e-26 0.555172973447796 0.7573864583558305 0.07057808899065858 -9.380070923910231e-28 0.0 -2.1032924999364705e-25 6.394759450000002 6.3947594500000005 0.2913103000000004 -3.894025929994733e-27 0.0 -1.1746083394825746e-05 -1.5707481543170374 -1.5707715193377894 -2.8912221090138246e-05 1.5707316398620605 -5.990663637334137e-05 0.0 0.0 -0.0 0.0 0.0 0.0 0.0381317175924778 0.5495453476905823 0.6893185973167419 -0.006713963113725185 -0.02909383922815323 -0.1186133474111557 0.0403747595846653 0.5607605576515198 0.6847434639930725 -0.008951950818300247 -0.02685585245490074 -0.12980328500270844 0.2957926233409394 -0.11304353457991552 0.48157177533209544 -1.2101151841147193 1.2098327011915706 -1.2090967536085346 0.0 0.0 0.0 0.0 0.0 0.0 2.3332503660628916 -4.168688524234256 1.3307954116270138 0.5506748797178534 -0.4474672239822169 0.4786665066257087 0.29580949455060795 -0.11303468883756389 0.4815525763646191 -1.210139742515539 1.2098370768821622 -1.20897546102981 0.0 0.0 0.0 0.0 0.0 0.0
2335.792 0.0 -1.5707963267948966 -1.5707963267948966 0.0 1.5707963267948966 0.0 0.0 0.0 0.0 0.0 0.0 0.0 0.0 0.0 0.0 0.0 0.0 0.0 -1.8327750199862536e-26 0.555172973447796 0.7573864583558305 0.07057808899065858 -9.380070923910231e-28 0.0 -2.1032924999364705e-25 6.394759450000002 6.3947594500000005 0.2913103000000004 -3.894025929994733e-27 0.0 4.793690095539205e-05 -1.5707362333880823 -1.5707476774798792 -4.0356312887013246e-05 1.5707675218582153 -5.990663637334137e-05 0.0 0.0 -0.0 0.0 0.0 0.0 0.0493469275534153 0.5383301377296448 0.6740682125091553 -0.004475975409150124 -0.025736859068274498 -0.13987423479557037 0.0403747595846653 0.5607605576515198 0.6847434639930725 -0.008951950818300247 -0.02685585245490074 -0.12980328500270844 0.29579437683191695 -0.11302295641226731 0.4815814049169038 -1.2101424238773566 1.2097444587281834 -1.2090379688176356 0.0 0.0 0.0 0.0 0.0 0.0 2.3299089023367654 -4.769708281207801 2.053352353736431 0.649372802136804 -0.3772829331282521 0.512571318318021 0.29580949455060795 -0.11303468883756389 0.4815525763646191 -1.210139742515539 1.2098370768821622 -1.20897546102981 0.0 0.0 0.0 0.0 0.0 0.0
2335.7999999999997 0.0 -1.5707963267948966 -1.5707963267948966 0.0 1.5707963267948966 0.0 0.0 0.0 0.0 0.0 0.0 0.0 0.0 0.0 0.0 0.0 0.0 0.0 -1.8327750199862536e-26 0.555172973447796 0.7573864583558305 0.07057808899065858 -9.380070923910231e-28 0.0 -2.1032924999364705e-25 6.394759450000002 6.3947594500000005 0.2913103000000004 -3.894025929994733e-27 0.0 -3.5587941304981996e-05 -1.5707600752459925 -1.5707834402667444 7.152557373046875e-06 1.5707556009292603 -7.230440248662262e-05 0.0 0.0 -0.0 0.0 0.0 0.0 0.0448608435690403 0.5944061875343323 0.6877935528755188 -0.007832957431674004 -0.03245082125067711 -0.13092228770256042 0.0403747595846653 0.5652466416358948 0.681693434715271 -0.007832957431674004 -0.031331829726696014 -0.13204127550125122 0.2957918032352829 -0.11304859756480785 0.48156769528291066 -1.2101154018157037 1.209817723858062 -1.2091115581477339 0.0 0.0 0.0 0.0 0.0 0.0 4.762843564550144 -5.933702058756622 1.3708379218047484 0.6078998765316183 -0.6567974511704275 0.6394818438167001 0.29580949455060795 -0.11303468883756389 0.4815525763646191 -1.210139742515539 1.2098370768821622 -1.20897546102981 0.0 0.0 0.0 0.0 0.0 0.0
2335.808 0.0 -1.5707963267948966 -1.5707963267948966 0.0 1.5707963267948966 0.0 0.0 0.0 0.0 0.0 0.0 0.0 0.0 0.0 0.0 0.0 0.0 0.0 -1.8327750199862536e-26 0.555172973447796 0.7573864583558305 0.07057808899065858 -9.380070923910231e-28 0.0 -2.1032924999364705e-25 6.394759450000002 6.3947594500000005 0.2913103000000004 -3.894025929994733e-27 0.0 -3.5587941304981996e-05 -1.5707839171039026 -1.5708072821246546 -2.8912221090138246e-05 1.5707556009292603 -8.422533144170075e-05 0.0 0.0 -0.0 0.0 0.0 0.0 0.0403747595846653 0.5607605576515198 0.681693434715271 -0.0055949692614376545 -0.03580780327320099 -0.12756529450416565 0.0403747595846653 0.5562744736671448 0.6847434639930725 -0.007832957431674004 -0.03021283447742462 -0.13092228770256042 0.29580478344347083 -0.11304856050958012 0.4815506279294697 -1.2101859453669603 1.2098736274171764 -1.2090806074494753 0.0 0.0 0.0 0.0 0.0 0.0 3.2212761714390608 -4.919942909725016 1.6919594482392744 0.5923303525193111 -0.4883801302373387 0.5716787856374013 0.29580949455060795 -0.11303468883756389 0.4815525763646191 -1.210139742515539 1.2098370768821622 -1.20897546102981 0.0 0.0 0.0 0.0 0.0 0.0
