Fleaurent/UniversalRobot/csv/robot_movel_x400_Zeit.csv
timestamp target_q_0 target_q_1 target_q_2 target_q_3 target_q_4 target_q_5 target_qd_0 target_qd_1 target_qd_2 target_qd_3 target_qd_4 target_qd_5 target_qdd_0 target_qdd_1 target_qdd_2 target_qdd_3 target_qdd_4 target_qdd_5 target_current_0 target_current_1 target_current_2 target_current_3 target_current_4 target_current_5 target_moment_0 target_moment_1 target_moment_2 target_moment_3 target_moment_4 target_moment_5 actual_q_0 actual_q_1 actual_q_2 actual_q_3 actual_q_4 actual_q_5 actual_qd_0 actual_qd_1 actual_qd_2 actual_qd_3 actual_qd_4 actual_qd_5 actual_current_0 actual_current_1 actual_current_2 actual_current_3 actual_current_4 actual_current_5 joint_control_output_0 joint_control_output_1 joint_control_output_2 joint_control_output_3 joint_control_output_4 joint_control_output_5 actual_TCP_pose_0 actual_TCP_pose_1 actual_TCP_pose_2 actual_TCP_pose_3 actual_TCP_pose_4 actual_TCP_pose_5 actual_TCP_speed_0 actual_TCP_speed_1 actual_TCP_speed_2 actual_TCP_speed_3 actual_TCP_speed_4 actual_TCP_speed_5 actual_TCP_force_0 actual_TCP_force_1 actual_TCP_force_2 actual_TCP_force_3 actual_TCP_force_4 actual_TCP_force_5 target_TCP_pose_0 target_TCP_pose_1 target_TCP_pose_2 target_TCP_pose_3 target_TCP_pose_4 target_TCP_pose_5 target_TCP_speed_0 target_TCP_speed_1 target_TCP_speed_2 target_TCP_speed_3 target_TCP_speed_4 target_TCP_speed_5
2486.216 -0.3512852068466339 -1.8695186475529972 -1.6104316945584856 0.3396554019692496 1.9220226021590499 0.0008236363994447164 0.0 -0.0 -0.0 0.0 0.0 0.0 0.0 0.0 0.0 0.0 0.0 0.0 -5.500657743344303e-18 0.8172242617098822 0.7141331503287116 0.065941604326966 -3.133016709259517e-05 0.0 -6.31255448711884e-17 9.413197003960335 6.029563456331691 0.27217325962895195 -0.00013006349742905298 0.0 -0.3512657324420374 -1.869516674672262 -1.6103461424456995 0.3396179676055908 1.921983242034912 0.0008411427843384445 7.669904152862728e-05 7.669904152862728e-05 -0.00014381069922819734 0.0019414444686844945 0.0015579493483528495 0.00011984225420746952 0.0381317175924778 0.8501129746437073 0.6466174721717834 0.20589487254619598 0.07049661129713058 0.12756529450416565 0.0381317175924778 0.8388977646827698 0.6298419833183289 0.20925185084342957 0.07385359704494476 0.12197033315896988 0.30000521130332086 -0.19999797628090712 0.40002162953078757 -1.209054303859903 1.2090290826600256 -1.209085607547035 -0.0001561359126930457 0.00021417974740019582 0.00013666184445265204 -0.0005265183029834083 -0.0017588995360435936 0.0016336863839132027 4.486539602934577 -4.862896215806775 4.315719357405645 -0.5919120836409852 0.7261532258906687 0.07095342626903482 0.29999999999773125 -0.19999999998749818 0.39999999999527563 -1.2090987221600364 1.2090487305541053 -1.209048730498419 0.0 0.0 0.0 0.0 0.0 0.0
2486.2239999999997 -0.3512852068466339 -1.8695186475529972 -1.6104316945584856 0.3396554019692496 1.9220226021590499 0.0008236363994447164 0.0 -0.0 -0.0 0.0 0.0 0.0 0.0 0.0 0.0 0.0 0.0 0.0 -5.500657743344303e-18 0.8172242617098822 0.7141331503287116 0.065941604326966 -3.133016709259517e-05 0.0 -6.31255448711884e-17 9.413197003960335 6.029563456331691 0.27217325962895195 -0.00013006349742905298 0.0 -0.351325813923971 -1.869528595601217 -1.6103337446795862 0.33968985080718994 1.9219592809677124 0.0008890797034837306 7.669904152862728e-05 7.669904152862728e-05 -0.00014381069922819734 0.0019414444686844945 0.0015579493483528495 0.00011984225420746952 0.0426178015768528 0.8164673447608948 0.6450924277305603 0.20029990375041962 0.07832957059144974 0.1353982537984848 0.0381317175924778 0.8388977646827698 0.6298419833183289 0.2014188915491104 0.07385359704494476 0.12197033315896988 0.2999900254238944 -0.2000168272383812 0.4000264576264922 -1.2089475018096956 1.2090518790453018 -1.2091626921441168 -0.0001561296564740571 0.00021419246823945685 0.00013664855607643225 -0.0005267298891405213 -0.001758831985492989 0.0016336943758500108 3.1521740525945705 -3.7344576960107982 4.83498813454828 -0.6281739941452579 0.9039242534677154 -0.058552308609305215 0.29999999999773125 -0.19999999998749818 0.39999999999527563 -1.2090987221600364 1.2090487305541053 -1.209048730498419 0.0 0.0 0.0 0.0 0.0 0.0
2486.232 -0.3512852068466339 -1.8695186475529972 -1.6104316945584856 0.3396554019692496 1.9220226021590499 0.0008236363994447164 0.0 -0.0 -0.0 0.0 0.0 0.0 0.0 0.0 0.0 0.0 0.0 0.0 -5.500657743344303e-18 0.8172242617098822 0.7141331503287116 0.065941604326966 -3.133016709259517e-05 0.0 -6.31255448711884e-17 9.413197003960335 6.029563456331691 0.27217325962895195 -0.00013006349742905298 0.0 -0.351325813923971 -1.869516674672262 -1.6103580633746546 0.33966588973999023 1.9220072031021118 0.0008411427843384445 7.669904152862728e-05 7.669904152862728e-05 -0.00014381069922819734 0.0019414444686844945 0.0015579493483528495 0.00011984225420746952 0.0448608435690403 0.8478699326515198 0.6496675610542297 0.19246694445610046 0.06937761604785919 0.12197033315896988 0.0381317175924778 0.8388977646827698 0.6298419833183289 0.19694292545318604 0.07385359704494476 0.12197033315896988 0.299989522057917 -0.20001267087413022 0.4000220087790138 -1.2090214920425357 1.2090249201407444 -1.209137312063942 -0.00015613141318795084 0.0002141906916739369 0.00013665327922121265 -0.000526676581023948 -0.001758845759327715 0.0016336903567854507 4.091455567228261 -4.922481177984614 3.985534185429684 -0.565926834790335 0.6551927059046305 0.08112401754771349 0.29999999999773125 -0.19999999998749818 0.39999999999527563 -1.2090987221600364 1.2090487305541053 -1.209048730498419 0.0 0.0 0.0 0.0 0.0 0.0
2486.24 -0.3512852068466339 -1.8695186475529972 -1.6104316945584856 0.3396554019692496 1.9220226021590499 0.0008236363994447164 0.0 -0.0 -0.0 0.0 0.0 0.0 0.0 0.0 0.0 0.0 0.0 0.0 -5.500657743344303e-18 0.8172242617098822 0.7141331503287116 0.065941604326966 -3.133016709259517e-05 0.0 -6.31255448711884e-17 9.413197003960335 6.029563456331691 0.27217325962895195 -0.00013006349742905298 0.0 -0.3513377348529261 -1.8695767561541956 -1.6103461424456995 0.3396179676055908 1.922019124031067 0.0008890797034837306 7.669904152862728e-05 7.669904152862728e-05 -0.00014381069922819734 0.0018695391481742263 0.0014141385909169912 0.00011984225420746952 0.0426178015768528 0.8478699326515198 0.6344171166419983 0.19806191325187683 0.07273460179567337 0.1197323426604271 0.0381317175924778 0.8388977646827698 0.6298419833183289 0.19582392275333405 0.07385359704494476 0.12197033315896988 0.3000048149087966 -0.20002172686339342 0.4000005742062214 -1.20902832093452 1.2091296058193601 -1.2090349753417498 -0.00015035957187575693 0.000200236082283868 0.00013112838292705437 -0.0005016691651556845 -0.0016914694012077753 0.0014899219333465237 4.780022700288636 -5.350949074275985 4.552337616668065 -0.5555391252021183 0.6534288392173362 0.10083757677975509 0.29999999999773125 -0.19999999998749818 0.39999999999527563 -1.2090987221600364 1.2090487305541053 -1.209048730498419 0.0 0.0 0.0 0.0 0.0 0.0
2486.248 -0.3512852068466339 -1.8695186475529972 -1.6104316945584856 0.3396554019692496 1.9220226021590499 0.0008236363994447164 0.0 -0.0 -0.0 0.0 0.0 0.0 0.0 0.0 0.0 0.0 0.0 0.0 -5.500657743344303e-18 0.8172242617098822 0.7141331503287116 0.065941604326966 -3.133016709259517e-05 0.0 -6.31255448711884e-17 9.413197003960335 6.029563456331691 0.27217325962895195 -0.00013006349742905298 0.0 -0.35128957429994756 -1.8694804350482386 -1.6103337446795862 0.33966588973999023 1.921983242034912 0.0008531270432285964 7.669904152862728e-05 7.669904152862728e-05 -0.00014381069922819734 0.0015100124292075634 0.0011984225129708648 0.00011984225420746952 0.0291595496237278 0.8366547226905823 0.6450924277305603 0.19022895395755768 0.07161560654640198 0.1186133474111557 0.0381317175924778 0.8388977646827698 0.6298419833183289 0.19694292545318604 0.07385359704494476 0.12197033315896988 0.2999879735123962 -0.200000592887268 0.4000414813045981 -1.208991854175087 1.2089699180849556 -1.209161752255144 -0.00012155184134155223 0.00017192241383026042 0.00010334907361682535 -0.000377879999179708 -0.0013539858245659197 0.0012744877396057433 4.084148538072666 -3.9392712022695355 4.2736182336841235 -0.5503466854596052 0.6934899489859099 -0.01029493244331496 0.29999999999773125 -0.19999999998749818 0.39999999999527563 -1.2090987221600364 1.2090487305541053 -1.209048730498419 0.0 0.0 0.0 0.0 0.0 0.0
2486.256 -0.3512852068466339 -1.8695186475529972 -1.6104316945584856 0.3396554019692496 1.9220226021590499 0.0008236363994447164 0.0 -0.0 -0.0 0.0 0.0 0.0 0.0 0.0 0.0 0.0 0.0 0.0 -5.500657743344303e-18 0.8172242617098822 0.7141331503287116 0.065941604326966 -3.133016709259517e-05 0.0 -6.31255448711884e-17 9.413197003960335 6.029563456331691 0.27217325962895195 -0.00013006349742905298 0.0 -0.3513377348529261 -1.869528595601217 -1.6103819052325647 0.33965396881103516 1.9219712018966675 0.0008048156159929931 7.669904152862728e-05 7.669904152862728e-05 -0.00014381069922819734 0.001270327833481133 0.0010306433541700244 0.00011984225420746952 0.0471038855612278 0.863571286201477 0.6084914207458496 0.20029990375041962 0.07944856584072113 0.134279265999794 0.0381317175924778 0.8388977646827698 0.6298419833183289 0.19806191325187683 0.07385359704494476 0.12197033315896988 0.29999121077360286 -0.20002067316689742 0.4000102730407433 -1.2090464740977849 1.2090836788565271 -1.2091660120831123 -0.0001023143857988831 0.0001510767885451014 8.486749675108638e-05 -0.0002951896026456508 -0.001129071700712946 0.001106872896565877 6.408385342257709 -6.968778525983708 5.088806063761163 -0.6230077201611496 0.543495111345978 0.20267566720714758 0.29999999999773125 -0.19999999998749818 0.39999999999527563 -1.2090987221600364 1.2090487305541053 -1.209048730498419 0.0 0.0 0.0 0.0 0.0 0.0
2486.2639999999997 -0.3512852068466339 -1.8695186475529972 -1.6104316945584856 0.3396554019692496 1.9220226021590499 0.0008236363994447164 0.0 -0.0 -0.0 0.0 0.0 0.0 0.0 0.0 0.0 0.0 0.0 0.0 -5.500657743344303e-18 0.8172242617098822 0.7141331503287116 0.065941604326966 -3.133016709259517e-05 0.0 -6.31255448711884e-17 9.413197003960335 6.029563456331691 0.27217325962895195 -0.00013006349742905298 0.0 -0.3513134161578577 -1.869516674672262 -1.6103580633746546 0.33970189094543457 1.9220072031021118 0.0008770955028012395 7.669904152862728e-05 7.669904152862728e-05 -0.00014381069922819734 0.0011025487910956144 0.0009108011145144701 0.00011984225420746952 0.0358886756002903 0.8142243027687073 0.631367027759552 0.19582392275333405 0.07385359704494476 0.11525636911392212 0.0381317175924778 0.8388977646827698 0.6252669095993042 0.19918090105056763 0.07497258484363556 0.12197033315896988 0.29998911296085945 -0.20000789565741156 0.4000247887810753 -1.2089850979304457 1.2090020568953888 -1.2091268197719658 -8.887483165985888e-05 0.00013628481774617223 7.190637431186053e-05 -0.00023739153044242514 -0.0009715892990882364 0.0009871634162160385 3.6667841405360875 -3.905916085867998 5.188174066036886 -0.534786155592567 0.8273239646219639 -0.023434129554819227 0.29999999999773125 -0.19999999998749818 0.39999999999527563 -1.2090987221600364 1.2090487305541053 -1.209048730498419 0.0 0.0 0.0 0.0 0.0 0.0
2486.272 -0.3512852068466339 -1.8695186475529972 -1.6104316945584856 0.3396554019692496 1.9220226021590499 0.0008236363994447164 0.0 -0.0 -0.0 0.0 0.0 0.0 0.0 0.0 0.0 0.0 0.0 0.0 -5.500657743344303e-18 0.8172242617098822 0.7141331503287116 0.065941604326966 -3.133016709259517e-05 0.0 -6.31255448711884e-17 9.413197003960335 6.029563456331691 0.27217325962895195 -0.00013006349742905298 0.0 -0.35134965578188115 -1.8695405165301722 -1.6103461424456995 0.3396419286727905 1.9219592809677124 0.0008890797034837306 7.669904152862728e-05 7.669904152862728e-05 -0.00014381069922819734 0.0009587380336597562 0.0008149273344315588 0.00011984225420746952 0.0381317175924778 0.8097382187843323 0.6496675610542297 0.2014188915491104 0.07161560654640198 0.11301837861537933 0.0381317175924778 0.8388977646827698 0.6298419833183289 0.19918090105056763 0.07497258484363556 0.12197033315896988 0.2999920575796972 -0.20002644954564996 0.40001512693381197 -1.2089679190530873 1.2091310680980585 -1.2091298170849472 -7.732971637254008e-05 0.00012417228498796796 6.0816089654243104e-05 -0.0001877878154329113 -0.0008366413746338549 0.0008913874378113437 2.742643292266917 -3.237394273951843 4.841717035229152 -0.5243314226499346 0.9225556444348506 -0.06805057009197493 0.29999999999773125 -0.19999999998749818 0.39999999999527563 -1.2090987221600364 1.2090487305541053 -1.209048730498419 0.0 0.0 0.0 0.0 0.0 0.0
2486.2799999999997 -0.3512852068466339 -1.8695186475529972 -1.6104316945584856 0.3396554019692496 1.9220226021590499 0.0008236363994447164 0.0 -0.0 -0.0 0.0 0.0 0.0 0.0 0.0 0.0 0.0 0.0 0.0 -5.500657743344303e-18 0.8172242617098822 0.7141331503287116 0.065941604326966 -3.133016709259517e-05 0.0 -6.31255448711884e-17 9.413197003960335 6.029563456331691 0.27217325962895195 -0.00013006349742905298 0.0 -0.3513377348529261 -1.8695405165301722 -1.6103699843036097 0.33966588973999023 1.921983242034912 0.0008291585836559534 7.669904152862728e-05 7.669904152862728e-05 -0.00011984225420746952 0.0009108011145144701 0.0007430219557136297 0.00011984225420746952 0.0426178015768528 0.8523560166358948 0.6298419833183289 0.19022895395755768 0.07385359704494476 0.12868429720401764 0.0381317175924778 0.8388977646827698 0.6298419833183289 0.19918090105056763 0.07497258484363556 0.12197033315896988 0.2999928627986037 -0.20002029558410656 0.400010335834564 -1.2090290161802413 1.2090761681438245 -1.2091475620317147 -7.38360155339554e-05 0.00011694217741649203 6.379313492450836e-05 -0.00017945449485939308 -0.0008141839997251773 0.0008194272875557022 5.106151993493551 -5.626630772262235 4.446403124970469 -0.5970492034624343 0.5847724482838048 0.11825052736877938 0.29999999999773125 -0.19999999998749818 0.39999999999527563 -1.2090987221600364 1.2090487305541053 -1.209048730498419 0.0 0.0 0.0 0.0 0.0 0.0
2486.288 -0.3512852068466339 -1.8695186475529972 -1.6104316945584856 0.3396554019692496 1.9220226021590499 0.0008236363994447164 0.0 -0.0 -0.0 0.0 0.0 0.0 0.0 0.0 0.0 0.0 0.0 0.0 -5.500657743344303e-18 0.8172242617098822 0.7141331503287116 0.065941604326966 -3.133016709259517e-05 0.0 -6.31255448711884e-17 9.413197003960335 6.029563456331691 0.27217325962895195 -0.00013006349742905298 0.0 -0.35134965578188115 -1.869528595601217 -1.6103819052325647 0.33967792987823486 1.9219592809677124 0.0008291585836559534 7.669904152862728e-05 5.752428114647046e-05 -0.00011984225420746952 0.0009108011145144701 0.0006711166352033615 0.00011984225420746952 0.0358886756002903 0.8568421006202698 0.652717649936676 0.1868719756603241 0.07832957059144974 0.1197323426604271 0.0381317175924778 0.8388977646827698 0.6298419833183289 0.19470493495464325 0.07497258484363556 0.12197033315896988 0.2999869027550545 -0.20002452824818343 0.40001212412891496 -1.2090067566054639 1.2090922880839756 -1.209182354835686 -6.937147271437074e-05 0.000109391688566621 5.7077590101200755e-05 -0.00017279100074243413 -0.0007962289216559453 0.0007475468819547567 4.497783807991046 -4.574323470139416 3.6227509424248265 -0.5554801819842043 0.5702012759273387 0.010789393975816781 0.29999999999773125 -0.19999999998749818 0.39999999999527563 -1.2090987221600364 1.2090487305541053 -1.209048730498419 0.0 0.0 0.0 0.0 0.0 0.0
2486.296 -0.3512852068466339 -1.8695186475529972 -1.6104316945584856 0.3396554019692496 1.9220226021590499 0.0008236363994447164 0.0 -0.0 -0.0 0.0 0.0 0.0 0.0 0.0 0.0 0.0 0.0 0.0 -5.500657743344303e-18 0.8172242617098822 0.7141331503287116 0.065941604326966 -3.133016709259517e-05 0.0 -6.31255448711884e-17 9.413197003960335 6.029563456331691 0.27217325962895195 -0.00013006349742905298 0.0 -0.35134965578188115 -1.869528595601217 -1.6103461424456995 0.3396419286727905 1.922019124031067 0.0008651112439110875 7.669904152862728e-05 5.752428114647046e-05 -0.00011984225420746952 0.0009108011145144701 0.0006231797160580754 9.58738019107841e-05 0.0314025916159153 0.8030090928077698 0.631367027759552 0.19246694445610046 0.07161560654640198 0.12980328500270844 0.0381317175924778 0.8388977646827698 0.6298419833183289 0.19806191325187683 0.07497258484363556 0.12197033315896988 0.29998928436994954 -0.2000205079541588 0.40001930067771324 -1.2090087142884682 1.2090655037503761 -1.2091117493694123 -6.937851218418837e-05 0.00010544370017733905 5.7078781071667676e-05 -0.0001967048362920524 -0.0007962576480997349 0.0006996056929580799 3.2635519032757445 -3.31789728295839 5.3160170438542975 -0.6022529007816573 0.8989386124912432 -0.061501754107859616 0.29999999999773125 -0.19999999998749818 0.39999999999527563 -1.2090987221600364 1.2090487305541053 -1.209048730498419 0.0 0.0 0.0 0.0 0.0 0.0
2486.304 -0.3512852068466339 -1.8695186475529972 -1.6104316945584856 0.3396554019692496 1.9220226021590499 0.0008236363994447164 0.0 -0.0 -0.0 0.0 0.0 0.0 0.0 0.0 0.0 0.0 0.0 0.0 -5.500657743344303e-18 0.8172242617098822 0.7141331503287116 0.065941604326966 -3.133016709259517e-05 0.0 -6.31255448711884e-17 9.413197003960335 6.029563456331691 0.27217325962895195 -0.00013006349742905298 0.0 -0.3513734976397913 -1.869504753743307 -1.6103337446795862 0.33970189094543457 1.9219712018966675 0.0008651112439110875 5.752428114647046e-05 5.752428114647046e-05 -0.00011984225420746952 0.0009108011145144701 0.0005752427969127893 9.58738019107841e-05 0.0426178015768528 0.8254395127296448 0.6298419833183289 0.19134794175624847 0.07049661129713058 0.11749435216188431 0.0381317175924778 0.8388977646827698 0.6298419833183289 0.19806191325187683 0.07497258484363556 0.12197033315896988 0.29997396580354296 -0.20002777038693773 0.4000357407920307 -1.2089325269925728 1.2090362570108357 -1.209231735213364 -7.321874688191507e-05 9.574664436585161e-05 5.707368082695228e-05 -0.00019672127441312047 -0.0007962721308780769 0.0006325026498215117 4.020909574598759 -4.701515108232436 4.942719892335386 -0.5451079722996107 0.7336857060204229 0.05767404029035438 0.29999999999773125 -0.19999999998749818 0.39999999999527563 -1.2090987221600364 1.2090487305541053 -1.209048730498419 0.0 0.0 0.0 0.0 0.0 0.0
2486.312 -0.3512852068466339 -1.8695186475529972 -1.6104316945584856 0.3396554019692496 1.9220226021590499 0.0008236363994447164 0.0 -0.0 -0.0 0.0 0.0 0.0 0.0 0.0 0.0 0.0 0.0 0.0 -5.500657743344303e-18 0.8172242617098822 0.7141331503287116 0.065941604326966 -3.133016709259517e-05 0.0 -6.31255448711884e-17 9.413197003960335 6.029563456331691 0.27217325962895195 -0.00013006349742905298 0.0 -0.35136157671083623 -1.8695524374591272 -1.6103223005877894 0.33968985080718994 1.9219592809677124 0.0008291585836559534 5.752428114647046e-05 5.752428114647046e-05 -0.00011984225420746952 0.0009108011145144701 0.0005512743955478072 9.58738019107841e-05 0.0448608435690403 0.8545990586280823 0.6222168207168579 0.20813286304473877 0.07832957059144974 0.1186133474111557 0.0448608435690403 0.8388977646827698 0.6298419833183289 0.19806191325187683 0.07609158009290695 0.12197033315896988 0.2999882646439187 -0.2000295343776015 0.4000212905287112 -1.208980135876226 1.2090604858050473 -1.2092245273488922 -7.321837063901734e-05 9.377144843760998e-05 5.70804658847566e-05 -0.00019665734395317116 -0.0007963023848527851 0.0006085299572079713 5.5780103618709465 -6.097296685687036 5.003638649556018 -0.5503122500334732 0.6466333107430561 0.13612483370920658 0.29999999999773125 -0.19999999998749818 0.39999999999527563 -1.2090987221600364 1.2090487305541053 -1.209048730498419 0.0 0.0 0.0 0.0 0.0 0.0
2486.3199999999997 -0.3512852068466339 -1.8695186475529972 -1.6104316945584856 0.3396554019692496 1.9220226021590499 0.0008236363994447164 0.0 -0.0 -0.0 0.0 0.0 0.0 0.0 0.0 0.0 0.0 0.0 0.0 -5.500657743344303e-18 0.8172242617098822 0.7141331503287116 0.065941604326966 -3.133016709259517e-05 0.0 -6.31255448711884e-17 9.413197003960335 6.029563456331691 0.27217325962895195 -0.00013006349742905298 0.0 -0.351325813923971 -1.8695405165301722 -1.6103461424456995 0.33965396881103516 1.9219592809677124 0.0008411427843384445 5.752428114647046e-05 5.752428114647046e-05 -0.00011984225420746952 0.0009108011145144701 0.0005033374764025211 9.58738019107841e-05 0.0448608435690403 0.872543454170227 0.6161166429519653 0.19022895395755768 0.08280554413795471 0.11413737386465073 0.0381317175924778 0.8388977646827698 0.6298419833183289 0.19806191325187683 0.07609158009290695 0.12197033315896988 0.299995860426106 -0.20001894395807165 0.40001605673513435 -1.2090092093163338 1.2090805758678993 -1.20915596263758 -7.32229850334312e-05 8.981981827084206e-05 5.708733280261667e-05 -0.00019654950325509658 -0.0007963521174992079 0.0005605888126376854 6.46845203070413 -6.820043949697239 4.497416344846836 -0.5295578741391216 0.41049437437607994 0.17494620599749422 0.29999999999773125 -0.19999999998749818 0.39999999999527563 -1.2090987221600364 1.2090487305541053 -1.209048730498419 0.0 0.0 0.0 0.0 0.0 0.0
2486.328 -0.3512852068466339 -1.8695186475529972 -1.6104316945584856 0.3396554019692496 1.9220226021590499 0.0008236363994447164 0.0 -0.0 -0.0 0.0 0.0 0.0 0.0 0.0 0.0 0.0 0.0 0.0 -5.500657743344303e-18 0.8172242617098822 0.7141331503287116 0.065941604326966 -3.133016709259517e-05 0.0 -6.31255448711884e-17 9.413197003960335 6.029563456331691 0.27217325962895195 -0.00013006349742905298 0.0 -0.3513377348529261 -1.869528595601217 -1.6103580633746546 0.33968985080718994 1.922019124031067 0.0008411427843384445 5.752428114647046e-05 5.752428114647046e-05 -0.00011984225420746952 0.0009108011145144701 0.0004793690168298781 9.58738019107841e-05 0.0403747595846653 0.8164673447608948 0.6298419833183289 0.19134794175624847 0.07721057534217834 0.12420831620693207 0.0358886756002903 0.8388977646827698 0.6298419833183289 0.19806191325187683 0.07609158009290695 0.12197033315896988 0.29998799427173084 -0.2000155753230087 0.4000196812606403 -1.2090162302192498 1.2090146383937976 -1.2091457129847032 -7.322895668875111e-05 8.784719013172795e-05 5.7084030983545195e-05 -0.00019654784419535133 -0.000796354940506259 0.0005366235786822866 3.7400681601937547 -4.166726478367834 5.100352971216375 -0.5763043057408639 0.7988701442460465 -0.017607193026949942 0.29999999999773125 -0.19999999998749818 0.39999999999527563 -1.2090987221600364 1.2090487305541053 -1.209048730498419 0.0 0.0 0.0 0.0 0.0 0.0
2486.336 -0.3512852068466339 -1.8695186475529972 -1.6104316945584856 0.3396554019692496 1.9220226021590499 0.0008236363994447164 0.0 -0.0 -0.0 0.0 0.0 0.0 0.0 0.0 0.0 0.0 0.0 0.0 -5.500657743344303e-18 0.8172242617098822 0.7141331503287116 0.065941604326966 -3.133016709259517e-05 0.0 -6.31255448711884e-17 9.413197003960335 6.029563456331691 0.27217325962895195 -0.00013006349742905298 0.0 -0.3513134161578577 -1.8695405165301722 -1.610309902821676 0.33966588973999023 1.9220072031021118 0.0008770955028012395 5.752428114647046e-05 5.752428114647046e-05 -0.00011984225420746952 0.0009108011145144701 0.00045540055725723505 9.58738019107841e-05 0.0291595496237278 0.8254395127296448 0.6267919540405273 0.20813286304473877 0.08168654888868332 0.12756529450416565 0.0381317175924778 0.8388977646827698 0.6298419833183289 0.19806191325187683 0.07609158009290695 0.12197033315896988 0.2999968684615327 -0.20001077839758047 0.4000270674397663 -1.208990156676193 1.2090121281466546 -1.2091187676569974 -7.323264008909554e-05 8.587174295222088e-05 5.708467656674272e-05 -0.00019650575415267502 -0.0007963760185221469 0.0005126562425904523 4.512731039152709 -4.117308472037257 5.382615204574992 -0.5918874393992153 0.8460258612387851 -0.04261198821233352 0.29999999999773125 -0.19999999998749818 0.39999999999527563 -1.2090987221600364 1.2090487305541053 -1.209048730498419 0.0 0.0 0.0 0.0 0.0 0.0
2486.344 -0.3512852068466339 -1.8695186475529972 -1.6104316945584856 0.3396554019692496 1.9220226021590499 0.0008236363994447164 0.0 -0.0 -0.0 0.0 0.0 0.0 0.0 0.0 0.0 0.0 0.0 0.0 -5.500657743344303e-18 0.8172242617098822 0.7141331503287116 0.065941604326966 -3.133016709259517e-05 0.0 -6.31255448711884e-17 9.413197003960335 6.029563456331691 0.27217325962895195 -0.00013006349742905298 0.0 -0.3513134161578577 -1.8695524374591272 -1.6103699843036097 0.3397258520126343 1.9219592809677124 0.0008651112439110875 5.752428114647046e-05 5.752428114647046e-05 -0.00011984225420746952 0.0009108011145144701 0.00043143212678842247 9.58738019107841e-05 0.0403747595846653 0.8658143281936646 0.6328920722007751 0.19806191325187683 0.07832957059144974 0.12197033315896988 0.0381317175924778 0.8388977646827698 0.6298419833183289 0.19806191325187683 0.07609158009290695 0.12197033315896988 0.299995691814906 -0.2000142275697134 0.40001079053046096 -1.2089816175086283 1.209051888659607 -1.2091543201654444 -7.323270540874184e-05 8.389767133225587e-05 5.70887387887514e-05 -0.0001964723476428141 -0.0007963996540981984 0.000488686753981736 5.623752243197349 -5.873677036021519 4.282561603672316 -0.5659047147526184 0.5464914498546617 0.11774411780892668 0.29999999999773125 -0.19999999998749818 0.39999999999527563 -1.2090987221600364 1.2090487305541053 -1.209048730498419 0.0 0.0 0.0 0.0 0.0 0.0
2486.352 -0.3512852068466339 -1.8695186475529972 -1.6104316945584856 0.3396554019692496 1.9220226021590499 0.0008236363994447164 0.0 -0.0 -0.0 0.0 0.0 0.0 0.0 0.0 0.0 0.0 0.0 0.0 -5.500657743344303e-18 0.8172242617098822 0.7141331503287116 0.065941604326966 -3.133016709259517e-05 0.0 -6.31255448711884e-17 9.413197003960335 6.029563456331691 0.27217325962895195 -0.00013006349742905298 0.0 -0.351325813923971 -1.8695524374591272 -1.6103699843036097 0.33968985080718994 1.9220072031021118 0.0008770955028012395 5.752428114647046e-05 5.752428114647046e-05 -0.00011984225420746952 0.0008388957940042019 0.0004074636672157794 9.58738019107841e-05 0.0291595496237278 0.8276825547218323 0.613066554069519 0.19134794175624847 0.07497258484363556 0.11637535691261292 0.0381317175924778 0.8388977646827698 0.6298419833183289 0.19806191325187683 0.07609158009290695 0.12197033315896988 0.29999610469061816 -0.2000150560400811 0.4000080076425017 -1.2090054378500612 1.2090621283312406 -1.2090942384867307 -6.746369634534055e-05 7.981477697626889e-05 5.153925597515187e-05 -0.00017170727549867157 -0.0007288970225264417 0.00046476795191273114 5.020266916499358 -4.7281900476115695 5.40051059965098 -0.539964456743309 0.6832896919749736 0.03911283940680267 0.29999999999773125 -0.19999999998749818 0.39999999999527563 -1.2090987221600364 1.2090487305541053 -1.209048730498419 0.0 0.0 0.0 0.0 0.0 0.0
2486.3599999999997 -0.3512852068466339 -1.8695186475529972 -1.6104316945584856 0.3396554019692496 1.9220226021590499 0.0008236363994447164 0.0 -0.0 -0.0 0.0 0.0 0.0 0.0 0.0 0.0 0.0 0.0 0.0 -5.500657743344303e-18 0.8172242617098822 0.7141331503287116 0.065941604326966 -3.133016709259517e-05 0.0 -6.31255448711884e-17 9.413197003960335 6.029563456331691 0.27217325962895195 -0.00013006349742905298 0.0 -0.351325813923971 -1.8695643583880823 -1.6103223005877894 0.33966588973999023 1.9219951629638672 0.0008770955028012395 5.752428114647046e-05 5.752428114647046e-05 -0.00011984225420746952 0.0007430219557136297 0.0003834952076431364 9.58738019107841e-05 0.0403747595846653 0.8074951767921448 0.6328920722007751 0.20589487254619598 0.07497258484363556 0.1353982537984848 0.0381317175924778 0.8388977646827698 0.6298419833183289 0.19806191325187683 0.07609158009290695 0.12197033315896988 0.30000012188436714 -0.20001756642260018 0.40001526089877393 -1.2089944923677305 1.2090610209235957 -1.2091114364979065 -5.977247281498155e-05 7.502885043514781e-05 4.413636876123613e-05 -0.0001387068713123054 -0.0006388896664032859 0.0004408710523797766 3.3237447899398163 -3.831273906493553 5.469393550606053 -0.6282193792317603 0.9660185917852789 -0.03492793251619952 0.29999999999773125 -0.19999999998749818 0.39999999999527563 -1.2090987221600364 1.2090487305541053 -1.209048730498419 0.0 0.0 0.0 0.0 0.0 0.0
2486.368 -0.3512852068466339 -1.8695186475529972 -1.6104316945584856 0.3396554019692496 1.9220226021590499 0.0008236363994447164 0.0 -0.0 -0.0 0.0 0.0 0.0 0.0 0.0 0.0 0.0 0.0 0.0 -5.500657743344303e-18 0.8172242617098822 0.7141331503287116 0.065941604326966 -3.133016709259517e-05 0.0 -6.31255448711884e-17 9.413197003960335 6.029563456331691 0.27217325962895195 -0.00013006349742905298 0.0 -0.351325813923971 -1.869528595601217 -1.610309902821676 0.3397258520126343 1.9220432043075562 0.0008531270432285964 5.752428114647046e-05 5.752428114647046e-05 -9.58738019107841e-05 0.0006950850947760046 0.00035952674807049334 9.58738019107841e-05 0.0381317175924778 0.8344116806983948 0.642042338848114 0.20813286304473877 0.07944856584072113 0.12197033315896988 0.0381317175924778 0.8388977646827698 0.6298419833183289 0.19806191325187683 0.07609158009290695 0.12197033315896988 0.29998680158307184 -0.20000876070933554 0.4000358724107189 -1.2089874971591474 1.2089220609086822 -1.209169212614701 -5.6278068336541916e-05 7.174881709354015e-05 4.7102620862578035e-05 -0.00013047382034654578 -0.0006163816883212239 0.0004168574526384361 4.106485176017209 -4.322476072320091 4.7731864356536295 -0.5659520417067051 0.8146334176260805 -0.015289178480980655 0.29999999999773125 -0.19999999998749818 0.39999999999527563 -1.2090987221600364 1.2090487305541053 -1.209048730498419 0.0 0.0 0.0 0.0 0.0 0.0
2486.3759999999997 -0.3512852068466339 -1.8695186475529972 -1.6104316945584856 0.3396554019692496 1.9220226021590499 0.0008236363994447164 0.0 -0.0 -0.0 0.0 0.0 0.0 0.0 0.0 0.0 0.0 0.0 0.0 -5.500657743344303e-18 0.8172242617098822 0.7141331503287116 0.065941604326966 -3.133016709259517e-05 0.0 -6.31255448711884e-17 9.413197003960335 6.029563456331691 0.27217325962895195 -0.00013006349742905298 0.0 -0.3513134161578577 -1.869516674672262 -1.610309902821676 0.33967792987823486 1.9220311641693115 0.0008291585836559534 5.752428114647046e-05 5.752428114647046e-05 -9.58738019107841e-05 0.0006231797160580754 0.00033555831760168076 9.58738019107841e-05 0.0493469275534153 0.8388977646827698 0.613066554069519 0.20029990375041962 0.07721057534217834 0.13092228770256042 0.0381317175924778 0.8388977646827698 0.6267919540405273 0.19918090105056763 0.07497258484363556 0.12197033315896988 0.29999034740689834 -0.20000642591489948 0.40003634996084925 -1.209021078866438 1.2089412023257256 -1.2091614839966136 -5.0508608807007335e-05 6.766429116106174e-05 4.1554274376622404e-05 -0.00010569258373878621 -0.0005488883012768817 0.00039293868479920157 5.196087865865344 -6.034729673058385 5.387073944321476 -0.6075046201807636 0.6950321947956611 0.13616131025749448 0.29999999999773125 -0.19999999998749818 0.39999999999527563 -1.2090987221600364 1.2090487305541053 -1.209048730498419 0.0 0.0 0.0 0.0 0.0 0.0
2486.384 -0.3512852068466339 -1.8695186475529972 -1.6104316945584856 0.3396554019692496 1.9220226021590499 0.0008236363994447164 0.0 -0.0 -0.0 0.0 0.0 0.0 0.0 0.0 0.0 0.0 0.0 0.0 -5.500657743344303e-18 0.8172242617098822 0.7141331503287116 0.065941604326966 -3.133016709259517e-05 0.0 -6.31255448711884e-17 9.413197003960335 6.029563456331691 0.27217325962895195 -0.00013006349742905298 0.0 -0.35128957429994756 -1.8694685141192835 -1.610406223927633 0.33967792987823486 1.9220311641693115 0.0008531270432285964 5.752428114647046e-05 5.752428114647046e-05 -9.58738019107841e-05 0.0005752427969127893 0.00033555831760168076 9.58738019107841e-05 0.0403747595846653 0.8388977646827698 0.6267919540405273 0.21260882914066315 0.07161560654640198 0.12532731890678406 0.0381317175924778 0.8388977646827698 0.6267919540405273 0.19918090105056763 0.07385359704494476 0.12197033315896988 0.2999852712677526 -0.19999557979838317 0.4000263994111073 -1.2090359438752833 1.2089758918467717 -1.2090924747175031 -4.6662408282454084e-05 6.625595050998331e-05 3.7854955422967115e-05 -8.91770794596651e-05 -0.0005038839320564727 0.0003929696102431725 4.828839370948409 -5.286417958114731 5.237743584010633 -0.5815671864583032 0.7887395761848462 0.10059776831064339 0.29999999999773125 -0.19999999998749818 0.39999999999527563 -1.2090987221600364 1.2090487305541053 -1.209048730498419 0.0 0.0 0.0 0.0 0.0 0.0
2486.392 -0.3512852068466339 -1.8695186475529972 -1.6104316945584856 0.3396554019692496 1.9220226021590499 0.0008236363994447164 0.0 -0.0 -0.0 0.0 0.0 0.0 0.0 0.0 0.0 0.0 0.0 0.0 -5.500657743344303e-18 0.8172242617098822 0.7141331503287116 0.065941604326966 -3.133016709259517e-05 0.0 -6.31255448711884e-17 9.413197003960335 6.029563456331691 0.27217325962895195 -0.00013006349742905298 0.0 -0.351325813923971 -1.8695643583880823 -1.6103699843036097 0.33973777294158936 1.9220311641693115 0.0008531270432285964 5.752428114647046e-05 5.752428114647046e-05 -9.58738019107841e-05 0.0005512743955478072 0.0003115898580290377 9.58738019107841e-05 0.0403747595846653 0.8119812607765198 0.6328920722007751 0.19806191325187683 0.07273460179567337 0.12980328500270844 0.0381317175924778 0.8388977646827698 0.6267919540405273 0.19918090105056763 0.07497258484363556 0.12197033315896988 0.29999503945378203 -0.20001268983884282 0.4000075296848878 -1.2090186628777944 1.2090024201090865 -1.2091193683526835 -4.47383438093937e-05 6.358156307469051e-05 3.600696856584012e-05 -8.092298850195082e-05 -0.00048139190773543636 0.00036901880651429966 3.4491419593011954 -3.994660311566484 5.228035131847217 -0.602291708308417 0.8822016132797375 -0.010997110286083172 0.29999999999773125 -0.19999999998749818 0.39999999999527563 -1.2090987221600364 1.2090487305541053 -1.209048730498419 0.0 0.0 0.0 0.0 0.0 0.0
2486.4 -0.3512852068466339 -1.8695186475529972 -1.6104316945584856 0.3396554019692496 1.9220226021590499 0.0008236363994447164 0.0 -0.0 -0.0 0.0 0.0 0.0 0.0 0.0 0.0 0.0 0.0 0.0 -5.500657743344303e-18 0.8172242617098822 0.7141331503287116 0.065941604326966 -3.133016709259517e-05 0.0 -6.31255448711884e-17 9.413197003960335 6.029563456331691 0.27217325962895195 -0.00013006349742905298 0.0 -0.3513377348529261 -1.869516674672262 -1.6103580633746546 0.33970189094543457 1.9220432043075562 0.0008411427843384445 5.752428114647046e-05 5.752428114647046e-05 -9.58738019107841e-05 0.0005033374764025211 0.0003115898580290377 9.58738019107841e-05 0.0336456336081028 0.8747864961624146 0.6283169388771057 0.1868719756603241 0.08168654888868332 0.12532731890678406 0.0381317175924778 0.8388977646827698 0.6267919540405273 0.19918090105056763 0.07497258484363556 0.12197033315896988 0.29998425179643756 -0.20001222592925388 0.4000247866435744 -1.2090171420139908 1.2089764582306424 -1.2091447140506038 -4.0892207964239756e-05 6.217563016179393e-05 3.230319231599025e-05 -6.444643887525353e-05 -0.00043637555896562885 0.00036905617583483995 6.233977195997357 -5.965219319732232 4.029306749914937 -0.5814953870345849 0.4212012990853254 0.1096808351265776 0.29999999999773125 -0.19999999998749818 0.39999999999527563 -1.2090987221600364 1.2090487305541053 -1.209048730498419 0.0 0.0 0.0 0.0 0.0 0.0
2486.408 -0.3512852068466339 -1.8695186475529972 -1.6104316945584856 0.3396554019692496 1.9220226021590499 0.0008236363994447164 0.0 -0.0 -0.0 0.0 0.0 0.0 0.0 0.0 0.0 0.0 0.0 0.0 -5.500657743344303e-18 0.8172242617098822 0.7141331503287116 0.065941604326966 -3.133016709259517e-05 0.0 -6.31255448711884e-17 9.413197003960335 6.029563456331691 0.27217325962895195 -0.00013006349742905298 0.0 -0.35130149522890264 -1.8695643583880823 -1.6103580633746546 0.33970189094543457 1.9219951629638672 0.0008411427843384445 5.752428114647046e-05 5.752428114647046e-05 -9.58738019107841e-05 0.0004793690168298781 0.00028762139845639467 9.58738019107841e-05 0.0269165076315403 0.8411408066749573 0.6542426943778992 0.19470493495464325 0.07497258484363556 0.12868429720401764 0.0381317175924778 0.8388977646827698 0.631367027759552 0.19918090105056763 0.07497258484363556 0.12197033315896988 0.3000026092042645 -0.20000936253369736 0.4000080809281164 -1.2090324036721989 1.2090258368632003 -1.2091200896175154 -3.896999631507135e-05 5.9497231664769104e-05 3.045739260187846e-05 -5.614527609399411e-05 -0.00041389839148000054 0.00034510108452341783 3.9797708597418047 -3.6386646199162724 4.016951824343557 -0.5970649637705142 0.7299593378871796 -0.0507180534328848 0.29999999999773125 -0.19999999998749818 0.39999999999527563 -1.2090987221600364 1.2090487305541053 -1.209048730498419 0.0 0.0 0.0 0.0 0.0 0.0
2486.4159999999997 -0.3512852068466339 -1.8695186475529972 -1.6104316945584856 0.3396554019692496 1.9220226021590499 0.0008236363994447164 0.0 -0.0 -0.0 0.0 0.0 0.0 0.0 0.0 0.0 0.0 0.0 0.0 -5.500657743344303e-18 0.8172242617098822 0.7141331503287116 0.065941604326966 -3.133016709259517e-05 0.0 -6.31255448711884e-17 9.413197003960335 6.029563456331691 0.27217325962895195 -0.00013006349742905298 0.0 -0.35136157671083623 -1.8695405165301722 -1.6103699843036097 0.33965396881103516 1.9220311641693115 0.0008770955028012395 5.752428114647046e-05 5.752428114647046e-05 -9.58738019107841e-05 0.00045540055725723505 0.00028762139845639467 9.58738019107841e-05 0.0381317175924778 0.8658143281936646 0.6328920722007751 0.19022895395755768 0.07721057534217834 0.11078038811683655 0.0381317175924778 0.8388977646827698 0.6298419833183289 0.19918090105056763 0.07497258484363556 0.12197033315896988 0.29998905430584316 -0.20002385080586088 0.4000094125033188 -1.2090103944930766 1.2090912745883327 -1.2090862301114762 -3.7043220673272133e-05 5.8795962558628224e-05 2.8607284448345448e-05 -4.79152442384084e-05 -0.00039138948255375625 0.00034511547604748605 5.613413341100152 -5.756573338758993 4.120502506015234 -0.5139920832980959 0.48015555408621 0.11345049987557014 0.29999999999773125 -0.19999999998749818 0.39999999999527563 -1.2090987221600364 1.2090487305541053 -1.209048730498419 0.0 0.0 0.0 0.0 0.0 0.0
2486.424 -0.3512852068466339 -1.8695186475529972 -1.6104316945584856 0.3396554019692496 1.9220226021590499 0.0008236363994447164 0.0 -0.0 -0.0 0.0 0.0 0.0 0.0 0.0 0.0 0.0 0.0 0.0 -5.500657743344303e-18 0.8172242617098822 0.7141331503287116 0.065941604326966 -3.133016709259517e-05 0.0 -6.31255448711884e-17 9.413197003960335 6.029563456331691 0.27217325962895195 -0.00013006349742905298 0.0 -0.35128957429994756 -1.869528595601217 -1.6103337446795862 0.33973777294158936 1.9219951629638672 0.0008651112439110875 5.752428114647046e-05 5.752428114647046e-05 -9.58738019107841e-05 0.00043143212678842247 0.0002636529679875821 9.58738019107841e-05 0.0336456336081028 0.8388977646827698 0.631367027759552 0.1846339851617813 0.07609158009290695 0.11413737386465073 0.0381317175924778 0.8388977646827698 0.6298419833183289 0.19806191325187683 0.07497258484363556 0.12197033315896988 0.299993431091146 -0.2000015947531243 0.4000301558714568 -1.20897828331498 1.2089465404992297 -1.2091606799556411 -3.512879337837245e-05 5.611701720170281e-05 2.6752393329479915e-05 -3.9649498252719566e-05 -0.00036889482361537114 0.00032117652331050295 4.641363720431153 -4.620980437891915 4.523071553397592 -0.5295890017235856 0.6098614432593643 0.025064266711307116 0.29999999999773125 -0.19999999998749818 0.39999999999527563 -1.2090987221600364 1.2090487305541053 -1.209048730498419 0.0 0.0 0.0 0.0 0.0 0.0
2486.432 -0.3512852068466339 -1.8695186475529972 -1.6104316945584856 0.3396554019692496 1.9220226021590499 0.0008236363994447164 0.0 -0.0 -0.0 0.0 0.0 0.0 0.0 0.0 0.0 0.0 0.0 0.0 -5.500657743344303e-18 0.8172242617098822 0.7141331503287116 0.065941604326966 -3.133016709259517e-05 0.0 -6.31255448711884e-17 9.413197003960335 6.029563456331691 0.27217325962895195 -0.00013006349742905298 0.0 -0.3513377348529261 -1.869528595601217 -1.6103699843036097 0.339749813079834 1.922019124031067 0.0008651112439110875 5.752428114647046e-05 5.752428114647046e-05 -9.58738019107841e-05 0.0004074636672157794 0.0002636529679875821 7.190534961409867e-05 0.0314025916159153 0.7828217148780823 0.6267919540405273 0.20589487254619598 0.07609158009290695 0.10742340981960297 0.0381317175924778 0.8366547226905823 0.6298419833183289 0.19806191325187683 0.07497258484363556 0.12197033315896988 0.29998335350416144 -0.2000138656119042 0.40002099143750397 -1.2089775365486901 1.208984933603542 -1.2091615508719238 -3.3202996580358674e-05 5.5415396959603925e-05 2.4902474836037385e-05 -5.538504649115439e-05 -0.00034638950560205085 0.0003211857947346417 2.7359271764978135 -2.737429651627162 6.084340751526709 -0.4984333072680075 1.053468415353575 -0.13009811993471285 0.29999999999773125 -0.19999999998749818 0.39999999999527563 -1.2090987221600364 1.2090487305541053 -1.209048730498419 0.0 0.0 0.0 0.0 0.0 0.0
2486.44 -0.3512852068466339 -1.8695186475529972 -1.6104316945584856 0.3396554019692496 1.9220226021590499 0.0008236363994447164 0.0 -0.0 -0.0 0.0 0.0 0.0 0.0 0.0 0.0 0.0 0.0 0.0 -5.500657743344303e-18 0.8172242617098822 0.7141331503287116 0.065941604326966 -3.133016709259517e-05 0.0 -6.31255448711884e-17 9.413197003960335 6.029563456331691 0.27217325962895195 -0.00013006349742905298 0.0 -0.351325813923971 -1.8695405165301722 -1.6103819052325647 0.33967792987823486 1.922019124031067 0.0008411427843384445 5.752428114647046e-05 3.834952076431364e-05 -9.58738019107841e-05 0.0003834952076431364 0.0002636529679875821 7.190534961409867e-05 0.02243042178452015 0.8523560166358948 0.6100164651870728 0.1857529729604721 0.07273460179567337 0.11189938336610794 0.0381317175924778 0.8388977646827698 0.6298419833183289 0.19694292545318604 0.07497258484363556 0.12197033315896988 0.299994454625879 -0.2000134602474263 0.40000794353218705 -1.2090428031881695 1.2090465078609727 -1.2091036045876251 -2.6809304053152116e-05 5.3082338083174565e-05 1.633654523122629e-05 -4.051353920494945e-05 -0.0003058895721854679 0.0003212204888525118 6.1907635760999735 -5.4541792749921285 4.942145410338877 -0.5191961835142748 0.48766625706644623 0.10937459129811639 0.29999999999773125 -0.19999999998749818 0.39999999999527563 -1.2090987221600364 1.2090487305541053 -1.209048730498419 0.0 0.0 0.0 0.0 0.0 0.0
2486.448 -0.3512852068466339 -1.8695186475529972 -1.6104316945584856 0.3396554019692496 1.9220226021590499 0.0008236363994447164 0.0 -0.0 -0.0 0.0 0.0 0.0 0.0 0.0 0.0 0.0 0.0 0.0 -5.500657743344303e-18 0.8172242617098822 0.7141331503287116 0.065941604326966 -3.133016709259517e-05 0.0 -6.31255448711884e-17 9.413197003960335 6.029563456331691 0.27217325962895195 -0.00013006349742905298 0.0 -0.3513377348529261 -1.869504753743307 -1.6103580633746546 0.33970189094543457 1.9220072031021118 0.0008531270432285964 5.752428114647046e-05 3.834952076431364e-05 -9.58738019107841e-05 0.00035952674807049334 0.00023968450841493905 7.190534961409867e-05 0.0336456336081028 0.8478699326515198 0.6191667318344116 0.19246694445610046 0.08168654888868332 0.11637535691261292 0.0381317175924778 0.8388977646827698 0.6298419833183289 0.19806191325187683 0.07497258484363556 0.12197033315896988 0.2999814706291099 -0.2000141779411217 0.40002896583083547 -1.2089860221011455 1.2089984593020133 -1.209170705580334 -2.4888631378760627e-05 5.040544240797836e-05 1.4483798907758372e-05 -3.226438208309394e-05 -0.00028339392796014015 0.00029727528887493445 5.553585665789928 -5.340077908256571 4.8886508361239605 -0.5399541029830461 0.5819344484513098 0.058209188682865676 0.29999999999773125 -0.19999999998749818 0.39999999999527563 -1.2090987221600364 1.2090487305541053 -1.209048730498419 0.0 0.0 0.0 0.0 0.0 0.0
2486.4559999999997 -0.3512852068466339 -1.8695186475529972 -1.6104316945584856 0.3396554019692496 1.9220226021590499 0.0008236363994447164 0.0 -0.0 -0.0 0.0 0.0 0.0 0.0 0.0 0.0 0.0 0.0 0.0 -5.500657743344303e-18 0.8172242617098822 0.7141331503287116 0.065941604326966 -3.133016709259517e-05 0.0 -6.31255448711884e-17 9.413197003960335 6.029563456331691 0.27217325962895195 -0.00013006349742905298 0.0 -0.351325813923971 -1.8694804350482386 -1.6103337446795862 0.33970189094543457 1.9220072031021118 0.0008291585836559534 3.834952076431364e-05 3.834952076431364e-05 -9.58738019107841e-05 0.00033555831760168076 0.00023968450841493905 7.190534961409867e-05 0.0336456336081028 0.8344116806983948 0.6466174721717834 0.21484681963920593 0.07944856584072113 0.12085133790969849 0.0381317175924778 0.8388977646827698 0.6298419833183289 0.19806191325187683 0.07497258484363556 0.12197033315896988 0.2999778383762477 -0.20000843470923915 0.40004425968117935 -1.2089879466348055 1.20893689567961 -1.209213578360154 -2.6801679189379257e-05 4.394989388198089e-05 1.2631125548676142e-05 -2.402762591378477e-05 -0.0002608843886927321 0.00027812141756622757 4.032546911629796 -3.989283498545407 4.777961452394155 -0.5607286005250368 0.8629572343151745 -0.0427661190644482 0.29999999999773125 -0.19999999998749818 0.39999999999527563 -1.2090987221600364 1.2090487305541053 -1.209048730498419 0.0 0.0 0.0 0.0 0.0 0.0
2486.464 -0.3512852068466339 -1.8695186475529972 -1.6104316945584856 0.3396554019692496 1.9220226021590499 0.0008236363994447164 0.0 -0.0 -0.0 0.0 0.0 0.0 0.0 0.0 0.0 0.0 0.0 0.0 -5.500657743344303e-18 0.8172242617098822 0.7141331503287116 0.065941604326966 -3.133016709259517e-05 0.0 -6.31255448711884e-17 9.413197003960335 6.029563456331691 0.27217325962895195 -0.00013006349742905298 0.0 -0.35134965578188115 -1.869528595601217 -1.6103337446795862 0.33970189094543457 1.9220551252365112 0.0008411427843384445 3.834952076431364e-05 3.834952076431364e-05 -9.58738019107841e-05 0.00033555831760168076 0.00023968450841493905 7.190534961409867e-05 0.0403747595846653 0.8366547226905823 0.6466174721717834 0.19246694445610046 0.07161560654640198 0.12532731890678406 0.0381317175924778 0.8388977646827698 0.6298419833183289 0.19806191325187683 0.07497258484363556 0.12197033315896988 0.2999842982791413 -0.20001573268221512 0.40002738162953766 -1.2090116917381029 1.2089659248459224 -1.2091534200998226 -2.6801001953649126e-05 4.3950752694074994e-05 1.263284448108641e-05 -2.4022988919032802e-05 -0.00026088434582014343 0.00027811817705977455 3.852240583008282 -4.389444488306091 4.273240985327167 -0.5815150667518307 0.7216685738077304 0.026752474838131046 0.29999999999773125 -0.19999999998749818 0.39999999999527563 -1.2090987221600364 1.2090487305541053 -1.209048730498419 0.0 0.0 0.0 0.0 0.0 0.0
2486.4719999999998 -0.3512852068466339 -1.8695186475529972 -1.6104316945584856 0.3396554019692496 1.9220226021590499 0.0008236363994447164 0.0 -0.0 -0.0 0.0 0.0 0.0 0.0 0.0 0.0 0.0 0.0 0.0 -5.500657743344303e-18 0.8172242617098822 0.7141331503287116 0.065941604326966 -3.133016709259517e-05 0.0 -6.31255448711884e-17 9.413197003960335 6.029563456331691 0.27217325962895195 -0.00013006349742905298 0.0 -0.35136157671083623 -1.869516674672262 -1.6103938261615198 0.33966588973999023 1.9220311641693115 0.0008770955028012395 3.834952076431364e-05 3.834952076431364e-05 -9.58738019107841e-05 0.0003115898580290377 0.00023968450841493905 7.190534961409867e-05 0.0358886756002903 0.8321686387062073 0.6359421610832214 0.1846339851617813 0.07721057534217834 0.12197033315896988 0.0381317175924778 0.8388977646827698 0.6298419833183289 0.19694292545318604 0.07497258484363556 0.12197033315896988 0.29998288283186575 -0.2000215735795653 0.40001204729185874 -1.2090051994951512 1.2090810535881766 -1.209094504458012 -2.4875650314378528e-05 4.3247575468083154e-05 1.0784760378522472e-05 -1.5761935089715265e-05 -0.00023838708295866 0.00027813014167995886 4.162052070273996 -4.28981370008606 4.505551430378319 -0.5659033040990883 0.6731933689234391 -0.007410175528143077 0.29999999999773125 -0.19999999998749818 0.39999999999527563 -1.2090987221600364 1.2090487305541053 -1.209048730498419 0.0 0.0 0.0 0.0 0.0 0.0
2486.48 -0.3512852068466339 -1.8695186475529972 -1.6104316945584856 0.3396554019692496 1.9220226021590499 0.0008236363994447164 0.0 -0.0 -0.0 0.0 0.0 0.0 0.0 0.0 0.0 0.0 0.0 0.0 -5.500657743344303e-18 0.8172242617098822 0.7141331503287116 0.065941604326966 -3.133016709259517e-05 0.0 -6.31255448711884e-17 9.413197003960335 6.029563456331691 0.27217325962895195 -0.00013006349742905298 0.0 -0.3513377348529261 -1.869504753743307 -1.6103223005877894 0.33970189094543457 1.922019124031067 0.0008531270432285964 3.834952076431364e-05 3.834952076431364e-05 -9.58738019107841e-05 0.0003115898580290377 0.00023968450841493905 7.190534961409867e-05 0.0358886756002903 0.8433838486671448 0.652717649936676 0.19694292545318604 0.07385359704494476 0.11637535691261292 0.0381317175924778 0.8388977646827698 0.6298419833183289 0.19582392275333405 0.07161560654640198 0.12197033315896988 0.2999809590265435 -0.20001304818840776 0.4000389250847622 -1.2089759476576345 1.2089592331066563 -1.2091869645555735 -2.4877810290805345e-05 4.324721678010716e-05 1.0780999917653623e-05 -1.578320257913266e-05 -0.0002383784709424893 0.0002781381706230073 3.9875113783609133 -4.200718906764442 4.06835980368605 -0.5399599193346659 0.705983157198368 0.000800729104963144 0.29999999999773125 -0.19999999998749818 0.39999999999527563 -1.2090987221600364 1.2090487305541053 -1.209048730498419 0.0 0.0 0.0 0.0 0.0 0.0
2486.488 -0.3512852068466339 -1.8695186475529972 -1.6104316945584856 0.3396554019692496 1.9220226021590499 0.0008236363994447164 0.0 -0.0 -0.0 0.0 0.0 0.0 0.0 0.0 0.0 0.0 0.0 0.0 -5.500657743344303e-18 0.8172242617098822 0.7141331503287116 0.065941604326966 -3.133016709259517e-05 0.0 -6.31255448711884e-17 9.413197003960335 6.029563456331691 0.27217325962895195 -0.00013006349742905298 0.0 -0.3513377348529261 -1.8695405165301722 -1.6103819052325647 0.33967792987823486 1.922019124031067 0.0009010639623738825 3.834952076431364e-05 3.834952076431364e-05 -9.58738019107841e-05 0.00028762139845639467 0.00023968450841493905 7.190534961409867e-05 0.0336456336081028 0.886001706123352 0.6252669095993042 0.19918090105056763 0.08280554413795471 0.1197323426604271 0.0403747595846653 0.8388977646827698 0.6298419833183289 0.19694292545318604 0.07721057534217834 0.12197033315896988 0.2999920702583135 -0.20001703644580765 0.40000794353218705 -1.2089930475326562 1.2090836120471633 -1.2090682536498414 -2.2953262506126993e-05 4.254411275151282e-05 8.93416648121252e-06 -7.511647132189018e-06 -0.00021588247803823362 0.0002781477692847464 6.870212684750581 -6.526047162655803 4.177464925357528 -0.5555278358151308 0.41269525245474536 0.15068345403088926 0.29999999999773125 -0.19999999998749818 0.39999999999527563 -1.2090987221600364 1.2090487305541053 -1.209048730498419 0.0 0.0 0.0 0.0 0.0 0.0
2486.496 -0.3512852068466339 -1.8695186475529972 -1.6104316945584856 0.3396554019692496 1.9220226021590499 0.0008236363994447164 0.0 -0.0 -0.0 0.0 0.0 0.0 0.0 0.0 0.0 0.0 0.0 0.0 -5.500657743344303e-18 0.8172242617098822 0.7141331503287116 0.065941604326966 -3.133016709259517e-05 0.0 -6.31255448711884e-17 9.413197003960335 6.029563456331691 0.27217325962895195 -0.00013006349742905298 0.0 -0.35134965578188115 -1.8694928328143519 -1.6103580633746546 0.33970189094543457 1.9220551252365112 0.0008411427843384445 3.834952076431364e-05 3.834952076431364e-05 -9.58738019107841e-05 0.00028762139845639467 0.00023968450841493905 7.190534961409867e-05 0.0336456336081028 0.8366547226905823 0.6481425166130066 0.1879909634590149 0.07161560654640198 0.11637535691261292 0.0403747595846653 0.8388977646827698 0.6298419833183289 0.19582392275333405 0.07161560654640198 0.12197033315896988 0.29997631173078876 -0.2000127941284427 0.40003313996772966 -1.2090067057383576 1.2089561136517328 -1.2091613660909504 -2.2954698683322756e-05 4.2544221168587586e-05 8.9306908083476e-06 -7.535747805173332e-06 -0.00021587192214661086 0.00027815418616457407 3.8785916420098387 -4.016182102482573 4.1363185938471005 -0.5399727322967905 0.6825545942857558 -0.003927821201089124 0.29999999999773125 -0.19999999998749818 0.39999999999527563 -1.2090987221600364 1.2090487305541053 -1.209048730498419 0.0 0.0 0.0 0.0 0.0 0.0
2486.504 -0.3512852068466339 -1.8695186475529972 -1.6104316945584856 0.3396554019692496 1.9220226021590499 0.0008236363994447164 0.0 -0.0 -0.0 0.0 0.0 0.0 0.0 0.0 0.0 0.0 0.0 0.0 -5.500657743344303e-18 0.8172242617098822 0.7141331503287116 0.065941604326966 -3.133016709259517e-05 0.0 -6.31255448711884e-17 9.413197003960335 6.029563456331691 0.27217325962895195 -0.00013006349742905298 0.0 -0.3513377348529261 -1.8694804350482386 -1.6103223005877894 0.33968985080718994 1.922019124031067 0.0008171743829734623 3.834952076431364e-05 3.834952076431364e-05 -7.190534961409867e-05 0.0002636529679875821 0.00023968450841493905 7.190534961409867e-05 0.0448608435690403 0.8411408066749573 0.6039162874221802 0.20029990375041962 0.07497258484363556 0.11301837861537933 0.0381317175924778 0.8388977646827698 0.6298419833183289 0.19694292545318604 0.07385359704494476 0.12197033315896988 0.29997625707898556 -0.2000113347464812 0.4000465164904771 -1.20899703357174 1.2089317640248933 -1.2092220218454803 -2.137490842524618e-05 4.194000269809285e-05 1.375424081859845e-05 -7.5436424213245285e-06 -0.00021587062390739488 0.0002780841521987814 5.707105921095526 -6.287922740167446 5.619019423092614 -0.5244271026900217 0.632040129201059 0.16751585296869698 0.29999999999773125 -0.19999999998749818 0.39999999999527563 -1.2090987221600364 1.2090487305541053 -1.209048730498419 0.0 0.0 0.0 0.0 0.0 0.0
2486.5119999999997 -0.3512852068466339 -1.8695186475529972 -1.6104316945584856 0.3396554019692496 1.9220226021590499 0.0008236363994447164 0.0 -0.0 -0.0 0.0 0.0 0.0 0.0 0.0 0.0 0.0 0.0 0.0 -5.500657743344303e-18 0.8172242617098822 0.7141331503287116 0.065941604326966 -3.133016709259517e-05 0.0 -6.31255448711884e-17 9.413197003960335 6.029563456331691 0.27217325962895195 -0.00013006349742905298 0.0 -0.3513134161578577 -1.869528595601217 -1.6103580633746546 0.3397258520126343 1.9220551252365112 0.0008770955028012395 3.834952076431364e-05 3.834952076431364e-05 -7.190534961409867e-05 0.0002636529679875821 0.00023968450841493905 7.190534961409867e-05 0.0381317175924778 0.8299255967140198 0.6588177680969238 0.19134794175624847 0.07161560654640198 0.12868429720401764 0.0426178015768528 0.8388977646827698 0.6298419833183289 0.19582392275333405 0.07385359704494476 0.12197033315896988 0.29998997223300744 -0.2000042589215174 0.4000224590637595 -1.2090025415818422 1.2089564906169123 -1.2090999455503757 -2.1376244019989717e-05 4.193967475398121e-05 1.3755902186387415e-05 -7.527567266814085e-06 -0.00021587217579368604 0.00027808092807105246 3.1326012381508654 -3.5950853227652075 4.007791276241725 -0.5971094752774452 0.7863810199224156 -0.03868598239054066 0.29999999999773125 -0.19999999998749818 0.39999999999527563 -1.2090987221600364 1.2090487305541053 -1.209048730498419 0.0 0.0 0.0 0.0 0.0 0.0
2486.52 -0.3512852068466339 -1.8695186475529972 -1.6104316945584856 0.3396554019692496 1.9220226021590499 0.0008236363994447164 0.0 -0.0 -0.0 0.0 0.0 0.0 0.0 0.0 0.0 0.0 0.0 0.0 -5.500657743344303e-18 0.8172242617098822 0.7141331503287116 0.065941604326966 -3.133016709259517e-05 0.0 -6.31255448711884e-17 9.413197003960335 6.029563456331691 0.27217325962895195 -0.00013006349742905298 0.0 -0.35134965578188115 -1.8694928328143519 -1.6103819052325647 0.33973777294158936 1.922019124031067 0.0008291585836559534 3.834952076431364e-05 3.834952076431364e-05 -7.190534961409867e-05 0.0002636529679875821 0.00023968450841493905 7.190534961409867e-05 0.0471038855612278 0.8164673447608948 0.631367027759552 0.19470493495464325 0.07497258484363556 0.11301837861537933 0.0403747595846653 0.8388977646827698 0.6298419833183289 0.19582392275333405 0.07385359704494476 0.12197033315896988 0.29997377119512614 -0.20001480510145636 0.4000292728205433 -1.2089932123704439 1.2089666258673613 -1.2092050333650826 -2.1374441646195966e-05 4.194025683773884e-05 1.3755158793941813e-05 -7.540748530121653e-06 -0.00021587252454868399 0.0002780825326112389 3.573632017980967 -4.459899853956116 5.124180237717392 -0.5243914763932626 0.8033486878943263 0.016986576418426765 0.29999999999773125 -0.19999999998749818 0.39999999999527563 -1.2090987221600364 1.2090487305541053 -1.209048730498419 0.0 0.0 0.0 0.0 0.0 0.0
2486.528 -0.3512852068466339 -1.8695186475529972 -1.6104316945584856 0.3396554019692496 1.9220226021590499 0.0008236363994447164 0.0 -0.0 -0.0 0.0 0.0 0.0 0.0 0.0 0.0 0.0 0.0 0.0 -5.500657743344303e-18 0.8172242617098822 0.7141331503287116 0.065941604326966 -3.133016709259517e-05 0.0 -6.31255448711884e-17 9.413197003960335 6.029563456331691 0.27217325962895195 -0.00013006349742905298 0.0 -0.3513377348529261 -1.869504753743307 -1.6103699843036097 0.3397258520126343 1.922019124031067 0.0008890797034837306 3.834952076431364e-05 3.834952076431364e-05 -7.190534961409867e-05 0.00023968450841493905 0.00023968450841493905 7.190534961409867e-05 0.02018737979233265 0.8456268906593323 0.6359421610832214 0.1879909634590149 0.07832957059144974 0.12532731890678406 0.0358886756002903 0.8388977646827698 0.6298419833183289 0.19582392275333405 0.07385359704494476 0.12197033315896988 0.2999797196627208 -0.20001254254051445 0.400027495323078 -1.2089599409819063 1.2089963732801445 -1.2091438261668013 -1.945134438615741e-05 4.123692941948316e-05 1.1904837405814069e-05 7.09136745772744e-07 -0.00019336775905707762 0.00027809935118060025 4.977492502816567 -4.08636798331639 4.340989207321561 -0.5814726836234656 0.6185026131334648 -0.02948502246216599 0.29999999999773125 -0.19999999998749818 0.39999999999527563 -1.2090987221600364 1.2090487305541053 -1.209048730498419 0.0 0.0 0.0 0.0 0.0 0.0
2486.536 -0.3512852068466339 -1.8695186475529972 -1.6104316945584856 0.3396554019692496 1.9220226021590499 0.0008236363994447164 0.0 -0.0 -0.0 0.0 0.0 0.0 0.0 0.0 0.0 0.0 0.0 0.0 -5.500657743344303e-18 0.8172242617098822 0.7141331503287116 0.065941604326966 -3.133016709259517e-05 0.0 -6.31255448711884e-17 9.413197003960335 6.029563456331691 0.27217325962895195 -0.00013006349742905298 0.0 -0.3513134161578577 -1.869528595601217 -1.6103819052325647 0.33973777294158936 1.9220311641693115 0.0008890797034837306 3.834952076431364e-05 3.834952076431364e-05 -7.190534961409867e-05 0.00023968450841493905 0.00023968450841493905 7.190534961409867e-05 0.0381317175924778 0.8299255967140198 0.6039162874221802 0.1879909634590149 0.07832957059144974 0.12085133790969849 0.0403747595846653 0.8388977646827698 0.6298419833183289 0.19582392275333405 0.07385359704494476 0.12197033315896988 0.2999893552701969 -0.20000598117571086 0.40001674106537566 -1.2089876151817673 1.2089899215218531 -1.209100382340902 -1.9452367657863168e-05 4.123656786329927e-05 1.1905646351155874e-05 7.19219596062132e-07 -0.00019336884385474172 0.00027809774760920863 5.327887797241279 -5.469380339287449 5.560873370106232 -0.5607605930673336 0.638000982070068 0.08450451581977837 0.29999999999773125 -0.19999999998749818 0.39999999999527563 -1.2090987221600364 1.2090487305541053 -1.209048730498419 0.0 0.0 0.0 0.0 0.0 0.0
2486.544 -0.3512852068466339 -1.8695186475529972 -1.6104316945584856 0.3396554019692496 1.9220226021590499 0.0008236363994447164 0.0 -0.0 -0.0 0.0 0.0 0.0 0.0 0.0 0.0 0.0 0.0 0.0 -5.500657743344303e-18 0.8172242617098822 0.7141331503287116 0.065941604326966 -3.133016709259517e-05 0.0 -6.31255448711884e-17 9.413197003960335 6.029563456331691 0.27217325962895195 -0.00013006349742905298 0.0 -0.3513377348529261 -1.8695405165301722 -1.6103580633746546 0.33968985080718994 1.922019124031067 0.0008890797034837306 3.834952076431364e-05 3.834952076431364e-05 -7.190534961409867e-05 0.00023968450841493905 0.00023968450841493905 7.190534961409867e-05 0.0403747595846653 0.8276825547218323 0.6115415096282959 0.20813286304473877 0.07721057534217834 0.11637535691261292 0.0381317175924778 0.8388977646827698 0.6298419833183289 0.19582392275333405 0.07385359704494476 0.12308932095766068 0.2999907724798494 -0.2000165882857298 0.40001550413213094 -1.20898616169963 1.2090474716861852 -1.209102085406225 -1.9450354866080503e-05 4.1237047117099005e-05 1.1906672951972851e-05 7.226072800636085e-07 -0.0001933726935482384 0.0002780953293606145 4.996253315144307 -5.321210070173178 5.792412824934148 -0.5399834010358163 0.781728003628609 0.07747715002932305 0.29999999999773125 -0.19999999998749818 0.39999999999527563 -1.2090987221600364 1.2090487305541053 -1.209048730498419 0.0 0.0 0.0 0.0 0.0 0.0
2486.5519999999997 -0.3512852068466339 -1.8695186475529972 -1.6104316945584856 0.3396554019692496 1.9220226021590499 0.0008236363994447164 0.0 -0.0 -0.0 0.0 0.0 0.0 0.0 0.0 0.0 0.0 0.0 0.0 -5.500657743344303e-18 0.8172242617098822 0.7141331503287116 0.065941604326966 -3.133016709259517e-05 0.0 -6.31255448711884e-17 9.413197003960335 6.029563456331691 0.27217325962895195 -0.00013006349742905298 0.0 -0.3512776533709925 -1.8695405165301722 -1.610309902821676 0.3397258520126343 1.9220311641693115 0.0008171743829734623 3.834952076431364e-05 3.834952076431364e-05 -7.190534961409867e-05 0.00021571606339421123 0.00023968450841493905 7.190534961409867e-05 0.0403747595846653 0.8366547226905823 0.6359421610832214 0.18239599466323853 0.07497258484363556 0.13204127550125122 0.0403747595846653 0.8388977646827698 0.6298419833183289 0.19582392275333405 0.07385359704494476 0.12197033315896988 0.2999992113341702 -0.19999631741969703 0.4000316960668303 -1.2090362492424895 1.2088886427358179 -1.209160759779796 -1.7530702283579028e-05 4.053306756070603e-05 1.0053752255734746e-05 8.958530708691806e-06 -0.0001708585291867176 0.00027811860384185575 4.243600443575259 -4.676560544192573 4.379903290842512 -0.6126872715011985 0.6497334463890901 0.034756786555579455 0.29999999999773125 -0.19999999998749818 0.39999999999527563 -1.2090987221600364 1.2090487305541053 -1.209048730498419 0.0 0.0 0.0 0.0 0.0 0.0
2486.56 -0.3512852068466339 -1.8695186475529972 -1.6104316945584856 0.3396554019692496 1.9220226021590499 0.0008236363994447164 0.0 -0.0 -0.0 0.0 0.0 0.0 0.0 0.0 0.0 0.0 0.0 0.0 -5.500657743344303e-18 0.8172242617098822 0.7141331503287116 0.065941604326966 -3.133016709259517e-05 0.0 -6.31255448711884e-17 9.413197003960335 6.029563456331691 0.27217325962895195 -0.00013006349742905298 0.0 -0.3513377348529261 -1.869504753743307 -1.610309902821676 0.33971381187438965 1.9220551252365112 0.0008531270432285964 3.834952076431364e-05 3.834952076431364e-05 -7.190534961409867e-05 0.00021571606339421123 0.00023968450841493905 7.190534961409867e-05 0.0358886756002903 0.8097382187843323 0.6435673832893372 0.19246694445610046 0.07385359704494476 0.1353982537984848 0.0381317175924778 0.8388977646827698 0.6298419833183289 0.19582392275333405 0.07385359704494476 0.12308932095766068 0.29997982746663443 -0.20000968213465817 0.40004329609849604 -1.2089823398673338 1.2089119938075563 -1.2091774644011601 -1.7529096118711526e-05 4.053390530161059e-05 1.0052693815925508e-05 8.942916560937082e-06 -0.00017085538544042865 0.000278120197215704 2.9883795653478016 -3.2818010637732513 4.836782717880166 -0.6282393776900772 0.8935827352049011 -0.07501138174768247 0.29999999999773125 -0.19999999998749818 0.39999999999527563 -1.2090987221600364 1.2090487305541053 -1.209048730498419 0.0 0.0 0.0 0.0 0.0 0.0
2486.5679999999998 -0.3512852068466339 -1.8695186475529972 -1.6104316945584856 0.3396554019692496 1.9220226021590499 0.0008236363994447164 0.0 -0.0 -0.0 0.0 0.0 0.0 0.0 0.0 0.0 0.0 0.0 0.0 -5.500657743344303e-18 0.8172242617098822 0.7141331503287116 0.065941604326966 -3.133016709259517e-05 0.0 -6.31255448711884e-17 9.413197003960335 6.029563456331691 0.27217325962895195 -0.00013006349742905298 0.0 -0.351325813923971 -1.8695405165301722 -1.6103461424456995 0.339749813079834 1.9220432043075562 0.0008291585836559534 3.834952076431364e-05 3.834952076431364e-05 -7.190534961409867e-05 0.00021571606339421123 0.00023968450841493905 7.190534961409867e-05 0.0403747595846653 0.8074951767921448 0.6633929014205933 0.18239599466323853 0.07497258484363556 0.11749435216188431 0.0381317175924778 0.8388977646827698 0.6298419833183289 0.19582392275333405 0.07385359704494476 0.12197033315896988 0.2999881764872475 -0.20000922068770896 0.4000234528122796 -1.2090158017408161 1.208931303268982 -1.2091698940862536 -1.7529118095315612e-05 4.0533880615172085e-05 1.0054050115752113e-05 8.953087369907935e-06 -0.0001708591075293633 0.00027811777767149 1.996342214420081 -2.6121102440917516 4.080540791671327 -0.5451614140399282 0.8570956314484439 -0.13518788876648113 0.29999999999773125 -0.19999999998749818 0.39999999999527563 -1.2090987221600364 1.2090487305541053 -1.209048730498419 0.0 0.0 0.0 0.0 0.0 0.0
2486.576 -0.3512852068466339 -1.8695186475529972 -1.6104316945584856 0.3396554019692496 1.9220226021590499 0.0008236363994447164 0.0 -0.0 -0.0 0.0 0.0 0.0 0.0 0.0 0.0 0.0 0.0 0.0 -5.500657743344303e-18 0.8172242617098822 0.7141331503287116 0.065941604326966 -3.133016709259517e-05 0.0 -6.31255448711884e-17 9.413197003960335 6.029563456331691 0.27217325962895195 -0.00013006349742905298 0.0 -0.35130149522890264 -1.8694928328143519 -1.6103223005877894 0.33968985080718994 1.9220671653747559 0.0009010639623738825 3.834952076431364e-05 3.834952076431364e-05 -7.190534961409867e-05 0.0001917476038215682 0.00023968450841493905 7.190534961409867e-05 0.0336456336081028 0.8344116806983948 0.6496675610542297 0.19694292545318604 0.07721057534217834 0.11413737386465073 0.0381317175924778 0.8388977646827698 0.6298419833183289 0.19470493495464325 0.07385359704494476 0.12197033315896988 0.29998639850013237 -0.19999756045603423 0.4000421695137659 -1.2089806165444001 1.208919945874054 -1.2090895341361663 -1.5607180248079315e-05 3.983006693717501e-05 8.202409667348618e-06 1.719843512341526e-05 -0.00014835007239874073 0.0002781361746443953 3.8075475738947877 -3.8306972212432013 4.316425029704336 -0.5296324083302759 0.7495472634469901 -0.045262526895536594 0.29999999999773125 -0.19999999998749818 0.39999999999527563 -1.2090987221600364 1.2090487305541053 -1.209048730498419 0.0 0.0 0.0 0.0 0.0 0.0
2486.584 -0.3512852068466339 -1.8695186475529972 -1.6104316945584856 0.3396554019692496 1.9220226021590499 0.0008236363994447164 0.0 -0.0 -0.0 0.0 0.0 0.0 0.0 0.0 0.0 0.0 0.0 0.0 -5.500657743344303e-18 0.8172242617098822 0.7141331503287116 0.065941604326966 -3.133016709259517e-05 0.0 -6.31255448711884e-17 9.413197003960335 6.029563456331691 0.27217325962895195 -0.00013006349742905298 0.0 -0.3513377348529261 -1.869528595601217 -1.6103580633746546 0.33967792987823486 1.9220311641693115 0.0008770955028012395 3.834952076431364e-05 3.834952076431364e-05 -7.190534961409867e-05 0.0001917476038215682 0.00023968450841493905 7.190534961409867e-05 0.0493469275534153 0.8411408066749573 0.6298419833183289 0.1846339851617813 0.0682586282491684 0.12197033315896988 0.0381317175924778 0.8388977646827698 0.6298419833183289 0.19470493495464325 0.07385359704494476 0.12197033315896988 0.29998895175893553 -0.20001493340157708 0.4000187600193804 -1.2090006937231779 1.2090329452065116 -1.2091020561045713 -1.5604186742613423e-05 3.9830786877217766e-05 8.204753795984612e-06 1.721186869167001e-05 -0.0001483601642504128 0.0002781305686214434 4.488815603653012 -5.577076533613776 4.526611856678257 -0.5659409427222543 0.6066416211947113 0.1402828111030607 0.29999999999773125 -0.19999999998749818 0.39999999999527563 -1.2090987221600364 1.2090487305541053 -1.209048730498419 0.0 0.0 0.0 0.0 0.0 0.0
2486.592 -0.3512852068466339 -1.8695186475529972 -1.6104316945584856 0.3396554019692496 1.9220226021590499 0.0008236363994447164 0.0 -0.0 -0.0 0.0 0.0 0.0 0.0 0.0 0.0 0.0 0.0 0.0 -5.500657743344303e-18 0.8172242617098822 0.7141331503287116 0.065941604326966 -3.133016709259517e-05 0.0 -6.31255448711884e-17 9.413197003960335 6.029563456331691 0.27217325962895195 -0.00013006349742905298 0.0 -0.35134965578188115 -1.869504753743307 -1.6103938261615198 0.33971381187438965 1.9220432043075562 0.0008291585836559534 3.834952076431364e-05 3.834952076431364e-05 -7.190534961409867e-05 0.0001917476038215682 0.00023968450841493905 7.190534961409867e-05 0.0269165076315403 0.8164673447608948 0.6176416873931885 0.18351499736309052 0.07049661129713058 0.12197033315896988 0.0381317175924778 0.8388977646827698 0.6298419833183289 0.19470493495464325 0.07385359704494476 0.12197033315896988 0.2999786448285698 -0.20001458711190437 0.4000199242390401 -1.2090256036404676 1.2089896705283447 -1.2091539269587388 -1.560451395953349e-05 3.983081860752967e-05 8.204028569594764e-06 1.720472037507088e-05 -0.0001483575268924577 0.00027813217803937534 4.363129436283054 -4.087530466535987 5.300263094279052 -0.5659280103877546 0.7221075607923341 0.007146816593190851 0.29999999999773125 -0.19999999998749818 0.39999999999527563 -1.2090987221600364 1.2090487305541053 -1.209048730498419 0.0 0.0 0.0 0.0 0.0 0.0
2486.6 -0.3512852068466339 -1.8695186475529972 -1.6104316945584856 0.3396554019692496 1.9220226021590499 0.0008236363994447164 0.0 -0.0 -0.0 0.0 0.0 0.0 0.0 0.0 0.0 0.0 0.0 0.0 -5.500657743344303e-18 0.8172242617098822 0.7141331503287116 0.065941604326966 -3.133016709259517e-05 0.0 -6.31255448711884e-17 9.413197003960335 6.029563456331691 0.27217325962895195 -0.00013006349742905298 0.0 -0.35134965578188115 -1.8695643583880823 -1.6103461424456995 0.33971381187438965 1.9221030473709106 0.0008770955028012395 3.834952076431364e-05 3.834952076431364e-05 -7.190534961409867e-05 0.0001917476038215682 0.00023968450841493905 7.190534961409867e-05 0.0381317175924778 0.8613282442092896 0.6084914207458496 0.18015800416469574 0.07273460179567337 0.12420831620693207 0.0381317175924778 0.8388977646827698 0.6298419833183289 0.19470493495464325 0.07385359704494476 0.12197033315896988 0.2999918575865869 -0.20001452643201675 0.4000123151510751 -1.209023846802611 1.208978532093066 -1.2090663427747845 -1.5605479762891087e-05 3.9831248223177444e-05 8.204562925249967e-06 1.7207391766040005e-05 -0.0001483542122861191 0.00027813137316446773 6.3236264194821095 -6.504524414796855 4.711529926777437 -0.576339578377283 0.4177704287932484 0.19584527887731837 0.29999999999773125 -0.19999999998749818 0.39999999999527563 -1.2090987221600364 1.2090487305541053 -1.209048730498419 0.0 0.0 0.0 0.0 0.0 0.0
2486.6079999999997 -0.3512852068466339 -1.8695186475529972 -1.6104316945584856 0.3396554019692496 1.9220226021590499 0.0008236363994447164 0.0 -0.0 -0.0 0.0 0.0 0.0 0.0 0.0 0.0 0.0 0.0 0.0 -5.500657743344303e-18 0.8172242617098822 0.7141331503287116 0.065941604326966 -3.133016709259517e-05 0.0 -6.31255448711884e-17 9.413197003960335 6.029563456331691 0.27217325962895195 -0.00013006349742905298 0.0 -0.35128957429994756 -1.8695643583880823 -1.6103337446795862 0.33970189094543457 1.9220671653747559 0.0008770955028012395 3.834952076431364e-05 3.834952076431364e-05 -7.190534961409867e-05 0.0001917476038215682 0.00023968450841493905 7.190534961409867e-05 0.0381317175924778 0.8411408066749573 0.6008661985397339 0.2014188915491104 0.07049661129713058 0.1197323426604271 0.0381317175924778 0.8388977646827698 0.6298419833183289 0.19470493495464325 0.07049661129713058 0.12197033315896988 0.30000465073976823 -0.19999975573977677 0.4000148495174284 -1.2090350111181296 1.2089603360985042 -1.2090488620414526 -1.5606965637373213e-05 3.9830313815736136e-05 8.204685113251326e-06 1.721619170172668e-05 -0.0001483557189198065 0.0002781314072574002 5.917899838915071 -6.178579528207127 5.732542715040175 -0.555627007414911 0.6437782075184539 0.17938213174298895 0.29999999999773125 -0.19999999998749818 0.39999999999527563 -1.2090987221600364 1.2090487305541053 -1.209048730498419 0.0 0.0 0.0 0.0 0.0 0.0
2486.616 -0.3512852068466339 -1.8695186475529972 -1.6104316945584856 0.3396554019692496 1.9220226021590499 0.0008236363994447164 0.0 -0.0 -0.0 0.0 0.0 0.0 0.0 0.0 0.0 0.0 0.0 0.0 -5.500657743344303e-18 0.8172242617098822 0.7141331503287116 0.065941604326966 -3.133016709259517e-05 0.0 -6.31255448711884e-17 9.413197003960335 6.029563456331691 0.27217325962895195 -0.00013006349742905298 0.0 -0.3513377348529261 -1.869528595601217 -1.6103223005877894 0.33976173400878906 1.9220311641693115 0.0008890797034837306 3.834952076431364e-05 3.834952076431364e-05 -7.190534961409867e-05 0.00016777915880084038 0.00023968450841493905 7.190534961409867e-05 0.0538330152630806 0.8478699326515198 0.642042338848114 0.17903901636600494 0.07497258484363556 0.1197323426604271 0.0381317175924778 0.8388977646827698 0.6298419833183289 0.19470493495464325 0.07609158009290695 0.12197033315896988 0.29998171462710604 -0.20001232707290462 0.4000351909033368 -1.2089394040550572 1.2089366239151556 -1.20917672937198 -1.3682006096495367e-05 3.9127765868124026e-05 6.351631754305365e-06 2.5429570303362003e-05 -0.0001258444883663051 0.00027815622141389676 4.211261788563946 -5.443592945719116 3.931326626676308 -0.555554751078852 0.5541272855862017 0.09800307386534723 0.29999999999773125 -0.19999999998749818 0.39999999999527563 -1.2090987221600364 1.2090487305541053 -1.209048730498419 0.0 0.0 0.0 0.0 0.0 0.0
2486.624 -0.3512852068466339 -1.8695186475529972 -1.6104316945584856 0.3396554019692496 1.9220226021590499 0.0008236363994447164 0.0 -0.0 -0.0 0.0 0.0 0.0 0.0 0.0 0.0 0.0 0.0 0.0 -5.500657743344303e-18 0.8172242617098822 0.7141331503287116 0.065941604326966 -3.133016709259517e-05 0.0 -6.31255448711884e-17 9.413197003960335 6.029563456331691 0.27217325962895195 -0.00013006349742905298 0.0 -0.3513134161578577 -1.8695767561541956 -1.6103819052325647 0.3397258520126343 1.9220311641693115 0.0008770955028012395 3.834952076431364e-05 3.834952076431364e-05 -7.190534961409867e-05 0.00016777915880084038 0.00023968450841493905 7.190534961409867e-05 0.0515899695456028 0.8456268906593323 0.6039162874221802 0.19022895395755768 0.07609158009290695 0.12085133790969849 0.0381317175924778 0.8388977646827698 0.6298419833183289 0.19470493495464325 0.07609158009290695 0.12197033315896988 0.3000015354304122 -0.20001042277595066 0.399998944887158 -1.2090227804337248 1.2090355270675426 -1.209067268140389 -1.3681921181566731e-05 3.912769607591614e-05 6.354938064467457e-06 2.5465001144670158e-05 -0.0001258557094581122 0.0002781465687564389 5.731647939404034 -6.6839644567752154 5.329411243181891 -0.5607641900514847 0.5575322652310183 0.19500060641943778 0.29999999999773125 -0.19999999998749818 0.39999999999527563 -1.2090987221600364 1.2090487305541053 -1.209048730498419 0.0 0.0 0.0 0.0 0.0 0.0
2486.632 -0.3512852068466339 -1.8695186475529972 -1.6104316945584856 0.3396554019692496 1.9220226021590499 0.0008236363994447164 0.0 -0.0 -0.0 0.0 0.0 0.0 0.0 0.0 0.0 0.0 0.0 0.0 -5.500657743344303e-18 0.8172242617098822 0.7141331503287116 0.065941604326966 -3.133016709259517e-05 0.0 -6.31255448711884e-17 9.413197003960335 6.029563456331691 0.27217325962895195 -0.00013006349742905298 0.0 -0.3513134161578577 -1.8695405165301722 -1.6103337446795862 0.33973777294158936 1.922079086303711 0.0008770955028012395 3.834952076431364e-05 3.834952076431364e-05 -7.190534961409867e-05 0.00016777915880084038 0.00023968450841493905 7.190534961409867e-05 0.0493469275534153 0.8254395127296448 0.6359421610832214 0.17792002856731415 0.07832957059144974 0.12980328500270844 0.0381317175924778 0.8388977646827698 0.6298419833183289 0.19470493495464325 0.07385359704494476 0.12197033315896988 0.29999144735266386 -0.20000284821717038 0.4000259737189068 -1.2090032092074956 1.2089181392685704 -1.2090993275220838 -1.3683646552025056e-05 3.912749438694544e-05 6.352474080347671e-06 2.5443290313640278e-05 -0.00012584432452415333 0.0002781530394667376 3.6475945449063536 -4.588012087420934 4.482785888990482 -0.6023131447123534 0.6860769112793055 0.011886710375648995 0.29999999999773125 -0.19999999998749818 0.39999999999527563 -1.2090987221600364 1.2090487305541053 -1.209048730498419 0.0 0.0 0.0 0.0 0.0 0.0
2486.64 -0.3512852068466339 -1.8695186475529972 -1.6104316945584856 0.3396554019692496 1.9220226021590499 0.0008236363994447164 0.0 -0.0 -0.0 0.0 0.0 0.0 0.0 0.0 0.0 0.0 0.0 0.0 -5.500657743344303e-18 0.8172242617098822 0.7141331503287116 0.065941604326966 -3.133016709259517e-05 0.0 -6.31255448711884e-17 9.413197003960335 6.029563456331691 0.27217325962895195 -0.00013006349742905298 0.0 -0.35130149522890264 -1.8695524374591272 -1.6103580633746546 0.3397258520126343 1.9220671653747559 0.0008770955028012395 3.834952076431364e-05 3.834952076431364e-05 -7.190534961409867e-05 0.00016777915880084038 0.00023968450841493905 7.190534961409867e-05 0.0314025916159153 0.8478699326515198 0.6496675610542297 0.20029990375041962 0.07385359704494476 0.11413737386465073 0.0381317175924778 0.8388977646827698 0.6298419833183289 0.19470493495464325 0.07385359704494476 0.12308932095766068 0.29999791383654767 -0.20000171686762938 0.4000141041582084 -1.209024338413897 1.2089591926293919 -1.2090656595116254 -1.368351762019083e-05 3.912738766584603e-05 6.3535905803938735e-06 2.5455644592114744e-05 -0.00012584884717732384 0.00027814980393301 4.377279587243804 -4.293448332897349 4.14956482540878 -0.5296356523543145 0.6892345554122583 0.008504034168225283 0.29999999999773125 -0.19999999998749818 0.39999999999527563 -1.2090987221600364 1.2090487305541053 -1.209048730498419 0.0 0.0 0.0 0.0 0.0 0.0
2486.6479999999997 -0.3512852068466339 -1.8695186475529972 -1.6104316945584856 0.3396554019692496 1.9220226021590499 0.0008236363994447164 0.0 -0.0 -0.0 0.0 0.0 0.0 0.0 0.0 0.0 0.0 0.0 0.0 -5.500657743344303e-18 0.8172242617098822 0.7141331503287116 0.065941604326966 -3.133016709259517e-05 0.0 -6.31255448711884e-17 9.413197003960335 6.029563456331691 0.27217325962895195 -0.00013006349742905298 0.0 -0.351325813923971 -1.869528595601217 -1.6103337446795862 0.33970189094543457 1.9220432043075562 0.0008770955028012395 3.834952076431364e-05 3.834952076431364e-05 -7.190534961409867e-05 0.00016777915880084038 0.00023968450841493905 7.190534961409867e-05 0.0269165076315403 0.8568421006202698 0.6252669095993042 0.19582392275333405 0.07497258484363556 0.12197033315896988 0.0381317175924778 0.8388977646827698 0.6298419833183289 0.19358593225479126 0.07385359704494476 0.12085133790969849 0.2999890660302382 -0.20000956223470648 0.40002738234152363 -1.208990839684895 1.2089741444152944 -1.2091181546981902 -1.3682060680927446e-05 3.912756617623725e-05 6.352913229660797e-06 2.544712085295989e-05 -0.0001258491931548942 0.00027815143192432755 5.756981416013689 -5.2722960448676295 4.621203038347096 -0.5659427794379635 0.5707106942000687 0.08384433278467869 0.29999999999773125 -0.19999999998749818 0.39999999999527563 -1.2090987221600364 1.2090487305541053 -1.209048730498419 0.0 0.0 0.0 0.0 0.0 0.0
2486.656 -0.3512852068466339 -1.8695186475529972 -1.6104316945584856 0.3396554019692496 1.9220226021590499 0.0008236363994447164 0.0 -0.0 -0.0 0.0 0.0 0.0 0.0 0.0 0.0 0.0 0.0 0.0 -5.500657743344303e-18 0.8172242617098822 0.7141331503287116 0.065941604326966 -3.133016709259517e-05 0.0 -6.31255448711884e-17 9.413197003960335 6.029563456331691 0.27217325962895195 -0.00013006349742905298 0.0 -0.35130149522890264 -1.869528595601217 -1.6103461424456995 0.3397258520126343 1.9220311641693115 0.0008651112439110875 3.834952076431364e-05 3.834952076431364e-05 -7.190534961409867e-05 0.00016777915880084038 0.00023968450841493905 4.793690095539205e-05 0.0358886756002903 0.877029538154602 0.6222168207168579 0.19918090105056763 0.07944856584072113 0.14099322259426117 0.0381317175924778 0.8388977646827698 0.6298419833183289 0.19358593225479126 0.07385359704494476 0.12532731890678406 0.2999921838905313 -0.2000026068700456 0.4000257804610426 -1.209000397030798 1.2089495411893314 -1.209125970473358 -1.3682953357894846e-05 3.912723545949982e-05 6.35277764153543e-06 1.479137018823302e-06 -0.00012585217004802154 0.0002781460364633146 6.578217536255948 -6.460882817900741 4.425176115009727 -0.654209528723535 0.49607332543504973 0.16077303891811312 0.29999999999773125 -0.19999999998749818 0.39999999999527563 -1.2090987221600364 1.2090487305541053 -1.209048730498419 0.0 0.0 0.0 0.0 0.0 0.0
2486.6639999999998 -0.3512852068466339 -1.8695186475529972 -1.6104316945584856 0.3396554019692496 1.9220226021590499 0.0008236363994447164 0.0 -0.0 -0.0 0.0 0.0 0.0 0.0 0.0 0.0 0.0 0.0 0.0 -5.500657743344303e-18 0.8172242617098822 0.7141331503287116 0.065941604326966 -3.133016709259517e-05 0.0 -6.31255448711884e-17 9.413197003960335 6.029563456331691 0.27217325962895195 -0.00013006349742905298 0.0 -0.35134965578188115 -1.8695524374591272 -1.6103699843036097 0.33971381187438965 1.9220671653747559 0.0008411427843384445 3.834952076431364e-05 3.834952076431364e-05 -7.190534961409867e-05 0.00014381069922819734 0.00023968450841493905 4.793690095539205e-05 0.02467346377670765 0.8388977646827698 0.6191667318344116 0.19806191325187683 0.07273460179567337 0.12644630670547485 0.0381317175924778 0.8388977646827698 0.6298419833183289 0.19358593225479126 0.07273460179567337 0.12308932095766068 0.29998941803907775 -0.20001656714640073 0.40000985447008053 -1.2090385624320332 1.2089980823648578 -1.2091108634426668 -1.1758257322421988e-05 3.8424921685572004e-05 4.503223018852293e-06 9.731436224236616e-06 -0.00010334970164879452 0.000278160985528679 5.319337427686928 -4.785442624881317 5.163028612297754 -0.5867143813838074 0.6865983071371556 0.054152347278955786 0.29999999999773125 -0.19999999998749818 0.39999999999527563 -1.2090987221600364 1.2090487305541053 -1.209048730498419 0.0 0.0 0.0 0.0 0.0 0.0
2486.672 -0.3512852068466339 -1.8695186475529972 -1.6104316945584856 0.3396554019692496 1.9220226021590499 0.0008236363994447164 0.0 -0.0 -0.0 0.0 0.0 0.0 0.0 0.0 0.0 0.0 0.0 0.0 -5.500657743344303e-18 0.8172242617098822 0.7141331503287116 0.065941604326966 -3.133016709259517e-05 0.0 -6.31255448711884e-17 9.413197003960335 6.029563456331691 0.27217325962895195 -0.00013006349742905298 0.0 -0.3513377348529261 -1.869516674672262 -1.6103337446795862 0.3397258520126343 1.9220311641693115 0.0008411427843384445 3.834952076431364e-05 3.834952076431364e-05 -7.190534961409867e-05 0.00014381069922819734 0.00023968450841493905 4.793690095539205e-05 0.0403747595846653 0.8523560166358948 0.6359421610832214 0.18351499736309052 0.07385359704494476 0.11189938336610794 0.0381317175924778 0.8388977646827698 0.6298419833183289 0.19358593225479126 0.07161560654640198 0.1186133474111557 0.2999819796801749 -0.20001241405065112 0.4000334102721317 -1.208990234242358 1.2089441647579893 -1.2091873143393337 -1.175832880182172e-05 3.842451883961342e-05 4.501484649969616e-06 9.713730866636336e-06 -0.00010334438002893964 0.0002781647429241432 4.86688892551922 -5.274579832663797 4.127492706082127 -0.5192076037869602 0.5282898250709951 0.08933747013115437 0.29999999999773125 -0.19999999998749818 0.39999999999527563 -1.2090987221600364 1.2090487305541053 -1.209048730498419 0.0 0.0 0.0 0.0 0.0 0.0
2486.68 -0.3512852068466339 -1.8695186475529972 -1.6104316945584856 0.3396554019692496 1.9220226021590499 0.0008236363994447164 0.0 -0.0 -0.0 0.0 0.0 0.0 0.0 0.0 0.0 0.0 0.0 0.0 -5.500657743344303e-18 0.8172242617098822 0.7141331503287116 0.065941604326966 -3.133016709259517e-05 0.0 -6.31255448711884e-17 9.413197003960335 6.029563456331691 0.27217325962895195 -0.00013006349742905298 0.0 -0.35130149522890264 -1.8695886770831507 -1.6103580633746546 0.3397258520126343 1.9220432043075562 0.0009010639623738825 3.834952076431364e-05 3.834952076431364e-05 -7.190534961409867e-05 0.00014381069922819734 0.00023968450841493905 4.793690095539205e-05 0.0314025916159153 0.8276825547218323 0.6496675610542297 0.19246694445610046 0.07385359704494476 0.12085133790969849 0.0381317175924778 0.8388977646827698 0.6298419833183289 0.19358593225479126 0.07385359704494476 0.1197323426604271 0.300006357596486 -0.2000067692480054 0.4000014069147515 -1.2090112196954172 1.2090190890314219 -1.209040340710703 -1.1759418865657693e-05 3.842462091397833e-05 4.5038788302625165e-06 9.739180547166845e-06 -0.00010335139699289343 0.0002781604370590341 3.5342795464493793 -3.518674816446651 4.341479514693635 -0.5607680663375093 0.774137607918618 -0.055313094663583105 0.29999999999773125 -0.19999999998749818 0.39999999999527563 -1.2090987221600364 1.2090487305541053 -1.209048730498419 0.0 0.0 0.0 0.0 0.0 0.0
2486.688 -0.3512852068466339 -1.8695186475529972 -1.6104316945584856 0.3396554019692496 1.9220226021590499 0.0008236363994447164 0.0 -0.0 -0.0 0.0 0.0 0.0 0.0 0.0 0.0 0.0 0.0 0.0 -5.500657743344303e-18 0.8172242617098822 0.7141331503287116 0.065941604326966 -3.133016709259517e-05 0.0 -6.31255448711884e-17 9.413197003960335 6.029563456331691 0.27217325962895195 -0.00013006349742905298 0.0 -0.3513134161578577 -1.8695524374591272 -1.6103461424456995 0.33971381187438965 1.922079086303711 0.0008770955028012395 3.834952076431364e-05 3.834952076431364e-05 -7.190534961409867e-05 0.00014381069922819734 0.00023968450841493905 4.793690095539205e-05 0.0358886756002903 0.8388977646827698 0.6298419833183289 0.204775869846344 0.07385359704494476 0.11637535691261292 0.0381317175924778 0.8388977646827698 0.6298419833183289 0.19246694445610046 0.07273460179567337 0.1186133474111557 0.2999963259214278 -0.20000461522923693 0.40001649370999715 -1.2090243915397503 1.2089593203964348 -1.209065609837444 -1.1759963552812932e-05 3.842449797271112e-05 4.5027430334013825e-06 9.729805913551192e-06 -0.00010334681199628 0.0002781620508383973 4.7547127390175445 -4.905516645621106 4.985439891147776 -0.5400374884178359 0.7324342867272617 0.058891826864585925 0.29999999999773125 -0.19999999998749818 0.39999999999527563 -1.2090987221600364 1.2090487305541053 -1.209048730498419 0.0 0.0 0.0 0.0 0.0 0.0
2486.696 -0.3512852068466339 -1.8695186475529972 -1.6104316945584856 0.3396554019692496 1.9220226021590499 0.0008236363994447164 0.0 -0.0 -0.0 0.0 0.0 0.0 0.0 0.0 0.0 0.0 0.0 0.0 -5.500657743344303e-18 0.8172242617098822 0.7141331503287116 0.065941604326966 -3.133016709259517e-05 0.0 -6.31255448711884e-17 9.413197003960335 6.029563456331691 0.27217325962895195 -0.00013006349742905298 0.0 -0.3513134161578577 -1.8694928328143519 -1.6103461424456995 0.33976173400878906 1.922079086303711 0.0008411427843384445 3.834952076431364e-05 3.834952076431364e-05 -7.190534961409867e-05 0.00014381069922819734 0.00023968450841493905 4.793690095539205e-05 0.0358886756002903 0.8478699326515198 0.6374672055244446 0.18127700686454773 0.07609158009290695 0.13092228770256042 0.0381317175924778 0.8388977646827698 0.6298419833183289 0.19246694445610046 0.07273460179567337 0.11525636911392212 0.29997858858892534 -0.19999814477616087 0.40004107901081287 -1.2090037184346312 1.2088505562532164 -1.2091671363926284 -1.176084353639759e-05 3.8424051147291436e-05 4.500327404767534e-06 9.705591526758547e-06 -0.00010333794406293934 0.0002781668552644877 4.703112271727642 -4.810089727668056 4.115385439010146 -0.6074936856287954 0.577092083255049 0.040529546797115415 0.29999999999773125 -0.19999999998749818 0.39999999999527563 -1.2090987221600364 1.2090487305541053 -1.209048730498419 0.0 0.0 0.0 0.0 0.0 0.0
2486.7039999999997 -0.3512852068466339 -1.8695186475529972 -1.6104316945584856 0.3396554019692496 1.9220226021590499 0.0008236363994447164 0.0 -0.0 -0.0 0.0 0.0 0.0 0.0 0.0 0.0 0.0 0.0 0.0 -5.500657743344303e-18 0.8172242617098822 0.7141331503287116 0.065941604326966 -3.133016709259517e-05 0.0 -6.31255448711884e-17 9.413197003960335 6.029563456331691 0.27217325962895195 -0.00013006349742905298 0.0 -0.35128957429994756 -1.8695643583880823 -1.6103580633746546 0.33971381187438965 1.922079086303711 0.0008890797034837306 3.834952076431364e-05 3.834952076431364e-05 -7.190534961409867e-05 0.00014381069922819734 0.00023968450841493905 4.793690095539205e-05 0.0403747595846653 0.8030090928077698 0.6298419833183289 0.2036568820476532 0.07497258484363556 0.1197323426604271 0.0381317175924778 0.8388977646827698 0.6298419833183289 0.19246694445610046 0.07273460179567337 0.11749435216188431 0.3000040431816898 -0.199998524752391 0.40000899658880534 -1.209037307006483 1.2089677534832974 -1.2090225572031406 -1.1760770452861399e-05 3.842430426338347e-05 4.5032922346947256e-06 9.737643370298067e-06 -0.00010334854631593527 0.0002781609850493198 3.254548923417782 -3.7679441310703825 5.591885707079128 -0.5556530759597564 0.9463258968969875 -0.04000973675725561 0.29999999999773125 -0.19999999998749818 0.39999999999527563 -1.2090987221600364 1.2090487305541053 -1.209048730498419 0.0 0.0 0.0 0.0 0.0 0.0
2486.712 -0.3512852068466339 -1.8695186475529972 -1.6104316945584856 0.3396554019692496 1.9220226021590499 0.0008236363994447164 0.0 -0.0 -0.0 0.0 0.0 0.0 0.0 0.0 0.0 0.0 0.0 0.0 -5.500657743344303e-18 0.8172242617098822 0.7141331503287116 0.065941604326966 -3.133016709259517e-05 0.0 -6.31255448711884e-17 9.413197003960335 6.029563456331691 0.27217325962895195 -0.00013006349742905298 0.0 -0.3512776533709925 -1.8695405165301722 -1.6103819052325647 0.33970189094543457 1.922079086303711 0.0009130481630563736 3.834952076431364e-05 3.834952076431364e-05 -7.190534961409867e-05 0.00014381069922819734 0.00023968450841493905 4.793690095539205e-05 0.0426178015768528 0.886001706123352 0.6466174721717834 0.19470493495464325 0.07385359704494476 0.12420831620693207 0.0381317175924778 0.8388977646827698 0.6298419833183289 0.19246694445610046 0.07273460179567337 0.12197033315896988 0.30000216875651925 -0.1999933709610189 0.4000097903962217 -1.209030552604116 1.208980438685317 -1.2089877649079273 -1.1761257059387433e-05 3.842398822421723e-05 4.5032720034265666e-06 9.741562686450138e-06 -0.00010334941055241466 0.0002781604524434101 5.803960516614526 -6.26730575612889 3.4523998667369944 -0.5763551175427152 0.4377614740695286 0.17108717557957695 0.29999999999773125 -0.19999999998749818 0.39999999999527563 -1.2090987221600364 1.2090487305541053 -1.209048730498419 0.0 0.0 0.0 0.0 0.0 0.0
2486.72 -0.3512852068466339 -1.8695186475529972 -1.6104316945584856 0.3396554019692496 1.9220226021590499 0.0008236363994447164 0.0 -0.0 -0.0 0.0 0.0 0.0 0.0 0.0 0.0 0.0 0.0 0.0 -5.500657743344303e-18 0.8172242617098822 0.7141331503287116 0.065941604326966 -3.133016709259517e-05 0.0 -6.31255448711884e-17 9.413197003960335 6.029563456331691 0.27217325962895195 -0.00013006349742905298 0.0 -0.35130149522890264 -1.869516674672262 -1.6103337446795862 0.33970189094543457 1.9220671653747559 0.0008171743829734623 3.834952076431364e-05 3.834952076431364e-05 -7.190534961409867e-05 0.00014381069922819734 0.00021571606339421123 4.793690095539205e-05 0.0515899695456028 0.8164673447608948 0.623741865158081 0.19918090105056763 0.07609158009290695 0.1197323426604271 0.0381317175924778 0.8388977646827698 0.6298419833183289 0.19246694445610046 0.07273460179567337 0.12085133790969849 0.29999115330528203 -0.19999928051945523 0.4000315579709088 -1.2090525851884557 1.208900096801892 -1.2091350643647956 -1.1762074694119878e-05 3.645008697585469e-05 4.503199265423999e-06 9.752045242518076e-06 -0.0001033617828171068 0.0002541952503888624 3.8320912553119633 -4.938018592667663 5.441837066102139 -0.5556287985732205 0.8258980375076963 0.051136732897592206 0.29999999999773125 -0.19999999998749818 0.39999999999527563 -1.2090987221600364 1.2090487305541053 -1.209048730498419 0.0 0.0 0.0 0.0 0.0 0.0
2486.728 -0.3512852068466339 -1.8695186475529972 -1.6104316945584856 0.3396554019692496 1.9220226021590499 0.0008236363994447164 0.0 -0.0 -0.0 0.0 0.0 0.0 0.0 0.0 0.0 0.0 0.0 0.0 -5.500657743344303e-18 0.8172242617098822 0.7141331503287116 0.065941604326966 -3.133016709259517e-05 0.0 -6.31255448711884e-17 9.413197003960335 6.029563456331691 0.27217325962895195 -0.00013006349742905298 0.0 -0.35136157671083623 -1.869516674672262 -1.610309902821676 0.33973777294158936 1.9220911264419556 0.0008770955028012395 3.834952076431364e-05 3.834952076431364e-05 -4.793690095539205e-05 0.00011984225420746952 0.00021571606339421123 4.793690095539205e-05 0.0515899695456028 0.8411408066749573 0.6328920722007751 0.18910996615886688 0.07273460179567337 0.10854240506887436 0.0381317175924778 0.8388977646827698 0.6298419833183289 0.19246694445610046 0.07161560654640198 0.1197323426604271 0.29997591722181255 -0.20001417928172488 0.4000409669118404 -1.2089652167698 1.2089040886467588 -1.209159270873679 -1.018104589339968e-05 3.5846818061315664e-05 9.326674682922445e-06 9.73142682640306e-06 -0.00010335577666182951 0.00025412545586382006 4.380279929844706 -5.514616840501941 4.529310469351546 -0.503677526480775 0.61725347913233 0.11432448385195074 0.29999999999773125 -0.19999999998749818 0.39999999999527563 -1.2090987221600364 1.2090487305541053 -1.209048730498419 0.0 0.0 0.0 0.0 0.0 0.0
2486.736 -0.3512852068466339 -1.8695186475529972 -1.6104316945584856 0.3396554019692496 1.9220226021590499 0.0008236363994447164 0.0 -0.0 -0.0 0.0 0.0 0.0 0.0 0.0 0.0 0.0 0.0 0.0 -5.500657743344303e-18 0.8172242617098822 0.7141331503287116 0.065941604326966 -3.133016709259517e-05 0.0 -6.31255448711884e-17 9.413197003960335 6.029563456331691 0.27217325962895195 -0.00013006349742905298 0.0 -0.35130149522890264 -1.869516674672262 -1.6103337446795862 0.339749813079834 1.9220671653747559 0.0008890797034837306 3.834952076431364e-05 3.834952076431364e-05 -4.793690095539205e-05 0.00011984225420746952 0.00021571606339421123 4.793690095539205e-05 0.0515899695456028 0.8590851426124573 0.623741865158081 0.1846339851617813 0.067139632999897 0.12868429720401764 0.0381317175924778 0.8388977646827698 0.6283169388771057 0.19246694445610046 0.07161560654640198 0.1186133474111557 0.2999873077233239 -0.1999978748097586 0.4000352581508869 -1.2089786372590443 1.2088931832262853 -1.209115538943739 -1.0182658837142835e-05 3.584616240583214e-05 9.326949171403837e-06 9.740035348162609e-06 -0.00010335721571081059 0.00025412492897744905 5.401447194337735 -6.571681370003038 4.391675389197371 -0.5971518862948734 0.49772324012082353 0.22733337582561466 0.29999999999773125 -0.19999999998749818 0.39999999999527563 -1.2090987221600364 1.2090487305541053 -1.209048730498419 0.0 0.0 0.0 0.0 0.0 0.0
2486.7439999999997 -0.3512852068466339 -1.8695186475529972 -1.6104316945584856 0.3396554019692496 1.9220226021590499 0.0008236363994447164 0.0 -0.0 -0.0 0.0 0.0 0.0 0.0 0.0 0.0 0.0 0.0 0.0 -5.500657743344303e-18 0.8172242617098822 0.7141331503287116 0.065941604326966 -3.133016709259517e-05 0.0 -6.31255448711884e-17 9.413197003960335 6.029563456331691 0.27217325962895195 -0.00013006349742905298 0.0 -0.35128957429994756 -1.869516674672262 -1.6103223005877894 0.339749813079834 1.9220671653747559 0.0008770955028012395 3.834952076431364e-05 3.834952076431364e-05 -4.793690095539205e-05 0.00011984225420746952 0.0001917476038215682 4.793690095539205e-05 0.0448608435690403 0.8411408066749573 0.6405172944068909 0.19694292545318604 0.07385359704494476 0.10854240506887436 0.0381317175924778 0.8388977646827698 0.6298419833183289 0.19246694445610046 0.07161560654640198 0.11749435216188431 0.29998952780080806 -0.19999425131373452 0.4000384452774776 -1.2089880623655749 1.2088689974969207 -1.2091235955627941 -1.0184881174225927e-05 3.387204950016348e-05 9.328243709280688e-06 9.769458302767128e-06 -0.00010337424603418615 0.00023015700721668394 4.235051729021104 -4.9585241877478 4.467197017137765 -0.5037039227232978 0.6805587051237394 0.06329352724002128 0.29999999999773125 -0.19999999998749818 0.39999999999527563 -1.2090987221600364 1.2090487305541053 -1.209048730498419 0.0 0.0 0.0 0.0 0.0 0.0
2486.752 -0.3512852068466339 -1.8695186475529972 -1.6104316945584856 0.3396554019692496 1.9220226021590499 0.0008236363994447164 0.0 -0.0 -0.0 0.0 0.0 0.0 0.0 0.0 0.0 0.0 0.0 0.0 -5.500657743344303e-18 0.8172242617098822 0.7141331503287116 0.065941604326966 -3.133016709259517e-05 0.0 -6.31255448711884e-17 9.413197003960335 6.029563456331691 0.27217325962895195 -0.00013006349742905298 0.0 -0.351325813923971 -1.869516674672262 -1.6103580633746546 0.339749813079834 1.9220311641693115 0.0008651112439110875 3.834952076431364e-05 1.917476038215682e-05 -4.793690095539205e-05 0.00011984225420746952 0.0001917476038215682 4.793690095539205e-05 0.0358886756002903 0.8187103867530823 0.6389922499656677 0.18910996615886688 0.06937761604785919 0.12980328500270844 0.0381317175924778 0.8388977646827698 0.6298419833183289 0.19246694445610046 0.07161560654640198 0.1186133474111557 0.29998278971182357 -0.20000823566240122 0.4000284876867467 -1.208978411732445 1.2089469698668618 -1.2091605766221951 -5.71379708175201e-06 3.2242990755242266e-05 2.6102089764390747e-06 1.637145893678904e-05 -8.537534524647071e-05 0.00023017891279590117 3.4831620645756844 -3.8325336437333304 4.74469202652476 -0.602280936913238 0.8004267077891407 -0.008747616625796739 0.29999999999773125 -0.19999999998749818 0.39999999999527563 -1.2090987221600364 1.2090487305541053 -1.209048730498419 0.0 0.0 0.0 0.0 0.0 0.0
2486.7599999999998 -0.3512852068466339 -1.8695186475529972 -1.6104316945584856 0.3396554019692496 1.9220226021590499 0.0008236363994447164 0.0 -0.0 -0.0 0.0 0.0 0.0 0.0 0.0 0.0 0.0 0.0 0.0 -5.500657743344303e-18 0.8172242617098822 0.7141331503287116 0.065941604326966 -3.133016709259517e-05 0.0 -6.31255448711884e-17 9.413197003960335 6.029563456331691 0.27217325962895195 -0.00013006349742905298 0.0 -0.35128957429994756 -1.8695524374591272 -1.6103580633746546 0.339749813079834 1.9220432043075562 0.0008770955028012395 3.834952076431364e-05 1.917476038215682e-05 -4.793690095539205e-05 0.00011984225420746952 0.0001917476038215682 4.793690095539205e-05 0.0314025916159153 0.8478699326515198 0.631367027759552 0.2025378942489624 0.07609158009290695 0.12868429720401764 0.0381317175924778 0.8388977646827698 0.6298419833183289 0.19134794175624847 0.07161560654640198 0.1186133474111557 0.2999983735594156 -0.19999941120122527 0.4000159557775992 -1.2090081082886628 1.2089476046921313 -1.2090912311475976 -5.7149904488533565e-06 3.2243070776782414e-05 2.6108824280369764e-06 1.6380997840625393e-05 -8.537653486574413e-05 0.00023017731170602013 5.126425737651978 -4.933401158563518 4.736851568394141 -0.5971236127678509 0.6892109251732049 0.05067211838039425 0.29999999999773125 -0.19999999998749818 0.39999999999527563 -1.2090987221600364 1.2090487305541053 -1.209048730498419 0.0 0.0 0.0 0.0 0.0 0.0
2486.768 -0.3512852068466339 -1.8695186475529972 -1.6104316945584856 0.3396554019692496 1.9220226021590499 0.0008236363994447164 0.0 -0.0 -0.0 0.0 0.0 0.0 0.0 0.0 0.0 0.0 0.0 0.0 -5.500657743344303e-18 0.8172242617098822 0.7141331503287116 0.065941604326966 -3.133016709259517e-05 0.0 -6.31255448711884e-17 9.413197003960335 6.029563456331691 0.27217325962895195 -0.00013006349742905298 0.0 -0.3513134161578577 -1.8694928328143519 -1.6103819052325647 0.33970189094543457 1.9220911264419556 0.0008411427843384445 1.917476038215682e-05 1.917476038215682e-05 -4.793690095539205e-05 0.00011984225420746952 0.0001917476038215682 4.793690095539205e-05 0.0471038855612278 0.8388977646827698 0.6450924277305603 0.19022895395755768 0.07273460179567337 0.1197323426604271 0.0381317175924778 0.8388977646827698 0.6298419833183289 0.19134794175624847 0.07161560654640198 0.1186133474111557 0.29998390416039256 -0.19999905654645148 0.40002649787082745 -1.2090513890927936 1.2089232222755297 -1.2090914917358138 -9.550003642743159e-06 2.6490644242611602e-05 2.610579428627584e-06 1.638114995231166e-05 -8.537542512397071e-05 0.00021100200633169695 3.887132448602451 -4.7955428326573015 4.231680341906236 -0.5556095870460093 0.6820256176471922 0.055075748772668805 0.29999999999773125 -0.19999999998749818 0.39999999999527563 -1.2090987221600364 1.2090487305541053 -1.209048730498419 0.0 0.0 0.0 0.0 0.0 0.0
