Fleaurent/UniversalRobot/csv/robolib_movel_x400.csv
timestamp target_q_0 target_q_1 target_q_2 target_q_3 target_q_4 target_q_5 target_qd_0 target_qd_1 target_dq_2 target_qd_3 target_qd_4 target_qd_5 target_TCP_pose_0 target_TCP_pose_1 target_TCP_pose_2 target_TCP_pose_3 target_TCP_pose_4 target_TCP_pose_5 target_TCP_speed_0 target_TCP_speed_1 target_TCP_speed_2 target_TCP_speed_3 target_TCP_speed_4 target_TCP_speed_5 target_TCP_acc_0 target_TCP_acc_1 target_TCP_acc_2 target_TCP_acc_3 target_TCP_acc_4 target_TCP_acc_5
0.0 -0.3527446237002967 -1.8721358656143456 -1.603567670800731 0.33413797321956373 1.9237026852187453 -0.00012831772243472844 0.0 0.0 0.0 0.0 0.0 0.0 300.0 -200.0 400.0 2.4186 -2.4185 2.4185 0.0 0.0 0.0 0.0 0.0 0.0 0.0 1000.0 0.0 0.0 0.0 0.0 
0.008 -0.35263492756397374 -1.872045184858162 -1.6036908977386917 0.33417114799546876 1.9235929890833252 -0.00012831253888009457 -0.01813834987750649 0.040113400289751557 -0.020349344534948452 0.0003242103320576643 59763388034510.68 -59763388034510.68 300.0 -199.968 400.0 2.4186 -2.4185 2.4185 0.0 8.0 0.0 0.0 0.0 0.0 0.0 1000.0 0.0 0.0 0.0 0.0 
0.016 -0.3523057563679708 -1.8717731871357173 -1.6040604632532043 0.3342686690050187 1.9232638178900314 -0.0001282969960839277 -0.0461912163236577 0.07851614514568793 -0.037964580388302194 0.0006101557050030344 39329076370885.664 -39329076370885.67 300.0 -199.872 400.0 2.4186 -2.4185 2.4185 0.0 16.0 0.0 0.0 0.0 0.0 0.0 1000.0 0.0 0.0 0.0 0.0 
0.024 -0.35175686169764164 -1.8713200060883128 -1.6046760215441245 0.33443115916967403 1.922714923224219 -0.00012827111766959128 -0.07360129083323422 0.10325184180576388 -0.028100328790410897 -0.0026218571413523803 -282891330932097.25 282891330932097.25 300.0 -199.712 400.0 2.4186 -2.4185 2.4185 0.0 24.0 0.0 0.0 0.0 0.0 0.0 1000.0 0.0 0.0 0.0 0.0 
0.032 -0.3509878293507156 -1.8706858644625575 -1.6055369966030129 0.3346583807608754 1.9219458908836187 -0.00012823494307663034 -0.12879236602546146 0.13236462383787095 -0.003847934002644795 0.01304747429408554 -491859808717116.7 491859808717116.7 300.0 -199.488 400.0 2.4186 -2.4185 2.4185 0.0 32.0 0.0 0.0 0.0 0.0 0.0 1000.0 0.0 0.0 0.0 0.0 
0.04 -0.3499980790726642 -1.8698710741310782 -1.6066425826958843 0.3349486008171352 1.9209561406137015 -0.00012818852766194433 -0.17494387194967032 0.11237025124937133 0.05813057585944935 0.01528754625939283 -352693764346976.75 352693764346976.75 300.0 -199.2 400.0 2.4186 -2.4185 2.4185 0.0 40.0 0.0 0.0 0.0 0.0 0.0 1000.0 0.0 0.0 0.0 0.0 
0.048 -0.3487868641905747 -1.8688760361296404 -1.607991745029175 0.3353037255290845 1.9197449257415589 -0.00012813194284195818 -0.22144117439035593 0.06769226499158722 0.16194168901873754 -0.009720086773767742 437259827573268.0 -437259827573268.0 300.0 -198.848 400.0 2.4186 -2.4185 2.4185 0.0 48.0 0.0 0.0 0.0 0.0 0.0 1000.0 0.0 0.0 0.0 0.0 
0.056 -0.3473532711499465 -1.8677012407187414 -1.6095832205891871 0.3357203379370943 1.9183113327126935 -0.00012806527627632236 -0.2257622251918536 -0.033858937556067496 0.2709429081318764 -0.0053820725563536904 842390300193403.0 -842390300193403.0 300.0 -198.432 400.0 2.4186 -2.4185 2.4185 0.0 56.0 0.0 0.0 0.0 0.0 0.0 1000.0 0.0 0.0 0.0 0.0 
0.064 -0.3456962189602215 -1.8663472674800654 -1.6114155191426018 0.33619947661287686 1.9166542805365487 -0.000127988632093828 0.0 0.0 0.0 0.0 0.0 0.0 300.0 -197.952 400.0 2.4186 -2.4185 2.4185 0.0 64.0 0.0 0.0 0.0 0.0 0.0 1000.0 0.0 0.0 0.0 0.0 
0.072 -0.343814458556297 -1.8648147854604313 -1.6134869243831385 0.3367386705244195 1.9147725201480255 -0.0001279021311613794 0.0 0.0 0.0 0.0 0.0 0.0 300.0 -197.408 400.0 2.4186 -2.4185 2.4185 0.0 72.00000000000001 0.0 0.0 0.0 0.0 0.0 1000.0 0.0 0.0 0.0 0.0 
0.08 -0.341706572084834 -1.863104553378095 -1.6157954952070566 0.33733769570288064 1.9126646336937914 -0.00012780591139702676 0.23003902816696664 -0.4042722411548617 0.20618308462435644 -0.04536682973357989 -2379792800392578.0 2379792800392578.0 300.0 -196.8 400.0 2.4186 -2.4185 2.4185 0.0 80.0 0.0 0.0 0.0 0.0 0.0 1000.0 0.0 0.0 0.0 0.0 
0.088 -0.33937097212584333 -1.861217419908498 -1.6183390670979445 0.33799534961897826 1.91032903375386 -0.00012770012812822465 0.4573825129940293 -0.33350790769103816 -0.10394057639425966 -0.008535527903678468 -743421259812801.5 743421259812801.5 300.0 -196.12800000000001 400.0 2.4186 -2.4185 2.4185 0.0 88.0 0.0 0.0 0.0 0.0 0.0 1000.0 0.0 0.0 0.0 0.0 
0.096 -0.33680590086186557 -1.859154324068738 -1.6211152535991724 0.3387086284035028 1.9077639625107787 -0.00012758495449664644 0.45852104767616153 0.0010885670313842306 -0.4152135586704263 -0.008309084100018418 185618121673790.75 -185618121673790.7 300.0 -195.392 400.0 2.4186 -2.4185 2.4185 0.0 96.0 0.0 0.0 0.0 0.0 0.0 1000.0 0.0 0.0 0.0 0.0 
0.104 -0.334009429209031 -1.856916295722187 -1.6241214478505086 0.33947777807653257 1.904967490880682 -0.000127460581911058 0.1887181118315488 0.38775538931005904 -0.5500039913785512 -0.04107793634531482 -861875979041563.1 861875979041563.2 300.0 -194.59199999999998 400.0 2.4186 -2.4185 2.4185 0.0 104.00000000000001 0.0 0.0 0.0 0.0 0.0 1000.0 0.0 0.0 0.0 0.0 
0.112 -0.3309794559264798 -1.85450445622684 -1.627354824163697 0.340300123298507 1.9019375176227182 -0.00012732722054992578 -0.22967049328254713 0.5380437862195478 -0.31198710837483534 0.015556562672036409 -844186488418842.2 844186488418842.2 300.0 -193.728 400.0 2.4186 -2.4185 2.4185 0.0 112.0 0.0 0.0 0.0 0.0 0.0 1000.0 0.0 0.0 0.0 0.0 
0.12 -0.32771370672300026 -1.8519200192530865 -1.63081233961032 0.3411745095113963 1.8986717684456813 -0.00012718509991561437 -0.5614599070287628 0.31749509502972256 0.2544357326730976 0.023688490797643205 -385102733455888.5 385102733455888.5 300.0 -192.8 400.0 2.4186 -2.4185 2.4185 0.0 120.0 0.0 0.0 0.0 0.0 0.0 1000.0 0.0 0.0 0.0 0.0 
0.128 -0.32420973338239545 -1.8491642917986926 -1.6344907355939906 0.3420976861734595 1.895167795133383 -0.00012703446944221187 0.0 0.0 0.0 0.0 0.0 0.0 300.0 -191.808 400.0 2.4186 -2.4185 2.4185 0.0 128.0 0.0 0.0 0.0 0.0 0.0 1000.0 0.0 0.0 0.0 0.0 
0.136 -0.32046491293198187 -1.8462386754308844 -1.6383865393778743 0.34306918678378207 1.891422974713148 -0.00012687559915920959 0.1435425761259316 -0.7267829122541789 0.2860681783392076 0.0617135837855222 2161393135285774.2 -2161393135285774.5 300.0 -190.752 400.0 2.4186 -2.4185 2.4185 0.0 136.0 0.0 0.0 0.0 0.0 0.0 1000.0 0.0 0.0 0.0 0.0 
0.144 -0.31647644688184373 -1.843144667787479 -1.6424960655377037 0.3440856412644051 1.8874345086950695 -0.00012670878041345435 0.0 0.0 0.0 0.0 0.0 0.0 300.0 -189.632 400.0 2.4186 -2.4185 2.4185 0.0 144.00000000000003 0.0 0.0 0.0 0.0 0.0 1000.0 0.0 0.0 0.0 0.0 
0.152 -0.3122413605660117 -1.8398838643711142 -1.646815417309834 0.3451455616460195 1.8831994224131885 -0.00012653432665199018 0.35669825811484496 0.4975828564146121 -0.8701841587172636 -0.00676833343682329 215492921826856.5 -215492921826856.5 300.0 -188.448 400.0 2.4186 -2.4185 2.4185 0.0 152.0 0.0 0.0 0.0 0.0 0.0 1000.0 0.0 0.0 0.0 0.0 
0.16 -0.3077565026206428 -1.8364579606726814 -1.651340487803512 0.34624596461368307 1.8787145645036714 -0.0001263525742686062 0.11142887014796035 0.6159231470116316 0.5603277643228382 -0.011819197858415923 -1.0032833011618468e+16 1.0032833011618468e+16 300.0 -187.2 400.0 2.4186 -2.4185 2.4185 0.0 160.0 0.0 0.0 0.0 0.0 0.0 1000.0 0.0 0.0 0.0 0.0 
0.168 -0.30301854463861044 -1.8328687546621782 -1.6560669610463343 0.3473846265247662 1.8739766065594021 -0.00012616388351711165 -0.6857893263564662 -0.08312993547238876 0.8026346279018224 -0.01658696978807458 2540329975616657.5 -2540329975616657.5 300.0 -185.888 400.0 2.4186 -2.4185 2.4185 0.0 168.0 0.0 0.0 0.0 0.0 0.0 1000.0 0.0 0.0 0.0 0.0 
0.176 -0.2980239810446621 -1.8291181496872677 -1.6609903128319374 0.3485584974174347 1.8689820430051425 -0.00012596863949456745 0.0 0.0 0.0 0.0 0.0 0.0 300.0 -184.512 400.0 2.4186 -2.4185 2.4185 0.0 176.0 0.0 0.0 0.0 0.0 0.0 1000.0 0.0 0.0 0.0 0.0 
0.184 -0.29276912924055476 -1.825208157821983 -1.6661058113391929 0.3497655340433592 1.8637271912426598 -0.00012576725319791098 0.0 0.0 0.0 0.0 0.0 0.0 300.0 -183.072 400.0 2.4186 -2.4185 2.4185 0.0 184.0 0.0 0.0 0.0 0.0 0.0 1000.0 0.0 0.0 0.0 0.0 
0.192 -0.28725013007534494 -1.82114090371012 -1.6714085174926454 0.3510025264692396 1.858208192121027 -0.00012556016265761964 -0.05935477630415604 0.8746538155097612 -0.8702811044421446 0.07322103324208501 1747877303687789.5 -1747877303687789.5 300.0 -181.56799999999998 400.0 2.4186 -2.4185 2.4185 0.0 192.0 0.0 0.0 0.0 0.0 0.0 1000.0 0.0 0.0 0.0 0.0 
0.2 -0.2814629487023259 -1.8169186289500034 -1.6768932850345926 0.35226668338787626 1.8524210107935486 -0.00012534783415226545 -0.9791426758531798 0.3587153426322778 0.5490480677156084 -0.04063997630363651 -1824000113950393.8 1824000113950393.8 300.0 -180.0 400.0 2.4186 -2.4185 2.4185 0.0 200.0 0.0 0.0 0.0 0.0 0.0 0.0 0.0 0.0 0.0 0.0 
0.208 -0.27552254599838033 -1.8126292863554394 -1.6824442127317043 0.3535302400446505 1.8464806081361926 -0.00012513498099465617 0.13515796159813573 -0.9488472019802567 0.8571118279751332 0.02040495010889615 -893403817741017.8 893403817741017.8 300.0 -178.4 400.0 2.4186 -2.4185 2.4185 0.0 200.0 0.0 0.0 0.0 0.0 0.0 0.0 0.0 0.0 0.0 0.0 
0.216 -0.26954663732997464 -1.8083593518444092 -1.6879489905482932 0.3547665587328164 1.8405046995144958 -0.00012492602420605722 0.9712756111247682 -0.24760470044584257 -0.7120303970609267 0.005854019671693873 -583909151764625.8 583909151764625.8 300.0 -176.8 400.0 2.4186 -2.4185 2.4185 0.0 200.0 0.0 0.0 0.0 0.0 0.0 0.0 0.0 0.0 0.0 0.0 
0.224 -0.2635351940880277 -1.8041089484903732 -1.6934076978163553 0.35597633766155057 1.83449325631938 -0.00012472101404988222 0.0 0.0 0.0 0.0 0.0 0.0 300.0 -175.2 400.0 2.4186 -2.4185 2.4185 0.0 200.0 0.0 0.0 0.0 0.0 0.0 0.0 0.0 0.0 0.0 0.0 
0.232 -0.25748819523366295 -1.7998782075980744 -1.6988204063984917 0.35716014396890294 1.8284462575119709 -0.00012452000141223118 -1.0819477058381788 0.22522697986282256 0.5015026330908883 0.023700121354047483 -1690509512336755.8 1690509512336755.2 300.0 -173.6 400.0 2.4186 -2.4185 2.4185 0.0 200.0 0.0 0.0 0.0 0.0 0.0 0.0 0.0 0.0 0.0 0.0 
0.24 -0.251405627532332 -1.7956672686925625 -1.7041871808587763 0.35831756644431856 1.8223636898577213 -0.0001243230378047431 0.24299823069973686 -0.9934689405756132 0.7520622840026906 0.08154671433803465 -1663963376833574.5 1663963376833574.5 300.0 -172.0 400.0 2.4186 -2.4185 2.4185 0.0 200.0 0.0 0.0 0.0 0.0 0.0 0.0 0.0 0.0 0.0 0.0 
0.248 -0.24528748579077142 -1.7914762795090888 -1.7095080786294286 0.35944920735384445 1.8162455481633688 -0.00012413017536718715 0.977094113278255 -0.13562373077633344 -0.804692246465156 0.0033644520924899896 409706570021648.4 -409706570021648.3 300.0 -170.4 400.0 2.4186 -2.4185 2.4185 0.0 200.0 0.0 0.0 0.0 0.0 0.0 0.0 0.0 0.0 0.0 0.0 
0.256 -0.23913377309664785 -1.787305395983624 -1.7147831501735542 0.36055502974213915 1.8100918355165811 -0.0001239414668697774 -0.3360062521422354 1.0571537127420194 -0.8655553485680115 0.03091352834731869 808286386904522.1 -808286386904522.4 300.0 -168.8 400.0 2.4186 -2.4185 2.4185 0.0 200.0 0.0 0.0 0.0 0.0 0.0 0.0 0.0 0.0 0.0 0.0 
0.264 -0.23294450106073405 -1.7831547822437537 -1.7200124391441671 0.3616353018013547 1.8039025635281352 -0.00012375696571519595 -0.9087246569410649 0.07193275208706862 0.8365395369449582 0.02926272447013315 1595489392042547.5 -1595489392042547.5 300.0 -167.2 400.0 2.4186 -2.4185 2.4185 0.0 200.0 0.0 0.0 0.0 0.0 0.0 0.0 0.0 0.0 0.0 0.0 
0.272 -0.2267196900614481 -1.779024610599702 -1.7251959825397276 0.36269044882703483 1.7976777525764478 -0.00012357672594030765 0.41985197107370703 -1.1146150968768165 0.6529325242651105 0.09068444518846192 3154072606347317.0 -3154072606347317.0 300.0 -165.6 400.0 2.4186 -2.4185 2.4185 0.0 200.0 0.0 0.0 0.0 0.0 0.0 0.0 0.0 0.0 0.0 0.0 
0.28 -0.22045936949157863 -1.774915061535237 -1.7303338108564024 0.3637204360983337 1.7914174320543115 -0.00012340080221755136 0.9235369012767123 -0.011444724674860724 -0.9011798616594546 -0.0015604610324368665 259927873715713.03 -259927873715713.03 300.0 -164.0 400.0 2.4186 -2.4185 2.4185 0.0 200.0 0.0 0.0 0.0 0.0 0.0 0.0 0.0 0.0 0.0 0.0 
0.288 -0.2141635780069946 -1.7708263236982074 -1.7354259482372434 0.36472554422100667 1.7851216406175958 -0.00012322924985598902 -0.3025130014465281 1.0040631983383814 -0.6231669522402375 -0.019681355832615377 -3089058668672203.0 3089058668672203.0 300.0 -162.4 400.0 2.4186 -2.4185 2.4185 0.0 200.0 0.0 0.0 0.0 0.0 0.0 0.0 0.0 0.0 0.0 0.0 
0.296 -0.20783236377713687 -1.766758593890459 -1.7404724126184978 0.3657060047676355 1.7787904264357435 -0.00012306212480199676 -0.8452647868765092 -0.04802304325421756 0.91280242244926 0.03028956050849131 1530331232229552.5 -1530331232229552.5 300.0 -160.8 400.0 2.4186 -2.4185 2.4185 0.0 200.0 0.0 0.0 0.0 0.0 0.0 0.0 0.0 0.0 0.0 0.0 
0.304 -0.2014657847370671 -1.7627120770568778 -1.7454732158732102 0.3666619548296952 1.772423847443818 -0.00012289948363957928 0.46649744206266913 -0.9791489816956899 0.571984565932342 0.012269924800692097 1012272855286807.6 -1012272855286807.4 300.0 -159.2 400.0 2.4186 -2.4185 2.4185 0.0 200.0 0.0 0.0 0.0 0.0 0.0 0.0 0.0 0.0 0.0 0.0 
0.312 -0.1950639088408379 -1.7586869862733037 -1.750428363952314 0.3675936822512196 1.7660219715958752 -0.00012274138359028947 0.8586035330403952 0.11351391612171141 -0.9896409699357319 0.0064139051614597094 334937084365332.5 -334937084365332.5 300.0 -157.6 400.0 2.4186 -2.4185 2.4185 0.0 200.0 0.0 0.0 0.0 0.0 0.0 0.0 0.0 0.0 0.0 0.0 
0.32 -0.18862681431592776 -1.7546835427330623 -1.7553378570233777 0.3685014081430098 1.7595848771193927 -0.00012258788251273459 -0.4885179832146116 1.016098754469909 -0.5848079269460899 0.007903832112221941 499394164181613.75 -499394164181613.9 300.0 -156.0 400.0 2.4186 -2.4185 2.4185 0.0 200.0 0.0 0.0 0.0 0.0 0.0 0.0 0.0 0.0 0.0 0.0 
0.328 -0.18215458991848532 -1.7507019757318532 -1.7602016896071584 0.3693854413199482 1.7531126527705225 -0.00012243903890164968 0.0 0.0 0.0 0.0 0.0 0.0 300.0 -154.4 400.0 2.4186 -2.4185 2.4185 0.0 200.0 0.0 0.0 0.0 0.0 0.0 0.0 0.0 0.0 0.0 0.0 
0.336 -0.17564733518908615 -1.7467425226507303 -1.7650198507121342 0.3702458710902581 1.7466053980898408 -0.00012229491188651858 0.0 0.0 0.0 0.0 0.0 0.0 300.0 -152.8 400.0 2.4186 -2.4185 2.4185 0.0 200.0 0.0 0.0 0.0 0.0 0.0 0.0 0.0 0.0 0.0 0.0 
0.344 -0.16910516070871617 -1.7428054289369177 -1.7697923239671542 0.371083030133859 1.7400632236583378 -0.00012215556122972313 0.8030656968745631 0.2320629937340322 -1.0451511214233933 0.0005187030936522175 422215649477899.1 -422215649477899.1 300.0 -151.2 400.0 2.4186 -2.4185 2.4185 0.0 200.0 0.0 0.0 0.0 0.0 0.0 0.0 0.0 0.0 0.0 0.0 
0.352 -0.162528188354659 -1.7388909480821924 -1.7745190877523518 0.3718970150854104 1.7334862513532971 -0.00012202104732419914 -0.5659327239163767 0.9890793465142513 -0.43359142671437556 -0.0018877790980490238 -536015345359862.1 536015345359862.1 300.0 -149.6 400.0 2.4186 -2.4185 2.4185 0.0 200.0 0.0 0.0 0.0 0.0 0.0 0.0 0.0 0.0 0.0 0.0 
0.36 -0.15591655155596262 -1.7349993415985647 -1.7792001153284596 0.3726881690606092 1.726874614603769 -0.0001218914311905793 -0.709394002365531 -0.286016118875118 1.0593448846654798 -0.06625125393923248 -5883532476707286.0 5883532476707286.0 300.0 -148.0 400.0 2.4186 -2.4185 2.4185 0.0 200.0 0.0 0.0 0.0 0.0 0.0 0.0 0.0 0.0 0.0 0.0 
0.368 -0.14927039554813581 -1.731130878990992 -1.7838353749646514 0.37345658760110734 1.7202284586452645 -0.00012176677447380148 0.7275971047029284 -1.1143316294703536 0.3409483772320049 0.005116919027681062 -2381292671500175.0 2381292671500175.0 300.0 -146.4 400.0 2.4186 -2.4185 2.4185 0.0 200.0 0.0 0.0 0.0 0.0 0.0 0.0 0.0 0.0 0.0 0.0 
0.376 -0.14258987762671094 -1.727285837726845 -1.7884248300650438 0.37420280954811647 1.7135479407733163 -0.00012164713943916075 0.725892594457578 0.3618612910986454 -1.0886193149566954 0.0002696531934983495 -423513382986731.5 423513382986731.5 300.0 -144.8 400.0 2.4186 -2.4185 2.4185 0.0 200.0 0.0 0.0 0.0 0.0 0.0 0.0 0.0 0.0 0.0 0.0 
0.384 -0.13587516739929573 -1.7234645032018665 -1.7929684392939695 0.3749268075580301 1.7068332305955367 -0.00012153258896778423 -0.6612373498461267 1.0291440327266277 -0.28077706043133654 -3.971480440574077e-05 2476448640012183.0 -2476448640012183.0 300.0 -143.2 400.0 2.4186 -2.4185 2.4185 0.0 200.0 0.0 0.0 0.0 0.0 0.0 0.0 0.0 0.0 0.0 0.0 
0.392 -0.12912644703571097 -1.7196671687023342 -1.7974661567001384 0.3756289568692426 1.7000845102817466 -0.00012142318655150544 0.0 0.0 0.0 0.0 0.0 0.0 300.0 -141.6 400.0 2.4186 -2.4185 2.4185 0.0 200.0 0.0 0.0 0.0 0.0 0.0 0.0 0.0 0.0 0.0 0.0 
0.4 -0.12234391151580848 -1.715894135363158 -1.8019179318397966 0.37630936589797837 1.6933019748117992 -0.00012131899628711729 0.0 0.0 0.0 0.0 0.0 0.0 300.0 -140.0 400.0 2.4186 -2.4185 2.4185 0.0 200.0 0.0 0.0 0.0 0.0 0.0 0.0 0.0 0.0 0.0 0.0 
0.408 -0.11552776887453442 -1.7121457121216355 -1.806323709898984 0.37696855585211875 1.6864858322206462 -0.0001212200828699801 0.6769216778109934 0.45469718286722777 -1.086737256758869 0.000519562906116777 -423009395182422.8 423009395182422.9 300.0 -138.4 400.0 2.4186 -2.4185 2.4185 0.0 200.0 0.0 0.0 0.0 0.0 0.0 0.0 0.0 0.0 0.0 0.0 
0.416 -0.10867824044378738 -1.7084222156665767 -1.81068343181499 0.37760651476903684 1.679636303840184 -0.00012112651158696264 -0.701919665424345 0.9044810547452743 -0.15747211119720103 0.008454672690374537 1486976253931842.0 -1486976253931842.0 300.0 -136.8 400.0 2.4186 -2.4185 2.4185 0.0 200.0 0.0 0.0 0.0 0.0 0.0 0.0 0.0 0.0 0.0 0.0 
0.424 -0.1017955610906176 -1.704723970382534 -1.8149970343970996 0.3782236079633403 1.672753624537467 -0.00012103834830869325 0.0 0.0 0.0 0.0 0.0 0.0 300.0 -135.2 400.0 2.4186 -2.4185 2.4185 0.0 200.0 0.0 0.0 0.0 0.0 0.0 0.0 0.0 0.0 0.0 0.0 
0.432 -0.09487997945127713 -1.7010513082888439 -1.8192644504467184 0.3788201112102023 1.6658380429487492 -0.00012095565948109809 0.0 0.0 0.0 0.0 0.0 0.0 300.0 -133.6 400.0 2.4186 -2.4185 2.4185 0.0 200.0 0.0 0.0 0.0 0.0 0.0 0.0 0.0 0.0 0.0 0.0 
0.44 -0.08793175816062915 -1.6974045689732047 -1.8234856088769604 0.3793963036910768 1.6588898217088957 -0.00012087851211620367 0.0 0.0 0.0 0.0 0.0 0.0 300.0 -132.0 400.0 2.4186 -2.4185 2.4185 0.0 200.0 0.0 0.0 0.0 0.0 0.0 0.0 0.0 0.0 0.0 0.0 
0.448 -0.08095117407640551 -1.6937840995195135 -1.8276604348317802 0.37995240420310905 1.651909237675641 -0.00012080697378218096 -0.7255354296895918 0.8114897270898839 0.029159194147709257 0.019812130179856 -609984850026635.5 609984850026635.5 300.0 -130.4 400.0 2.4186 -2.4185 2.4185 0.0 200.0 0.0 0.0 0.0 0.0 0.0 0.0 0.0 0.0 0.0 0.0 
0.456 -0.07393851849778321 -1.6901902544296843 -1.8317888498047161 0.3804887536215549 1.6448965821481618 -0.00012074111259260798 -0.47738997847208053 -0.591397754825159 1.0926324755696109 0.030042333468177657 1537712431398391.2 -1537712431398391.2 300.0 -128.8 400.0 2.4186 -2.4185 2.4185 0.0 200.0 0.0 0.0 0.0 0.0 0.0 0.0 0.0 0.0 0.0 0.0 
0.464 -0.06689409737774099 -1.6866233955391658 -1.8358707717573215 0.38100554174675194 1.6378521610794416 -0.0001206809971949283 0.8571674228429221 -0.79326500464671 -0.04438558752271794 0.02048552527974722 621110972684280.5 -621110972684280.4 300.0 -127.19999999999999 400.0 2.4186 -2.4185 2.4185 0.0 200.0 0.0 0.0 0.0 0.0 0.0 0.0 0.0 0.0 0.0 0.0 
0.472 -0.059818231528633525 -1.6830838919258864 -1.8399061152373488 0.38150321063945136 1.630776295281836 -0.000120626696758083 0.5723089854719661 0.6327912955919569 -0.98590586413499 0.03127620832176734 -1568718091261742.2 1568718091261742.5 300.0 -125.6 400.0 2.4186 -2.4185 2.4185 0.0 200.0 0.0 0.0 0.0 0.0 0.0 0.0 0.0 0.0 0.0 0.0 
0.48 -0.05271125682042155 -1.6795721198123585 -1.843894791496742 0.38198181468422465 1.62366932062531 -0.00012057828095929395 -0.7494965627549669 0.7479476190228702 0.20792153384231 0.05554152833538362 -793569857812160.5 793569857812160.8 300.0 -124.0 400.0 2.4186 -2.4185 2.4185 0.0 200.0 0.0 0.0 0.0 0.0 0.0 0.0 0.0 0.0 0.0 0.0 
0.488 -0.04557352437096718 -1.676088462460667 -1.8478367086094996 0.38244184484396615 1.6165315882277251 -0.0001205358199699762 0.0 0.0 0.0 0.0 0.0 0.0 300.0 -122.4 400.0 2.4186 -2.4185 2.4185 0.0 200.0 0.0 0.0 0.0 0.0 0.0 0.0 0.0 0.0 0.0 0.0 
0.496 -0.038405400727808514 -1.672633310060079 -1.8517317715894583 0.3828834853768681 1.6093634646366224 -0.00012049938444075824 0.95947774031272 -0.760194379946726 -0.1598318833345381 -0.020481700169830162 -814368846345954.8 814368846345954.8 300.0 -120.80000000000001 400.0 2.4186 -2.4185 2.4185 0.0 200.0 0.0 0.0 0.0 0.0 0.0 0.0 0.0 0.0 0.0 0.0 
0.504 -0.03120726804079954 -1.669207059607024 -1.855579882508042 0.383307129148978 1.6021653320018585 -0.00012046904548558905 0.4099719175131601 0.7271376655377426 -1.0399804215363173 0.05447693897781107 -826056686594354.4 826056686594354.6 300.0 -119.2 400.0 2.4186 -2.4185 2.4185 0.0 200.0 0.0 0.0 0.0 0.0 0.0 0.0 0.0 0.0 0.0 0.0 
0.512 -0.02397952422500449 -1.6658101147771727 -1.859380940612026 0.3837129766133389 1.5949375882385002 -0.00012044487466491127 0.0 0.0 0.0 0.0 0.0 0.0 300.0 -117.6 400.0 2.4186 -2.4185 2.4185 0.0 200.0 0.0 0.0 0.0 0.0 0.0 0.0 0.0 0.0 0.0 0.0 
0.52 -0.016722583113220724 -1.6624428857893825 -1.8631348424413496 0.3841014529240454 1.5876806471793456 -0.00012042694396788124 0.0 0.0 0.0 0.0 0.0 0.0 300.0 -116.0 400.0 2.4186 -2.4185 2.4185 0.0 200.0 0.0 0.0 0.0 0.0 0.0 0.0 0.0 0.0 0.0 0.0 
0.528 -0.009436874597498868 -1.6591057892612644 -1.8668414819470163 0.38447275136393966 1.5803949387164498 -0.00012041532579361603 0.8724558228457054 -0.5835378387693616 -0.3158035931832681 0.0765132232543137 -1737411245891015.5 1737411245891015.2 300.0 -114.39999999999999 400.0 2.4186 -2.4185 2.4185 0.0 200.0 0.0 0.0 0.0 0.0 0.0 0.0 0.0 0.0 0.0 0.0 
0.536 -0.002122844759019582 -1.6557992480561325 -1.8705007506091111 0.3848272563813451 1.5730809089309943 -0.00012041009293144979 0.2077042459909385 0.8473166875859097 -1.1495603604353015 0.006758617761108419 -590119471304014.8 590119471304014.6 300.0 -112.8 400.0 2.4186 -2.4185 2.4185 0.0 200.0 0.0 0.0 0.0 0.0 0.0 0.0 0.0 0.0 0.0 0.0 
0.544 0.0052190440143145 -1.6525236911211254 -1.874112537554959 0.38516521069834986 1.5657390202108834 -0.00012041131854018212 -0.954687570471144 0.5744717159729373 0.3261181843421309 0.08154671433803466 -1807049235703859.8 1807049235703859.8 300.0 -111.19999999999999 400.0 2.4186 -2.4185 2.4185 0.0 200.0 0.0 0.0 0.0 0.0 0.0 0.0 0.0 0.0 0.0 0.0 
0.552 0.01258831292321716 -1.6492795533162725 -1.8776767296774506 0.3854870562787045 1.5583697513554062 -0.00012041907612630171 -0.11713694338585244 -0.8899505636616459 1.0461010915535922 -0.03943837767780633 -1845980302902172.8 1845980302902172.8 300.0 -109.6 400.0 2.4186 -2.4185 2.4185 0.0 200.0 0.0 0.0 0.0 0.0 0.0 0.0 0.0 0.0 0.0 0.0 
0.56 0.01998446666593945 -1.646067275234317 -1.8811932117535517 0.38579300584842446 1.5509735976663153 -0.00012043343952117059 0.9929051712394017 -0.5342118516207325 -0.4205001015121018 0.021005700171635888 944607402155756.2 -944607402155756.2 300.0 -107.99999999999999 400.0 2.4186 -2.4185 2.4185 0.0 200.0 0.0 0.0 0.0 0.0 0.0 0.0 0.0 0.0 0.0 0.0 
0.568 0.027406993361419385 -1.6428873030110906 -1.884661866563013 0.3860834634515373 1.5435510710246734 -0.0001204544828571548 0.0 0.0 0.0 0.0 0.0 0.0 300.0 -106.39999999999999 400.0 2.4186 -2.4185 2.4185 0.0 200.0 0.0 0.0 0.0 0.0 0.0 0.0 0.0 0.0 0.0 0.0 
0.576 0.03485536448730375 -1.6397400881262822 -1.888082575007283 0.3863587453201103 1.5361026999528358 -0.00012048228054268894 -0.8012389709079921 0.45073451566983186 0.5707867093791018 0.07866943075380786 1986305239725479.8 -1986305239725479.2 300.0 -104.79999999999998 400.0 2.4186 -2.4185 2.4185 0.0 200.0 0.0 0.0 0.0 0.0 0.0 0.0 0.0 0.0 0.0 0.0 
0.584 0.04232903483348727 -1.6366260871944178 -1.8914552162286387 0.38661913127596415 1.5286290296609117 -0.00012051690723626353 0.0251729374642133 -0.8009047745729109 1.082760699674485 0.07267762720563276 -2040896529310540.2 2040896529310540.5 300.0 -103.2 400.0 2.4186 -2.4185 2.4185 0.0 200.0 0.0 0.0 0.0 0.0 0.0 0.0 0.0 0.0 0.0 0.0 
0.592 0.04982744247180926 -1.633545761745921 -1.8947796677295305 0.38686500785153144 1.521130622077062 -0.00012055843781932564 0.9301230831039337 -0.4808460790054826 -0.6399675337643287 -0.047172155705782766 2054812636384898.0 -2054812636384898.5 300.0 -101.60000000000001 400.0 2.4186 -2.4185 2.4185 0.0 200.0 0.0 0.0 0.0 0.0 0.0 0.0 0.0 0.0 0.0 0.0 
0.6 0.057350008742523606 -1.6304995779981188 -1.8980558054921413 0.38709675554425194 1.5136080558610374 -0.00012060694736808494 -0.051859902598576854 1.0467517653882081 -1.0616494580550633 -0.04078493537040009 -1999076850140492.2 1999076850140492.2 300.0 -100.0 400.0 2.4186 -2.4185 2.4185 0.0 200.0 0.0 0.0 0.0 0.0 0.0 0.0 0.0 0.0 0.0 0.0 
0.608 0.06489613825817497 -1.6274880066160753 -1.901283504098146 0.3873146338248492 1.5060619264002937 -0.00012066251112421898 0.0 0.0 0.0 0.0 0.0 0.0 300.0 -98.4 400.0 2.4186 -2.4185 2.4185 0.0 200.0 0.0 0.0 0.0 0.0 0.0 0.0 0.0 0.0 0.0 0.0 
0.616 0.07246521892547375 -1.6245115224631679 -1.9044626368486783 0.38751905218574834 1.498492845788124 -0.00012072520446447377 0.0 0.0 0.0 0.0 0.0 0.0 300.0 -96.8 400.0 2.4186 -2.4185 2.4185 0.0 200.0 0.0 0.0 0.0 0.0 0.0 0.0 0.0 0.0 0.0 0.0 
0.624 0.08005662198576591 -1.6215706043413283 -1.907593075884468 0.3877103151084116 1.4909014427831844 -0.00012079510286915757 1.0112133646418928 -0.3378062504110282 -0.6402625433707523 0.0031446440198947324 618635724171581.0 -618635724171581.0 300.0 -95.2 400.0 2.4186 -2.4185 2.4185 0.0 200.0 0.0 0.0 0.0 0.0 0.0 0.0 0.0 0.0 0.0 0.0 
0.632 0.08766970207466884 -1.6186657347209 -1.9106746923061455 0.3878888422868585 1.483288362749859 -0.00012087228188952772 -0.061129687356648726 1.0192889272124885 -0.8684895399975705 -0.03222422134576212 -1816190246362622.2 1816190246362622.2 300.0 -93.6 400.0 2.4186 -2.4185 2.4185 0.0 200.0 0.0 0.0 0.0 0.0 0.0 0.0 0.0 0.0 0.0 0.0 
0.64 0.09530379730141991 -1.6157973994600785 -1.9137073562946845 0.3880549118643062 1.4756542675789144 -0.0001209568171140729 0.0 0.0 0.0 0.0 0.0 0.0 300.0 -92.0 400.0 2.4186 -2.4185 2.4185 0.0 200.0 0.0 0.0 0.0 0.0 0.0 0.0 0.0 0.0 0.0 0.0 
0.648 0.10295822934847632 -1.6129660875139322 -1.9166909372319627 0.38820895757567264 1.4679998355878938 -0.00012104878413369614 0.18805103762848238 -0.9890519325521211 0.825025854414548 0.04342096743856689 -581719422097360.6 581719422097360.6 300.0 -90.39999999999999 400.0 2.4186 -2.4185 2.4185 0.0 200.0 0.0 0.0 0.0 0.0 0.0 0.0 0.0 0.0 0.0 0.0 
0.656 0.11063230359185638 -1.6101722906330198 -1.9196253038213982 0.38835126951344945 1.460325761400783 -0.00012114825850580475 0.8479902198420862 -0.18930766123177678 -0.8543925640872384 -0.030749357988911392 -1713403975273896.8 1713403975273896.5 300.0 -88.8 400.0 2.4186 -2.4185 2.4185 0.0 200.0 0.0 0.0 0.0 0.0 0.0 0.0 0.0 0.0 0.0 0.0 
0.664 0.11832530924270968 -1.6074165030516592 -1.9225103242086383 0.3884822613817376 1.4526327558064327 -0.00012125531571731811 -0.16326355725833763 0.9857153601450322 -0.7860260803519222 -0.028888008862024188 -1685003667700397.8 1685003667700397.8 300.0 -87.19999999999999 400.0 2.4186 -2.4185 2.4185 0.0 200.0 0.0 0.0 0.0 0.0 0.0 0.0 0.0 0.0 0.0 0.0 
0.672 0.1260365195105484 -1.604699221165904 -1.9253458661022596 0.38860226543387566 1.4449215455953366 -0.00012137003114660508 -0.8980194141630298 0.2099360569211338 0.7587483820905226 0.08154671433803463 1658124134295226.0 -1658124134295226.0 300.0 -85.6 400.0 2.4186 -2.4185 2.4185 0.0 200.0 0.0 0.0 0.0 0.0 0.0 0.0 0.0 0.0 0.0 0.0 
0.68 0.1337651917885614 -1.6020209432013413 -1.9281317968944327 0.38871167385113536 1.4371928733743045 -0.00012149248002436704 0.27721131736263527 -0.9721624997731884 0.7163909222905367 0.006984937880344115 -544748557591561.5 544748557591561.5 300.0 -83.99999999999999 400.0 2.4186 -2.4185 2.4185 0.0 200.0 0.0 0.0 0.0 0.0 0.0 0.0 0.0 0.0 0.0 0.0 
0.688 0.14151056786137017 -1.599382168870838 -1.9308679837815128 0.38881082334220274 1.4294474973587188 -0.00012162273739348463 0.9767598049775844 -0.05134781733248251 -0.8230440281176974 -0.021744213331918547 1611624387136963.8 -1611624387136963.8 300.0 -82.39999999999999 400.0 2.4186 -2.4185 2.4185 0.0 200.0 0.0 0.0 0.0 0.0 0.0 0.0 0.0 0.0 0.0 0.0 
0.696 0.1492718741355734 -1.5967833990223912 -1.9335542938845003 0.38890011241435496 1.4216861911419834 -0.00012176087806784952 0.0 0.0 0.0 0.0 0.0 0.0 300.0 -80.79999999999998 400.0 2.4186 -2.4185 2.4185 0.0 200.0 0.0 0.0 0.0 0.0 0.0 0.0 0.0 0.0 0.0 0.0 
0.704 0.15704832189336382 -1.5942251352772718 -1.9361905943693252 0.38897990432497576 1.4139097434419075 -0.00012190697659020583 0.0 0.0 0.0 0.0 0.0 0.0 300.0 -79.2 400.0 2.4186 -2.4185 2.4185 0.0 200.0 0.0 0.0 0.0 0.0 0.0 0.0 0.0 0.0 0.0 0.0 
0.712 0.16483910756946685 -1.591707879658696 -1.9387767525668926 0.38905052553950625 1.4061189578237678 -0.00012206110718902906 0.37700937698287523 -0.9621685850381296 0.6421906574220783 0.02602972481617283 1556536670881156.2 -1556536670881156.2 300.0 -77.6 400.0 2.4186 -2.4185 2.4185 0.0 200.0 0.0 0.0 0.0 0.0 0.0 0.0 0.0 0.0 0.0 0.0 
0.72 0.1726434130515988 -1.5892321342112625 -1.9413126360928343 0.38911241359943816 1.3983146523998502 -0.00012222334373447307 0.974287319371653 0.11514709024124284 -0.9040745880146889 -0.014990972334622078 -3082172153854593.5 3082172153854594.0 300.0 -76.0 400.0 2.4186 -2.4185 2.4185 0.0 200.0 0.0 0.0 0.0 0.0 0.0 0.0 0.0 0.0 0.0 0.0 
0.728 0.18046040600459512 -1.5867984006114553 -1.9437981129668993 0.38916587381311984 1.3904976595053218 -0.00012239375969341957 0.0 0.0 0.0 0.0 0.0 0.0 300.0 -74.39999999999999 400.0 2.4186 -2.4185 2.4185 0.0 200.0 0.0 0.0 0.0 0.0 0.0 0.0 0.0 0.0 0.0 0.0 
0.736 0.18828924021830407 -1.584407179769533 -1.946233051731921 0.38921132144173676 1.3826688253503367 -0.00012257242808366847 0.0 0.0 0.0 0.0 0.0 0.0 300.0 -72.8 400.0 2.4186 -2.4185 2.4185 0.0 200.0 0.0 0.0 0.0 0.0 0.0 0.0 0.0 0.0 0.0 0.0 
0.744 0.1961290559792881 -1.582058971423151 -1.9486173215722893 0.3892491116519514 1.3748290096483347 -0.0001227594214273085 0.443774214336784 -0.9654194501391338 0.481125278886572 -0.0035844581828430254 1003647183669313.6 -1003647183669313.6 300.0 -71.19999999999999 400.0 2.4186 -2.4185 2.4185 0.0 200.0 0.0 0.0 0.0 0.0 0.0 0.0 0.0 0.0 0.0 0.0 
0.752 0.2039789804663159 -1.5797542737231205 -1.950950792431855 0.3892796019763818 1.3669790852205488 -0.00012295481170331515 0.8735886422277584 0.1425992823547847 -0.9736509621673719 -0.005321754487141112 271999857147480.38 -271999857147480.3 300.0 -69.6 400.0 2.4186 -2.4185 2.4185 0.0 200.0 0.0 0.0 0.0 0.0 0.0 0.0 0.0 0.0 0.0 0.0 
0.76 0.21183812816957115 -1.5774935828117194 -1.953233335131193 0.3893031827501048 1.3591199375767982 -0.0001231586702994213 -0.25711626416734257 0.9462339544974974 -0.21477516464985655 -0.06479992057065923 2977259439557972.5 -2977259439557972.5 300.0 -67.99999999999999 400.0 2.4186 -2.4185 2.4185 0.0 200.0 0.0 0.0 0.0 0.0 0.0 0.0 0.0 0.0 0.0 0.0 
0.768 0.21970560133344086 -1.575277392394018 -1.9554648214841448 0.3893201837197644 1.3512524644726982 -0.00012337106796331417 -0.7640609211758318 -0.20393546684409186 1.0095437751966556 -0.01772126127610628 5927480247838603.0 -5927480247838603.0 300.0 -66.39999999999999 400.0 2.4186 -2.4185 2.4185 0.0 200.0 0.0 0.0 0.0 0.0 0.0 0.0 0.0 0.0 0.0 0.0 
0.776 0.22758049042268502 -1.573106193302714 -1.9576451244135622 0.3893310148123048 1.343377575443491 -0.00012359207475321293 0.45767524539066884 -0.8662560904770612 0.2945608298279075 0.024581985751571743 1477143272602699.5 -1477143272602699.8 300.0 -64.79999999999998 400.0 2.4186 -2.4185 2.4185 0.0 200.0 0.0 0.0 0.0 0.0 0.0 0.0 0.0 0.0 0.0 0.0 
0.784 0.2354618746117203 -1.570980473057011 -1.9597741180661625 0.3893359907945011 1.3354961913147605 -0.00012382175998788461 0.0 0.0 0.0 0.0 0.0 0.0 300.0 -63.19999999999999 400.0 2.4186 -2.4185 2.4185 0.0 200.0 0.0 0.0 0.0 0.0 0.0 0.0 0.0 0.0 0.0 0.0 
0.792 0.24334882229669064 -1.5689007154160877 -1.9618516779264221 0.38933548093644754 1.3276092436903661 -0.00012406019219616166 -0.5716208268715257 0.9743984886271952 -0.36619191298309584 -0.0010789019760692594 -1680926222006675.5 1680926222006675.5 300.0 -61.59999999999998 400.0 2.4186 -2.4185 2.4185 0.0 200.0 0.0 0.0 0.0 0.0 0.0 0.0 0.0 0.0 0.0 0.0 
0.8 0.25124039162992573 -1.56686739992778 -1.963877680929408 0.38932988647001965 1.3197176744179813 -0.00012430743906602552 -0.6871173020113487 -0.3148131960966666 1.055735347155632 -0.01740324284411688 1.1753442177492826e+16 -1.1753442177492826e+16 300.0 -59.999999999999986 400.0 2.4186 -2.4185 2.4185 0.0 200.0 0.0 0.0 0.0 0.0 0.0 0.0 0.0 0.0 0.0 0.0 
0.808 0.25913563107632376 -1.5648810014730774 -1.9658520055724675 0.3893195007754684 1.3118224350327083 -0.0001245635673933248 0.6404020275605975 -0.8676790842818471 0.3055260201277229 -0.0009313857823068585 2612483589125511.5 -2612483589125511.5 300.0 -58.39999999999998 400.0 2.4186 -2.4185 2.4185 0.0 200.0 0.0 0.0 0.0 0.0 0.0 0.0 0.0 0.0 0.0 0.0 
0.816 0.26703357999111876 -1.5629419898071177 -1.9677745320256816 0.38930470503652903 1.3039244861793158 -0.00012482864303020008 0.7372918034174103 0.3766569296776588 -1.0638725348054145 -0.012388700085310065 -3360914519775541.5 3360914519775541.5 300.0 -56.79999999999998 400.0 2.4186 -2.4185 2.4185 0.0 200.0 0.0 0.0 0.0 0.0 0.0 0.0 0.0 0.0 0.0 0.0 
0.824 0.27493326921843697 -1.5610508290973646 -1.9696451422409864 0.3892858283320566 1.2960247970136791 -0.00012510273083329035 -0.6336715971438425 0.8956911921325715 -0.24557352159324353 0.008017271039544836 -1309560812958301.8 1309560812958301.8 300.0 -55.199999999999974 400.0 2.4186 -2.4185 2.4185 0.0 200.0 0.0 0.0 0.0 0.0 0.0 0.0 0.0 0.0 0.0 0.0 
0.832 0.28283372170996324 -1.5592079774596854 -1.9714637200598744 0.3892632488064578 1.2881243445841155 -0.00012538589461179818 0.0 0.0 0.0 0.0 0.0 0.0 300.0 -53.59999999999998 400.0 2.4186 -2.4185 2.4185 0.0 200.0 0.0 0.0 0.0 0.0 0.0 0.0 0.0 0.0 0.0 0.0 
0.84 0.29073395316298023 -1.5574138864930918 -1.9732301513195787 0.3892372619013815 1.2802241131933456 -0.0001256781970754953 0.7011687352604646 -0.8568380880415066 0.11316710664777793 0.013927604083206492 -988050835882225.8 988050835882225.8 300.0 -52.000000000000014 400.0 2.4186 -2.4185 2.4185 0.0 200.0 0.0 0.0 0.0 0.0 0.0 0.0 0.0 0.0 0.0 0.0 
0.848 0.298632972676971 -1.555669000813909 -1.9749443239576405 0.3892082203546905 1.2723250937418857 -0.00012597969978275138 0.6343766867103802 0.48961108747168147 -1.1087277051368507 0.002159466313108496 -248012436915696.7 248012436915696.7 300.0 -50.400000000000006 400.0 2.4186 -2.4185 2.4185 0.0 200.0 0.0 0.0 0.0 0.0 0.0 0.0 0.0 0.0 0.0 0.0 
0.856 0.30652978342790127 -1.553973757590192 -1.9766061281147673 0.38917645489153174 1.2644282830537743 -0.00012629046308867167 -0.7237684048334557 0.8879330039829109 -0.11858565811709876 0.008004423594759192 1496136070766096.2 -1496136070766096.2 300.0 -48.80000000000001 400.0 2.4186 -2.4185 2.4185 0.0 200.0 0.0 0.0 0.0 0.0 0.0 0.0 0.0 0.0 0.0 0.0 
0.864 0.31442338335925135 -1.5523285860771971 -1.978215456235882 0.389142270089049 1.256534683185532 -0.00012661054609343234 0.0 0.0 0.0 0.0 0.0 0.0 300.0 -47.20000000000002 400.0 2.4186 -2.4185 2.4185 0.0 200.0 0.0 0.0 0.0 0.0 0.0 0.0 0.0 0.0 0.0 0.0 
0.872 0.32231276588877655 -1.550733907154777 -1.9797722031692646 0.3891059877451657 1.2486453007194043 -0.00012694000659090317 0.0 0.0 0.0 0.0 0.0 0.0 300.0 -45.60000000000002 400.0 2.4186 -2.4185 2.4185 0.0 200.0 0.0 0.0 0.0 0.0 0.0 0.0 0.0 0.0 0.0 0.0 
0.88 0.33019692062993466 -1.549190132867546 -1.9812762662636938 0.3890679488553115 1.2407611460419374 -0.00012727890101764999 0.5741652134507179 0.5836443581572931 -1.0737923531105802 0.008134301592885617 381812282929288.75 -381812282929288.7 300.0 -44.0 400.0 2.4186 -2.4185 2.4185 0.0 200.0 0.0 0.0 0.0 0.0 0.0 0.0 0.0 0.0 0.0 0.0 
0.888 0.33807483412684647 -1.547697665968716 -1.9827275454634807 0.3890283971618773 1.2328832326090098 -0.0001276272844024106 0.0 0.0 0.0 0.0 0.0 0.0 300.0 -42.400000000000006 400.0 2.4186 -2.4185 2.4185 0.0 200.0 0.0 0.0 0.0 0.0 0.0 0.0 0.0 0.0 0.0 0.0 
0.896 0.3459454906016002 -1.5462568994684918 -1.9841259434013094 0.388987669415261 1.225012576198537 -0.00012798521031613918 0.0 0.0 0.0 0.0 0.0 0.0 300.0 -40.80000000000001 400.0 2.4186 -2.4185 2.4185 0.0 200.0 0.0 0.0 0.0 0.0 0.0 0.0 0.0 0.0 0.0 0.0 
0.904 0.3538078727126588 -1.5448682161879357 -1.9854713654887748 0.38894605920577163 1.2171501941520568 -0.00012835273082271545 0.8970156910559692 -0.7618340638762998 -0.0863155198241871 0.03000672021332066 -1572785743775084.2 1572785743775084.2 300.0 -39.20000000000002 400.0 2.4186 -2.4185 2.4185 0.0 200.0 0.0 0.0 0.0 0.0 0.0 0.0 0.0 0.0 0.0 0.0 
0.912 0.3616609623230722 -1.5435319883192222 -1.986763720004533 0.3889038064617589 1.20929710460652 -0.00012872989643041537 0.42949449030487 0.6906904388265092 -1.1242907363129464 -0.011913859731843132 -265135210903119.62 265135210903119.62 300.0 -37.599999999999994 400.0 2.4186 -2.4185 2.4185 0.0 200.0 0.0 0.0 0.0 0.0 0.0 0.0 0.0 0.0 0.0 0.0 
0.92 0.36950374127715047 -1.5422485769931997 -1.988002918179964 0.38886122433504267 1.2014543257176196 -0.0001291167560442408 -0.8246512716471718 0.7267805741931276 0.1410726683384932 2.3816403625172537e-06 805720298101690.8 -805720298101690.8 300.0 -36.0 400.0 2.4186 -2.4185 2.4185 0.0 200.0 0.0 0.0 0.0 0.0 0.0 0.0 0.0 0.0 0.0 0.0 
0.928 0.3773351921842161 -1.5410183318551933 -1.9891888742822488 0.38881854597002485 1.193622874876033 -0.0001295133569192062 -0.24165712977275997 -0.7589312289113876 1.2040976491922437 0.028026453671232947 -816607611325947.2 816607611325947.5 300.0 -34.400000000000006 400.0 2.4186 -2.4185 2.4185 0.0 200.0 0.0 0.0 0.0 0.0 0.0 0.0 0.0 0.0 0.0 0.0 
0.936 0.38515429920799793 -1.5398415906499636 -1.9903215056947772 0.38877604965147916 1.1858037679180344 -0.00012991974461467871 0.0 0.0 0.0 0.0 0.0 0.0 300.0 -32.80000000000001 400.0 2.4186 -2.4185 2.4185 0.0 200.0 0.0 0.0 0.0 0.0 0.0 0.0 0.0 0.0 0.0 0.0 
0.944 0.3929600488602134 -1.5387186788167497 -1.9914007329947916 0.38873398572543394 1.1779980183319059 -0.00013033596294986994 0.3474179579782019 0.7717540571611894 -1.0682974716030496 -0.026372701231740566 -1683841610306423.0 1683841610306423.0 300.0 -31.19999999999999 400.0 2.4186 -2.4185 2.4185 0.0 200.0 0.0 0.0 0.0 0.0 0.0 0.0 0.0 0.0 0.0 0.0 
0.952 0.4007514307968336 -1.5376499090953069 -1.9924264800281748 0.3886925662304672 1.1702066364616797 -0.00013076205396057392 -0.8625348312247535 0.6858286129833461 0.3437884792102669 0.1426444807761889 -1713005600429211.2 1713005600429211.2 300.0 -29.599999999999994 400.0 2.4186 -2.4185 2.4185 0.0 200.0 0.0 0.0 0.0 0.0 0.0 0.0 0.0 0.0 0.0 0.0 
0.96 0.40852743861552376 -1.5366355811438364 -1.993398673981304 0.3886520344322124 1.1624306287096897 -0.00013119805785724762 0.0 0.0 0.0 0.0 0.0 0.0 300.0 -28.0 400.0 2.4186 -2.4185 2.4185 0.0 200.0 0.0 0.0 0.0 0.0 0.0 0.0 0.0 0.0 0.0 0.0 
0.968 0.4162870706527022 -1.5356759811697092 -1.9943172454498765 0.38861259631563105 1.1546709967395212 -0.00013164401298452588 0.9999075166247863 -0.6544451424697266 -0.3383376133114025 0.02842571313556036 889121229729340.2 -889121229729340.2 300.0 -26.400000000000006 400.0 2.4186 -2.4185 2.4185 0.0 200.0 0.0 0.0 0.0 0.0 0.0 0.0 0.0 0.0 0.0 0.0 
0.976 0.42402933077867644 -1.5347713815738349 -1.9951821285046372 0.38857446531545414 1.1469287366808663 -0.00013209995578226377 0.2084725075196448 0.8494602910689368 -1.0806985138317977 0.02339358590321904 -453674887466035.44 453674887466035.44 300.0 -24.799999999999983 400.0 2.4186 -2.4185 2.4185 0.0 200.0 0.0 0.0 0.0 0.0 0.0 0.0 0.0 0.0 0.0 0.0 
0.984 0.43175322918927406 -1.5339220406095433 -1.995993260753918 0.3885378429990505 1.1392048383378972 -0.0001325659207481936 -1.0808226874751228 0.642399178826882 0.15511123776098956 -0.04004411199945178 1855222545958059.5 -1855222545958059.5 300.0 -23.19999999999999 400.0 2.4186 -2.4185 2.4185 0.0 200.0 0.0 0.0 0.0 0.0 0.0 0.0 0.0 0.0 0.0 0.0 
0.992 0.43945778319240825 -1.5331282020567938 -1.9967505834029224 0.3885029164323617 1.131500284402705 -0.0001330419404022846 -0.10758989364796981 -0.8656454616110707 1.006613393209122 0.0391586416951518 -632768175688586.1 632768175688586.1 300.0 -21.599999999999994 400.0 2.4186 -2.4185 2.4185 0.0 200.0 0.0 0.0 0.0 0.0 0.0 0.0 0.0 0.0 0.0 0.0 
1.0 0.447142017988003 -1.5323900949125067 -1.997454041309683 0.38846982664239427 1.123816049675364 -0.00013352804525288846 1.1010054396902962 -0.5425214236784685 -0.3120995214472045 -0.04318157459415114 -973053281365050.0 973053281365050.2 300.0 -20.0 400.0 2.4186 -2.4185 2.4185 0.0 200.0 0.0 0.0 0.0 0.0 0.0 0.0 0.0 0.0 0.0 0.0 
1.008 0.45480496743971144 -1.531707933097796 -1.9981035830376144 0.3884387770015687 1.1161531002922234 -0.0001340242637647501 0.11318374966527175 0.8817253767879615 -1.0050080016526932 0.03695203341625412 -665708373438573.6 665708373438573.6 300.0 -18.399999999999977 400.0 2.4186 -2.4185 2.4185 0.0 200.0 0.0 0.0 0.0 0.0 0.0 0.0 0.0 0.0 0.0 0.0 
1.016 0.4624456748368815 -1.531081915182817 -1.9986991609046065 0.38840990504741524 1.1085123929639342 -0.00013453062232896172 -0.9146670194609877 0.48903037510629893 0.480400331128482 0.08154671433803463 2053718648144605.8 -2053718648144605.8 300.0 -16.799999999999983 400.0 2.4186 -2.4185 2.4185 0.0 200.0 0.0 0.0 0.0 0.0 0.0 0.0 0.0 0.0 0.0 0.0 
1.024 0.47006319364523375 -1.5305122241299371 -1.9992407310285933 0.3883833334604525 1.1008948742247788 -0.00013504714523493132 -0.009334820561260792 -0.9133801405671167 0.9517731670654241 0.03592853005472304 680987208132085.1 -680987208132085.1 300.0 -15.199999999999989 400.0 2.4186 -2.4185 2.4185 0.0 200.0 0.0 0.0 0.0 0.0 0.0 0.0 0.0 0.0 0.0 0.0 
1.032 0.4776565882447459 -1.5299990270558725 -1.9997282533695402 0.3883592101057032 1.0933014796947793 -0.00013557385464443527 1.0285403894064091 -0.4319564461928762 -0.550327702445967 -0.04437966187317146 993628798622402.4 -993628798622402.4 300.0 -13.599999999999994 400.0 2.4186 -2.4185 2.4185 0.0 200.0 0.0 0.0 0.0 0.0 0.0 0.0 0.0 0.0 0.0 0.0 
1.04 0.48522493465326333 -1.5295424750134092 -2.000161691767794 0.3883376426303715 1.0857331333560911 -0.0001361107705678176 0.0 0.0 0.0 0.0 0.0 0.0 300.0 -11.999999999999972 400.0 2.4186 -2.4185 2.4185 0.0 200.0 0.0 0.0 0.0 0.0 0.0 0.0 0.0 0.0 0.0 0.0 
1.048 0.4927673212343955 -1.5291427027932645 -2.000541013978754 0.38831873277303885 1.078190746845105 -0.00013665791084239575 0.0 0.0 0.0 0.0 0.0 0.0 300.0 -10.399999999999977 400.0 2.4186 -2.4185 2.4185 0.0 200.0 0.0 0.0 0.0 0.0 0.0 0.0 0.0 0.0 0.0 0.0 
1.056 0.5002828493882985 -1.5287998287466031 -2.0008661917038117 0.38830257483695085 1.0706752187616648 -0.00013721529111312644 -0.09132304643752623 -0.9746154613196636 0.6177918533105976 0.08689928829532358 1847549152899780.5 -1847549152899780.8 300.0 -8.799999999999983 400.0 2.4186 -2.4185 2.4185 0.0 200.0 0.0 0.0 0.0 0.0 0.0 0.0 0.0 0.0 0.0 0.0 
1.064 0.5077706342239856 -1.5285139546286848 -2.001137200617528 0.38828924142903487 1.063187433996759 -0.00013778292481557978 0.9141670213270208 -0.27896154563986514 -0.7966745087838564 0.005183795673914228 -602545689111777.9 602545689111777.8 300.0 -7.199999999999989 400.0 2.4186 -2.4185 2.4185 0.0 200.0 0.0 0.0 0.0 0.0 0.0 0.0 0.0 0.0 0.0 0.0 
1.072 0.5152298052118696 -1.5282851654640326 -2.001354020391 0.388278783369834 1.055728263079974 -0.000138360823161265 -0.13934543382006467 1.0083536620588003 -0.9066399404788468 -0.03200611341305061 -885869216978903.5 885869216978903.5 300.0 -5.599999999999966 400.0 2.4186 -2.4185 2.4185 0.0 200.0 0.0 0.0 0.0 0.0 0.0 0.0 0.0 0.0 0.0 0.0 
1.08 0.5226595068152802 -1.5281135294334955 -2.0015166347114097 0.3882712872485121 1.0482985615479814 -0.00013894899512534455 -1.0184652838348334 0.2519066711390035 0.5883926956796364 0.02333858930730857 868929554694673.0 -868929554694673.2 300.0 -3.9999999999999716 400.0 2.4186 -2.4185 2.4185 0.0 200.0 0.0 0.0 0.0 0.0 0.0 0.0 0.0 0.0 0.0 0.0 
1.088 0.5300588990997834 -1.527999097783498 -2.0016250312976984 0.3882667649111218 1.0408991693352148 -0.0001395474474367681 0.19785777848636477 -0.9773023744269302 0.7801682350983284 0.00529178319201043 -569165931122255.9 569165931122255.9 300.0 -2.3999999999999773 400.0 2.4186 -2.4185 2.4185 0.0 200.0 0.0 0.0 0.0 0.0 0.0 0.0 0.0 0.0 0.0 0.0 
1.096 0.537427158319173 -1.5279419047577139 -2.0016792019123764 0.388265250571608 1.03353091018788 -0.00014015618457085177 1.06366594767492 -0.21481985619883448 -0.6183774746594057 -0.08106177043696644 -1678780630409632.5 1678780630409632.5 300.0 -0.799999999999983 400.0 2.4186 -2.4185 2.4185 0.0 200.0 0.0 0.0 0.0 0.0 0.0 0.0 0.0 0.0 0.0 0.0 
1.104 0.5447634774770844 -1.5279419675513535 -2.001679142369433 0.38826676179090436 1.026194591102342 -0.00014077520874432043 0.0 0.0 0.0 0.0 0.0 0.0 300.0 0.8000000000000398 400.0 2.4186 -2.4185 2.4185 0.0 200.0 0.0 0.0 0.0 0.0 0.0 0.0 0.0 0.0 0.0 0.0 
1.112 0.5520670668632588 -1.5279992862881788 -2.0016248525383435 0.38827128780576725 1.0188910017888608 -0.00014140451991282785 0.0 0.0 0.0 0.0 0.0 0.0 300.0 2.400000000000034 400.0 2.4186 -2.4185 2.4185 0.0 200.0 0.0 0.0 0.0 0.0 0.0 0.0 0.0 0.0 0.0 0.0 
1.12 0.5593371545635477 -1.5281138440203146 -2.0015163363441713 0.3882788327721365 1.0116209141615835 -0.00014204411577095895 0.25572514427608956 -0.9933028610633375 0.6410129243710196 0.05520709993150044 -803775218423342.8 803775218423342.6 300.0 4.000000000000028 400.0 2.4186 -2.4185 2.4185 0.0 200.0 0.0 0.0 0.0 0.0 0.0 0.0 0.0 0.0 0.0 0.0 
1.128 0.5665729869428395 -1.5282856067508523 -2.0013536017637534 0.38828934358799283 1.0043850818556217 -0.00014269399175471527 0.0 0.0 0.0 0.0 0.0 0.0 300.0 5.600000000000023 400.0 2.4186 -2.4185 2.4185 0.0 200.0 0.0 0.0 0.0 0.0 0.0 0.0 0.0 0.0 0.0 0.0 
1.136 0.5737738291001633 -1.528514523479187 -2.001136660817988 0.38830280677201445 0.9971842397719467 -0.00014335414104647734 -0.40824830547555635 0.9924064530100939 -0.8206974486807376 0.07699948244154665 1569569053213128.8 -1569569053213129.0 300.0 7.2000000000000455 400.0 2.4186 -2.4185 2.4185 0.0 200.0 0.0 0.0 0.0 0.0 0.0 0.0 0.0 0.0 0.0 0.0 
1.144 0.5809389652953134 -1.5288005262689657 -2.0008655295602256 0.3883191537363522 0.9900191036507642 -0.00014402455458243117 0.0 0.0 0.0 0.0 0.0 0.0 300.0 8.80000000000004 400.0 2.4186 -2.4185 2.4185 0.0 200.0 0.0 0.0 0.0 0.0 0.0 0.0 0.0 0.0 0.0 0.0 
1.152 0.5880676993464218 -1.529143530338471 -2.0005402280607805 0.38833833838582144 0.9828903696739411 -0.00014470522106243918 0.0 0.0 0.0 0.0 0.0 0.0 300.0 10.400000000000034 400.0 2.4186 -2.4185 2.4185 0.0 200.0 0.0 0.0 0.0 0.0 0.0 0.0 0.0 0.0 0.0 0.0 
1.16 0.5951593549979891 -1.5295434341731942 -2.000160780387582 0.38836026281306246 0.9757987140969749 -0.00014539612696233193 0.8986880336759506 0.054324324169764744 -0.9455987393099592 -0.0008117655220012329 234604123122626.4 -234604123122626.4 300.0 12.0 400.0 2.4186 -2.4185 2.4185 0.0 200.0 0.0 0.0 0.0 0.0 0.0 0.0 0.0 0.0 0.0 0.0 
1.168 0.6022132762589761 -1.5300001196603028 -1.9997272145829927 0.38838485877233 0.9687447929109075 -0.0001460972565485877 -0.4287099257528998 1.0073126989774293 -0.5582287955976682 -0.017656550346373538 -1513635023454218.2 1513635023454218.2 300.0 13.599999999999994 400.0 2.4186 -2.4185 2.4185 0.0 200.0 0.0 0.0 0.0 0.0 0.0 0.0 0.0 0.0 0.0 0.0 
1.176 0.609228827710646 -1.5305134522446486 -1.9992395626368222 0.3884119873695424 0.9617292415344727 -0.00014680859189536468 0.0 0.0 0.0 0.0 0.0 0.0 300.0 15.199999999999989 400.0 2.4186 -2.4185 2.4185 0.0 200.0 0.0 0.0 0.0 0.0 0.0 0.0 0.0 0.0 0.0 0.0 
1.184 0.6162053947839272 -1.5310832811059063 -1.9986978604555694 0.38844158534964235 0.9547526745367426 -0.00014753011290384094 0.4446304173402248 -0.979984851228229 0.3809629197437843 0.00807951262316406 -1494608468038742.5 1494608468038742.5 300.0 16.80000000000001 400.0 2.4186 -2.4185 2.4185 0.0 200.0 0.0 0.0 0.0 0.0 0.0 0.0 0.0 0.0 0.0 0.0 
1.192 0.6231423840061645 -1.5317094393563777 -1.9981021478279335 0.388473483903639 0.947815685390372 -0.00014826179732381535 0.8074031314075815 0.19096620940586992 -1.054864307804033 -0.0007513099818892083 396479233535439.94 -396479233535440.0 300.0 18.400000000000006 400.0 2.4186 -2.4185 2.4185 0.0 200.0 0.0 0.0 0.0 0.0 0.0 0.0 0.0 0.0 0.0 0.0 
1.2 0.6300392232172063 -1.5323917442589525 -1.9974524683866406 0.38850755922277336 0.9409188462555101 -0.00014900362077751453 -0.5153109987392535 0.9915245830174582 -0.4446892448594247 -0.01552045242957957 -1481042622078388.2 1481042622078388.2 300.0 20.0 400.0 2.4186 -2.4185 2.4185 0.0 200.0 0.0 0.0 0.0 0.0 0.0 0.0 0.0 0.0 0.0 0.0 
1.208 0.6368953617548582 -1.5331299974646582 -1.9967488695666282 0.3885436572321854 0.9340627077943521 -0.00014975555678554785 0.0 0.0 0.0 0.0 0.0 0.0 300.0 21.599999999999994 400.0 2.4186 -2.4185 2.4185 0.0 200.0 0.0 0.0 0.0 0.0 0.0 0.0 0.0 0.0 0.0 0.0 
1.216 0.643710270609825 -1.533923985269193 -1.9959914025596466 0.38858162754079606 0.9272477990161911 -0.0001505175767949458 0.40614139177694697 -0.47052466067906773 0.37912328764354786 0.0360364710837777 7854390433799173.0 -7854390433799173.0 300.0 23.19999999999999 400.0 2.4186 -2.4185 2.4185 0.0 200.0 0.0 0.0 0.0 0.0 0.0 0.0 0.0 0.0 0.0 0.0 
1.224 0.6504834425503359 -1.5347734788877925 -1.995180122265328 0.3886212780636158 0.9204746271527982 -0.00015128965020921398 0.7840222722738552 0.2971106860915536 -1.0417881782718 -0.0006065145868509972 373352717771033.5 -373352717771033.44 300.0 24.80000000000001 400.0 2.4186 -2.4185 2.4185 0.0 200.0 0.0 0.0 0.0 0.0 0.0 0.0 0.0 0.0 0.0 0.0 
1.232 0.6572143922167311 -1.535678234747727 -1.9943150872387903 0.38866242935345374 0.9137436775638322 -0.00015207174442033014 -0.5720115807004242 0.9110110076538182 -0.3298598205857654 0.001012341651764247 1679349293314189.2 -1679349293314189.2 300.0 26.400000000000006 400.0 2.4186 -2.4185 2.4185 0.0 200.0 0.0 0.0 0.0 0.0 0.0 0.0 0.0 0.0 0.0 0.0 
1.24 0.6639026561863665 -1.5366379947977133 -1.9933963596348336 0.3887049000766645 0.9070554136719348 -0.00015286382484260713 -0.6918562239356251 -0.3424309335795567 1.0343239344764363 0.08154671433803463 4.701826971252661e+16 -4.701826971252661e+16 300.0 28.0 400.0 2.4186 -2.4185 2.4185 0.0 200.0 0.0 0.0 0.0 0.0 0.0 0.0 0.0 0.0 0.0 0.0 
1.248 0.670547793009258 -1.537652486833464 -1.9924240051488042 0.38874846360687054 0.9004102769270889 -0.00015366585494834222 0.8748846404869521 -1.3117277401712395 0.2615600395101823 0.019223274844832387 1.1769470508369706e+16 -1.1769470508369706e+16 300.0 29.600000000000023 400.0 2.4186 -2.4185 2.4185 0.0 200.0 0.0 0.0 0.0 0.0 0.0 0.0 0.0 0.0 0.0 0.0 
1.256 0.6771493832149672 -1.5387214248385839 -1.991398092954192 0.38879291584187126 0.8938086867997337 -0.00015447779630516908 0.7067088472476523 0.4108445968937374 -1.0770767098672887 0.0007166081691675292 336820417378657.25 -336820417378657.25 300.0 31.200000000000017 400.0 2.4186 -2.4185 2.4185 0.0 200.0 0.0 0.0 0.0 0.0 0.0 0.0 0.0 0.0 0.0 0.0 
1.264 0.6837070292912935 -1.5398445093399866 -1.9903186956370407 0.3888380266740121 0.8872510408020667 -0.0001552996086150253 -0.6597030822357199 0.8942384258649316 -0.2036309343224957 -0.003052653595836741 909530957659289.9 -909530957659289.9 300.0 32.80000000000001 400.0 2.4186 -2.4185 2.4185 0.0 200.0 0.0 0.0 0.0 0.0 0.0 0.0 0.0 0.0 0.0 0.0 
1.272 0.6902203556353936 -1.541021427776986 -1.989185889127248 0.3888835572613585 0.8807377145369306 -0.00015613124975464725 0.0 0.0 0.0 0.0 0.0 0.0 300.0 34.400000000000006 400.0 2.4186 -2.4185 2.4185 0.0 200.0 0.0 0.0 0.0 0.0 0.0 0.0 0.0 0.0 0.0 0.0 
1.28 0.6966890084780228 -1.5422518548831845 -1.9879997526268365 0.38892927151707357 0.8742690617735696 -0.00015697267581750028 0.7137214106029935 -0.7941233382506716 0.14876143965577632 -0.02473808965109458 -2979920136003575.0 2979920136003575.0 300.0 36.0 400.0 2.4186 -2.4185 2.4185 0.0 200.0 0.0 0.0 0.0 0.0 0.0 0.0 0.0 0.0 0.0 0.0 
1.288 0.7031126557816324 -1.543535453080283 -1.9867603685352746 0.38897490438216886 0.8678454145495286 -0.00015782384115705145 0.6394463581998255 0.5127327963130204 -1.0690022859300576 0.009560433990222612 499193438119715.1 -499193438119715.06 300.0 37.60000000000002 400.0 2.4186 -2.4185 2.4185 0.0 200.0 0.0 0.0 0.0 0.0 0.0 0.0 0.0 0.0 0.0 0.0 
1.296 0.7094909871131196 -1.544871872882894 -1.9854678223719444 0.3890201882327806 0.8614670832979113 -0.000158684698431289 -0.612696497238542 0.8014167534515318 0.046334438855258724 0.0030882874187173177 -1507310458975250.5 1507310458975250.8 300.0 39.20000000000002 400.0 2.4186 -2.4185 2.4185 0.0 200.0 0.0 0.0 0.0 0.0 0.0 0.0 0.0 0.0 0.0 0.0 
1.304 0.7158237134920695 -1.5462607533134616 -1.9841222026958345 0.389064849909758 0.8551343569991301 -0.00015955519864839388 0.0 0.0 0.0 0.0 0.0 0.0 300.0 40.80000000000001 400.0 2.4186 -2.4185 2.4185 0.0 200.0 0.0 0.0 0.0 0.0 0.0 0.0 0.0 0.0 0.0 0.0 
1.312 0.7221105672153669 -1.5477017223263536 -1.9827236010225522 0.38910862630851084 0.8488475033562985 -0.00016043529121346516 1.1555000001151166 -1.064150689177551 0.29289024948340153 -0.10131641200928558 -3060700741508391.5 3060700741508392.0 300.0 42.400000000000034 400.0 2.4186 -2.4185 2.4185 0.0 200.0 0.0 0.0 0.0 0.0 0.0 0.0 0.0 0.0 0.0 0.0 
1.32 0.7283513016591001 -1.5491943972402122 -1.9812721117387473 0.3891512200763416 0.8426067689933259 -0.00016132492397620275 0.5162737535378761 0.6292188855527104 -1.1031180883008285 0.0026174438130064205 -308751057061493.0 308751057061493.0 300.0 44.00000000000003 400.0 2.4186 -2.4185 2.4185 0.0 200.0 0.0 0.0 0.0 0.0 0.0 0.0 0.0 0.0 0.0 0.0 
1.328 0.7345456910587096 -1.5507383851776289 -1.9797678320140424 0.38919232981945084 0.8364123796747726 -0.00016222404327944915 -0.7228930220256409 0.7783569589745911 0.17155276832564423 0.013406923774809246 -1039671162188511.5 1039671162188511.8 300.0 45.60000000000002 400.0 2.4186 -2.4185 2.4185 0.0 200.0 0.0 0.0 0.0 0.0 0.0 0.0 0.0 0.0 0.0 0.0 
1.336 0.7406935302683624 -1.552333283511226 -1.9782108617105618 0.38923165631095413 0.8302645405464675 -0.00016313259400849376 -0.4479328284339871 -0.6585756483395299 1.1063342230377065 -0.021754650139561942 3152326967087704.5 -3152326967087704.5 300.0 47.20000000000002 400.0 2.4186 -2.4185 2.4185 0.0 200.0 0.0 0.0 0.0 0.0 0.0 0.0 0.0 0.0 0.0 0.0 
1.344 0.7467946345005576 -1.5539786803152293 -1.9766013032901553 0.38926889954010324 0.824163436395911 -0.00016405051964104138 0.8292885423454349 -0.7116885850146447 -0.21691989989919305 -0.07529078268243374 -1595342177741784.2 1595342177741784.2 300.0 48.80000000000001 400.0 2.4186 -2.4185 2.4185 0.0 200.0 0.0 0.0 0.0 0.0 0.0 0.0 0.0 0.0 0.0 0.0 
1.352 0.752848839046995 -1.5556741548216109 -1.9749392617194181 0.38930372543556757 0.8181092319314005 -0.00016497776229775038 0.42402453400617357 0.7153639135209988 -1.0818370728650206 0.01514919424463581 -230798512998704.3 230798512998704.34 300.0 50.400000000000034 400.0 2.4186 -2.4185 2.4185 0.0 200.0 0.0 0.0 0.0 0.0 0.0 0.0 0.0 0.0 0.0 0.0 
1.36 0.7588559989817398 -1.5574192778799198 -1.9732248443725984 0.38933583377196057 0.8121020720788698 -0.00016591426279324368 -0.8457416588905257 0.6986888763172809 0.1801518162672889 -0.0013711147856587413 819291491993464.9 -819291491993464.9 300.0 52.00000000000003 400.0 2.4186 -2.4185 2.4185 0.0 200.0 0.0 0.0 0.0 0.0 0.0 0.0 0.0 0.0 0.0 0.0 
1.368 0.7648159888477534 -1.5592136124199063 -1.9714581609324948 0.38936487688496113 0.8061420822953548 -0.0001668599606875006 -0.3181477841751417 -0.7391577546663841 1.0485422486344993 0.007285467326702312 -554285095616515.1 554285095616515.1 300.0 53.60000000000002 400.0 2.4186 -2.4185 2.4185 0.0 200.0 0.0 0.0 0.0 0.0 0.0 0.0 0.0 0.0 0.0 0.0 
1.376 0.7707287023278351 -1.5610567139160736 -1.9696393232894378 0.3893905353666871 0.8002293688980548 -0.00016781479433753573 0.8456767692568627 -0.6327056038032588 -0.35819595247024943 -0.02922581668968909 -1690157910968270.2 1690157910968270.0 300.0 55.200000000000045 400.0 2.4186 -2.4185 2.4185 0.0 200.0 0.0 0.0 0.0 0.0 0.0 0.0 0.0 0.0 0.0 0.0 
1.384 0.7765940519010566 -1.562948130853313 -1.9677684454384572 0.38941246371360316 0.7943640194078966 -0.0001687787009492756 0.24509831140046862 0.8386673220486004 -1.0585167477521475 -0.028626635253670315 -1719009220073146.0 1719009220073145.8 300.0 56.80000000000004 400.0 2.4186 -2.4185 2.4185 0.0 200.0 0.0 0.0 0.0 0.0 0.0 0.0 0.0 0.0 0.0 0.0 
1.392 0.7824119684857482 -1.5648874051927881 -1.965845643374731 0.38943032625109075 0.7885461029065476 -0.00016975161662954492 0.0 0.0 0.0 0.0 0.0 0.0 300.0 58.400000000000034 400.0 2.4186 -2.4185 2.4185 0.0 200.0 0.0 0.0 0.0 0.0 0.0 0.0 0.0 0.0 0.0 0.0 
1.4 0.7881824010701004 -1.5668740728372734 -1.9638710349874124 0.3894437734033167 0.7827756704058146 -0.0001707334764380757 0.0 0.0 0.0 0.0 0.0 0.0 300.0 60.00000000000003 400.0 2.4186 -2.4185 2.4185 0.0 200.0 0.0 0.0 0.0 0.0 0.0 0.0 0.0 0.0 0.0 0.0 
1.408 0.7939053163314385 -1.5689076640951596 -1.9618447399519288 0.3894524600333842 0.7770527552283724 -0.00017172421443945688 0.9868059873431503 -0.5442462146249681 -0.3103054638278352 0.01915351766124207 911689756010465.0 -911689756010464.9 300.0 61.599999999999994 400.0 2.4186 -2.4185 2.4185 0.0 200.0 0.0 0.0 0.0 0.0 0.0 0.0 0.0 0.0 0.0 0.0 
1.416 0.7995806982452182 -1.5709877041423774 -1.9597668796208556 0.3894560264715665 0.7713773733987607 -0.00017272376375494292 0.16260127264144605 0.8848547850029422 -1.0916904717386604 0.002814806495748107 -621238324776149.8 621238324776149.8 300.0 63.19999999999999 400.0 2.4186 -2.4185 2.4185 0.0 200.0 0.0 0.0 0.0 0.0 0.0 0.0 0.0 0.0 0.0 0.0 
1.424 0.8052085476847692 -1.5731137134815187 -1.957637576913452 0.3894541164694689 0.7657495240436478 -0.00017373205661404406 -0.9237151976818552 0.5459300301110509 0.413184026302815 0.03985267565924114 -636164116314567.6 636164116314567.6 300.0 64.79999999999998 400.0 2.4186 -2.4185 2.4185 0.0 200.0 0.0 0.0 0.0 0.0 0.0 0.0 0.0 0.0 0.0 0.0 
1.432 0.8107888820128093 -1.575285208397459 -1.9554569562039503 0.38944637442451113 0.7601691898003158 -0.00017474902440582288 0.06990343065228383 -0.875346605443764 1.2272024651761426 0.07871303272224317 -1956205037284494.2 1956205037284494.5 300.0 66.4 400.0 2.4186 -2.4185 2.4185 0.0 200.0 0.0 0.0 0.0 0.0 0.0 0.0 0.0 0.0 0.0 0.0 
1.44 0.816321734665725 -1.5775017014088153 -1.9532251432087002 0.3894324466074144 0.7546363372323738 -0.00017577459772982586 0.0 0.0 0.0 0.0 0.0 0.0 300.0 68.0 400.0 2.4186 -2.4185 2.4185 0.0 200.0 0.0 0.0 0.0 0.0 0.0 0.0 0.0 0.0 0.0 0.0 
1.448 0.8218071547315915 -1.5797627017146183 -1.950942264872243 0.3894119512248486 0.7491509172517465 -0.000176808706446581 0.0836896604200274 0.9245394002737648 -0.9803609503922198 0.015347963898976802 -1032883748962729.8 1032883748962729.8 300.0 69.6 400.0 2.4186 -2.4185 2.4185 0.0 200.0 0.0 0.0 0.0 0.0 0.0 0.0 0.0 0.0 0.0 0.0 
1.456 0.8272452065228921 -1.5820677156355933 -1.948608449252415 0.38938453096961334 0.7437128655459473 -0.00017785127972759615 0.0 0.0 0.0 0.0 0.0 0.0 300.0 71.19999999999999 400.0 2.4186 -2.4185 2.4185 0.0 200.0 0.0 0.0 0.0 0.0 0.0 0.0 0.0 0.0 0.0 0.0 
1.464 0.8326359691448566 -1.584416247049485 -1.9462238254045618 0.38934982252747075 0.7383221030097432 -0.00017890224610479652 0.05307261351578011 -0.9288115869725189 1.0080025328495132 -0.0067265722085967285 658870797933369.9 -658870797933369.8 300.0 72.80000000000001 400.0 2.4186 -2.4185 2.4185 0.0 200.0 0.0 0.0 0.0 0.0 0.0 0.0 0.0 0.0 0.0 0.0 
1.472 0.8379795360603225 -1.5868077978199064 -1.943788523264941 0.38930745801984235 0.7329785361802968 -0.00017996153351934195 0.0 0.0 0.0 0.0 0.0 0.0 300.0 74.4 400.0 2.4186 -2.4185 2.4185 0.0 200.0 0.0 0.0 0.0 0.0 0.0 0.0 0.0 0.0 0.0 0.0 
1.48 0.8432760146519938 -1.5892418682182061 -1.9413026735334051 0.3892570587600328 0.7276820576749014 -0.0001810290693697707 0.0 0.0 0.0 0.0 0.0 0.0 300.0 76.0 400.0 2.4186 -2.4185 2.4185 0.0 200.0 0.0 0.0 0.0 0.0 0.0 0.0 0.0 0.0 0.0 0.0 
1.488 0.8485255257829285 -1.591717957337897 -1.9387664075554316 0.38919826281799375 0.7224325466304939 -0.00018210478055941622 -0.9510607475605948 0.33376002409879074 0.6634664890800038 -0.038944355203250805 -1838442549762297.2 1838442549762297.2 300.0 77.60000000000002 400.0 2.4186 -2.4185 2.4185 0.0 200.0 0.0 0.0 0.0 0.0 0.0 0.0 0.0 0.0 0.0 0.0 
1.496 0.8537282033560705 -1.5942355635012238 -1.9361798572035835 0.38913070687280205 0.7172298691441302 -0.00018318859354304903 0.0 0.0 0.0 0.0 0.0 0.0 300.0 79.19999999999999 400.0 2.4186 -2.4185 2.4185 0.0 200.0 0.0 0.0 0.0 0.0 0.0 0.0 0.0 0.0 0.0 0.0 
1.504 0.8588841938736018 -1.5967941846574725 -1.9335431547584694 0.3890540090377441 0.7120738787136272 -0.00018428043437270156 0.9962258166215441 -0.2640982178160642 -0.7032877065430102 0.006602658856947247 -293994864107136.94 293994864107136.94 300.0 80.80000000000001 400.0 2.4186 -2.4185 2.4185 0.0 200.0 0.0 0.0 0.0 0.0 0.0 0.0 0.0 0.0 0.0 0.0 
1.512 0.8639936559968534 -1.5993933187726728 -1.9308564327892712 0.3889677995213734 0.70696441667765 -0.00018538022874263092 -0.1508685108862143 1.0116269856384295 -0.8201165351415833 -0.02942904828145493 -865764542216997.2 865764542216997.2 300.0 82.40000000000003 400.0 2.4186 -2.4185 2.4185 0.0 200.0 0.0 0.0 0.0 0.0 0.0 0.0 0.0 0.0 0.0 0.0 
1.52 0.8690567601074864 -1.6020324642103578 -1.9281198240339124 0.38887172458018404 0.7019013126545354 -0.0001864879020333855 0.0 0.0 0.0 0.0 0.0 0.0 300.0 84.0 400.0 2.4186 -2.4185 2.4185 0.0 200.0 0.0 0.0 0.0 0.0 0.0 0.0 0.0 0.0 0.0 0.0 
1.528 0.8740736878706172 -1.6047111201031141 -1.9253334612789208 0.3887654005460657 0.6968843849791642 -0.00018760337935493833 0.0 0.0 0.0 0.0 0.0 0.0 300.0 85.60000000000002 400.0 2.4186 -2.4185 2.4185 0.0 200.0 0.0 0.0 0.0 0.0 0.0 0.0 0.0 0.0 0.0 0.0 
1.536 0.8790446318005212 -1.6074287867146402 -1.922497477239054 0.38864846521496377 0.6919134411372606 -0.00018872658558885828 0.9832253279929176 -0.16266171012336175 -0.7924851582283226 -0.009952751907736469 -411888263632342.8 411888263632342.9 300.0 87.19999999999999 400.0 2.4186 -2.4185 2.4185 0.0 200.0 0.0 0.0 0.0 0.0 0.0 0.0 0.0 0.0 0.0 0.0 
1.544 0.883969794829526 -1.610184965792114 -1.9196120044367415 0.3885205567933194 0.6869882781964927 -0.00018985744542949026 0.0 0.0 0.0 0.0 0.0 0.0 300.0 88.80000000000001 400.0 2.4186 -2.4185 2.4185 0.0 200.0 0.0 0.0 0.0 0.0 0.0 0.0 0.0 0.0 0.0 0.0 
1.552 0.8888493898806535 -1.612979160908663 -1.916677175081392 0.3883813111574783 0.6821086832338359 -0.00019099588342411962 0.0 0.0 0.0 0.0 0.0 0.0 300.0 90.40000000000003 400.0 2.4186 -2.4185 2.4185 0.0 200.0 0.0 0.0 0.0 0.0 0.0 0.0 0.0 0.0 0.0 0.0 
1.56 0.89368363944455 -1.615810877795782 -1.913693120948625 0.3882303592852747 0.6772744337586444 -0.00019214182401210072 0.30329631456157075 -0.979441504585121 0.6279884732187683 0.0014078483450279458 791833213435077.8 -791833213435077.8 300.0 92.0 400.0 2.4186 -2.4185 2.4185 0.0 200.0 0.0 0.0 0.0 0.0 0.0 0.0 0.0 0.0 0.0 0.0 
1.568 0.8984727751612036 -1.6186796246655715 -1.9106599732594616 0.3880673451169663 0.6724852981309246 -0.00019329519156293014 0.9290592697163946 -0.02185047239420088 -0.8961470089819059 0.004711593185162587 240856862799623.7 -240856862799623.7 300.0 93.60000000000002 400.0 2.4186 -2.4185 2.4185 0.0 200.0 0.0 0.0 0.0 0.0 0.0 0.0 0.0 0.0 0.0 0.0 
1.576 0.9032170374069053 -1.6215849125226875 -1.9075778625595268 0.3878919088259454 0.6677410359743843 -0.00019445591041324887 -0.27825930350758155 1.0389537237282394 -0.5097189325767956 -0.015545388974167518 -1549936545521156.8 1549936545521156.8 300.0 95.20000000000005 400.0 2.4186 -2.4185 2.4185 0.0 200.0 0.0 0.0 0.0 0.0 0.0 0.0 0.0 0.0 0.0 0.0 
1.584 0.9079166748868936 -1.6245262554659394 -1.9044469185982944 0.3877036976258772 0.6630413985837825 -0.00019562390490276228 0.0 0.0 0.0 0.0 0.0 0.0 300.0 96.80000000000001 400.0 2.4186 -2.4185 2.4185 0.0 200.0 0.0 0.0 0.0 0.0 0.0 0.0 0.0 0.0 0.0 0.0 
1.592 0.912571944234073 -1.6275031709794858 -1.901267270208411 0.38750235279582745 0.6583861293262143 -0.00019679909940906694 0.36554011646052 -0.9661390483317739 0.4599708165968087 0.0044930421217037305 761349142167232.8 -761349142167232.8 300.0 98.40000000000003 400.0 2.4186 -2.4185 2.4185 0.0 200.0 0.0 0.0 0.0 0.0 0.0 0.0 0.0 0.0 0.0 0.0 
1.6 0.9171831096141703 -1.6305151802136009 -1.8980390451851343 0.3872875269398153 0.6537749640359487 -0.00019798141838137657 0.0 0.0 0.0 0.0 0.0 0.0 300.0 100.0 400.0 2.4186 -2.4185 2.4185 0.0 200.0 0.0 0.0 0.0 0.0 0.0 0.0 0.0 0.0 0.0 0.0 
1.608 0.9217504423376665 -1.633561808255037 -1.894762370165905 0.3870588742347798 0.6492076314025012 -0.00019917078637314412 -0.506812471897579 0.9639938760967223 -0.6580207081849534 0.010144572843416307 1000955316318558.0 -1000955316318558.2 300.0 101.60000000000002 400.0 2.4186 -2.4185 2.4185 0.0 200.0 0.0 0.0 0.0 0.0 0.0 0.0 0.0 0.0 0.0 0.0 
1.616 0.9262742204787959 -1.6366425843869863 -1.8914373705100807 0.3868160444303139 0.6446838533516367 -0.00020036712807357552 -1.1574161150644002 -0.24847980057042607 0.4570095628153132 0.08154671433803468 -5970197335534415.0 5970197335534414.0 300.0 103.20000000000005 400.0 2.4186 -2.4185 2.4185 0.0 200.0 0.0 0.0 0.0 0.0 0.0 0.0 0.0 0.0 0.0 0.0 
1.624 0.9307547285018928 -1.6397570423387147 -1.8880641701788474 0.38655869630056516 0.6402033454190201 -0.00020157036833803654 0.602396834428993 -1.0621836262222712 0.47607462001824513 -0.010089820807215053 1981000977993083.5 -1981000977993083.5 300.0 104.80000000000001 400.0 2.4186 -2.4185 2.4185 0.0 200.0 0.0 0.0 0.0 0.0 0.0 0.0 0.0 0.0 0.0 0.0 
1.632 0.9351922568953221 -1.642904720524927 -1.8846428916153288 0.38628648817622513 0.6357658171162808 -0.00020278043221735498 0.8273945351923878 0.2164214362144492 -1.012542528291179 0.010427087097575246 1479550731129138.8 -1479550731129138.8 300.0 106.40000000000003 400.0 2.4186 -2.4185 2.4185 0.0 200.0 0.0 0.0 0.0 0.0 0.0 0.0 0.0 0.0 0.0 0.0 
1.64 0.9395871018132054 -1.6460851622749653 -1.8811736556248946 0.3859990941197189 0.6313709722892986 -0.00020399724498601995 -0.5109060049305312 0.9483213856058107 -0.4142387580576712 0.0007708161522507659 -1180297898343060.2 1180297898343060.2 300.0 108.00000000000006 400.0 2.4186 -2.4185 2.4185 0.0 200.0 0.0 0.0 0.0 0.0 0.0 0.0 0.0 0.0 0.0 0.0 
1.648 0.9439395647251333 -1.649297916051942 -1.877656581255685 0.3856961662155869 0.6270185094684759 -0.00020522073216928854 -0.851167440226169 0.10676625251732474 1.0390615958708076 -0.017043508455209508 -1.1774020667219362e+16 1.1774020667219362e+16 300.0 109.60000000000002 400.0 2.4186 -2.4185 2.4185 0.0 200.0 0.0 0.0 0.0 0.0 0.0 0.0 0.0 0.0 0.0 0.0 
1.656 0.9482499520740204 -1.6525425356619534 -1.8740917856793444 0.38537739461756737 0.6227081222109 -0.00020645081956920263 0.5747408809554493 -0.8863502286529141 0.289018242342647 0.007758965647289708 -1057162769533979.2 1057162769533979.2 300.0 111.20000000000005 400.0 2.4186 -2.4185 2.4185 0.0 200.0 0.0 0.0 0.0 0.0 0.0 0.0 0.0 0.0 0.0 0.0 
1.664 0.9525185749422383 -1.6558185804535017 -1.8704793840719742 0.3850424326786648 0.6184394994341955 -0.00020768743328952987 0.7038058895307368 0.3703111395773884 -1.1162797311576516 4.4079132969371376e-05 -832011302597943.2 832011302597943.2 300.0 112.80000000000001 400.0 2.4186 -2.4185 2.4185 0.0 200.0 0.0 0.0 0.0 0.0 0.0 0.0 0.0 0.0 0.0 0.0 
1.672 0.9567457487261383 -1.659125615507299 -1.8668194894952854 0.38469097789526563 0.6142123257420079 -0.00020893049975963753 -0.5484155339007817 0.7825363117409053 -0.29782574908016424 0.01711654723027691 -5375612678912138.0 5375612678912138.0 300.0 114.39999999999998 400.0 2.4186 -2.4185 2.4185 0.0 200.0 0.0 0.0 0.0 0.0 0.0 0.0 0.0 0.0 0.0 0.0 
1.68 0.9609317928190488 -1.6624632118166307 -1.8631122127779518 0.38432270397629376 0.6100262817410085 -0.00021017994575731172 0.13986834821040198 -0.5615721543414007 2.0725007805387126 -0.019144866575421585 -1.1770447769917472e+16 1.1770447769917474e+16 300.0 116.0 400.0 2.4186 -2.4185 2.4185 0.0 200.0 0.0 0.0 0.0 0.0 0.0 0.0 0.0 0.0 0.0 0.0 
1.688 0.965077030302818 -1.6658309464584575 -1.859357662397147 0.3839372920334272 0.6058810443493444 -0.00021143569843053777 0.7652289747890856 -0.9827614452103126 0.2224221741378754 0.02280891603487725 1966266534014977.2 -1966266534014977.2 300.0 117.60000000000002 400.0 2.4186 -2.4185 2.4185 0.0 200.0 0.0 0.0 0.0 0.0 0.0 0.0 0.0 0.0 0.0 0.0 
1.696 0.9691817876479407 -1.6692284027554745 -1.8555559443602427 0.38353443939859333 0.601776287096523 -0.00021269768531825402 0.6553977568185974 0.44968092164424717 -1.1160635974538513 0.0013580429014334273 454969178714612.2 -454969178714612.2 300.0 119.19999999999999 400.0 2.4186 -2.4185 2.4185 0.0 200.0 0.0 0.0 0.0 0.0 0.0 0.0 0.0 0.0 0.0 0.0 
1.704 0.9732463944223052 -1.6726551704293173 -1.8517071620866559 0.3831138297661896 0.5977116804146473 -0.0002139658343700991 -0.6794436281551979 0.9164351388930971 -0.193643645920758 0.08154671433803459 5938468222554831.0 -5938468222554831.0 300.0 120.80000000000001 400.0 2.4186 -2.4185 2.4185 0.0 200.0 0.0 0.0 0.0 0.0 0.0 0.0 0.0 0.0 0.0 0.0 
1.712 0.9772711830085532 -1.676110845745163 -1.8478114162898032 0.38267517190319844 0.5936868919210776 -0.00021524007396516546 -0.48922544450106936 -0.5717070507566474 1.0842306571543734 0.030520918071747276 -2982356937999587.0 2982356937999587.0 300.0 122.39999999999998 400.0 2.4186 -2.4185 2.4185 0.0 200.0 0.0 0.0 0.0 0.0 0.0 0.0 0.0 0.0 0.0 0.0 
1.72 0.9812564883300591 -1.6795950316479422 -1.8438688048591487 0.38221815824567806 0.5897015866924373 -0.00021652033292978245 0.8166197199442957 -0.8895006491520103 0.10299278135688222 -0.002291206261459193 -749909090145564.4 749909090145564.4 300.0 124.0 400.0 2.4186 -2.4185 2.4185 0.0 200.0 0.0 0.0 0.0 0.0 0.0 0.0 0.0 0.0 0.0 0.0 
1.728 0.9852026475854894 -1.6831073378904045 -1.839879422742301 0.3817424944858743 0.5857554275300555 -0.00021780654055434276 0.5811481189324796 0.5585296456384049 -1.1266796618568988 -0.014445389776934778 503037320697973.1 -503037320697973.1 300.0 125.60000000000002 400.0 2.4186 -2.4185 2.4185 0.0 200.0 0.0 0.0 0.0 0.0 0.0 0.0 0.0 0.0 0.0 0.0 
1.736 0.9891099999919084 -1.6866473811532954 -1.835843361827114 0.3812478906044159 0.5818480752168697 -0.00021909862660919707 -0.7700490095577707 0.8490900074306414 -0.03192295138236072 -0.018111283332317804 1520573300899368.8 -1520573300899368.8 300.0 127.19999999999999 400.0 2.4186 -2.4185 2.4185 0.0 200.0 0.0 0.0 0.0 0.0 0.0 0.0 0.0 0.0 0.0 0.0 
1.744 0.992978886536375 -1.6902147851578797 -1.831760710823768 0.3807340580026759 0.5779791887658133 -0.00022039652135963394 -0.3930352452909092 -0.539314177468961 1.3245832554612413 0.08154671433803458 3065546265012428.5 -3065546265012428.0 300.0 128.8 400.0 2.4186 -2.4185 2.4185 0.0 200.0 0.0 0.0 0.0 0.0 0.0 0.0 0.0 0.0 0.0 0.0 
1.752 0.9968096497359535 -1.693809180771097 -1.8276315551467581 0.3802007207785052 0.5741484256598242 -0.0002217001555799662 0.8242663851608217 -0.8060149591950844 -0.0955228484760199 0.022495462299954392 -618904729362303.9 618904729362303.8 300.0 130.40000000000003 400.0 2.4186 -2.4185 2.4185 0.0 200.0 0.0 0.0 0.0 0.0 0.0 0.0 0.0 0.0 0.0 0.0 
1.76 1.0006026334060723 -1.697430206103586 -1.8234559767967626 0.379647587489496 0.5703554420834696 -0.00022300946056674854 0.49383931935448505 0.649121477535073 -1.10465234694346 0.011668743222245814 -312520428500319.9 312520428500319.94 300.0 132.0 400.0 2.4186 -2.4185 2.4185 0.0 200.0 0.0 0.0 0.0 0.0 0.0 0.0 0.0 0.0 0.0 0.0 
1.768 1.004358182437125 -1.70107750660087 -1.8192340542423104 0.37907439048497715 0.5665998931463545 -0.00022432436815114347 -0.832396566156984 0.7793035115443138 0.08933912680879094 0.0038629341169505514 790195032868602.8 -790195032868602.8 300.0 133.60000000000002 400.0 2.4186 -2.4185 2.4185 0.0 200.0 0.0 0.0 0.0 0.0 0.0 0.0 0.0 0.0 0.0 0.0 
1.776 1.008076642579221 -1.70475073512796 -1.8149658623012113 0.3784808521595009 0.5628814330983691 -0.00022564481071046157 -0.4650361633601243 -0.6437125872799072 0.9625055327688602 0.026825365380728716 1599177344218561.5 -1599177344218561.8 300.0 135.2 400.0 2.4186 -2.4185 2.4185 0.0 200.0 0.0 0.0 0.0 0.0 0.0 0.0 0.0 0.0 0.0 0.0 
1.784 1.0117583602349696 -1.7084495520476581 -1.8106514720216618 0.3778667044323867 0.5591997155368992 -0.00022697072117889775 0.0 0.0 0.0 0.0 0.0 0.0 300.0 136.8 400.0 2.4186 -2.4185 2.4185 0.0 200.0 0.0 0.0 0.0 0.0 0.0 0.0 0.0 0.0 0.0 0.0 
1.792 1.0154036822601797 -1.712173625292835 -1.8062909505629723 0.3772316802850697 0.5555543936061338 -0.00022830203305748426 0.40170541178731634 0.7441173891017006 -1.0963050019578657 0.030078140914304868 821622152305893.8 -821622152305893.5 300.0 138.40000000000003 400.0 2.4186 -2.4185 2.4185 0.0 200.0 0.0 0.0 0.0 0.0 0.0 0.0 0.0 0.0 0.0 0.0 
1.8 1.0190129557723484 -1.7159226304329607 -1.801884361075835 0.37657552714625275 0.5519451201885779 -0.000229638680423286 0.0 0.0 0.0 0.0 0.0 0.0 300.0 140.0 400.0 2.4186 -2.4185 2.4185 0.0 200.0 0.0 0.0 0.0 0.0 0.0 0.0 0.0 0.0 0.0 0.0 
1.808 1.022586527966802 -1.7196962507351699 -1.7974317625820504 0.375897982418385 0.548371548088898 -0.00023098059793785942 -0.29553131778010483 -0.7603347289394197 1.0564596261854882 0.05376185932567379 847877936317893.5 -847877936317893.5 300.0 141.60000000000002 400.0 2.4186 -2.4185 2.4185 0.0 200.0 0.0 0.0 0.0 0.0 0.0 0.0 0.0 0.0 0.0 0.0 
1.816 1.026124745940351 -1.7234941772201358 -1.7929332098536375 0.37519878442248533 0.5448333302102861 -0.0002323277208549983 0.0 0.0 0.0 0.0 0.0 0.0 300.0 143.20000000000005 400.0 2.4186 -2.4185 2.4185 0.0 200.0 0.0 0.0 0.0 0.0 0.0 0.0 0.0 0.0 0.0 0.0 
1.824 1.0296279565223123 -1.7273161087130422 -1.7883887532912306 0.37447770365512545 0.5413301197234192 -0.000233679985027789 0.24078201536699953 0.8808593901346919 -1.0481453922740702 -0.028574494915215177 -1757927584592185.5 1757927584592185.5 300.0 144.8 400.0 2.4186 -2.4185 2.4185 0.0 200.0 0.0 0.0 0.0 0.0 0.0 0.0 0.0 0.0 0.0 0.0 
1.832 1.033096506112749 -1.7311617518899247 -1.7837984388016757 0.3737344689799802 0.5378615702282372 -0.00023503732691499893 -0.8707530461311553 0.5946983229984305 0.3904421679882 0.042363904279731 -597848002384584.2 597848002384584.4 300.0 146.40000000000003 400.0 2.4186 -2.4185 2.4185 0.0 200.0 0.0 0.0 0.0 0.0 0.0 0.0 0.0 0.0 0.0 0.0 
1.84 1.036530740527774 -1.7350308213196617 -1.7791623076747254 0.3729688463071372 0.5344273359086172 -0.00023639968358681965 -0.15243128684474358 -0.8527728585253037 1.0502352345378427 -0.03980359747410829 -915657460051638.1 915657460051638.1 300.0 148.0 400.0 2.4186 -2.4185 2.4185 0.0 200.0 0.0 0.0 0.0 0.0 0.0 0.0 0.0 0.0 0.0 0.0 
1.848 1.0399310048517538 -1.738923039501901 -1.7744803964587268 0.3721805963073552 0.5310270716802006 -0.00023776699272998742 0.960967992322017 -0.48607628626438015 -0.3894915931348794 -0.04394094136365346 -1873276844615556.2 1873276844615556.2 300.0 149.60000000000002 400.0 2.4186 -2.4185 2.4185 0.0 200.0 0.0 0.0 0.0 0.0 0.0 0.0 0.0 0.0 0.0 0.0 
1.856 1.0432976432962642 -1.7428381369011894 -1.7697527368352015 0.3713694796068714 0.5276604333314011 -0.00023913919265230497 0.2058009942128109 0.8849996079405752 -0.9652611135696954 0.04149881130170469 -639307486087743.8 639307486087743.9 300.0 151.20000000000005 400.0 2.4186 -2.4185 2.4185 0.0 200.0 0.0 0.0 0.0 0.0 0.0 0.0 0.0 0.0 0.0 0.0 
1.864 1.0466309990656186 -1.7467758519775824 -1.7649793554921938 0.3705352642426665 0.5243270776579085 -0.0002405162222865832 -0.9389197289927705 0.5095157374335596 0.456583948699493 0.017073599330738962 983725336627681.9 -983725336627681.9 300.0 152.8 400.0 2.4186 -2.4185 2.4185 0.0 200.0 0.0 0.0 0.0 0.0 0.0 0.0 0.0 0.0 0.0 0.0 
1.872 1.04993141422882 -1.7507359312140145 -1.7601602739962798 0.36967770786860843 0.5210266625907151 -0.0002418980211940292 -0.08348885845995528 -0.9060580546332329 0.9197902361001153 0.015339741270315444 1010180396290329.9 -1010180396290330.1 300.0 154.40000000000003 400.0 2.4186 -2.4185 2.4185 0.0 200.0 0.0 0.0 0.0 0.0 0.0 0.0 0.0 0.0 0.0 0.0 
1.88 1.0531992295977575 -1.7547181291406933 -1.7552955086630966 0.36879659018069444 0.517758847317935 -0.0002432845295670971 0.9085972236277983 -0.45818660522755134 -0.6706307751202913 0.08455457937085332 2076450895499927.0 -2076450895499927.2 300.0 156.00000000000006 400.0 2.4186 -2.4185 2.4185 0.0 200.0 0.0 0.0 0.0 0.0 0.0 0.0 0.0 0.0 0.0 0.0 
1.888 1.0564347846114903 -1.7587222083567902 -1.750385070426282 0.36789168255463145 0.5145232924004992 -0.0002446756882318271 0.05955991408857703 0.9172037153501656 -0.9615771164708782 0.015386733661407252 -1009463390360951.5 1009463390360951.5 300.0 157.60000000000002 400.0 2.4186 -2.4185 2.4185 0.0 200.0 0.0 0.0 0.0 0.0 0.0 0.0 0.0 0.0 0.0 0.0 
1.896 1.0596384172264446 -1.7627479395497 -1.7454289647046648 0.3669627652747014 0.5113196598819884 -0.00024607143864969 -0.9590832982781983 0.42014300174745767 0.5083487322293394 0.01572396211285465 -982600534712499.2 982600534712499.2 300.0 159.20000000000005 400.0 2.4186 -2.4185 2.4185 0.0 200.0 0.0 0.0 0.0 0.0 0.0 0.0 0.0 0.0 0.0 0.0 
1.904 1.0628104638123617 -1.7667951015121293 -1.7404271912675813 0.3660096077533479 0.5081476133926525 -0.0002474717229189612 0.03267149058467081 -0.9207242448869267 0.9108495282036423 0.03782093097576536 -638921403104538.8 638921403104538.8 300.0 160.8 400.0 2.4186 -2.4185 2.4185 0.0 200.0 0.0 0.0 0.0 0.0 0.0 0.0 0.0 0.0 0.0 0.0 
1.912 1.0659512590538256 -1.7708634811572734 -1.7353797440981593 0.3650319999778857 0.5050068182479096 -0.0002488764837756404 0.9901599780736415 -0.3418290848698571 -0.664146618890007 0.010669796614120916 374264678659019.9 -374264678659019.9 300.0 162.40000000000003 400.0 2.4186 -2.4185 2.4185 0.0 200.0 0.0 0.0 0.0 0.0 0.0 0.0 0.0 0.0 0.0 0.0 
1.92 1.0690611358572077 -1.7749528735323588 -1.7302866112544162 0.3640297230410978 0.5018969415413834 -0.00025028566459393955 -0.041909918568324635 0.9495299749378855 -0.8734520284411218 -0.038416249177415845 -1830384752679268.0 1830384752679268.0 300.0 164.0 400.0 2.4186 -2.4185 2.4185 0.0 200.0 0.0 0.0 0.0 0.0 0.0 0.0 0.0 0.0 0.0 0.0 
1.928 1.0721404252628597 -1.7790630818307895 -1.7251477747280064 0.36300255643294577 0.49881765223272484 -0.00025169920938635654 0.0 0.0 0.0 0.0 0.0 0.0 300.0 165.60000000000002 400.0 2.4186 -2.4185 2.4185 0.0 200.0 0.0 0.0 0.0 0.0 0.0 0.0 0.0 0.0 0.0 0.0 
1.936 1.0751894563623936 -1.7831939174031715 -1.7199632103004512 0.36195029665293 0.49576862123031906 -0.00025311706280335493 0.07872173360946348 -0.9067061185153217 0.7159563622306966 0.018873045172130173 1757189379243782.2 -1757189379243782.5 300.0 167.2 400.0 2.4186 -2.4185 2.4185 0.0 200.0 0.0 0.0 0.0 0.0 0.0 0.0 0.0 0.0 0.0 0.0 
1.944 1.078208556220886 -1.7873451997674596 -1.7147328873966676 0.3608727215706422 0.4927495214690828 -0.0002545391701326658 0.9903323159784285 -0.23364203272861123 -0.7218598584914097 -0.028976742962128946 -862235934722122.5 862235934722122.5 300.0 168.8 400.0 2.4186 -2.4185 2.4185 0.0 200.0 0.0 0.0 0.0 0.0 0.0 0.0 0.0 0.0 0.0 0.0 
1.952 1.0811980498038412 -1.7915167566184844 -1.7094567689356168 0.3597696301512263 0.48976002798351587 -0.00025596547729823135 0.0 0.0 0.0 0.0 0.0 0.0 300.0 170.39999999999998 400.0 2.4186 -2.4185 2.4185 0.0 200.0 0.0 0.0 0.0 0.0 0.0 0.0 0.0 0.0 0.0 0.0 
1.96 1.0841582599087634 -1.7957084238371113 -1.704134811177874 0.3586408140171147 0.4867998179761065 -0.00025739593085880844 0.0 0.0 0.0 0.0 0.0 0.0 300.0 172.0 400.0 2.4186 -2.4185 2.4185 0.0 200.0 0.0 0.0 0.0 0.0 0.0 0.0 0.0 0.0 0.0 0.0 
1.968 1.0870895071011706 -1.7999200454992788 -1.6987669635699143 0.35748606208505707 0.4838685708813413 -0.00025883047800624465 0.0 0.0 0.0 0.0 0.0 0.0 300.0 173.60000000000002 400.0 2.4186 -2.4185 2.4185 0.0 200.0 0.0 0.0 0.0 0.0 0.0 0.0 0.0 0.0 0.0 0.0 
1.976 1.0899921096549063 -1.8041514738851667 -1.6933531685849108 0.3563051694829087 0.4809659684253754 -0.00026026906656344967 0.9098095248735906 -0.08483582353063654 -0.8870139425775491 0.008656993552217114 -323891765286066.2 323891765286066.1 300.0 175.2 400.0 2.4186 -2.4185 2.4185 0.0 200.0 0.0 0.0 0.0 0.0 0.0 0.0 0.0 0.0 0.0 0.0 
1.984 1.0928663834965904 -1.8084025694887444 -1.6878933615598142 0.35509793712936544 0.47809169468158164 -0.0002617116449820734 -0.3893105248418487 1.0376382443510892 -0.8442800476546664 0.029151847795498488 1598872885893179.0 -1598872885893179.0 300.0 176.8 400.0 2.4186 -2.4185 2.4185 0.0 200.0 0.0 0.0 0.0 0.0 0.0 0.0 0.0 0.0 0.0 0.0 
1.992 1.0957126421540602 -1.8126732010279372 -1.6823874705284894 0.3538641579583959 0.475245436122125 -0.00026315816233990675 -0.8891684143226167 0.05216654109748514 0.8363399777621766 0.08154671433803463 -3158744580659651.0 3158744580659651.0 300.0 178.40000000000003 400.0 2.4186 -2.4185 2.4185 0.0 200.0 0.0 0.0 0.0 0.0 0.0 0.0 0.0 0.0 0.0 0.0 
2.0 1.0985311967086604 -1.816963245455671 -1.676835416050658 0.35260363245929294 0.4724268816656584 -0.0002646085683380222 0.21190292767998825 -0.9261269120713549 0.41898873270605685 -0.02537984018177201 1562411442167087.5 -1562411442167087.8 300.0 180.0 400.0 2.4186 -2.4185 2.4185 0.0 200.0 0.0 0.0 0.0 0.0 -0.0 -1000.0 -0.0 0.0 0.0 0.0 
2.008 1.1012667990625937 -1.8211862127031664 -1.6713495309927964 0.3513421665656269 0.46969127940801014 -0.00026603369109499833 0.8516853089826586 -0.009473780382554118 -0.9052384391616359 -0.0018863884528061842 -500357269030847.25 500357269030847.25 300.0 181.56799999999998 400.0 2.4186 -2.4185 2.4185 0.0 192.0 0.0 0.0 0.0 0.0 -0.0 -1000.0 -0.0 0.0 0.0 0.0 
2.016 1.1038662895019788 -1.825254135430478 -1.6660457404890565 0.35010769628465055 0.46709178906108756 -0.0002674040670448294 -0.26028309500561964 0.9533902034192339 -0.6635218851473383 0.004506069870893895 -739074040500746.0 739074040500746.0 300.0 183.0719999999999 400.0 2.4186 -2.4185 2.4185 0.0 184.0 0.0 0.0 0.0 0.0 -0.0 -1000.0 -0.0 0.0 0.0 0.0 
2.024 1.1063329612162762 -1.8291647715194892 -1.66092919225705 0.34890312900113973 0.4646251174354139 -0.0002687192307621136 0.0 0.0 0.0 0.0 0.0 0.0 300.0 184.51200000000017 400.0 2.4186 -2.4185 2.4185 0.0 176.0 0.0 0.0 0.0 0.0 -0.0 -1000.0 -0.0 0.0 0.0 0.0 
2.032 1.1086699153429957 -1.8329159958249899 -1.6560048267869767 0.3477312693878749 0.4622881633934647 -0.00026997874503919205 0.00438802846041533 -0.7798234092950438 0.7988606613666707 -0.005473181474341187 -558164199084728.3 558164199084728.25 300.0 185.88799999999992 400.0 2.4186 -2.4185 2.4185 0.0 168.0 0.0 0.0 0.0 0.0 -0.0 -1000.0 -0.0 0.0 0.0 0.0 
2.04 1.1108800682202307 -1.8365057957896775 -1.651277377268274 0.3465948407717121 0.4600780105971367 -0.0002711821996707084 0.0 0.0 0.0 0.0 0.0 0.0 300.0 187.2000000000001 400.0 2.4186 -2.4185 2.4185 0.0 160.0 0.0 0.0 0.0 0.0 -0.0 -1000.0 -0.0 0.0 0.0 0.0 
2.048 1.1129661582168322 -1.839932267600679 -1.6467513692278184 0.34549647010770657 0.45799192067756495 -0.00027232921031911984 0.42260846817845155 0.4336374896609915 -0.8615421285522188 0.0031041284649642267 230289713380302.03 -230289713380302.03 300.0 188.4480000000002 400.0 2.4186 -2.4185 2.4185 0.0 152.0 0.0 0.0 0.0 0.0 -0.0 -1000.0 -0.0 0.0 0.0 0.0 
2.056 1.1149307521511798 -1.843193612840915 -1.6424311199092416 0.3444386760966145 0.45602732681636043 -0.0002734194174573132 -0.3643281676350055 0.7170903485257901 -0.3349400692230873 0.0026984063214507293 854675611939079.8 -854675611939079.8 300.0 189.6320000000002 400.0 2.4186 -2.4185 2.4185 0.0 144.0 0.0 0.0 0.0 0.0 -0.0 -1000.0 -0.0 0.0 0.0 0.0 
2.064 1.11677625130983 -1.8462881355907252 -1.6383207374236752 0.34342386228723143 0.454181827726952 -0.00027445248538467067 0.0 0.0 0.0 0.0 0.0 0.0 300.0 190.75200000000018 400.0 2.4186 -2.4185 2.4185 0.0 136.0 0.0 0.0 0.0 0.0 -0.0 -1000.0 -0.0 0.0 0.0 0.0 
2.072 1.1185048970774805 -1.8492142399373195 -1.63442411970264 0.34245433789570145 0.4524531820246381 -0.0002754281013131449 -0.25880637606309626 -0.43626114153755385 0.6332817809955732 -0.05429626326872657 -1052164609104153.6 1052164609104153.8 300.0 191.8080000000001 400.0 2.4186 -2.4185 2.4185 0.0 128.0 0.0 0.0 0.0 0.0 -0.0 -1000.0 -0.0 0.0 0.0 0.0 
2.08 1.1201187761896612 -1.8519704278517342 -1.630744953284076 0.3415322905934959 0.4508393029738757 -0.00027634597452011483 0.47020789661392015 -0.6206348019483087 0.41002211755200724 0.005312763002248605 -1774608091250584.5 1774608091250584.8 300.0 192.79999999999993 400.0 2.4186 -2.4185 2.4185 0.0 120.0 0.0 0.0 0.0 0.0 -0.0 -1000.0 -0.0 0.0 0.0 0.0 
2.088 1.1216198256193806 -1.8545552973950734 -1.6272867119625387 0.3406597893969392 0.44933825360164964 -0.00027720583556499576 0.5591462323845333 -0.22952746208057873 -0.3134746479018586 0.02151106242459211 -376886385393014.06 376886385393014.06 300.0 193.72800000000012 400.0 2.4186 -2.4185 2.4185 0.0 112.0 0.0 0.0 0.0 0.0 -0.0 -1000.0 -0.0 0.0 0.0 0.0 
2.096 1.1230098371086572 -1.856967541217904 -1.6240526553344203 0.3398387857292626 0.4479482421659342 -0.00027800743556678146 0.3510181768564962 0.22943996847855963 -0.5709400793226 -0.0014157392986431801 -133628557311469.02 133628557311469.02 300.0 194.59199999999984 400.0 2.4186 -2.4185 2.4185 0.0 104.0 0.0 0.0 0.0 0.0 -0.0 -1000.0 -0.0 0.0 0.0 0.0 
2.104 1.1242904613554954 -1.859205945318763 -1.6210458272686428 0.3390711168496303 0.4466676179687173 -0.00027875054553990776 0.0 0.0 0.0 0.0 0.0 0.0 300.0 195.39199999999994 400.0 2.4186 -2.4185 2.4185 0.0 96.0 0.0 0.0 0.0 0.0 -0.0 -1000.0 -0.0 0.0 0.0 0.0 
2.112 1.125463211866356 -1.8612693880297708 -1.6182690543327223 0.33835847676028896 0.44549486750353107 -0.0002794349557860049 -0.2852380984243681 0.4125028057408769 -0.10674734681792755 0.00047486437493712884 576231491131886.8 -576231491131886.8 300.0 196.12799999999996 400.0 2.4186 -2.4185 2.4185 0.0 88.0 0.0 0.0 0.0 0.0 -0.0 -1000.0 -0.0 0.0 0.0 0.0 
2.12 1.1265294684836797 -1.8631568391995001 -1.6157249442031731 0.33770245130273535 0.4444286109279298 -0.000280060475339321 -0.3200433960720118 0.18256805269740073 0.24880791839234612 -0.02095258678910244 799710726885794.2 -799710726885794.0 300.0 196.79999999999993 400.0 2.4186 -2.4185 2.4185 0.0 80.0 0.0 0.0 0.0 0.0 -0.0 -1000.0 -0.0 0.0 0.0 0.0 
2.128 1.1274904805974038 -1.864867359545252 -1.613415884088268 0.3371044836786872 0.44346759885197046 -0.0002806269314637708 -0.3035713886047071 -0.005887103639661967 0.34206174129552497 0.011608087248143953 1083234480415198.5 -1083234480415198.5 300.0 197.40799999999984 400.0 2.4186 -2.4185 2.4185 0.0 72.0 0.0 0.0 0.0 0.0 -0.0 -1000.0 -0.0 0.0 0.0 0.0 
2.136 1.1283473700487952 -1.866400100149065 -1.6113440391898208 0.3365658916434493 0.44261070943438097 -0.00028113416919975387 -0.14583953478401337 -0.19598464743391372 0.349520007489976 0.009472202742473004 -496287937049361.2 496287937049361.2 300.0 197.9520000000001 400.0 2.4186 -2.4185 2.4185 0.0 64.0 0.0 0.0 0.0 0.0 -0.0 -1000.0 -0.0 0.0 0.0 0.0 
2.144 1.1291011337342702 -1.8677543020738454 -1.6095113512292343 0.3360878583806972 0.44185694577873824 -0.0002815820509590635 -0.014522713054288464 -0.25950102758751836 0.2737920298221819 -0.014524328372018946 -569996178043435.8 569996178043435.8 300.0 198.4319999999999 400.0 2.4186 -2.4185 2.4185 0.0 56.0 0.0 0.0 0.0 0.0 -0.0 -1000.0 -0.0 0.0 0.0 0.0 
2.152 1.1297526459161862 -1.8689292960781958 -1.6079195370613049 0.3356714298666945 0.4412054336226885 -0.0002819704561663896 0.08640676422204491 -0.24264179859284196 0.15638619302739634 0.0072762749779204956 -375190201674494.75 375190201674494.75 300.0 198.84800000000007 400.0 2.4186 -2.4185 2.4185 0.0 48.0 0.0 0.0 0.0 0.0 -0.0 -1000.0 -0.0 0.0 0.0 0.0 
2.16 1.130302660246876 -1.8699245024106337 -1.606570087397457 0.3353175186357509 0.44065541931388885 -0.00028229928094607236 0.13608998660984295 -0.1907889607553402 0.06335125887909068 -0.00019974620950843363 -335859046735246.94 335859046735246.94 300.0 199.20000000000016 400.0 2.4186 -2.4185 2.4185 0.0 40.0 0.0 0.0 0.0 0.0 -0.0 -1000.0 -0.0 0.0 0.0 0.0 
2.168 1.1307518115115012 -1.870739430666128 -1.6054642656579432 0.3350268977250881 0.44020626806717716 -0.00028256843785295064 0.13845004074925593 -0.13559115004280745 -0.00031518049519801636 0.0027965317100657125 163641635055758.8 -163641635055758.8 300.0 199.4880000000001 400.0 2.4186 -2.4185 2.4185 0.0 32.0 0.0 0.0 0.0 0.0 -0.0 -1000.0 -0.0 0.0 0.0 0.0 
2.176 1.1311006170945523 -1.871373679690065 -1.604603106970342 0.33480019897906854 0.4398574624980625 -0.0002827778556462939 0.10771320862965489 -0.07235180834441621 -0.03183491562130528 0.00919843537971758 -202673718195280.44 202673718195280.44 300.0 199.71200000000005 400.0 2.4186 -2.4185 2.4185 0.0 24.0 0.0 0.0 0.0 0.0 -0.0 -1000.0 -0.0 0.0 0.0 0.0 
2.184 1.1313494781741071 -1.8718269375169982 -1.6039874173293045 0.33463791571307944 0.43960860142846414 -0.00028292747910598116 0.07620650197838522 -0.047025707919899774 -0.03181283713930829 -0.003131071079280613 -150641733419145.6 150641733419145.6 300.0 199.87199999999996 400.0 2.4186 -2.4185 2.4185 0.0 16.0 0.0 0.0 0.0 0.0 -0.0 -1000.0 -0.0 0.0 0.0 0.0 
2.192 1.1314986806472014 -1.872098981333819 -1.6036177729299264 0.33454040768376303 0.4394593989613413 -0.00028301726889023326 0.03838385666904649 -0.01719010640595545 -0.023197689410871303 0.001510100033908665 27332438218389.8 -27332438218389.8 300.0 199.9679999999998 400.0 2.4186 -2.4185 2.4185 0.0 8.0 0.0 0.0 0.0 0.0 -0.0 -1000.0 -0.0 0.0 0.0 0.0 
2.2 1.131548395788938 -1.8721896774592426 -1.6034945196845334 0.33450787815528416 0.4394096838215963 -0.00028304720143437355 0.0 0.0 0.0 0.0 0.0 0.0 300.0 200.0 400.0 2.4186 -2.4185 2.4185 0.0 0.0 0.0 0.0 0.0 0.0 -0.0 -1000.0 -0.0 0.0 0.0 0.0 
