Fleaurent/UniversalRobot/csv/robot_movel_x400_Zeit.csv
timestamp target_q_0 target_q_1 target_q_2 target_q_3 target_q_4 target_q_5 target_qd_0 target_qd_1 target_qd_2 target_qd_3 target_qd_4 target_qd_5 target_qdd_0 target_qdd_1 target_qdd_2 target_qdd_3 target_qdd_4 target_qdd_5 target_current_0 target_current_1 target_current_2 target_current_3 target_current_4 target_current_5 target_moment_0 target_moment_1 target_moment_2 target_moment_3 target_moment_4 target_moment_5 actual_q_0 actual_q_1 actual_q_2 actual_q_3 actual_q_4 actual_q_5 actual_qd_0 actual_qd_1 actual_qd_2 actual_qd_3 actual_qd_4 actual_qd_5 actual_current_0 actual_current_1 actual_current_2 actual_current_3 actual_current_4 actual_current_5 joint_control_output_0 joint_control_output_1 joint_control_output_2 joint_control_output_3 joint_control_output_4 joint_control_output_5 actual_TCP_pose_0 actual_TCP_pose_1 actual_TCP_pose_2 actual_TCP_pose_3 actual_TCP_pose_4 actual_TCP_pose_5 actual_TCP_speed_0 actual_TCP_speed_1 actual_TCP_speed_2 actual_TCP_speed_3 actual_TCP_speed_4 actual_TCP_speed_5 actual_TCP_force_0 actual_TCP_force_1 actual_TCP_force_2 actual_TCP_force_3 actual_TCP_force_4 actual_TCP_force_5 target_TCP_pose_0 target_TCP_pose_1 target_TCP_pose_2 target_TCP_pose_3 target_TCP_pose_4 target_TCP_pose_5 target_TCP_speed_0 target_TCP_speed_1 target_TCP_speed_2 target_TCP_speed_3 target_TCP_speed_4 target_TCP_speed_5
2487.0 -0.3512852068466339 -1.8695186475529972 -1.6104316945584856 0.3396554019692496 1.9220226021590499 0.0008236363994447164 0.0 -0.0 -0.0 0.0 0.0 0.0 0.0 0.0 0.0 0.0 0.0 0.0 -5.500657743344303e-18 0.8172242617098822 0.7141331503287116 0.065941604326966 -3.133016709259517e-05 0.0 -6.31255448711884e-17 9.413197003960335 6.029563456331691 0.27217325962895195 -0.00013006349742905298 0.0 -0.351325813923971 -1.869504753743307 -1.6103461424456995 0.33971381187438965 1.9220551252365112 0.0008651112439110875 1.917476038215682e-05 1.917476038215682e-05 -4.793690095539205e-05 7.190534961409867e-05 9.58738019107841e-05 4.793690095539205e-05 0.0314025916159153 0.868057370185852 0.6100164651870728 0.10406643152236938 0.06154466047883034 0.10966140031814575 0.0381317175924778 0.8388977646827698 0.6298419833183289 0.12085133790969849 0.05930667370557785 0.11637535691261292 0.2999827312883396 -0.20000625606308634 0.4000332034135849 -1.2089950876077094 1.2089397370929722 -1.209134492123905 -5.7097128775195215e-06 1.718855829555262e-05 -1.085392876606744e-06 3.298010723502121e-05 -4.0433544101552724e-05 0.00011516514325127305 6.187212198091658 -6.222158562731437 2.971388165420074 -0.5087825529066565 -0.1047016272365027 0.2250008967415115 0.29999999999773125 -0.19999999998749818 0.39999999999527563 -1.2090987221600364 1.2090487305541053 -1.209048730498419 0.0 0.0 0.0 0.0 0.0 0.0
2487.008 -0.3512852068466339 -1.8695186475529972 -1.6104316945584856 0.3396554019692496 1.9220226021590499 0.0008236363994447164 0.0 -0.0 -0.0 0.0 0.0 0.0 0.0 0.0 0.0 0.0 0.0 0.0 -5.500657743344303e-18 0.8172242617098822 0.7141331503287116 0.065941604326966 -3.133016709259517e-05 0.0 -6.31255448711884e-17 9.413197003960335 6.029563456331691 0.27217325962895195 -0.00013006349742905298 0.0 -0.351325813923971 -1.869504753743307 -1.6103819052325647 0.3397258520126343 1.9220671653747559 0.0008890797034837306 1.917476038215682e-05 1.917476038215682e-05 -4.793690095539205e-05 7.190534961409867e-05 9.58738019107841e-05 4.793690095539205e-05 0.0336456336081028 0.8142243027687073 0.6222168207168579 0.12868429720401764 0.05930667370557785 0.12308932095766068 0.0381317175924778 0.8388977646827698 0.6298419833183289 0.11749435216188431 0.05706868693232536 0.11749435216188431 0.29998227843168035 -0.20000505915115455 0.4000241724837794 -1.208993597244274 1.2089623738464657 -1.2090913460883475 -5.709952595636839e-06 1.718859296242153e-05 -1.085183350994529e-06 3.29822501617244e-05 -4.043374634659063e-05 0.00011516407806504749 3.6382023318563883 -4.059143188399165 4.066290037938994 -0.5711153392125083 0.4150572692950584 0.057092785608124155 0.29999999999773125 -0.19999999998749818 0.39999999999527563 -1.2090987221600364 1.2090487305541053 -1.209048730498419 0.0 0.0 0.0 0.0 0.0 0.0
2487.016 -0.3512852068466339 -1.8695186475529972 -1.6104316945584856 0.3396554019692496 1.9220226021590499 0.0008236363994447164 0.0 -0.0 -0.0 0.0 0.0 0.0 0.0 0.0 0.0 0.0 0.0 0.0 -5.500657743344303e-18 0.8172242617098822 0.7141331503287116 0.065941604326966 -3.133016709259517e-05 0.0 -6.31255448711884e-17 9.413197003960335 6.029563456331691 0.27217325962895195 -0.00013006349742905298 0.0 -0.351325813923971 -1.869504753743307 -1.6103580633746546 0.33971381187438965 1.9220432043075562 0.0008890797034837306 1.917476038215682e-05 1.917476038215682e-05 -4.793690095539205e-05 7.190534961409867e-05 9.58738019107841e-05 4.793690095539205e-05 0.0403747595846653 0.868057370185852 0.6298419833183289 0.10742340981960297 0.05371170490980148 0.11189938336610794 0.0381317175924778 0.8388977646827698 0.6298419833183289 0.11525636911392212 0.054830700159072876 0.11749435216188431 0.29998290120491344 -0.2000072871637097 0.4000298841630143 -1.2089770306958516 1.2089699946314099 -1.2091172684035283 -5.709626926180522e-06 1.7188571344802458e-05 -1.0852777914001687e-06 3.2981183006846956e-05 -4.043450758532608e-05 0.0001151646086499271 5.227387199810789 -6.037978571149935 2.4537492738038438 -0.5191784134260334 -0.039140793312061 0.2462715692551731 0.29999999999773125 -0.19999999998749818 0.39999999999527563 -1.2090987221600364 1.2090487305541053 -1.209048730498419 0.0 0.0 0.0 0.0 0.0 0.0
2487.024 -0.3512852068466339 -1.8695186475529972 -1.6104316945584856 0.3396554019692496 1.9220226021590499 0.0008236363994447164 0.0 -0.0 -0.0 0.0 0.0 0.0 0.0 0.0 0.0 0.0 0.0 0.0 -5.500657743344303e-18 0.8172242617098822 0.7141331503287116 0.065941604326966 -3.133016709259517e-05 0.0 -6.31255448711884e-17 9.413197003960335 6.029563456331691 0.27217325962895195 -0.00013006349742905298 0.0 -0.3513377348529261 -1.8695524374591272 -1.6103580633746546 0.339749813079834 1.9220911264419556 0.0008411427843384445 1.917476038215682e-05 1.917476038215682e-05 -4.793690095539205e-05 7.190534961409867e-05 9.58738019107841e-05 4.793690095539205e-05 0.0426178015768528 0.863571286201477 0.652717649936676 0.10854240506887436 0.05594969168305397 0.12756529450416565 0.0381317175924778 0.8388977646827698 0.6298419833183289 0.11301837861537933 0.05259270966053009 0.11749435216188431 0.2999887447644276 -0.20000991225159706 0.40001595291568054 -1.2090345334566541 1.2089307818339403 -1.2091179121209776 -5.709980515342294e-06 1.7188855611563e-05 -1.084951889476328e-06 3.298175914321686e-05 -4.0432990780575565e-05 0.0001151640823978042 4.125793627522459 -5.10977177492189 1.8789415332100106 -0.5918489108903308 0.06894173971902194 0.15930988450561823 0.29999999999773125 -0.19999999998749818 0.39999999999527563 -1.2090987221600364 1.2090487305541053 -1.209048730498419 0.0 0.0 0.0 0.0 0.0 0.0
2487.0319999999997 -0.3512852068466339 -1.8695186475529972 -1.6104316945584856 0.3396554019692496 1.9220226021590499 0.0008236363994447164 0.0 -0.0 -0.0 0.0 0.0 0.0 0.0 0.0 0.0 0.0 0.0 0.0 -5.500657743344303e-18 0.8172242617098822 0.7141331503287116 0.065941604326966 -3.133016709259517e-05 0.0 -6.31255448711884e-17 9.413197003960335 6.029563456331691 0.27217325962895195 -0.00013006349742905298 0.0 -0.35128957429994756 -1.8694928328143519 -1.6103699843036097 0.3397258520126343 1.922019124031067 0.0008651112439110875 1.917476038215682e-05 1.917476038215682e-05 -4.793690095539205e-05 7.190534961409867e-05 9.58738019107841e-05 4.793690095539205e-05 0.0403747595846653 0.8433838486671448 0.602391242980957 0.10630441457033157 0.051473718136548996 0.1353982537984848 0.0381317175924778 0.8388977646827698 0.6298419833183289 0.10966140031814575 0.0503547228872776 0.12085133790969849 0.29998657363841774 -0.19999708224108706 0.4000316723112775 -1.2089951272956376 1.2089394123020654 -1.2091343309558318 -5.710100034546725e-06 1.718831493059025e-05 -1.085378517659223e-06 3.2981565166835784e-05 -4.0434068711525076e-05 0.00011516514981573763 5.3138371404406834 -6.164221907103745 3.6752258740221455 -0.6282205644765745 0.08436674264617783 0.2669286583233927 0.29999999999773125 -0.19999999998749818 0.39999999999527563 -1.2090987221600364 1.2090487305541053 -1.209048730498419 0.0 0.0 0.0 0.0 0.0 0.0
2487.04 -0.3512852068466339 -1.8695186475529972 -1.6104316945584856 0.3396554019692496 1.9220226021590499 0.0008236363994447164 0.0 -0.0 -0.0 0.0 0.0 0.0 0.0 0.0 0.0 0.0 0.0 0.0 -5.500657743344303e-18 0.8172242617098822 0.7141331503287116 0.065941604326966 -3.133016709259517e-05 0.0 -6.31255448711884e-17 9.413197003960335 6.029563456331691 0.27217325962895195 -0.00013006349742905298 0.0 -0.35130149522890264 -1.8695886770831507 -1.6103223005877894 0.33968985080718994 1.922079086303711 0.0008770955028012395 1.917476038215682e-05 1.917476038215682e-05 -4.793690095539205e-05 7.190534961409867e-05 9.58738019107841e-05 4.793690095539205e-05 0.0426178015768528 0.8321686387062073 0.6328920722007751 0.1197323426604271 0.0503547228872776 0.10406643152236938 0.0381317175924778 0.8388977646827698 0.6298419833183289 0.10742340981960297 0.048116736114025116 0.11525636911392212 0.3000087371515314 -0.20000472233114755 0.40000858474277085 -1.2090459356279095 1.2089816206667081 -1.2090315000666105 -5.710165613890613e-06 1.718880839048899e-05 -1.0843875310601217e-06 3.2988664033297786e-05 -4.043436772016825e-05 0.00011516137030917726 3.6855360854971715 -4.824995401874473 3.248597444242036 -0.4828619296521017 0.24334962245134792 0.16205164098009295 0.29999999999773125 -0.19999999998749818 0.39999999999527563 -1.2090987221600364 1.2090487305541053 -1.209048730498419 0.0 0.0 0.0 0.0 0.0 0.0
2487.048 -0.3512852068466339 -1.8695186475529972 -1.6104316945584856 0.3396554019692496 1.9220226021590499 0.0008236363994447164 0.0 -0.0 -0.0 0.0 0.0 0.0 0.0 0.0 0.0 0.0 0.0 0.0 -5.500657743344303e-18 0.8172242617098822 0.7141331503287116 0.065941604326966 -3.133016709259517e-05 0.0 -6.31255448711884e-17 9.413197003960335 6.029563456331691 0.27217325962895195 -0.00013006349742905298 0.0 -0.351325813923971 -1.869528595601217 -1.6103580633746546 0.33968985080718994 1.9220671653747559 0.0008770955028012395 1.917476038215682e-05 1.917476038215682e-05 -4.793690095539205e-05 7.190534961409867e-05 9.58738019107841e-05 4.793690095539205e-05 0.0381317175924778 0.890487790107727 0.6191667318344116 0.1018284410238266 0.044759754091501236 0.10966140031814575 0.0381317175924778 0.8388977646827698 0.6298419833183289 0.10518541932106018 0.04587874934077263 0.11749435216188431 0.2999903823138021 -0.20000804255007715 0.4000196784407312 -1.209018172212623 1.208987484762194 -1.209075097957255 -5.709751650569178e-06 1.7188696362492228e-05 -1.084846486979988e-06 3.298549006556361e-05 -4.04349350683371e-05 0.00011516246236435155 6.498188666223502 -7.264867001206979 2.259435935932109 -0.5087822185458735 -0.23350252761459087 0.3890582944893163 0.29999999999773125 -0.19999999998749818 0.39999999999527563 -1.2090987221600364 1.2090487305541053 -1.209048730498419 0.0 0.0 0.0 0.0 0.0 0.0
2487.056 -0.3512852068466339 -1.8695186475529972 -1.6104316945584856 0.3396554019692496 1.9220226021590499 0.0008236363994447164 0.0 -0.0 -0.0 0.0 0.0 0.0 0.0 0.0 0.0 0.0 0.0 0.0 -5.500657743344303e-18 0.8172242617098822 0.7141331503287116 0.065941604326966 -3.133016709259517e-05 0.0 -6.31255448711884e-17 9.413197003960335 6.029563456331691 0.27217325962895195 -0.00013006349742905298 0.0 -0.351325813923971 -1.8695524374591272 -1.6103819052325647 0.33970189094543457 1.9220551252365112 0.0008411427843384445 1.917476038215682e-05 1.917476038215682e-05 -4.793690095539205e-05 7.190534961409867e-05 9.58738019107841e-05 4.793690095539205e-05 0.0314025916159153 0.7962799668312073 0.6328920722007751 0.10630441457033157 0.03916478529572487 0.12308932095766068 0.0381317175924778 0.8388977646827698 0.6298419833183289 0.1018284410238266 0.04252176731824875 0.11749435216188431 0.2999953129328635 -0.2000108052910881 0.4000056146430728 -1.2090545930014471 1.2090097184155628 -1.209085503607447 -5.709721743420199e-06 1.7188832854328962e-05 -1.0844003092118028e-06 3.2988707337443754e-05 -4.043668626473948e-05 0.00011516086273348102 2.306480342344495 -3.1338165951019272 3.601831091572724 -0.5711088011404822 0.40930465557405593 0.07475122325378115 0.29999999999773125 -0.19999999998749818 0.39999999999527563 -1.2090987221600364 1.2090487305541053 -1.209048730498419 0.0 0.0 0.0 0.0 0.0 0.0
2487.064 -0.3512852068466339 -1.8695186475529972 -1.6104316945584856 0.3396554019692496 1.9220226021590499 0.0008236363994447164 0.0 -0.0 -0.0 0.0 0.0 0.0 0.0 0.0 0.0 0.0 0.0 0.0 -5.500657743344303e-18 0.8172242617098822 0.7141331503287116 0.065941604326966 -3.133016709259517e-05 0.0 -6.31255448711884e-17 9.413197003960335 6.029563456331691 0.27217325962895195 -0.00013006349742905298 0.0 -0.35134965578188115 -1.8694928328143519 -1.6103337446795862 0.33968985080718994 1.922079086303711 0.0008651112439110875 1.917476038215682e-05 1.917476038215682e-05 -4.793690095539205e-05 7.190534961409867e-05 9.58738019107841e-05 4.793690095539205e-05 0.0314025916159153 0.8299255967140198 0.6267919540405273 0.08951950818300247 0.04028377681970596 0.1186133474111557 0.0381317175924778 0.8388977646827698 0.6298419833183289 0.09959045052528381 0.04028377681970596 0.1197323426604271 0.2999769311498628 -0.2000110733145931 0.4000389816125938 -1.2089950049587581 1.2089393743608654 -1.2091347010702898 -5.70942097024939e-06 1.7188633010407592e-05 -1.0855272893656677e-06 3.2979106706574014e-05 -4.043317015666426e-05 0.00011516515860223777 3.807401305441143 -4.489856784806133 2.8434883711301193 -0.5503297065020775 0.08584163121631698 0.18127296176034943 0.29999999999773125 -0.19999999998749818 0.39999999999527563 -1.2090987221600364 1.2090487305541053 -1.209048730498419 0.0 0.0 0.0 0.0 0.0 0.0
2487.0719999999997 -0.3512852068466339 -1.8695186475529972 -1.6104316945584856 0.3396554019692496 1.9220226021590499 0.0008236363994447164 0.0 -0.0 -0.0 0.0 0.0 0.0 0.0 0.0 0.0 0.0 0.0 0.0 -5.500657743344303e-18 0.8172242617098822 0.7141331503287116 0.065941604326966 -3.133016709259517e-05 0.0 -6.31255448711884e-17 9.413197003960335 6.029563456331691 0.27217325962895195 -0.00013006349742905298 0.0 -0.35130149522890264 -1.869528595601217 -1.6103337446795862 0.3397258520126343 1.9221030473709106 0.0008651112439110875 1.917476038215682e-05 1.917476038215682e-05 -4.793690095539205e-05 4.793690095539205e-05 9.58738019107841e-05 4.793690095539205e-05 0.0381317175924778 0.8187103867530823 0.6222168207168579 0.09959045052528381 0.03916478529572487 0.11301837861537933 0.0381317175924778 0.8388977646827698 0.6298419833183289 0.09735246747732162 0.038045790046453476 0.11749435216188431 0.29999201149557186 -0.1999966353956026 0.4000292288818348 -1.2090290273877287 1.2088860580462468 -1.209081745560648 -3.7872246964709966e-06 1.6485452711082267e-05 -2.935985752346052e-06 4.122485437136113e-05 -1.7924301282761844e-05 0.00011518278787100124 3.47755381704072 -4.608088842565119 3.383537400111801 -0.5244085305700873 0.1948551038684157 0.19624883880692912 0.29999999999773125 -0.19999999998749818 0.39999999999527563 -1.2090987221600364 1.2090487305541053 -1.209048730498419 0.0 0.0 0.0 0.0 0.0 0.0
2487.08 -0.3512852068466339 -1.8695186475529972 -1.6104316945584856 0.3396554019692496 1.9220226021590499 0.0008236363994447164 0.0 -0.0 -0.0 0.0 0.0 0.0 0.0 0.0 0.0 0.0 0.0 0.0 -5.500657743344303e-18 0.8172242617098822 0.7141331503287116 0.065941604326966 -3.133016709259517e-05 0.0 -6.31255448711884e-17 9.413197003960335 6.029563456331691 0.27217325962895195 -0.00013006349742905298 0.0 -0.35136157671083623 -1.8695405165301722 -1.6103223005877894 0.33967792987823486 1.9220432043075562 0.0009010639623738825 1.917476038215682e-05 1.917476038215682e-05 -4.793690095539205e-05 4.793690095539205e-05 9.58738019107841e-05 4.793690095539205e-05 0.0471038855612278 0.8299255967140198 0.6450924277305603 0.09511447697877884 0.031331829726696014 0.12197033315896988 0.0381317175924778 0.8388977646827698 0.6298419833183289 0.09511447697877884 0.034688808023929596 0.11637535691261292 0.2999864499267276 -0.20002195922664784 0.4000245422177889 -1.2089669846280229 1.2090326877291242 -1.2091098117629833 -3.785541183733369e-06 1.6485774824760327e-05 -2.935688061546163e-06 4.1228135324001095e-05 -1.793124303458727e-05 0.00011518061799353905 2.8031319355435698 -4.686557130931038 2.416358685490942 -0.5659122000188339 0.16366914836421737 0.23912860402393665 0.29999999999773125 -0.19999999998749818 0.39999999999527563 -1.2090987221600364 1.2090487305541053 -1.209048730498419 0.0 0.0 0.0 0.0 0.0 0.0
2487.0879999999997 -0.3512852068466339 -1.8695186475529972 -1.6104316945584856 0.3396554019692496 1.9220226021590499 0.0008236363994447164 0.0 -0.0 -0.0 0.0 0.0 0.0 0.0 0.0 0.0 0.0 0.0 0.0 -5.500657743344303e-18 0.8172242617098822 0.7141331503287116 0.065941604326966 -3.133016709259517e-05 0.0 -6.31255448711884e-17 9.413197003960335 6.029563456331691 0.27217325962895195 -0.00013006349742905298 0.0 -0.3513377348529261 -1.8695524374591272 -1.610309902821676 0.33970189094543457 1.9220432043075562 0.0009010639623738825 1.917476038215682e-05 1.917476038215682e-05 -4.793690095539205e-05 4.793690095539205e-05 9.58738019107841e-05 4.793690095539205e-05 0.0515899695456028 0.8501129746437073 0.6161166429519653 0.09623347222805023 0.03021283447742462 0.12420831620693207 0.0381317175924778 0.8388977646827698 0.6298419833183289 0.09959045052528381 0.03245082125067711 0.11749435216188431 0.2999918967274082 -0.20001506576709466 0.40002566806994666 -1.208967526527678 1.208994296815067 -1.2091093246998623 -3.7859447673979936e-06 1.648570317454431e-05 -2.9357419551253507e-06 4.122636249424979e-05 -1.792945651472634e-05 0.00011518171474090827 4.67952737999142 -6.699960453857473 2.9409423548515137 -0.5763240465876076 -0.00727248495858003 0.41014820207104835 0.29999999999773125 -0.19999999998749818 0.39999999999527563 -1.2090987221600364 1.2090487305541053 -1.209048730498419 0.0 0.0 0.0 0.0 0.0 0.0
2487.096 -0.3512852068466339 -1.8695186475529972 -1.6104316945584856 0.3396554019692496 1.9220226021590499 0.0008236363994447164 0.0 -0.0 -0.0 0.0 0.0 0.0 0.0 0.0 0.0 0.0 0.0 0.0 -5.500657743344303e-18 0.8172242617098822 0.7141331503287116 0.065941604326966 -3.133016709259517e-05 0.0 -6.31255448711884e-17 9.413197003960335 6.029563456331691 0.27217325962895195 -0.00013006349742905298 0.0 -0.351325813923971 -1.8694928328143519 -1.6103819052325647 0.33971381187438965 1.9220432043075562 0.0008651112439110875 1.917476038215682e-05 1.917476038215682e-05 -4.793690095539205e-05 4.793690095539205e-05 9.58738019107841e-05 4.793690095539205e-05 0.0314025916159153 0.8411408066749573 0.6405172944068909 0.10630441457033157 0.02685585245490074 0.12980328500270844 0.0381317175924778 0.8388977646827698 0.6298419833183289 0.09735246747732162 0.03021283447742462 0.11749435216188431 0.2999804644405056 -0.20000637277791256 0.4000274212102716 -1.2089999349446223 1.2089687910598157 -1.209126555664389 -3.786384970232736e-06 1.6485445340031778e-05 -2.9359812810982458e-06 4.122662095776521e-05 -1.792897190146075e-05 0.00011518169321665542 3.7175185898240035 -4.693731468648612 2.588760997100919 -0.6022677245273305 0.16790705573228157 0.2604422608314944 0.29999999999773125 -0.19999999998749818 0.39999999999527563 -1.2090987221600364 1.2090487305541053 -1.209048730498419 0.0 0.0 0.0 0.0 0.0 0.0
2487.104 -0.3512852068466339 -1.8695186475529972 -1.6104316945584856 0.3396554019692496 1.9220226021590499 0.0008236363994447164 0.0 -0.0 -0.0 0.0 0.0 0.0 0.0 0.0 0.0 0.0 0.0 0.0 -5.500657743344303e-18 0.8172242617098822 0.7141331503287116 0.065941604326966 -3.133016709259517e-05 0.0 -6.31255448711884e-17 9.413197003960335 6.029563456331691 0.27217325962895195 -0.00013006349742905298 0.0 -0.3513377348529261 -1.8695524374591272 -1.6103819052325647 0.33970189094543457 1.9220432043075562 0.0008411427843384445 1.917476038215682e-05 1.917476038215682e-05 -4.793690095539205e-05 4.793690095539205e-05 9.58738019107841e-05 4.793690095539205e-05 0.0291595496237278 0.8590851426124573 0.6374672055244446 0.09623347222805023 0.02909383922815323 0.11637535691261292 0.0381317175924778 0.8388977646827698 0.6298419833183289 0.09735246747732162 0.02685585245490074 0.1186133474111557 0.2999929276751774 -0.20001536329203468 0.40000561533079565 -1.2090433058597214 1.2090272732022895 -1.2091030565532643 -3.786233213276147e-06 1.6485828908505463e-05 -2.935282747568269e-06 4.123285455896758e-05 -1.7931822609765094e-05 0.00011517848302534164 4.5505206526343605 -5.279418098911611 2.1548523393846635 -0.5399349444346899 -0.029704284779451858 0.2984172619355724 0.29999999999773125 -0.19999999998749818 0.39999999999527563 -1.2090987221600364 1.2090487305541053 -1.209048730498419 0.0 0.0 0.0 0.0 0.0 0.0
2487.112 -0.3512852068466339 -1.8695186475529972 -1.6104316945584856 0.3396554019692496 1.9220226021590499 0.0008236363994447164 0.0 -0.0 -0.0 0.0 0.0 0.0 0.0 0.0 0.0 0.0 0.0 0.0 -5.500657743344303e-18 0.8172242617098822 0.7141331503287116 0.065941604326966 -3.133016709259517e-05 0.0 -6.31255448711884e-17 9.413197003960335 6.029563456331691 0.27217325962895195 -0.00013006349742905298 0.0 -0.35128957429994756 -1.8695767561541956 -1.6103699843036097 0.3397258520126343 1.9220671653747559 0.0009130481630563736 1.917476038215682e-05 1.917476038215682e-05 -4.793690095539205e-05 4.793690095539205e-05 9.58738019107841e-05 2.3968450477696024e-05 0.0358886756002903 0.8254395127296448 0.6389922499656677 0.09287648648023605 0.025736859068274498 0.11301837861537933 0.0381317175924778 0.8388977646827698 0.6298419833183289 0.09735246747732162 0.024617865681648254 0.1197323426604271 0.3000061360659255 -0.20000025591567844 0.400002262777692 -1.2090194074522078 1.2089983128545885 -1.2090050786014253 -3.7872810098197197e-06 1.6485733985701267e-05 -2.9352122803146125e-06 1.7264228829066077e-05 -1.7933144405125877e-05 0.00011517444936290551 3.005196904964931 -4.328605130935283 2.6302109451409197 -0.5243865847642691 0.14892849579695625 0.23578729814172342 0.29999999999773125 -0.19999999998749818 0.39999999999527563 -1.2090987221600364 1.2090487305541053 -1.209048730498419 0.0 0.0 0.0 0.0 0.0 0.0
2487.12 -0.3512852068466339 -1.8695186475529972 -1.6104316945584856 0.3396554019692496 1.9220226021590499 0.0008236363994447164 0.0 -0.0 -0.0 0.0 0.0 0.0 0.0 0.0 0.0 0.0 0.0 0.0 -5.500657743344303e-18 0.8172242617098822 0.7141331503287116 0.065941604326966 -3.133016709259517e-05 0.0 -6.31255448711884e-17 9.413197003960335 6.029563456331691 0.27217325962895195 -0.00013006349742905298 0.0 -0.3513854185687464 -1.869528595601217 -1.6103461424456995 0.33973777294158936 1.922079086303711 0.0008531270432285964 1.917476038215682e-05 1.917476038215682e-05 -4.793690095539205e-05 4.793690095539205e-05 7.190534961409867e-05 2.3968450477696024e-05 0.0448608435690403 0.8545990586280823 0.6618678569793701 0.09399548172950745 0.022379877045750618 0.10966140031814575 0.0381317175924778 0.8388977646827698 0.6298419833183289 0.09735246747732162 0.021260883659124374 0.11749435216188431 0.2999744452512824 -0.20002348595325126 0.4000266980406395 -1.208987045091938 1.2089602043768197 -1.2091696555255198 -3.7875756713189053e-06 1.4511768762077634e-05 -2.9344977853603875e-06 1.728438056355149e-05 -1.7949347923827607e-05 9.120789933315533e-05 3.0990526413260646 -5.018005378055461 1.4642772916079934 -0.5088236987480788 0.02322310552702215 0.3081642644686637 0.29999999999773125 -0.19999999998749818 0.39999999999527563 -1.2090987221600364 1.2090487305541053 -1.209048730498419 0.0 0.0 0.0 0.0 0.0 0.0
2487.1279999999997 -0.3512852068466339 -1.8695186475529972 -1.6104316945584856 0.3396554019692496 1.9220226021590499 0.0008236363994447164 0.0 -0.0 -0.0 0.0 0.0 0.0 0.0 0.0 0.0 0.0 0.0 0.0 -5.500657743344303e-18 0.8172242617098822 0.7141331503287116 0.065941604326966 -3.133016709259517e-05 0.0 -6.31255448711884e-17 9.413197003960335 6.029563456331691 0.27217325962895195 -0.00013006349742905298 0.0 -0.3513134161578577 -1.8695524374591272 -1.6103337446795862 0.33970189094543457 1.9220432043075562 0.0008411427843384445 1.917476038215682e-05 1.917476038215682e-05 -4.793690095539205e-05 4.793690095539205e-05 7.190534961409867e-05 2.3968450477696024e-05 0.0426178015768528 0.8366547226905823 0.6176416873931885 0.08728151768445969 0.019022895023226738 0.11637535691261292 0.0381317175924778 0.8388977646827698 0.6298419833183289 0.09735246747732162 0.019022895023226738 0.1186133474111557 0.29999710227004217 -0.20000786886143015 0.4000190280986306 -1.2090336239792767 1.2089683640181648 -1.2091188575326206 -3.7882587059831247e-06 1.451164187845809e-05 -2.934174540009374e-06 1.7288870157861254e-05 -1.7950134581761197e-05 9.120683957782985e-05 4.118970598174182 -5.893804523305087 2.947612459746651 -0.5399755440811407 0.008954722317727667 0.3959332322169218 0.29999999999773125 -0.19999999998749818 0.39999999999527563 -1.2090987221600364 1.2090487305541053 -1.209048730498419 0.0 0.0 0.0 0.0 0.0 0.0
2487.136 -0.3512852068466339 -1.8695186475529972 -1.6104316945584856 0.3396554019692496 1.9220226021590499 0.0008236363994447164 0.0 -0.0 -0.0 0.0 0.0 0.0 0.0 0.0 0.0 0.0 0.0 0.0 -5.500657743344303e-18 0.8172242617098822 0.7141331503287116 0.065941604326966 -3.133016709259517e-05 0.0 -6.31255448711884e-17 9.413197003960335 6.029563456331691 0.27217325962895195 -0.00013006349742905298 0.0 -0.3513377348529261 -1.869528595601217 -1.6103580633746546 0.33971381187438965 1.9220671653747559 0.0008411427843384445 1.917476038215682e-05 1.917476038215682e-05 -4.793690095539205e-05 4.793690095539205e-05 7.190534961409867e-05 2.3968450477696024e-05 0.0403747595846653 0.8097382187843323 0.6389922499656677 0.08616252988576889 0.011189938522875309 0.11749435216188431 0.0381317175924778 0.8388977646827698 0.6298419833183289 0.09959045052528381 0.015665914863348007 0.11749435216188431 0.2999860753499091 -0.20001091581396988 0.400021528654083 -1.209028502904643 1.2089588116588654 -1.209127074123408 -3.7881790928440433e-06 1.4511633811089077e-05 -2.9343353452121693e-06 1.7287660926505618e-05 -1.794969620707481e-05 9.12070955674562e-05 2.1876987269590407 -4.154038327506896 2.7663643047425475 -0.5451767327939041 0.20990983956438414 0.28908680167474043 0.29999999999773125 -0.19999999998749818 0.39999999999527563 -1.2090987221600364 1.2090487305541053 -1.209048730498419 0.0 0.0 0.0 0.0 0.0 0.0
2487.144 -0.3512852068466339 -1.8695186475529972 -1.6104316945584856 0.3396554019692496 1.9220226021590499 0.0008236363994447164 0.0 -0.0 -0.0 0.0 0.0 0.0 0.0 0.0 0.0 0.0 0.0 0.0 -5.500657743344303e-18 0.8172242617098822 0.7141331503287116 0.065941604326966 -3.133016709259517e-05 0.0 -6.31255448711884e-17 9.413197003960335 6.029563456331691 0.27217325962895195 -0.00013006349742905298 0.0 -0.351325813923971 -1.869516674672262 -1.6103580633746546 0.33970189094543457 1.9220432043075562 0.0008291585836559534 1.917476038215682e-05 1.917476038215682e-05 -4.793690095539205e-05 4.793690095539205e-05 7.190534961409867e-05 2.3968450477696024e-05 0.0448608435690403 0.8747864961624146 0.6496675610542297 0.09399548172950745 0.012308932840824127 0.11189938336610794 0.0381317175924778 0.8388977646827698 0.6283169388771057 0.09735246747732162 0.01342792622745037 0.11749435216188431 0.2999866361066561 -0.2000086498240835 0.4000247866435744 -1.2090316006346118 1.208962015625549 -1.2091447606498453 -3.788135363012137e-06 1.451153569979046e-05 -2.9343997066128595e-06 1.72878734312791e-05 -1.7950063805127064e-05 9.120709602116518e-05 4.326593875957745 -6.361153355883736 1.4703788019822341 -0.5192131069914534 -0.11944533507316993 0.4656789949118286 0.29999999999773125 -0.19999999998749818 0.39999999999527563 -1.2090987221600364 1.2090487305541053 -1.209048730498419 0.0 0.0 0.0 0.0 0.0 0.0
2487.152 -0.3512852068466339 -1.8695186475529972 -1.6104316945584856 0.3396554019692496 1.9220226021590499 0.0008236363994447164 0.0 -0.0 -0.0 0.0 0.0 0.0 0.0 0.0 0.0 0.0 0.0 0.0 -5.500657743344303e-18 0.8172242617098822 0.7141331503287116 0.065941604326966 -3.133016709259517e-05 0.0 -6.31255448711884e-17 9.413197003960335 6.029563456331691 0.27217325962895195 -0.00013006349742905298 0.0 -0.351325813923971 -1.8695643583880823 -1.6103337446795862 0.33966588973999023 1.922019124031067 0.0008890797034837306 1.917476038215682e-05 1.917476038215682e-05 -4.793690095539205e-05 4.793690095539205e-05 7.190534961409867e-05 2.3968450477696024e-05 0.0314025916159153 0.8187103867530823 0.642042338848114 0.09063850343227386 0.012308932840824127 0.11413737386465073 0.0381317175924778 0.8388977646827698 0.6298419833183289 0.1018284410238266 0.01007094420492649 0.11749435216188431 0.3000002876448269 -0.2000156403023018 0.40001207227632757 -1.209002061421485 1.209058787403005 -1.2090769653287994 -3.7878413575120792e-06 1.4511791339380182e-05 -2.933907946657124e-06 1.7291885057482778e-05 -1.795211121494292e-05 9.120576606626751e-05 2.599792589944048 -3.9782494179350385 2.6125687023147828 -0.5295728582520115 0.1839298725253231 0.2694187139649478 0.29999999999773125 -0.19999999998749818 0.39999999999527563 -1.2090987221600364 1.2090487305541053 -1.209048730498419 0.0 0.0 0.0 0.0 0.0 0.0
2487.16 -0.3512852068466339 -1.8695186475529972 -1.6104316945584856 0.3396554019692496 1.9220226021590499 0.0008236363994447164 0.0 -0.0 -0.0 0.0 0.0 0.0 0.0 0.0 0.0 0.0 0.0 0.0 -5.500657743344303e-18 0.8172242617098822 0.7141331503287116 0.065941604326966 -3.133016709259517e-05 0.0 -6.31255448711884e-17 9.413197003960335 6.029563456331691 0.27217325962895195 -0.00013006349742905298 0.0 -0.35134965578188115 -1.8695643583880823 -1.6103337446795862 0.3397258520126343 1.922079086303711 0.0009130481630563736 1.917476038215682e-05 1.917476038215682e-05 -4.793690095539205e-05 4.793690095539205e-05 7.190534961409867e-05 2.3968450477696024e-05 0.0358886756002903 0.8590851426124573 0.6084914207458496 0.10742340981960297 0.007832957431674004 0.12868429720401764 0.0381317175924778 0.8388977646827698 0.6252669095993042 0.1018284410238266 0.007832957431674004 0.11749435216188431 0.2999907121732305 -0.20001609540111454 0.40001669902152853 -1.2089752867956558 1.2089923372631484 -1.2090745766973656 -3.788062508614758e-06 1.451181965884595e-05 -2.9341609091883193e-06 1.728740810573456e-05 -1.794960408142815e-05 9.120710869668244e-05 5.5205903395377165 -7.023069561649679 3.2426610008984573 -0.597115805108723 -0.0017567440891552524 0.5408680637426544 0.29999999999773125 -0.19999999998749818 0.39999999999527563 -1.2090987221600364 1.2090487305541053 -1.209048730498419 0.0 0.0 0.0 0.0 0.0 0.0
2487.1679999999997 -0.3512852068466339 -1.8695186475529972 -1.6104316945584856 0.3396554019692496 1.9220226021590499 0.0008236363994447164 0.0 -0.0 -0.0 0.0 0.0 0.0 0.0 0.0 0.0 0.0 0.0 0.0 -5.500657743344303e-18 0.8172242617098822 0.7141331503287116 0.065941604326966 -3.133016709259517e-05 0.0 -6.31255448711884e-17 9.413197003960335 6.029563456331691 0.27217325962895195 -0.00013006349742905298 0.0 -0.35128957429994756 -1.8695524374591272 -1.6103337446795862 0.33970189094543457 1.9221150875091553 0.0008171743829734623 1.917476038215682e-05 1.917476038215682e-05 -4.793690095539205e-05 4.793690095539205e-05 7.190534961409867e-05 2.3968450477696024e-05 0.0358886756002903 0.8187103867530823 0.6374672055244446 0.09735246747732162 0.01007094420492649 0.11637535691261292 0.0381317175924778 0.8388977646827698 0.631367027759552 0.1018284410238266 0.004475975409150124 0.11749435216188431 0.30000187584089966 -0.1999947961080916 0.4000190238536005 -1.2090966195580215 1.2088865489184437 -1.2090660474209693 -3.78914454484951e-06 1.4511551991702183e-05 -2.934213990466149e-06 1.7289297749835828e-05 -1.7947999450192935e-05 9.120683834022955e-05 2.729024928763993 -4.409688979544991 2.8865203247675253 -0.5400106688600468 0.21876797291445813 0.31534352986107705 0.29999999999773125 -0.19999999998749818 0.39999999999527563 -1.2090987221600364 1.2090487305541053 -1.209048730498419 0.0 0.0 0.0 0.0 0.0 0.0
2487.176 -0.3512852068466339 -1.8695186475529972 -1.6104316945584856 0.3396554019692496 1.9220226021590499 0.0008236363994447164 0.0 -0.0 -0.0 0.0 0.0 0.0 0.0 0.0 0.0 0.0 0.0 0.0 -5.500657743344303e-18 0.8172242617098822 0.7141331503287116 0.065941604326966 -3.133016709259517e-05 0.0 -6.31255448711884e-17 9.413197003960335 6.029563456331691 0.27217325962895195 -0.00013006349742905298 0.0 -0.3513734976397913 -1.869504753743307 -1.6103819052325647 0.33971381187438965 1.9220671653747559 0.0008531270432285964 1.917476038215682e-05 1.917476038215682e-05 -4.793690095539205e-05 4.793690095539205e-05 7.190534961409867e-05 2.3968450477696024e-05 0.0471038855612278 0.8433838486671448 0.6542426943778992 0.0850435346364975 0.004475975409150124 0.11189938336610794 0.0381317175924778 0.8388977646827698 0.6298419833183289 0.1018284410238266 0.001118993852287531 0.11749435216188431 0.29997370722253214 -0.2000197164251938 0.40002324279309925 -1.2090028045991608 1.2089907632459251 -1.2091445438625166 -3.7877283272026057e-06 1.4511680503652332e-05 -2.9344419682898737e-06 1.7287019034000158e-05 -1.795031283237119e-05 9.120709554979336e-05 2.767670758245642 -5.229152441192155 1.700641895589217 -0.5192194814574883 0.0240082641567105 0.40893243284887165 0.29999999999773125 -0.19999999998749818 0.39999999999527563 -1.2090987221600364 1.2090487305541053 -1.209048730498419 0.0 0.0 0.0 0.0 0.0 0.0
2487.1839999999997 -0.3512852068466339 -1.8695186475529972 -1.6104316945584856 0.3396554019692496 1.9220226021590499 0.0008236363994447164 0.0 -0.0 -0.0 0.0 0.0 0.0 0.0 0.0 0.0 0.0 0.0 0.0 -5.500657743344303e-18 0.8172242617098822 0.7141331503287116 0.065941604326966 -3.133016709259517e-05 0.0 -6.31255448711884e-17 9.413197003960335 6.029563456331691 0.27217325962895195 -0.00013006349742905298 0.0 -0.3513377348529261 -1.869504753743307 -1.610406223927633 0.33967792987823486 1.9220911264419556 0.0008770955028012395 1.917476038215682e-05 1.917476038215682e-05 -2.3968450477696024e-05 4.793690095539205e-05 7.190534961409867e-05 2.3968450477696024e-05 0.0358886756002903 0.912918210029602 0.6298419833183289 0.1018284410238266 0.001118993852287531 0.10966140031814575 0.0381317175924778 0.8388977646827698 0.6298419833183289 0.1018284410238266 -0.001118993852287531 0.11749435216188431 0.2999840894353465 -0.20000816804518728 0.40001369786238655 -1.2090398465737762 1.2090094551214532 -1.209040860039646 -4.13151939284813e-06 1.4610621767420806e-05 3.741072304979967e-06 9.044795035735635e-06 -4.0455420402641205e-05 9.11156628125348e-05 6.749169660133216 -8.296690718475345 1.5501025642863286 -0.5087976214424952 -0.3457066014094722 0.677205499283931 0.29999999999773125 -0.19999999998749818 0.39999999999527563 -1.2090987221600364 1.2090487305541053 -1.209048730498419 0.0 0.0 0.0 0.0 0.0 0.0
2487.192 -0.3512852068466339 -1.8695186475529972 -1.6104316945584856 0.3396554019692496 1.9220226021590499 0.0008236363994447164 0.0 -0.0 -0.0 0.0 0.0 0.0 0.0 0.0 0.0 0.0 0.0 0.0 -5.500657743344303e-18 0.8172242617098822 0.7141331503287116 0.065941604326966 -3.133016709259517e-05 0.0 -6.31255448711884e-17 9.413197003960335 6.029563456331691 0.27217325962895195 -0.00013006349742905298 0.0 -0.3513377348529261 -1.8695524374591272 -1.6103337446795862 0.33971381187438965 1.9220311641693115 0.0008411427843384445 1.917476038215682e-05 1.917476038215682e-05 -2.3968450477696024e-05 4.793690095539205e-05 7.190534961409867e-05 2.3968450477696024e-05 0.0403747595846653 0.8209534287452698 0.6328920722007751 0.10742340981960297 -0.0055949692614376545 0.12308932095766068 0.0381317175924778 0.8388977646827698 0.6298419833183289 0.1018284410238266 -0.004475975409150124 0.11749435216188431 0.29999128075452197 -0.20001580625395804 0.40001994931927165 -1.20901119324064 1.208984958731506 -1.2091539462027168 -4.131121610829966e-06 1.4610798432020442e-05 3.741003732182367e-06 9.040692065385227e-06 -4.045536039929154e-05 9.111702352615273e-05 2.8857622175649262 -5.154026479143729 3.190653443819533 -0.5711699203810282 0.2680909644795407 0.4494617207745465 0.29999999999773125 -0.19999999998749818 0.39999999999527563 -1.2090987221600364 1.2090487305541053 -1.209048730498419 0.0 0.0 0.0 0.0 0.0 0.0
2487.2 -0.3512852068466339 -1.8695186475529972 -1.6104316945584856 0.3396554019692496 1.9220226021590499 0.0008236363994447164 0.0 -0.0 -0.0 0.0 0.0 0.0 0.0 0.0 0.0 0.0 0.0 0.0 -5.500657743344303e-18 0.8172242617098822 0.7141331503287116 0.065941604326966 -3.133016709259517e-05 0.0 -6.31255448711884e-17 9.413197003960335 6.029563456331691 0.27217325962895195 -0.00013006349742905298 0.0 -0.3513377348529261 -1.8695767561541956 -1.6103819052325647 0.33970189094543457 1.9220311641693115 0.0008411427843384445 1.917476038215682e-05 1.917476038215682e-05 -2.3968450477696024e-05 4.793690095539205e-05 7.190534961409867e-05 2.3968450477696024e-05 0.0426178015768528 0.8433838486671448 0.6145915985107422 0.09847146272659302 0.0055949692614376545 0.12308932095766068 0.0403747595846653 0.8388977646827698 0.6298419833183289 0.1018284410238266 -0.007832957431674004 0.11749435216188431 0.29999859390616346 -0.20001842121016733 0.3999970945266851 -1.2090482598391734 1.2090568892660858 -1.2090949387552186 -4.130843594560113e-06 1.46108536682699e-05 3.741619609522154e-06 9.046399110134853e-06 -4.04574466195502e-05 9.111513183768523e-05 4.485876455109368 -6.518084304106018 3.1512796203269335 -0.5711171124593679 0.04137991735932532 0.5097936850219363 0.29999999999773125 -0.19999999998749818 0.39999999999527563 -1.2090987221600364 1.2090487305541053 -1.209048730498419 0.0 0.0 0.0 0.0 0.0 0.0
2487.208 -0.3512852068466339 -1.8695186475529972 -1.6104316945584856 0.3396554019692496 1.9220226021590499 0.0008236363994447164 0.0 -0.0 -0.0 0.0 0.0 0.0 0.0 0.0 0.0 0.0 0.0 0.0 -5.500657743344303e-18 0.8172242617098822 0.7141331503287116 0.065941604326966 -3.133016709259517e-05 0.0 -6.31255448711884e-17 9.413197003960335 6.029563456331691 0.27217325962895195 -0.00013006349742905298 0.0 -0.351325813923971 -1.8695405165301722 -1.6103223005877894 0.33970189094543457 1.9220671653747559 0.0009010639623738825 1.917476038215682e-05 1.917476038215682e-05 -2.3968450477696024e-05 4.793690095539205e-05 7.190534961409867e-05 2.3968450477696024e-05 0.0403747595846653 0.863571286201477 0.6161166429519653 0.09623347222805023 -0.014546919614076614 0.11301837861537933 0.0381317175924778 0.8388977646827698 0.6298419833183289 0.09847146272659302 -0.011189938522875309 0.11749435216188431 0.2999916822055214 -0.20000855447381852 0.4000263909921803 -1.2089847482005158 1.2089682613298758 -1.2090825552986435 -4.1316090790744355e-06 1.4610722640732834e-05 3.7408329203734376e-06 9.04039906259436e-06 -4.0454106662146234e-05 9.111727942993479e-05 5.136078016967584 -7.414087470823221 2.7061081861605687 -0.524460841577507 -0.1071202495270861 0.6774018054095691 0.29999999999773125 -0.19999999998749818 0.39999999999527563 -1.2090987221600364 1.2090487305541053 -1.209048730498419 0.0 0.0 0.0 0.0 0.0 0.0
2487.216 -0.3512852068466339 -1.8695186475529972 -1.6104316945584856 0.3396554019692496 1.9220226021590499 0.0008236363994447164 0.0 -0.0 -0.0 0.0 0.0 0.0 0.0 0.0 0.0 0.0 0.0 0.0 -5.500657743344303e-18 0.8172242617098822 0.7141331503287116 0.065941604326966 -3.133016709259517e-05 0.0 -6.31255448711884e-17 9.413197003960335 6.029563456331691 0.27217325962895195 -0.00013006349742905298 0.0 -0.35130149522890264 -1.869504753743307 -1.6103580633746546 0.33967792987823486 1.9220671653747559 0.0008651112439110875 1.917476038215682e-05 1.917476038215682e-05 -2.3968450477696024e-05 4.793690095539205e-05 7.190534961409867e-05 2.3968450477696024e-05 0.0269165076315403 0.8231964707374573 0.6039162874221802 0.10294743627309799 -0.014546919614076614 0.11749435216188431 0.0381317175924778 0.8388977646827698 0.6298419833183289 0.09959045052528381 -0.014546919614076614 0.11749435216188431 0.299990646095482 -0.19999907100242012 0.40002711206146513 -1.209033264732959 1.2089537458130784 -1.2090743420861911 -4.131978453780976e-06 1.4610498492147408e-05 3.740809993551961e-06 9.043002900246859e-06 -4.04544773366085e-05 9.111674262168393e-05 4.266293659180339 -5.81861773817494 3.9168291543102436 -0.5452285763533143 0.15742913227566152 0.5459406254582932 0.29999999999773125 -0.19999999998749818 0.39999999999527563 -1.2090987221600364 1.2090487305541053 -1.209048730498419 0.0 0.0 0.0 0.0 0.0 0.0
2487.2239999999997 -0.3512852068466339 -1.8695186475529972 -1.6104316945584856 0.3396554019692496 1.9220226021590499 0.0008236363994447164 0.0 -0.0 -0.0 0.0 0.0 0.0 0.0 0.0 0.0 0.0 0.0 0.0 -5.500657743344303e-18 0.8172242617098822 0.7141331503287116 0.065941604326966 -3.133016709259517e-05 0.0 -6.31255448711884e-17 9.413197003960335 6.029563456331691 0.27217325962895195 -0.00013006349742905298 0.0 -0.35130149522890264 -1.8695405165301722 -1.6103461424456995 0.33968985080718994 1.9220551252365112 0.0008770955028012395 1.917476038215682e-05 1.917476038215682e-05 -2.3968450477696024e-05 4.793690095539205e-05 7.190534961409867e-05 2.3968450477696024e-05 0.0336456336081028 0.8433838486671448 0.631367027759552 0.1007094457745552 -0.015665914863348007 0.1186133474111557 0.0426178015768528 0.8388977646827698 0.6298419833183289 0.10294743627309799 -0.01678490824997425 0.11749435216188431 0.299997852825249 -0.20000270233305234 0.4000188220282608 -1.209023944477346 1.208978467301272 -1.2090660700700175 -4.131775610576172e-06 1.4610613704791871e-05 3.741060931095296e-06 9.043808947407307e-06 -4.0455061865186156e-05 9.111647555082464e-05 3.8553516344866665 -5.8626551819287736 2.7034339974272736 -0.5504003080757621 0.08225474856367115 0.5547838571505304 0.29999999999773125 -0.19999999998749818 0.39999999999527563 -1.2090987221600364 1.2090487305541053 -1.209048730498419 0.0 0.0 0.0 0.0 0.0 0.0
2487.232 -0.3512852068466339 -1.8695186475529972 -1.6104316945584856 0.3396554019692496 1.9220226021590499 0.0008236363994447164 0.0 -0.0 -0.0 0.0 0.0 0.0 0.0 0.0 0.0 0.0 0.0 0.0 -5.500657743344303e-18 0.8172242617098822 0.7141331503287116 0.065941604326966 -3.133016709259517e-05 0.0 -6.31255448711884e-17 9.413197003960335 6.029563456331691 0.27217325962895195 -0.00013006349742905298 0.0 -0.3512776533709925 -1.8695767561541956 -1.6103699843036097 0.33970189094543457 1.9220671653747559 0.0008411427843384445 1.917476038215682e-05 1.917476038215682e-05 -2.3968450477696024e-05 4.793690095539205e-05 4.793690095539205e-05 2.3968450477696024e-05 0.0336456336081028 0.8433838486671448 0.6161166429519653 0.09175749868154526 -0.015665914863348007 0.1186133474111557 0.0381317175924778 0.8388977646827698 0.6298419833183289 0.1007094457745552 -0.02014188840985298 0.11749435216188431 0.30001044285319484 -0.19999738228927746 0.40000041246599655 -1.2090884880551063 1.208975993956215 -1.2090325387815601 -4.1337177652307384e-06 1.2636601556140711e-05 3.7428776634094445e-06 9.075032415918384e-06 -4.047245673025133e-05 6.714697083991262e-05 4.413638887881951 -6.37554477924081 2.9681843042154608 -0.5503669307080727 -0.003834017818538335 0.5970944247624583 0.29999999999773125 -0.19999999998749818 0.39999999999527563 -1.2090987221600364 1.2090487305541053 -1.209048730498419 0.0 0.0 0.0 0.0 0.0 0.0
2487.24 -0.3512852068466339 -1.8695186475529972 -1.6104316945584856 0.3396554019692496 1.9220226021590499 0.0008236363994447164 0.0 -0.0 -0.0 0.0 0.0 0.0 0.0 0.0 0.0 0.0 0.0 0.0 -5.500657743344303e-18 0.8172242617098822 0.7141331503287116 0.065941604326966 -3.133016709259517e-05 0.0 -6.31255448711884e-17 9.413197003960335 6.029563456331691 0.27217325962895195 -0.00013006349742905298 0.0 -0.3513134161578577 -1.8695405165301722 -1.6103580633746546 0.33971381187438965 1.922079086303711 0.0008411427843384445 1.917476038215682e-05 1.917476038215682e-05 -2.3968450477696024e-05 4.793690095539205e-05 4.793690095539205e-05 2.3968450477696024e-05 0.0314025916159153 0.8523560166358948 0.6252669095993042 0.10742340981960297 -0.027974845841526985 0.12532731890678406 0.0381317175924778 0.8388977646827698 0.6298419833183289 0.10406643152236938 -0.02349887043237686 0.11749435216188431 0.29999371839355005 -0.2000036515953096 0.40001735086235135 -1.209050876859168 1.2089423007720812 -1.2090920673558165 -4.133588921158254e-06 1.263663639050805e-05 3.742381866533247e-06 9.070875963547847e-06 -4.047150509646688e-05 6.714831917654961e-05 4.45262102430318 -6.542019571432098 2.865641938912384 -0.5815774171839012 0.06774478396574413 0.6679662367989502 0.29999999999773125 -0.19999999998749818 0.39999999999527563 -1.2090987221600364 1.2090487305541053 -1.209048730498419 0.0 0.0 0.0 0.0 0.0 0.0
2487.248 -0.3512852068466339 -1.8695186475529972 -1.6104316945584856 0.3396554019692496 1.9220226021590499 0.0008236363994447164 0.0 -0.0 -0.0 0.0 0.0 0.0 0.0 0.0 0.0 0.0 0.0 0.0 -5.500657743344303e-18 0.8172242617098822 0.7141331503287116 0.065941604326966 -3.133016709259517e-05 0.0 -6.31255448711884e-17 9.413197003960335 6.029563456331691 0.27217325962895195 -0.00013006349742905298 0.0 -0.35134965578188115 -1.869504753743307 -1.6103223005877894 0.33968985080718994 1.9220671653747559 0.0008651112439110875 1.917476038215682e-05 1.917476038215682e-05 -2.3968450477696024e-05 4.793690095539205e-05 4.793690095539205e-05 2.3968450477696024e-05 0.0336456336081028 0.7895508408546448 0.623741865158081 0.08840051293373108 -0.027974845841526985 0.12085133790969849 0.0381317175924778 0.8388977646827698 0.6298419833183289 0.1018284410238266 -0.02685585245490074 0.11749435216188431 0.29997954460677295 -0.20001302082317285 0.4000379925135497 -1.2089895468933223 1.2089485802327549 -1.2091431620142499 -4.1332418752870926e-06 1.2636701975562611e-05 3.741972556733669e-06 9.06726062769813e-06 -4.0471335612856576e-05 6.714938700099755e-05 1.8801647873975724 -4.311142943684135 3.6191190860900235 -0.5608252036179284 0.31800142338545045 0.4842778942668586 0.29999999999773125 -0.19999999998749818 0.39999999999527563 -1.2090987221600364 1.2090487305541053 -1.209048730498419 0.0 0.0 0.0 0.0 0.0 0.0
2487.256 -0.3512852068466339 -1.8695186475529972 -1.6104316945584856 0.3396554019692496 1.9220226021590499 0.0008236363994447164 0.0 -0.0 -0.0 0.0 0.0 0.0 0.0 0.0 0.0 0.0 0.0 0.0 -5.500657743344303e-18 0.8172242617098822 0.7141331503287116 0.065941604326966 -3.133016709259517e-05 0.0 -6.31255448711884e-17 9.413197003960335 6.029563456331691 0.27217325962895195 -0.00013006349742905298 0.0 -0.35134965578188115 -1.869528595601217 -1.6103819052325647 0.33968985080718994 1.9220551252365112 0.0008531270432285964 1.917476038215682e-05 1.917476038215682e-05 -2.3968450477696024e-05 4.793690095539205e-05 4.793690095539205e-05 2.3968450477696024e-05 0.01794433780014515 0.8366547226905823 0.6389922499656677 0.10294743627309799 -0.03245082125067711 0.12532731890678406 0.0381317175924778 0.8388977646827698 0.6298419833183289 0.10294743627309799 -0.03021283447742462 0.11749435216188431 0.29998595408403306 -0.20001628494554724 0.40001303915105063 -1.2090293237191867 1.2090228720902754 -1.2091024819525846 -4.132917091144436e-06 1.2636744586295587e-05 3.7425427837576884e-06 9.071026925056902e-06 -4.047299847684004e-05 6.714751435560928e-05 3.4548397862184275 -4.925463213861544 2.644589387733444 -0.5815418842675328 0.16338372933869924 0.5556552365569232 0.29999999999773125 -0.19999999998749818 0.39999999999527563 -1.2090987221600364 1.2090487305541053 -1.209048730498419 0.0 0.0 0.0 0.0 0.0 0.0
2487.2639999999997 -0.3512852068466339 -1.8695186475529972 -1.6104316945584856 0.3396554019692496 1.9220226021590499 0.0008236363994447164 0.0 -0.0 -0.0 0.0 0.0 0.0 0.0 0.0 0.0 0.0 0.0 0.0 -5.500657743344303e-18 0.8172242617098822 0.7141331503287116 0.065941604326966 -3.133016709259517e-05 0.0 -6.31255448711884e-17 9.413197003960335 6.029563456331691 0.27217325962895195 -0.00013006349742905298 0.0 -0.35136157671083623 -1.869516674672262 -1.6103337446795862 0.33973777294158936 1.9220671653747559 0.0008651112439110875 1.917476038215682e-05 1.917476038215682e-05 -2.3968450477696024e-05 4.793690095539205e-05 4.793690095539205e-05 2.3968450477696024e-05 0.0336456336081028 0.8074951767921448 0.6283169388771057 0.09399548172950745 -0.034688808023929596 0.10966140031814575 0.0381317175924778 0.8388977646827698 0.6298419833183289 0.10294743627309799 -0.0335698164999485 0.11749435216188431 0.2999762571861697 -0.200016251370389 0.40003432852213455 -1.2089731617955612 1.2089363652711422 -1.209169043228964 -4.133180578608669e-06 1.263676374567976e-05 3.74190998972154e-06 9.065675104936373e-06 -4.047103923522795e-05 6.714993786388805e-05 2.402162014473217 -4.934849936223539 3.2847903517258796 -0.5089338761008916 0.23490048542161754 0.5669470083830053 0.29999999999773125 -0.19999999998749818 0.39999999999527563 -1.2090987221600364 1.2090487305541053 -1.209048730498419 0.0 0.0 0.0 0.0 0.0 0.0
2487.272 -0.3512852068466339 -1.8695186475529972 -1.6104316945584856 0.3396554019692496 1.9220226021590499 0.0008236363994447164 0.0 -0.0 -0.0 0.0 0.0 0.0 0.0 0.0 0.0 0.0 0.0 0.0 -5.500657743344303e-18 0.8172242617098822 0.7141331503287116 0.065941604326966 -3.133016709259517e-05 0.0 -6.31255448711884e-17 9.413197003960335 6.029563456331691 0.27217325962895195 -0.00013006349742905298 0.0 -0.35128957429994756 -1.8695643583880823 -1.6103461424456995 0.3397258520126343 1.9220551252365112 0.0008411427843384445 1.917476038215682e-05 1.917476038215682e-05 -2.3968450477696024e-05 4.793690095539205e-05 4.793690095539205e-05 2.3968450477696024e-05 0.0358886756002903 0.8747864961624146 0.6161166429519653 0.10630441457033157 -0.038045790046453476 0.12197033315896988 0.0381317175924778 0.8388977646827698 0.6298419833183289 0.1018284410238266 -0.03692679852247238 0.11749435216188431 0.3000029046912169 -0.20000009577808003 0.4000132476835929 -1.2090507196498148 1.2089423062102125 -1.209092241439559 -4.133706882984376e-06 1.2636615162798436e-05 3.7425212467557257e-06 9.071835830773493e-06 -4.047186201467664e-05 6.714832217290191e-05 5.569806253988601 -8.04910018797276 2.7182600611378605 -0.5660106883523187 -0.0982736831644003 0.8390110006040498 0.29999999999773125 -0.19999999998749818 0.39999999999527563 -1.2090987221600364 1.2090487305541053 -1.209048730498419 0.0 0.0 0.0 0.0 0.0 0.0
2487.2799999999997 -0.3512852068466339 -1.8695186475529972 -1.6104316945584856 0.3396554019692496 1.9220226021590499 0.0008236363994447164 0.0 -0.0 -0.0 0.0 0.0 0.0 0.0 0.0 0.0 0.0 0.0 0.0 -5.500657743344303e-18 0.8172242617098822 0.7141331503287116 0.065941604326966 -3.133016709259517e-05 0.0 -6.31255448711884e-17 9.413197003960335 6.029563456331691 0.27217325962895195 -0.00013006349742905298 0.0 -0.3513134161578577 -1.8695524374591272 -1.6103461424456995 0.3397258520126343 1.9220551252365112 0.0008411427843384445 1.917476038215682e-05 1.917476038215682e-05 -2.3968450477696024e-05 4.793690095539205e-05 4.793690095539205e-05 2.3968450477696024e-05 0.0336456336081028 0.8456268906593323 0.6435673832893372 0.08728151768445969 -0.04699774086475372 0.1197323426604271 0.0381317175924778 0.8388977646827698 0.6298419833183289 0.10294743627309799 -0.04028377681970596 0.1186133474111557 0.2999953580246189 -0.20000623546199503 0.4000174248316931 -1.2090342227527906 1.2089496885667785 -1.2091181235739898 -4.1334668109607835e-06 1.263667591340117e-05 3.7424038135681547e-06 9.07033335684873e-06 -4.047188160651156e-05 6.714858973931901e-05 3.209914312343712 -5.939888539517146 2.0248473931351385 -0.5556277002176787 0.014797330435815277 0.7070167473298237 0.29999999999773125 -0.19999999998749818 0.39999999999527563 -1.2090987221600364 1.2090487305541053 -1.209048730498419 0.0 0.0 0.0 0.0 0.0 0.0
2487.288 -0.3512852068466339 -1.8695186475529972 -1.6104316945584856 0.3396554019692496 1.9220226021590499 0.0008236363994447164 0.0 -0.0 -0.0 0.0 0.0 0.0 0.0 0.0 0.0 0.0 0.0 0.0 -5.500657743344303e-18 0.8172242617098822 0.7141331503287116 0.065941604326966 -3.133016709259517e-05 0.0 -6.31255448711884e-17 9.413197003960335 6.029563456331691 0.27217325962895195 -0.00013006349742905298 0.0 -0.3513134161578577 -1.8695405165301722 -1.6103938261615198 0.33970189094543457 1.9220671653747559 0.0008770955028012395 1.917476038215682e-05 1.917476038215682e-05 -2.3968450477696024e-05 4.793690095539205e-05 4.793690095539205e-05 2.3968450477696024e-05 0.0403747595846653 0.8972169160842896 0.6222168207168579 0.09847146272659302 -0.0335698164999485 0.11749435216188431 0.0381317175924778 0.8388977646827698 0.6298419833183289 0.10406643152236938 -0.03580780327320099 0.12085133790969849 0.29999518596415065 -0.20000513075972767 0.40000647110081466 -1.2090397065823664 1.2090086994439202 -1.2090410116901849 -4.133397596467218e-06 1.2636621292353289e-05 3.742648917520503e-06 9.073027361011234e-06 -4.04725756417571e-05 6.714724918672265e-05 6.133481893140806 -8.73738174555434 1.9808180615542816 -0.5451843331042695 -0.27480662468886463 0.8749413864041268 0.29999999999773125 -0.19999999998749818 0.39999999999527563 -1.2090987221600364 1.2090487305541053 -1.209048730498419 0.0 0.0 0.0 0.0 0.0 0.0
2487.296 -0.3512852068466339 -1.8695186475529972 -1.6104316945584856 0.3396554019692496 1.9220226021590499 0.0008236363994447164 0.0 -0.0 -0.0 0.0 0.0 0.0 0.0 0.0 0.0 0.0 0.0 0.0 -5.500657743344303e-18 0.8172242617098822 0.7141331503287116 0.065941604326966 -3.133016709259517e-05 0.0 -6.31255448711884e-17 9.413197003960335 6.029563456331691 0.27217325962895195 -0.00013006349742905298 0.0 -0.35128957429994756 -1.8695767561541956 -1.6103580633746546 0.33968985080718994 1.9220671653747559 0.0008531270432285964 1.917476038215682e-05 1.917476038215682e-05 -2.3968450477696024e-05 4.793690095539205e-05 4.793690095539205e-05 2.3968450477696024e-05 0.0269165076315403 0.8568421006202698 0.6100164651870728 0.1018284410238266 -0.03245082125067711 0.10966140031814575 0.0381317175924778 0.8388977646827698 0.6298419833183289 0.1007094457745552 -0.034688808023929596 0.11637535691261292 0.3000088542035746 -0.2000012626033984 0.4000028026905001 -1.2090740656676242 1.208990565392881 -1.2090324361159215 -4.133549908646875e-06 1.2636662193531536e-05 3.7428742270947034e-06 9.07455371572007e-06 -4.047256708638272e-05 6.71469682124246e-05 5.253429649316046 -7.108618528004727 3.1219315010199007 -0.5088508361428952 -0.051527081981952556 0.7356204359557802 0.29999999999773125 -0.19999999998749818 0.39999999999527563 -1.2090987221600364 1.2090487305541053 -1.209048730498419 0.0 0.0 0.0 0.0 0.0 0.0
2487.304 -0.3512852068466339 -1.8695186475529972 -1.6104316945584856 0.3396554019692496 1.9220226021590499 0.0008236363994447164 0.0 -0.0 -0.0 0.0 0.0 0.0 0.0 0.0 0.0 0.0 0.0 0.0 -5.500657743344303e-18 0.8172242617098822 0.7141331503287116 0.065941604326966 -3.133016709259517e-05 0.0 -6.31255448711884e-17 9.413197003960335 6.029563456331691 0.27217325962895195 -0.00013006349742905298 0.0 -0.35130149522890264 -1.8695405165301722 -1.6103337446795862 0.33973777294158936 1.9220671653747559 0.0008651112439110875 1.917476038215682e-05 1.917476038215682e-05 -2.3968450477696024e-05 4.793690095539205e-05 4.793690095539205e-05 2.3968450477696024e-05 0.0291595496237278 0.863571286201477 0.6115415096282959 0.10742340981960297 -0.031331829726696014 0.10854240506887436 0.0381317175924778 0.8411408066749573 0.6298419833183289 0.1007094457745552 -0.03245082125067711 0.11749435216188431 0.2999938306881444 -0.2000002538186175 0.4000259744389907 -1.2090120150647066 1.2089124741931339 -1.209108147404556 -4.133817395879286e-06 1.2636591008753361e-05 3.7421448614569282e-06 9.069181774350132e-06 -4.047088785237278e-05 6.714940279537025e-05 5.459110953581184 -7.406536504863086 3.0748433123109447 -0.5037393889742864 -0.056691960736104406 0.7548948934115062 0.29999999999773125 -0.19999999998749818 0.39999999999527563 -1.2090987221600364 1.2090487305541053 -1.209048730498419 0.0 0.0 0.0 0.0 0.0 0.0
2487.312 -0.3512852068466339 -1.8695186475529972 -1.6104316945584856 0.3396554019692496 1.9220226021590499 0.0008236363994447164 0.0 -0.0 -0.0 0.0 0.0 0.0 0.0 0.0 0.0 0.0 0.0 0.0 -5.500657743344303e-18 0.8172242617098822 0.7141331503287116 0.065941604326966 -3.133016709259517e-05 0.0 -6.31255448711884e-17 9.413197003960335 6.029563456331691 0.27217325962895195 -0.00013006349742905298 0.0 -0.3513134161578577 -1.869504753743307 -1.6103337446795862 0.33970189094543457 1.922079086303711 0.0008770955028012395 1.917476038215682e-05 1.917476038215682e-05 -2.3968450477696024e-05 4.793690095539205e-05 4.793690095539205e-05 2.3968450477696024e-05 0.0336456336081028 0.8254395127296448 0.5947660803794861 0.10518541932106018 -0.03245082125067711 0.13092228770256042 0.0381317175924778 0.8388977646827698 0.6298419833183289 0.1007094457745552 -0.03245082125067711 0.11749435216188431 0.2999859915690747 -0.20000086192497 0.400035734276096 -1.2090032603249592 1.2089182525218887 -1.2090992612625098 -4.133784014827518e-06 1.2636541136154712e-05 3.7419588336489005e-06 9.068701935237832e-06 -4.04707112434697e-05 6.714940011887719e-05 4.514768304656242 -6.827435721523521 4.193543407198684 -0.6075932673730049 0.1611381326939051 0.7122581585311121 0.29999999999773125 -0.19999999998749818 0.39999999999527563 -1.2090987221600364 1.2090487305541053 -1.209048730498419 0.0 0.0 0.0 0.0 0.0 0.0
2487.3199999999997 -0.3512852068466339 -1.8695186475529972 -1.6104316945584856 0.3396554019692496 1.9220226021590499 0.0008236363994447164 0.0 -0.0 -0.0 0.0 0.0 0.0 0.0 0.0 0.0 0.0 0.0 0.0 -5.500657743344303e-18 0.8172242617098822 0.7141331503287116 0.065941604326966 -3.133016709259517e-05 0.0 -6.31255448711884e-17 9.413197003960335 6.029563456331691 0.27217325962895195 -0.00013006349742905298 0.0 -0.351325813923971 -1.8695524374591272 -1.6103461424456995 0.3397258520126343 1.9220311641693115 0.0009130481630563736 1.917476038215682e-05 1.917476038215682e-05 -2.3968450477696024e-05 4.793690095539205e-05 4.793690095539205e-05 2.3968450477696024e-05 0.0381317175924778 0.8209534287452698 0.6069663763046265 0.1007094457745552 -0.031331829726696014 0.12085133790969849 0.0381317175924778 0.8388977646827698 0.6298419833183289 0.1007094457745552 -0.03245082125067711 0.11749435216188431 0.29999287652954026 -0.20001192812150828 0.40001742625444564 -1.208964060525083 1.2090104513018192 -1.2090919307130656 -4.133177701597606e-06 1.263672705573835e-05 3.742433140003735e-06 9.069831676309519e-06 -4.047256836450551e-05 6.714859015411243e-05 3.763877147683785 -6.379031089413855 3.8179627605706514 -0.5608297158324365 0.1693137416243641 0.6702016210546402 0.29999999999773125 -0.19999999998749818 0.39999999999527563 -1.2090987221600364 1.2090487305541053 -1.209048730498419 0.0 0.0 0.0 0.0 0.0 0.0
2487.328 -0.3512852068466339 -1.8695186475529972 -1.6104316945584856 0.3396554019692496 1.9220226021590499 0.0008236363994447164 0.0 -0.0 -0.0 0.0 0.0 0.0 0.0 0.0 0.0 0.0 0.0 0.0 -5.500657743344303e-18 0.8172242617098822 0.7141331503287116 0.065941604326966 -3.133016709259517e-05 0.0 -6.31255448711884e-17 9.413197003960335 6.029563456331691 0.27217325962895195 -0.00013006349742905298 0.0 -0.351325813923971 -1.8695643583880823 -1.6103337446795862 0.33967792987823486 1.9220671653747559 0.0008411427843384445 1.917476038215682e-05 1.917476038215682e-05 -2.3968450477696024e-05 4.793690095539205e-05 4.793690095539205e-05 2.3968450477696024e-05 0.0426178015768528 0.8074951767921448 0.6542426943778992 0.10406643152236938 -0.0335698164999485 0.11189938336610794 0.0381317175924778 0.8388977646827698 0.6298419833183289 0.1018284410238266 -0.031331829726696014 0.11749435216188431 0.29999932525549 -0.20001133051240366 0.40001299925624595 -1.2090548546895858 1.2089904747689901 -1.209085313347911 -4.133167094267297e-06 1.2636790841175875e-05 3.7426813732027414e-06 9.071966614243776e-06 -4.047248757326325e-05 6.71475248374903e-05 1.2877576091169753 -4.416701151945303 2.726026091747041 -0.5192779949710258 0.3538839524166719 0.5190767377848582 0.29999999999773125 -0.19999999998749818 0.39999999999527563 -1.2090987221600364 1.2090487305541053 -1.209048730498419 0.0 0.0 0.0 0.0 0.0 0.0
2487.336 -0.3512852068466339 -1.8695186475529972 -1.6104316945584856 0.3396554019692496 1.9220226021590499 0.0008236363994447164 0.0 -0.0 -0.0 0.0 0.0 0.0 0.0 0.0 0.0 0.0 0.0 0.0 -5.500657743344303e-18 0.8172242617098822 0.7141331503287116 0.065941604326966 -3.133016709259517e-05 0.0 -6.31255448711884e-17 9.413197003960335 6.029563456331691 0.27217325962895195 -0.00013006349742905298 0.0 -0.35136157671083623 -1.869516674672262 -1.6103461424456995 0.33971381187438965 1.9220432043075562 0.0008770955028012395 1.917476038215682e-05 1.917476038215682e-05 -2.3968450477696024e-05 4.793690095539205e-05 4.793690095539205e-05 2.3968450477696024e-05 0.0560760572552681 0.8568421006202698 0.6542426943778992 0.09511447697877884 -0.02349887043237686 0.12756529450416565 0.0381317175924778 0.8388977646827698 0.6298419833183289 0.1007094457745552 -0.031331829726696014 0.11749435216188431 0.2999783557052123 -0.20001897903052052 0.4000290271100732 -1.2089689327242445 1.2089906824294239 -1.2091524557284463 -4.132931576299025e-06 1.263676628226839e-05 3.742126792684319e-06 9.067313611785022e-06 -4.0472212335526415e-05 6.714912245498709e-05 3.0447473043914313 -6.611932084095196 1.6720605043693284 -0.591968742082795 0.030859322073652152 0.652896978177548 0.29999999999773125 -0.19999999998749818 0.39999999999527563 -1.2090987221600364 1.2090487305541053 -1.209048730498419 0.0 0.0 0.0 0.0 0.0 0.0
2487.344 -0.3512852068466339 -1.8695186475529972 -1.6104316945584856 0.3396554019692496 1.9220226021590499 0.0008236363994447164 0.0 -0.0 -0.0 0.0 0.0 0.0 0.0 0.0 0.0 0.0 0.0 0.0 -5.500657743344303e-18 0.8172242617098822 0.7141331503287116 0.065941604326966 -3.133016709259517e-05 0.0 -6.31255448711884e-17 9.413197003960335 6.029563456331691 0.27217325962895195 -0.00013006349742905298 0.0 -0.3513134161578577 -1.869504753743307 -1.6103819052325647 0.3397258520126343 1.9220671653747559 0.0008770955028012395 1.917476038215682e-05 1.917476038215682e-05 -2.3968450477696024e-05 4.793690095539205e-05 4.793690095539205e-05 2.3968450477696024e-05 0.0269165076315403 0.8074951767921448 0.6435673832893372 0.09623347222805023 -0.02909383922815323 0.12420831620693207 0.0381317175924778 0.8388977646827698 0.6298419833183289 0.1018284410238266 -0.034688808023929596 0.11749435216188431 0.2999847580245707 -0.20000134002565734 0.4000241724837794 -1.2090082811016147 1.2089475804454446 -1.2090910414960687 -4.133696705545657e-06 1.2636504987000723e-05 3.7421117153460227e-06 9.069797845209669e-06 -4.047139474126543e-05 6.714885715426312e-05 1.9526789081553286 -4.00347062368696 2.8811755014076392 -0.5763923898165599 0.3050563755872085 0.4641062672944464 0.29999999999773125 -0.19999999998749818 0.39999999999527563 -1.2090987221600364 1.2090487305541053 -1.209048730498419 0.0 0.0 0.0 0.0 0.0 0.0
2487.352 -0.3512852068466339 -1.8695186475529972 -1.6104316945584856 0.3396554019692496 1.9220226021590499 0.0008236363994447164 0.0 -0.0 -0.0 0.0 0.0 0.0 0.0 0.0 0.0 0.0 0.0 0.0 -5.500657743344303e-18 0.8172242617098822 0.7141331503287116 0.065941604326966 -3.133016709259517e-05 0.0 -6.31255448711884e-17 9.413197003960335 6.029563456331691 0.27217325962895195 -0.00013006349742905298 0.0 -0.3513377348529261 -1.8694928328143519 -1.610297981892721 0.33967792987823486 1.922019124031067 0.0008770955028012395 1.917476038215682e-05 1.917476038215682e-05 -2.3968450477696024e-05 4.793690095539205e-05 4.793690095539205e-05 2.3968450477696024e-05 0.0471038855612278 0.8523560166358948 0.6267919540405273 0.10518541932106018 -0.02685585245490074 0.1186133474111557 0.0381317175924778 0.8388977646827698 0.6298419833183289 0.1018284410238266 -0.0335698164999485 0.11749435216188431 0.299979754555439 -0.20001263735841476 0.4000480247763282 -1.2089528850248112 1.2089601396163225 -1.2091779388618398 -4.133199653271518e-06 1.2636632840404033e-05 3.7418432034582766e-06 9.066644297582049e-06 -4.0471978484577915e-05 6.714993365182125e-05 4.1309782722950406 -7.151465497090673 2.772731389745103 -0.5504803553361151 0.04604758539725139 0.7129599150722566 0.29999999999773125 -0.19999999998749818 0.39999999999527563 -1.2090987221600364 1.2090487305541053 -1.209048730498419 0.0 0.0 0.0 0.0 0.0 0.0
2487.3599999999997 -0.3512852068466339 -1.8695186475529972 -1.6104316945584856 0.3396554019692496 1.9220226021590499 0.0008236363994447164 0.0 -0.0 -0.0 0.0 0.0 0.0 0.0 0.0 0.0 0.0 0.0 0.0 -5.500657743344303e-18 0.8172242617098822 0.7141331503287116 0.065941604326966 -3.133016709259517e-05 0.0 -6.31255448711884e-17 9.413197003960335 6.029563456331691 0.27217325962895195 -0.00013006349742905298 0.0 -0.3513134161578577 -1.869528595601217 -1.6103699843036097 0.3397258520126343 1.9220671653747559 0.0008411427843384445 1.917476038215682e-05 1.917476038215682e-05 -2.3968450477696024e-05 4.793690095539205e-05 4.793690095539205e-05 2.3968450477696024e-05 0.0314025916159153 0.8523560166358948 0.6405172944068909 0.09399548172950745 -0.0335698164999485 0.1186133474111557 0.0381317175924778 0.8388977646827698 0.6298419833183289 0.1018284410238266 -0.031331829726696014 0.11749435216188431 0.29999014385450934 -0.20000331658037815 0.4000191383883281 -1.2090399620256584 1.2089407782126353 -1.209109219514786 -4.1336014535818945e-06 1.263658718182274e-05 3.7422824592154426e-06 9.07033469921169e-06 -4.047159196007388e-05 6.714858957418062e-05 3.7476466055956696 -6.0142765982961475 2.136391722311475 -0.5504220013840301 0.006919729527195917 0.6506238752057555 0.29999999999773125 -0.19999999998749818 0.39999999999527563 -1.2090987221600364 1.2090487305541053 -1.209048730498419 0.0 0.0 0.0 0.0 0.0 0.0
2487.368 -0.3512852068466339 -1.8695186475529972 -1.6104316945584856 0.3396554019692496 1.9220226021590499 0.0008236363994447164 0.0 -0.0 -0.0 0.0 0.0 0.0 0.0 0.0 0.0 0.0 0.0 0.0 -5.500657743344303e-18 0.8172242617098822 0.7141331503287116 0.065941604326966 -3.133016709259517e-05 0.0 -6.31255448711884e-17 9.413197003960335 6.029563456331691 0.27217325962895195 -0.00013006349742905298 0.0 -0.351325813923971 -1.8695405165301722 -1.6103337446795862 0.33968985080718994 1.9220432043075562 0.0008651112439110875 1.917476038215682e-05 1.917476038215682e-05 -2.3968450477696024e-05 4.793690095539205e-05 4.793690095539205e-05 2.3968450477696024e-05 0.0426178015768528 0.8366547226905823 0.6191667318344116 0.10294743627309799 -0.03692679852247238 0.12085133790969849 0.0381317175924778 0.8388977646827698 0.6298419833183289 0.10406643152236938 -0.031331829726696014 0.11749435216188431 0.29999281045962356 -0.20001092837796927 0.400022275526976 -1.2090101682132424 1.2089889287914835 -1.2091102582672308 -4.133201013953126e-06 1.263671041811717e-05 3.7424157466297462e-06 9.07035498711357e-06 -4.047247212976298e-05 6.714832791666375e-05 3.8111466646447982 -6.8073933162268405 3.2275502722018423 -0.5608303653154082 0.1143295580956123 0.7315335553817489 0.29999999999773125 -0.19999999998749818 0.39999999999527563 -1.2090987221600364 1.2090487305541053 -1.209048730498419 0.0 0.0 0.0 0.0 0.0 0.0
2487.3759999999997 -0.3512852068466339 -1.8695186475529972 -1.6104316945584856 0.3396554019692496 1.9220226021590499 0.0008236363994447164 0.0 -0.0 -0.0 0.0 0.0 0.0 0.0 0.0 0.0 0.0 0.0 0.0 -5.500657743344303e-18 0.8172242617098822 0.7141331503287116 0.065941604326966 -3.133016709259517e-05 0.0 -6.31255448711884e-17 9.413197003960335 6.029563456331691 0.27217325962895195 -0.00013006349742905298 0.0 -0.35130149522890264 -1.869516674672262 -1.6103223005877894 0.33967792987823486 1.9220432043075562 0.0008291585836559534 1.917476038215682e-05 1.917476038215682e-05 -2.3968450477696024e-05 4.793690095539205e-05 4.793690095539205e-05 2.3968450477696024e-05 0.0381317175924778 0.8545990586280823 0.6252669095993042 0.08951950818300247 -0.03580780327320099 0.1197323426604271 0.0381317175924778 0.8388977646827698 0.6283169388771057 0.09959045052528381 -0.031331829726696014 0.11749435216188431 0.2999929102623481 -0.20000190941977186 0.4000328964349254 -1.209037874441222 1.2089341153054531 -1.209135165367381 -4.133612874953271e-06 1.2636545336045012e-05 3.7421794097264676e-06 9.070284053735599e-06 -4.0471866236791105e-05 6.714885239095262e-05 4.295037576142601 -6.962987578953179 2.454370855515824 -0.5556303961522894 -0.06357570278918842 0.7391892522633591 0.29999999999773125 -0.19999999998749818 0.39999999999527563 -1.2090987221600364 1.2090487305541053 -1.209048730498419 0.0 0.0 0.0 0.0 0.0 0.0
2487.384 -0.3512852068466339 -1.8695186475529972 -1.6104316945584856 0.3396554019692496 1.9220226021590499 0.0008236363994447164 0.0 -0.0 -0.0 0.0 0.0 0.0 0.0 0.0 0.0 0.0 0.0 0.0 -5.500657743344303e-18 0.8172242617098822 0.7141331503287116 0.065941604326966 -3.133016709259517e-05 0.0 -6.31255448711884e-17 9.413197003960335 6.029563456331691 0.27217325962895195 -0.00013006349742905298 0.0 -0.3513377348529261 -1.869504753743307 -1.6103580633746546 0.3397258520126343 1.922079086303711 0.0008411427843384445 1.917476038215682e-05 1.917476038215682e-05 -2.3968450477696024e-05 4.793690095539205e-05 4.793690095539205e-05 2.3968450477696024e-05 0.0403747595846653 0.8411408066749573 0.6283169388771057 0.09511447697877884 -0.034688808023929596 0.12756529450416565 0.0381317175924778 0.8388977646827698 0.6298419833183289 0.1007094457745552 -0.031331829726696014 0.1186133474111557 0.29997955350101047 -0.20000755482455596 0.4000308116703817 -1.20901842349824 1.2089194123975116 -1.2091433468040893 -4.133509614943837e-06 1.2636618733011228e-05 3.7419688700662696e-06 9.067737094312978e-06 -4.047093722831654e-05 6.714939199740885e-05 3.6370268179674827 -6.467053365049279 2.7161950904841223 -0.5919953149331089 0.07059643108754969 0.693047713078669 0.29999999999773125 -0.19999999998749818 0.39999999999527563 -1.2090987221600364 1.2090487305541053 -1.209048730498419 0.0 0.0 0.0 0.0 0.0 0.0
2487.392 -0.3512852068466339 -1.8695186475529972 -1.6104316945584856 0.3396554019692496 1.9220226021590499 0.0008236363994447164 0.0 -0.0 -0.0 0.0 0.0 0.0 0.0 0.0 0.0 0.0 0.0 0.0 -5.500657743344303e-18 0.8172242617098822 0.7141331503287116 0.065941604326966 -3.133016709259517e-05 0.0 -6.31255448711884e-17 9.413197003960335 6.029563456331691 0.27217325962895195 -0.00013006349742905298 0.0 -0.35128957429994756 -1.8695524374591272 -1.610309902821676 0.3397258520126343 1.9220551252365112 0.0008531270432285964 1.917476038215682e-05 1.917476038215682e-05 -2.3968450477696024e-05 4.793690095539205e-05 4.793690095539205e-05 2.3968450477696024e-05 0.0314025916159153 0.8321686387062073 0.660342812538147 0.08951950818300247 -0.034688808023929596 0.12420831620693207 0.0381317175924778 0.8388977646827698 0.6298419833183289 0.1007094457745552 -0.031331829726696014 0.1197323426604271 0.29999960733262465 -0.1999989331503473 0.4000275175050359 -1.209020733089594 1.2089069457736228 -1.2091171036262434 -4.133850664158339e-06 1.2636597382430672e-05 3.7422088722664507e-06 9.069661988129977e-06 -4.0471069063871144e-05 6.714940303350474e-05 2.130547225697599 -4.551609654344848 1.812164696784691 -0.5763966406583181 0.15166317959356748 0.5353158606612898 0.29999999999773125 -0.19999999998749818 0.39999999999527563 -1.2090987221600364 1.2090487305541053 -1.209048730498419 0.0 0.0 0.0 0.0 0.0 0.0
2487.4 -0.3512852068466339 -1.8695186475529972 -1.6104316945584856 0.3396554019692496 1.9220226021590499 0.0008236363994447164 0.0 -0.0 -0.0 0.0 0.0 0.0 0.0 0.0 0.0 0.0 0.0 0.0 -5.500657743344303e-18 0.8172242617098822 0.7141331503287116 0.065941604326966 -3.133016709259517e-05 0.0 -6.31255448711884e-17 9.413197003960335 6.029563456331691 0.27217325962895195 -0.00013006349742905298 0.0 -0.351325813923971 -1.869528595601217 -1.6103461424456995 0.33968985080718994 1.9220671653747559 0.0008411427843384445 1.917476038215682e-05 1.917476038215682e-05 -2.3968450477696024e-05 4.793690095539205e-05 4.793690095539205e-05 2.3968450477696024e-05 0.0403747595846653 0.8703004121780396 0.6054413318634033 0.09959045052528381 -0.02685585245490074 0.13316026329994202 0.0381317175924778 0.8388977646827698 0.6298419833183289 0.1007094457745552 -0.031331829726696014 0.1186133474111557 0.29999021158199723 -0.20000799327671484 0.40002299843171923 -1.209039400637353 1.208960338497462 -1.209109921189082 -4.1333664164841024e-06 1.2636665865278142e-05 3.7423356764259186e-06 9.070377124646998e-06 -4.0471905135341365e-05 6.714831682394161e-05 5.77162436977985 -8.260876398824758 2.9730026111983436 -0.6179143171833238 -0.1152367979370492 0.8043078234464058 0.29999999999773125 -0.19999999998749818 0.39999999999527563 -1.2090987221600364 1.2090487305541053 -1.209048730498419 0.0 0.0 0.0 0.0 0.0 0.0
2487.408 -0.3512852068466339 -1.8695186475529972 -1.6104316945584856 0.3396554019692496 1.9220226021590499 0.0008236363994447164 0.0 -0.0 -0.0 0.0 0.0 0.0 0.0 0.0 0.0 0.0 0.0 0.0 -5.500657743344303e-18 0.8172242617098822 0.7141331503287116 0.065941604326966 -3.133016709259517e-05 0.0 -6.31255448711884e-17 9.413197003960335 6.029563456331691 0.27217325962895195 -0.00013006349742905298 0.0 -0.351325813923971 -1.8695405165301722 -1.6103699843036097 0.33970189094543457 1.9221030473709106 0.0008291585836559534 1.917476038215682e-05 1.917476038215682e-05 -2.3968450477696024e-05 4.793690095539205e-05 4.793690095539205e-05 2.3968450477696024e-05 0.0291595496237278 0.8344116806983948 0.6389922499656677 0.09959045052528381 -0.03580780327320099 0.12532731890678406 0.0381317175924778 0.8388977646827698 0.6298419833183289 0.1007094457745552 -0.031331829726696014 0.1186133474111557 0.29999236773329513 -0.20000579636036567 0.4000131089786996 -1.2090756673692187 1.2089484454957458 -1.2090757281422009 -4.133493594891825e-06 1.2636685864861403e-05 3.7424767528956536e-06 9.071448973206254e-06 -4.047143577426673e-05 6.714778371119841e-05 3.1460681756212985 -5.376437737457837 2.6128937616070824 -0.5815691197544326 0.15647917539748374 0.6084616274877296 0.29999999999773125 -0.19999999998749818 0.39999999999527563 -1.2090987221600364 1.2090487305541053 -1.209048730498419 0.0 0.0 0.0 0.0 0.0 0.0
2487.4159999999997 -0.3512852068466339 -1.8695186475529972 -1.6104316945584856 0.3396554019692496 1.9220226021590499 0.0008236363994447164 0.0 -0.0 -0.0 0.0 0.0 0.0 0.0 0.0 0.0 0.0 0.0 0.0 -5.500657743344303e-18 0.8172242617098822 0.7141331503287116 0.065941604326966 -3.133016709259517e-05 0.0 -6.31255448711884e-17 9.413197003960335 6.029563456331691 0.27217325962895195 -0.00013006349742905298 0.0 -0.35128957429994756 -1.8695643583880823 -1.6103223005877894 0.339749813079834 1.9220551252365112 0.0009010639623738825 1.917476038215682e-05 1.917476038215682e-05 -2.3968450477696024e-05 4.793690095539205e-05 4.793690095539205e-05 2.3968450477696024e-05 0.0336456336081028 0.8478699326515198 0.6405172944068909 0.09399548172950745 -0.03916478529572487 0.13204127550125122 0.0381317175924778 0.8388977646827698 0.6298419833183289 0.09959045052528381 -0.031331829726696014 0.11749435216188431 0.30000064051601494 -0.19999929444506107 0.40002173775449484 -1.2089856144336397 1.2089298818150584 -1.2090815141831288 -4.133849523467401e-06 1.263661884176536e-05 3.742272217651499e-06 9.069680649138093e-06 -4.0471075052378e-05 6.714939489025696e-05 3.500278548006671 -6.038393349754091 2.2148595144803953 -0.6127554001248804 0.05654187997272151 0.6785492687099004 0.29999999999773125 -0.19999999998749818 0.39999999999527563 -1.2090987221600364 1.2090487305541053 -1.209048730498419 0.0 0.0 0.0 0.0 0.0 0.0
2487.424 -0.3512852068466339 -1.8695186475529972 -1.6104316945584856 0.3396554019692496 1.9220226021590499 0.0008236363994447164 0.0 -0.0 -0.0 0.0 0.0 0.0 0.0 0.0 0.0 0.0 0.0 0.0 -5.500657743344303e-18 0.8172242617098822 0.7141331503287116 0.065941604326966 -3.133016709259517e-05 0.0 -6.31255448711884e-17 9.413197003960335 6.029563456331691 0.27217325962895195 -0.00013006349742905298 0.0 -0.35134965578188115 -1.8695643583880823 -1.610406223927633 0.3397258520126343 1.9220311641693115 0.0008531270432285964 1.917476038215682e-05 1.917476038215682e-05 -2.3968450477696024e-05 4.793690095539205e-05 4.793690095539205e-05 2.3968450477696024e-05 0.0269165076315403 0.8456268906593323 0.652717649936676 0.09175749868154526 -0.027974845841526985 0.1186133474111557 0.0381317175924778 0.8388977646827698 0.6298419833183289 0.09959045052528381 -0.031331829726696014 0.1186133474111557 0.29999174565872455 -0.20002034151045547 0.3999965164139092 -1.2090285535980132 1.209061004697524 -1.209103243178027 -4.1326782983076145e-06 1.263683016529676e-05 3.7428737504752224e-06 9.072116935455958e-06 -4.0473970000185165e-05 6.714697404384176e-05 3.091287731680476 -5.026440686710237 1.8478212541072203 -0.5503650618505961 0.059222106724178936 0.5432347875185726 0.29999999999773125 -0.19999999998749818 0.39999999999527563 -1.2090987221600364 1.2090487305541053 -1.209048730498419 0.0 0.0 0.0 0.0 0.0 0.0
2487.432 -0.3512852068466339 -1.8695186475529972 -1.6104316945584856 0.3396554019692496 1.9220226021590499 0.0008236363994447164 0.0 -0.0 -0.0 0.0 0.0 0.0 0.0 0.0 0.0 0.0 0.0 0.0 -5.500657743344303e-18 0.8172242617098822 0.7141331503287116 0.065941604326966 -3.133016709259517e-05 0.0 -6.31255448711884e-17 9.413197003960335 6.029563456331691 0.27217325962895195 -0.00013006349742905298 0.0 -0.351325813923971 -1.869516674672262 -1.6103461424456995 0.33971381187438965 1.9220551252365112 0.0009130481630563736 1.917476038215682e-05 1.917476038215682e-05 -2.3968450477696024e-05 4.793690095539205e-05 4.793690095539205e-05 2.3968450477696024e-05 0.0471038855612278 0.8703004121780396 0.631367027759552 0.09959045052528381 -0.031331829726696014 0.12308932095766068 0.0381317175924778 0.8411408066749573 0.6298419833183289 0.09959045052528381 -0.031331829726696014 0.11749435216188431 0.2999855096597998 -0.2000072690482789 0.4000290263942311 -1.2089650209480374 1.208972570449633 -1.2090908637304283 -4.133449391097318e-06 1.2636618519491101e-05 3.742112201129291e-06 9.068760963046126e-06 -4.047160231125631e-05 6.714912224628572e-05 4.6092971499864825 -7.686628001737766 2.205917524466404 -0.5712208608310119 -0.07816242796710113 0.7778969931210212 0.29999999999773125 -0.19999999998749818 0.39999999999527563 -1.2090987221600364 1.2090487305541053 -1.209048730498419 0.0 0.0 0.0 0.0 0.0 0.0
2487.44 -0.3512852068466339 -1.8695186475529972 -1.6104316945584856 0.3396554019692496 1.9220226021590499 0.0008236363994447164 0.0 -0.0 -0.0 0.0 0.0 0.0 0.0 0.0 0.0 0.0 0.0 0.0 -5.500657743344303e-18 0.8172242617098822 0.7141331503287116 0.065941604326966 -3.133016709259517e-05 0.0 -6.31255448711884e-17 9.413197003960335 6.029563456331691 0.27217325962895195 -0.00013006349742905298 0.0 -0.351325813923971 -1.8695405165301722 -1.6103461424456995 0.3397258520126343 1.9220551252365112 0.0009010639623738825 1.917476038215682e-05 1.917476038215682e-05 -2.3968450477696024e-05 4.793690095539205e-05 4.793690095539205e-05 2.3968450477696024e-05 0.0291595496237278 0.8478699326515198 0.6389922499656677 0.09959045052528381 -0.02685585245490074 0.12756529450416565 0.0381317175924778 0.8388977646827698 0.6298419833183289 0.09959045052528381 -0.031331829726696014 0.12197033315896988 0.2999901001293873 -0.20000894178140907 0.4000216019445417 -1.2089790187780982 1.2089769718125778 -1.2090914452134585 -4.133371353108925e-06 1.2636689356508414e-05 3.7422863798491903e-06 9.069294047713012e-06 -4.047179736141963e-05 6.714885729891258e-05 3.7339794296008346 -5.725141708920985 2.376604371446841 -0.5919563168502373 0.07970180448474132 0.5954597716923354 0.29999999999773125 -0.19999999998749818 0.39999999999527563 -1.2090987221600364 1.2090487305541053 -1.209048730498419 0.0 0.0 0.0 0.0 0.0 0.0
2487.448 -0.3512852068466339 -1.8695186475529972 -1.6104316945584856 0.3396554019692496 1.9220226021590499 0.0008236363994447164 0.0 -0.0 -0.0 0.0 0.0 0.0 0.0 0.0 0.0 0.0 0.0 0.0 -5.500657743344303e-18 0.8172242617098822 0.7141331503287116 0.065941604326966 -3.133016709259517e-05 0.0 -6.31255448711884e-17 9.413197003960335 6.029563456331691 0.27217325962895195 -0.00013006349742905298 0.0 -0.351325813923971 -1.869504753743307 -1.6103337446795862 0.33971381187438965 1.9220551252365112 0.0008411427843384445 1.917476038215682e-05 1.917476038215682e-05 -2.3968450477696024e-05 4.793690095539205e-05 4.793690095539205e-05 2.3968450477696024e-05 0.0336456336081028 0.8433838486671448 0.6511926054954529 0.10406643152236938 -0.02909383922815323 0.11637535691261292 0.0381317175924778 0.8388977646827698 0.6298419833183289 0.09959045052528381 -0.03021283447742462 0.11749435216188431 0.2999825535889968 -0.20000620476801287 0.40003665617641215 -1.2090072821954754 1.2089178507206937 -1.2091608229419337 -4.133538845223497e-06 1.2636587562259982e-05 3.7419280753034953e-06 9.06766362700425e-06 -4.0471201602977516e-05 6.714966801035844e-05 3.0089112658617148 -5.372233837782075 2.187278371013915 -0.5400685083175213 0.14016641520779438 0.5768561384248814 0.29999999999773125 -0.19999999998749818 0.39999999999527563 -1.2090987221600364 1.2090487305541053 -1.209048730498419 0.0 0.0 0.0 0.0 0.0 0.0
2487.4559999999997 -0.3512852068466339 -1.8695186475529972 -1.6104316945584856 0.3396554019692496 1.9220226021590499 0.0008236363994447164 0.0 -0.0 -0.0 0.0 0.0 0.0 0.0 0.0 0.0 0.0 0.0 0.0 -5.500657743344303e-18 0.8172242617098822 0.7141331503287116 0.065941604326966 -3.133016709259517e-05 0.0 -6.31255448711884e-17 9.413197003960335 6.029563456331691 0.27217325962895195 -0.00013006349742905298 0.0 -0.3512776533709925 -1.8695767561541956 -1.610309902821676 0.33971381187438965 1.9220671653747559 0.0009010639623738825 1.917476038215682e-05 1.917476038215682e-05 -2.3968450477696024e-05 4.793690095539205e-05 4.793690095539205e-05 2.3968450477696024e-05 0.0269165076315403 0.8501129746437073 0.6450924277305603 0.09399548172950745 -0.0335698164999485 0.10854240506887436 0.0381317175924778 0.8388977646827698 0.6298419833183289 0.09959045052528381 -0.031331829726696014 0.11749435216188431 0.300008626292284 -0.19999678454182848 0.40001806568894976 -1.2090127253376932 1.2089429946145598 -1.2090387791015176 -4.133898613572999e-06 1.2636630044190394e-05 3.7424943899476008e-06 9.07178302878309e-06 -4.047127187760247e-05 6.714858685960082e-05 3.550773031662728 -5.567865276247543 2.04115831001598 -0.5036939628737587 0.012764830974862662 0.6139289231972894 0.29999999999773125 -0.19999999998749818 0.39999999999527563 -1.2090987221600364 1.2090487305541053 -1.209048730498419 0.0 0.0 0.0 0.0 0.0 0.0
2487.464 -0.3512852068466339 -1.8695186475529972 -1.6104316945584856 0.3396554019692496 1.9220226021590499 0.0008236363994447164 0.0 -0.0 -0.0 0.0 0.0 0.0 0.0 0.0 0.0 0.0 0.0 0.0 -5.500657743344303e-18 0.8172242617098822 0.7141331503287116 0.065941604326966 -3.133016709259517e-05 0.0 -6.31255448711884e-17 9.413197003960335 6.029563456331691 0.27217325962895195 -0.00013006349742905298 0.0 -0.3513734976397913 -1.8694804350482386 -1.6103461424456995 0.33967792987823486 1.9220671653747559 0.0008890797034837306 1.917476038215682e-05 1.917476038215682e-05 -2.3968450477696024e-05 4.793690095539205e-05 4.793690095539205e-05 2.3968450477696024e-05 0.0314025916159153 0.8523560166358948 0.6298419833183289 0.10518541932106018 -0.02909383922815323 0.12420831620693207 0.0381317175924778 0.8388977646827698 0.6298419833183289 0.1018284410238266 -0.031331829726696014 0.11749435216188431 0.2999704062482179 -0.20001855443874547 0.4000389531368082 -1.2089656773705684 1.2089871884609225 -1.20913504160319 -4.132967195201545e-06 1.2636714944991898e-05 3.7419213302250014e-06 9.066812246928744e-06 -4.047173925237775e-05 6.714913027076822e-05 4.253007506136757 -6.383352643695331 2.684424976267248 -0.5764012232167403 0.061922254348672386 0.6600783961527706 0.29999999999773125 -0.19999999998749818 0.39999999999527563 -1.2090987221600364 1.2090487305541053 -1.209048730498419 0.0 0.0 0.0 0.0 0.0 0.0
2487.4719999999998 -0.3512852068466339 -1.8695186475529972 -1.6104316945584856 0.3396554019692496 1.9220226021590499 0.0008236363994447164 0.0 -0.0 -0.0 0.0 0.0 0.0 0.0 0.0 0.0 0.0 0.0 0.0 -5.500657743344303e-18 0.8172242617098822 0.7141331503287116 0.065941604326966 -3.133016709259517e-05 0.0 -6.31255448711884e-17 9.413197003960335 6.029563456331691 0.27217325962895195 -0.00013006349742905298 0.0 -0.35134965578188115 -1.8695405165301722 -1.6103699843036097 0.33967792987823486 1.9220551252365112 0.0008411427843384445 1.917476038215682e-05 1.917476038215682e-05 -2.3968450477696024e-05 4.793690095539205e-05 4.793690095539205e-05 2.3968450477696024e-05 0.0426178015768528 0.8052521347999573 0.6344171166419983 0.09287648648023605 -0.024617865681648254 0.12085133790969849 0.0381317175924778 0.8388977646827698 0.6298419833183289 0.10294743627309799 -0.031331829726696014 0.11749435216188431 0.2999895180939617 -0.20001759837017502 0.4000112614810683 -1.2090433580675446 1.2090274049091696 -1.2091030122104653 -4.132839101805526e-06 1.2636793694851911e-05 3.7426561786877614e-06 9.071562856219505e-06 -4.04731953905917e-05 6.71472468095934e-05 1.978476708553551 -4.8602078095124455 3.1192903080891243 -0.5607776029803714 0.2734186047298815 0.5139167240590096 0.29999999999773125 -0.19999999998749818 0.39999999999527563 -1.2090987221600364 1.2090487305541053 -1.209048730498419 0.0 0.0 0.0 0.0 0.0 0.0
2487.48 -0.3512852068466339 -1.8695186475529972 -1.6104316945584856 0.3396554019692496 1.9220226021590499 0.0008236363994447164 0.0 -0.0 -0.0 0.0 0.0 0.0 0.0 0.0 0.0 0.0 0.0 0.0 -5.500657743344303e-18 0.8172242617098822 0.7141331503287116 0.065941604326966 -3.133016709259517e-05 0.0 -6.31255448711884e-17 9.413197003960335 6.029563456331691 0.27217325962895195 -0.00013006349742905298 0.0 -0.351325813923971 -1.8695767561541956 -1.6103580633746546 0.33970189094543457 1.922079086303711 0.0009010639623738825 1.917476038215682e-05 1.917476038215682e-05 -2.3968450477696024e-05 4.793690095539205e-05 4.793690095539205e-05 2.3968450477696024e-05 0.0336456336081028 0.7985230088233948 0.623741865158081 0.09511447697877884 -0.02685585245490074 0.11637535691261292 0.0381317175924778 0.8388977646827698 0.6298419833183289 0.10294743627309799 -0.031331829726696014 0.1186133474111557 0.30000064085243344 -0.20001079972522265 0.4000037317677804 -1.20902201283111 1.2090208560191624 -1.2090234481664257 -4.133202232462128e-06 1.2636807265893322e-05 3.7427989512903727e-06 9.072544955185153e-06 -4.047241186036831e-05 6.714723821750381e-05 2.2781953222718254 -4.652856520358691 3.600495614681162 -0.5400286912879874 0.2972834718227588 0.5072769056226998 0.29999999999773125 -0.19999999998749818 0.39999999999527563 -1.2090987221600364 1.2090487305541053 -1.209048730498419 0.0 0.0 0.0 0.0 0.0 0.0
2487.488 -0.3512852068466339 -1.8695186475529972 -1.6104316945584856 0.3396554019692496 1.9220226021590499 0.0008236363994447164 0.0 -0.0 -0.0 0.0 0.0 0.0 0.0 0.0 0.0 0.0 0.0 0.0 -5.500657743344303e-18 0.8172242617098822 0.7141331503287116 0.065941604326966 -3.133016709259517e-05 0.0 -6.31255448711884e-17 9.413197003960335 6.029563456331691 0.27217325962895195 -0.00013006349742905298 0.0 -0.3513734976397913 -1.8695643583880823 -1.6103337446795862 0.33966588973999023 1.9220311641693115 0.0008411427843384445 1.917476038215682e-05 1.917476038215682e-05 -2.3968450477696024e-05 4.793690095539205e-05 4.793690095539205e-05 2.3968450477696024e-05 0.0381317175924778 0.7917938828468323 0.6252669095993042 0.10518541932106018 -0.027974845841526985 0.12420831620693207 0.0403747595846653 0.8388977646827698 0.6298419833183289 0.1018284410238266 -0.031331829726696014 0.11749435216188431 0.2999907508052277 -0.20002895359314235 0.4000120715816713 -1.2090205225795405 1.2090623693539782 -1.2091385264960115 -4.132321143390203e-06 1.2636992513744337e-05 3.7427861161137925e-06 9.070578800029804e-06 -4.0473981363767746e-05 6.714725524488297e-05 1.9215320422802782 -4.614160198292433 3.881991088928163 -0.5763490131812979 0.41508208166023247 0.5092013990991476 0.29999999999773125 -0.19999999998749818 0.39999999999527563 -1.2090987221600364 1.2090487305541053 -1.209048730498419 0.0 0.0 0.0 0.0 0.0 0.0
2487.496 -0.3512852068466339 -1.8695186475529972 -1.6104316945584856 0.3396554019692496 1.9220226021590499 0.0008236363994447164 0.0 -0.0 -0.0 0.0 0.0 0.0 0.0 0.0 0.0 0.0 0.0 0.0 -5.500657743344303e-18 0.8172242617098822 0.7141331503287116 0.065941604326966 -3.133016709259517e-05 0.0 -6.31255448711884e-17 9.413197003960335 6.029563456331691 0.27217325962895195 -0.00013006349742905298 0.0 -0.35134965578188115 -1.8694928328143519 -1.6103337446795862 0.33968985080718994 1.9220671653747559 0.0008291585836559534 1.917476038215682e-05 1.917476038215682e-05 -2.3968450477696024e-05 4.793690095539205e-05 4.793690095539205e-05 2.3968450477696024e-05 0.0314025916159153 0.8478699326515198 0.6100164651870728 0.10630441457033157 -0.0335698164999485 0.12420831620693207 0.0403747595846653 0.8388977646827698 0.6298419833183289 0.10294743627309799 -0.031331829726696014 0.11749435216188431 0.2999769302396078 -0.2000120551069291 0.40003898233260665 -1.2090158224712209 1.2089311555486937 -1.2091699536054519 -4.133277007451861e-06 1.2636657848267831e-05 3.7419166822714595e-06 9.067239793807657e-06 -4.047132723416318e-05 6.714939772345094e-05 4.838983316450469 -7.017360278638687 3.372455013140041 -0.5764286244251804 0.05406883706461811 0.7331331208124898 0.29999999999773125 -0.19999999998749818 0.39999999999527563 -1.2090987221600364 1.2090487305541053 -1.209048730498419 0.0 0.0 0.0 0.0 0.0 0.0
2487.504 -0.3512852068466339 -1.8695186475529972 -1.6104316945584856 0.3396554019692496 1.9220226021590499 0.0008236363994447164 0.0 -0.0 -0.0 0.0 0.0 0.0 0.0 0.0 0.0 0.0 0.0 0.0 -5.500657743344303e-18 0.8172242617098822 0.7141331503287116 0.065941604326966 -3.133016709259517e-05 0.0 -6.31255448711884e-17 9.413197003960335 6.029563456331691 0.27217325962895195 -0.00013006349742905298 0.0 -0.3513734976397913 -1.8695405165301722 -1.6103819052325647 0.33971381187438965 1.9220072031021118 0.0008770955028012395 1.917476038215682e-05 1.917476038215682e-05 -2.3968450477696024e-05 4.793690095539205e-05 4.793690095539205e-05 2.3968450477696024e-05 0.0628051832318306 0.8478699326515198 0.6267919540405273 0.1007094457745552 -0.04028377681970596 0.11189938336610794 0.0403747595846653 0.8388977646827698 0.6298419833183289 0.1018284410238266 -0.034688808023929596 0.11749435216188431 0.2999820368448138 -0.20002769401930726 0.4000107151220212 -1.2089724053541118 1.2090767601763777 -1.2091460524996833 -4.132378029640833e-06 1.263687120991745e-05 3.742598086624364e-06 9.069520973701044e-06 -4.047416531305689e-05 6.714778529422484e-05 3.594668530234242 -7.874803884250687 2.7559772719397513 -0.5192907983039756 0.034394816865994576 0.8351502996693156 0.29999999999773125 -0.19999999998749818 0.39999999999527563 -1.2090987221600364 1.2090487305541053 -1.209048730498419 0.0 0.0 0.0 0.0 0.0 0.0
2487.5119999999997 -0.3512852068466339 -1.8695186475529972 -1.6104316945584856 0.3396554019692496 1.9220226021590499 0.0008236363994447164 0.0 -0.0 -0.0 0.0 0.0 0.0 0.0 0.0 0.0 0.0 0.0 0.0 -5.500657743344303e-18 0.8172242617098822 0.7141331503287116 0.065941604326966 -3.133016709259517e-05 0.0 -6.31255448711884e-17 9.413197003960335 6.029563456331691 0.27217325962895195 -0.00013006349742905298 0.0 -0.35136157671083623 -1.869528595601217 -1.610309902821676 0.33968985080718994 1.9220432043075562 0.0008890797034837306 1.917476038215682e-05 1.917476038215682e-05 -2.3968450477696024e-05 4.793690095539205e-05 4.793690095539205e-05 2.3968450477696024e-05 0.0426178015768528 0.8321686387062073 0.6450924277305603 0.09735246747732162 -0.03245082125067711 0.11749435216188431 0.0403747595846653 0.8388977646827698 0.6298419833183289 0.1018284410238266 -0.031331829726696014 0.11749435216188431 0.29998253741080166 -0.20002054514410125 0.40003309263044456 -1.2089599047083794 1.2089961185584768 -1.2091439557412418 -4.132864622954203e-06 1.2636833598590882e-05 3.7421700653548794e-06 9.067293559306676e-06 -4.0472207408875666e-05 6.714913055511232e-05 2.603814040778409 -5.6025153363050535 2.4240941142654964 -0.545250631318627 0.15586868492052003 0.6114759477004971 0.29999999999773125 -0.19999999998749818 0.39999999999527563 -1.2090987221600364 1.2090487305541053 -1.209048730498419 0.0 0.0 0.0 0.0 0.0 0.0
2487.52 -0.3512852068466339 -1.8695186475529972 -1.6104316945584856 0.3396554019692496 1.9220226021590499 0.0008236363994447164 0.0 -0.0 -0.0 0.0 0.0 0.0 0.0 0.0 0.0 0.0 0.0 0.0 -5.500657743344303e-18 0.8172242617098822 0.7141331503287116 0.065941604326966 -3.133016709259517e-05 0.0 -6.31255448711884e-17 9.413197003960335 6.029563456331691 0.27217325962895195 -0.00013006349742905298 0.0 -0.351325813923971 -1.869516674672262 -1.6103461424456995 0.33967792987823486 1.9220911264419556 0.0008890797034837306 1.917476038215682e-05 1.917476038215682e-05 -2.3968450477696024e-05 4.793690095539205e-05 4.793690095539205e-05 2.3968450477696024e-05 0.02467346377670765 0.863571286201477 0.6359421610832214 0.09511447697877884 -0.038045790046453476 0.11189938336610794 0.0381317175924778 0.8388977646827698 0.6298419833183289 0.1018284410238266 -0.031331829726696014 0.1197323426604271 0.29998839160541346 -0.20000535659864524 0.40002625359390814 -1.2090154671633393 1.2089653621792564 -1.2090569870446446 -4.13351612864909e-06 1.2636632881880597e-05 3.7422490028264988e-06 9.070376122216815e-06 -4.047133050715154e-05 6.714831648092491e-05 4.464150616027527 -6.370950114884761 2.098944218350819 -0.5192632374058844 -0.07446159934226977 0.700882853054591 0.29999999999773125 -0.19999999998749818 0.39999999999527563 -1.2090987221600364 1.2090487305541053 -1.209048730498419 0.0 0.0 0.0 0.0 0.0 0.0
2487.528 -0.3512852068466339 -1.8695186475529972 -1.6104316945584856 0.3396554019692496 1.9220226021590499 0.0008236363994447164 0.0 -0.0 -0.0 0.0 0.0 0.0 0.0 0.0 0.0 0.0 0.0 0.0 -5.500657743344303e-18 0.8172242617098822 0.7141331503287116 0.065941604326966 -3.133016709259517e-05 0.0 -6.31255448711884e-17 9.413197003960335 6.029563456331691 0.27217325962895195 -0.00013006349742905298 0.0 -0.35130149522890264 -1.869516674672262 -1.6103819052325647 0.33970189094543457 1.9220671653747559 0.0009130481630563736 1.917476038215682e-05 1.917476038215682e-05 -2.3968450477696024e-05 4.793690095539205e-05 4.793690095539205e-05 2.3968450477696024e-05 0.0358886756002903 0.8164673447608948 0.6450924277305603 0.09287648648023605 -0.03021283447742462 0.12532731890678406 0.0403747595846653 0.8388977646827698 0.6298419833183289 0.1018284410238266 -0.031331829726696014 0.11749435216188431 0.2999918431866536 -0.19999947961125664 0.4000181452612982 -1.209003177196695 1.2089864256899363 -1.209030742970808 -4.133697819318281e-06 1.263650300588397e-05 3.7423499276608044e-06 9.071896514214882e-06 -4.047187798260145e-05 6.71480519223727e-05 2.079384220292723 -4.674336760313819 2.6076870684087576 -0.5815714199966824 0.23610126193449021 0.5246064867559336 0.29999999999773125 -0.19999999998749818 0.39999999999527563 -1.2090987221600364 1.2090487305541053 -1.209048730498419 0.0 0.0 0.0 0.0 0.0 0.0
2487.536 -0.35128513954287754 -1.869518592001965 -1.6104317699527249 0.3396554217644792 1.9220225346545328 0.0008236363138246276 3.365187958446528e-05 2.777551567137548e-05 -3.769711800454486e-05 9.897613706875793e-06 -3.3752259842802736e-05 -4.281004294523249e-08 0.00420648494805816 0.003471939458921935 -0.004712139750568107 0.0012372017133594742 -0.004219032480350342 -5.3512553681540615e-06 0.0011025642215647057 0.8181142676003571 0.7134026654354199 0.0659738971075404 -0.0007786565830143252 -9.235145358697014e-08 0.003434623097102648 9.415663537254783 6.0285097583130165 0.2723065477319807 -0.00039507044956550887 -3.8211709207377707e-07 -0.35136157671083623 -1.869528595601217 -1.610309902821676 0.339749813079834 1.922019124031067 0.0008770955028012395 1.917476038215682e-05 1.917476038215682e-05 -2.3968450477696024e-05 4.793690095539205e-05 4.793690095539205e-05 2.3968450477696024e-05 0.0358886756002903 0.8568421006202698 0.631367027759552 0.10406643152236938 -0.03245082125067711 0.10854240506887436 0.0381317175924778 0.8388977646827698 0.6298419833183289 0.1018284410238266 -0.031331829726696014 0.11749435216188431 0.29997772378445975 -0.20002076918011577 0.4000377239550014 -1.2089310222352028 1.2089569975826273 -1.2092123376128017 -4.132952526097415e-06 1.2636809735896106e-05 3.7418972922590706e-06 9.064594254149437e-06 -4.0471796690478047e-05 6.715047633183414e-05 4.230603796678736 -6.618833300023449 2.5302090073794226 -0.5037655585643832 0.011444763419411759 0.6916999967543088 0.2999999999977295 -0.19999998036709074 0.39999999999527547 -1.2090987221600367 1.2090487305541058 -1.209048730498419 5.565216546607868e-17 9.81020833279076e-06 1.1585939178475807e-16 1.154076897637729e-20 8.250095927945039e-22 3.7427640574980134e-21
2487.544 -0.3512846011126367 -1.8695181475938023 -1.6104323731063834 0.3396555801261572 1.922021994618209 0.0008236356288641285 0.00015143355199880672 0.00012498977080477837 -0.00016963690169275405 4.453918217505199e-05 -0.00015188526278799323 -1.926450875702002e-07 0.014722709051792678 0.01215178189167536 -0.01649247296102615 0.004330196058522025 -0.014766625368148812 -1.872938057812096e-05 0.004662421149768481 0.8210149556085832 0.7109705041502073 0.06685523066270362 -0.003330430804361782 -3.232298595702601e-07 0.012021181551351552 9.42182632524891 6.025875330865438 0.2726398050660998 -0.0010575885942592984 -1.3374088789418834e-06 -0.3513134161578577 -1.8695524374591272 -1.6103337446795862 0.33971381187438965 1.9220311641693115 0.0008411427843384445 1.917476038215682e-05 1.917476038215682e-05 -2.3968450477696024e-05 4.793690095539205e-05 4.793690095539205e-05 2.3968450477696024e-05 0.0471038855612278 0.8187103867530823 0.6191667318344116 0.09511447697877884 -0.041402772068977356 0.12420831620693207 0.0381317175924778 0.8388977646827698 0.6161166429519653 0.09959045052528381 -0.04028377681970596 0.11749435216188431 0.29999614478921305 -0.20000851079834284 0.40001994931927165 -1.2090226890918292 1.2089670534746126 -1.2091360356284155 -4.133318239067293e-06 1.2636687434105737e-05 3.742427139313449e-06 9.070315685108769e-06 -4.0472450245847524e-05 6.714859822867889e-05 2.7726884086187704 -5.867636258341337 3.3343166010953555 -0.5764095370670768 0.20385525407810312 0.6596113976639589 0.29999999999773325 -0.19999982340376188 0.39999999999527547 -1.2090987221600369 1.2090487305541051 -1.2090487304984185 1.5410177343111836e-15 4.4145937504469535e-05 6.463198502843281e-16 4.9960277536303454e-17 -9.995854787340811e-17 -6.504102762319185e-20
