Fleaurent/UniversalRobot/csv/robolib_movej_Synchron.csv
timestamp target_q_0 target_q_1 target_q_2 target_q_3 target_q_4 target_q_5 target_qd_0 target_qd_1 target_qd_2 target_qd_3 target_qd_4 target_qd_5 target_qdd_0 target_qdd_1 target_qdd_2 target_qdd_3 target_qdd_4 target_qdd_5 actual_TCP_pose_0 actual_TCP_pose_1 actual_TCP_pose_2 actual_TCP_pose_3 actual_TCP_pose_4 actual_TCP_pose_5
0.0 0.0 -1.5707963267948966 -1.5707963267948966 0.0 1.5707963267948966 0.0 0.0 0.0 0.0 0.0 0.0 0.0 1.0 0.6666666666666667 0.33333333333333337 0.0 0.0 0.0 295.15 -112.34999999999998 480.9 -1.2091995761561454 1.2091995761561456 -1.2091995761561458 
0.008 3.2e-05 -1.5707749934615631 -1.57078566012823 0.0 1.5707963267948966 0.0 0.008 0.005333333333333334 0.002666666666666667 0.0 0.0 0.0 1.0 0.6666666666666667 0.33333333333333337 0.0 0.0 0.0 295.14566583110394 -112.34055539621338 480.9094447008554 -1.2091911404039255 1.2091524469065253 -1.2091911404039257 
0.016 0.000128 -1.5707109934615633 -1.57075366012823 0.0 1.5707963267948966 0.0 0.016 0.010666666666666668 0.005333333333333334 0.0 0.0 0.0 1.0 0.6666666666666667 0.33333333333333337 0.0 0.0 0.0 295.13265969787136 -112.31222393972357 480.93777761360707 -1.209165826575134 1.2090110632539737 -1.2091658265751342 
0.024 0.000288 -1.5706043267948966 -1.5707003267948965 0.0 1.5707963267948966 0.0 0.024 0.016000000000000004 0.008000000000000002 0.0 0.0 0.0 1.0 0.6666666666666667 0.33333333333333337 0.0 0.0 0.0 295.1109707222185 -112.26501269746149 480.98499516823307 -1.2091236149552054 1.2087754374892468 -1.2091236149552056 
0.032 0.000512 -1.5704549934615633 -1.5706256601282298 0.0 1.5707963267948966 0.0 0.032 0.021333333333333336 0.010666666666666668 0.0 0.0 0.0 1.0 0.6666666666666667 0.33333333333333337 0.0 0.0 0.0 295.08058077917786 -112.19893345538017 481.0510914127616 -1.2090644726926643 1.2084455901030688 -1.2090644726926645 
0.04 0.0008 -1.5702629934615633 -1.57052966012823 0.0 1.5707963267948966 0.0 0.04 0.026666666666666672 0.013333333333333336 0.0 0.0 0.0 1.0 0.6666666666666667 0.33333333333333337 0.0 0.0 0.0 295.0414645046626 -112.11400273005208 481.13605801037176 -1.2089883538083168 1.2080215497953124 -1.2089883538083168 
0.048 0.001152 -1.5700283267948965 -1.5704123267948966 0.0 1.5707963267948966 0.0 0.048 0.03200000000000001 0.016000000000000004 0.0 0.0 0.0 1.0 0.6666666666666667 0.33333333333333337 0.0 0.0 0.0 294.9935893063514 -112.01024178489634 481.2398842353324 -1.2088951992081247 1.2075033534878448 -1.2088951992081247 
0.056 0.0015680000000000002 -1.5697509934615632 -1.5702736601282299 0.0 1.5707963267948966 0.0 0.056 0.037333333333333336 0.018666666666666668 0.0 0.0 0.0 1.0 0.6666666666666667 0.33333333333333337 0.0 0.0 0.0 294.93691537770894 -111.88767665102608 481.36255696778403 -1.208784936699754 1.2068910463410198 -1.2087849366997543 
0.064 0.002048 -1.5694309934615631 -1.57011366012823 0.0 1.5707963267948966 0.0 0.064 0.04266666666666667 0.021333333333333336 0.0 0.0 0.0 1.0 0.6666666666666667 0.33333333333333337 0.0 0.0 0.0 294.87139571515917 -111.74633815270423 481.50406068736163 -1.208657481012803 1.2061846817738038 -1.2086574810128035 
0.072 0.0025920000000000006 -1.5690683267948966 -1.5699323267948966 0.0 1.5707963267948966 0.0 0.07200000000000001 0.04800000000000001 0.024000000000000004 0.0 0.0 0.0 1.0 0.6666666666666667 0.33333333333333337 0.0 0.0 0.0 294.7969761384359 -111.58626193739266 481.66437746566294 -1.2085127338227057 1.205384321487513 -1.208512733822706 
0.08 0.0032 -1.5686629934615632 -1.5697296601282298 0.0 1.5707963267948966 0.0 0.08 0.053333333333333344 0.026666666666666672 0.0 0.0 0.0 1.0 0.6666666666666667 0.33333333333333337 0.0 0.0 0.0 294.7135953141356 -111.40748851037755 481.84348695756046 -1.208350583778309 1.2044900354931398 -1.2083505837783097 
0.088 0.0038719999999999996 -1.5682149934615632 -1.5695056601282298 0.0 1.5707963267948966 0.0 0.088 0.05866666666666667 0.029333333333333336 0.0 0.0 0.0 1.0 0.6666666666666667 0.33333333333333337 0.0 0.0 0.0 294.62118478250574 -111.21006327395015 482.04136639136124 -1.208170906533132 1.2035019021422428 -1.2081709065331323 
0.096 0.004608 -1.5677243267948966 -1.5692603267948966 0.0 1.5707963267948966 0.0 0.096 0.06400000000000002 0.03200000000000001 0.0 0.0 0.0 1.0 0.6666666666666667 0.33333333333333337 0.0 0.0 0.0 294.5196689875014 -110.99403657112056 482.2579905578156 -1.2079735647802876 1.2024200081613639 -1.2079735647802878 
0.104 0.005408000000000001 -1.5671909934615633 -1.56899366012823 0.0 1.5707963267948966 0.0 0.10400000000000001 0.06933333333333334 0.03466666666666667 0.0 0.0 0.0 1.0 0.6666666666666667 0.33333333333333337 0.0 0.0 0.0 294.4089653101512 -110.75946373383792 482.49333179797816 -1.207758408291092 1.2012444486899503 -1.207758408291092 
0.112 0.006272000000000001 -1.5666149934615632 -1.5687056601282299 0.0 1.5707963267948966 0.0 0.112 0.07466666666666667 0.037333333333333336 0.0 0.0 0.0 1.0 0.6666666666666667 0.33333333333333337 0.0 0.0 0.0 294.28898410527404 -110.50640513568857 482.7473599899205 -1.2075252739573312 1.1999753273217304 -1.2075252739573314 
0.12 0.0072 -1.5659963267948966 -1.5683963267948966 0.0 1.5707963267948966 0.0 0.12 0.08 0.04 0.0 0.0 0.0 1.0 0.6666666666666667 0.33333333333333337 0.0 0.0 0.0 294.1596287415951 -110.23492624904016 483.02004253430255 -1.207273985837213 1.1986127561495161 -1.207273985837213 
0.128 0.008192 -1.5653349934615632 -1.56806566012823 0.0 1.5707963267948966 0.0 0.128 0.08533333333333334 0.04266666666666667 0.0 0.0 0.0 1.0 0.6666666666666667 0.33333333333333337 0.0 0.0 0.0 294.02079564531124 -109.94509770659708 483.31134433880345 -1.207004355204973 1.1971568558133723 -1.2070043552049732 
0.136 0.009248000000000001 -1.5646309934615632 -1.56771366012823 0.0 1.5707963267948966 0.0 0.136 0.09066666666666669 0.045333333333333344 0.0 0.0 0.0 1.0 0.6666666666666667 0.33333333333333337 0.0 0.0 0.0 293.87237434716087 -109.63699536732928 483.62122780141414 -1.206716180604162 1.195607755552125 -1.2067161806041622 
0.144 0.010368000000000002 -1.5638843267948965 -1.5673403267948967 0.0 1.5707963267948966 0.0 0.14400000000000002 0.09600000000000002 0.04800000000000001 0.0 0.0 0.0 1.0 0.6666666666666667 0.33333333333333337 0.0 0.0 0.0 293.7142475330576 -109.31070038673347 483.9496527925981 -1.2064092479045825 1.1939655932581346 -1.2064092479045831 
0.152 0.011552 -1.5630949934615632 -1.56694566012823 0.0 1.5707963267948966 0.0 0.152 0.10133333333333334 0.05066666666666667 0.0 0.0 0.0 1.0 0.6666666666666667 0.33333333333333337 0.0 0.0 0.0 293.5462910983499 -108.9662992913826 484.2965766363214 -1.2060833303629055 1.192230515535306 -1.2060833303629057 
0.16 0.0128 -1.5622629934615633 -1.56652966012823 0.0 1.5707963267948966 0.0 0.16 0.10666666666666669 0.053333333333333344 0.0 0.0 0.0 1.0 0.6666666666666667 0.33333333333333337 0.0 0.0 0.0 293.36837420577285 -108.60388405771616 484.66195408995765 -1.20573818868693 1.1904026777602537 -1.20573818868693 
0.168 0.014112000000000001 -1.5613883267948965 -1.5660923267948965 0.0 1.5707963267948966 0.0 0.168 0.11200000000000002 0.05600000000000001 0.0 0.0 0.0 1.0 0.6666666666666667 0.33333333333333337 0.0 0.0 0.0 293.1803593471629 -108.2235521950205 485.045737323072 -1.20537357110351 1.1884822441465774 -1.2053735711035105 
0.176 0.015487999999999998 -1.5604709934615633 -1.56563366012823 0.0 1.5707963267948966 0.0 0.176 0.11733333333333335 0.05866666666666667 0.0 0.0 0.0 1.0 0.6666666666666667 0.33333333333333337 0.0 0.0 0.0 292.98210240900914 -107.825406832545 485.44787589508815 -1.2049892134301303 1.1864693878121801 -1.2049892134301305 
0.184 0.016928 -1.5595109934615632 -1.5651536601282299 0.0 1.5707963267948966 0.0 0.184 0.12266666666666667 0.06133333333333334 0.0 0.0 0.0 1.0 0.6666666666666667 0.33333333333333337 0.0 0.0 0.0 292.7734527419175 -107.40955681069649 485.86831673184514 -1.2045848391501284 1.1843642908495564 -1.2045848391501286 
0.192 0.018432 -1.5585083267948965 -1.5646523267948966 0.0 1.5707963267948966 0.0 0.192 0.12800000000000003 0.06400000000000002 0.0 0.0 0.0 1.0 0.6666666666666667 0.33333333333333337 0.0 0.0 0.0 292.5542532340711 -106.97611677625049 486.30700410104555 -1.2041601594915656 1.1821671443989943 -1.2041601594915663 
0.2 0.020000000000000004 -1.5574629934615631 -1.56412966012823 0.0 1.5707963267948966 0.0 0.2 0.13333333333333336 0.06666666666666668 0.0 0.0 0.0 1.0 0.6666666666666667 0.33333333333333337 0.0 0.0 0.0 292.3243403887683 -106.52520728151428 486.76387958660604 -1.2037148735097367 1.1798781487246035 -1.2037148735097374 
0.208 0.021632000000000005 -1.5563749934615632 -1.5635856601282299 0.0 1.5707963267948966 0.0 0.20800000000000002 0.1386666666666667 0.06933333333333334 0.0 0.0 0.0 1.0 0.6666666666666667 0.33333333333333337 0.0 0.0 0.0 292.08354440612874 -106.0569548873734 487.23888206191043 -1.203248668173308 1.1774975132931034 -1.2032486681733086 
0.216 0.023327999999999998 -1.5552443267948965 -1.5630203267948966 0.0 1.5707963267948966 0.0 0.216 0.14400000000000002 0.07200000000000001 0.0 0.0 0.0 1.0 0.6666666666666667 0.33333333333333337 0.0 0.0 0.0 291.83168926905705 -105.57149227014833 487.73194766197554 -1.20276121845409 1.1750254568552914 -1.2027612184540901 
0.224 0.025088000000000003 -1.5540709934615633 -1.5624336601282298 0.0 1.5707963267948966 0.0 0.224 0.14933333333333335 0.07466666666666667 0.0 0.0 0.0 1.0 0.6666666666666667 0.33333333333333337 0.0 0.0 0.0 291.568592833559 -105.06895833218537 488.24300975453457 -1.2022521874204275 1.1724622075301077 -1.2022521874204277 
0.232 0.026912000000000002 -1.5528549934615632 -1.5618256601282299 0.0 1.5707963267948966 0.0 0.232 0.1546666666666667 0.07733333333333335 0.0 0.0 0.0 1.0 0.6666666666666667 0.33333333333333337 0.0 0.0 0.0 291.2940669235077 -104.54949831610064 488.77199891004506 -1.2017212263342034 1.1698080028912137 -1.2017212263342039 
0.24 0.0288 -1.5515963267948965 -1.5611963267948965 0.0 1.5707963267948966 0.0 0.24 0.16 0.08 0.0 0.0 0.0 1.0 0.6666666666666667 0.33333333333333337 0.0 0.0 0.0 291.00791742996086 -104.01326392259242 489.31884287062854 -1.2011679747514505 1.1670630900560046 -1.201167974751451 
0.248 0.030751999999999998 -1.5502949934615633 -1.56054566012823 0.0 1.5707963267948966 0.0 0.248 0.16533333333333336 0.08266666666666668 0.0 0.0 0.0 1.0 0.6666666666666667 0.33333333333333337 0.0 0.0 0.0 290.7099444151317 -103.46041343173235 489.8834665179496 -1.2005920606265559 1.1642277257769518 -1.200592060626556 
0.256 0.032768 -1.5489509934615633 -1.55987366012823 0.0 1.5707963267948966 0.0 0.256 0.1706666666666667 0.08533333333333334 0.0 0.0 0.0 1.0 0.6666666666666667 0.33333333333333337 0.0 0.0 0.0 290.3999422211201 -102.89111182764246 490.46579184004247 -1.1999931004200586 1.1613021765352016 -1.1999931004200586 
0.264 0.034848000000000004 -1.5475643267948966 -1.5591803267948965 0.0 1.5707963267948966 0.0 0.264 0.17600000000000002 0.08800000000000001 0.0 0.0 0.0 1.0 0.6666666666666667 0.33333333333333337 0.0 0.0 0.0 290.07769958351537 -102.30553092645903 491.06573789709194 -1.199370699210018 1.1582867186363235 -1.199370699210018 
0.272 0.036992000000000004 -1.5461349934615631 -1.5584656601282298 0.0 1.5707963267948966 0.0 0.272 0.18133333333333337 0.09066666666666669 0.0 0.0 0.0 1.0 0.6666666666666667 0.33333333333333337 0.0 0.0 0.0 289.74299974997814 -101.70384950748083 491.68322078617973 -1.1987244508069534 1.1551816383081204 -1.198724450806954 
0.28 0.039200000000000006 -1.5446629934615632 -1.55772966012823 0.0 1.5707963267948966 0.0 0.28 0.1866666666666667 0.09333333333333335 0.0 0.0 0.0 1.0 0.6666666666666667 0.33333333333333337 0.0 0.0 0.0 289.3956206039209 -101.08625344739414 492.31815360500184 -1.1980539378723347 1.1519872318003983 -1.1980539378723347 
0.28234345 0.039826909566509444 -1.544245053750557 -1.5575206902727268 0.0 1.5707963267948966 0.0 0.2743434418098265 0.1828956278732177 0.09144781393660885 0.0 0.0 0.0 0.0 0.0 0.0 0.0 0.0 0.0 289.296494574764 -100.91128166160135 492.498245693827 -1.1978626430416681 1.1510808785699327 -1.1978626430416681 
0.29034343 0.04202165710098806 -1.5427818887275713 -1.556789107761234 0.0 1.5707963267948966 0.0 0.2743434418098265 0.1828956278732177 0.09144781393660885 0.0 0.0 0.0 0.0 0.0 0.0 0.0 0.0 0.0 288.9477408470756 -100.30005312017948 493.1280939245949 -1.1971897433695355 1.1479100028597051 -1.1971897433695358 
0.29834345 0.04421640463546667 -1.5413187237045856 -1.556057525249741 0.0 1.5707963267948966 0.0 0.2743434418098265 0.1828956278732177 0.09144781393660885 0.0 0.0 0.0 0.0 0.0 0.0 0.0 0.0 0.0 288.5963131786052 -99.690902773801 493.7569502556889 -1.1965118799074541 1.1447425192176222 -1.1965118799074541 
0.30634344 0.04641115216994529 -1.5398555586815996 -1.5553259427382482 0.0 1.5707963267948966 0.0 0.2743434418098265 0.1828956278732177 0.09144781393660885 0.0 0.0 0.0 0.0 0.0 0.0 0.0 0.0 0.0 288.24222095306527 -99.0838423701397 494.38481163054126 -1.195829062504549 1.141578436627302 -1.1958290625045491 
0.31434345 0.0486058997044239 -1.538392393658614 -1.5545943602267553 0.0 1.5707963267948966 0.0 0.2743434418098265 0.1828956278732177 0.09144781393660885 0.0 0.0 0.0 0.0 0.0 0.0 0.0 0.0 0.0 287.8854736058512 -98.47888361713777 495.0116749959815 -1.195141301006956 1.138417764027855 -1.1951413010069565 
0.32234344 0.05080064723890251 -1.5369292286356282 -1.5538627777152625 0.0 1.5707963267948966 0.0 0.2743434418098265 0.1828956278732177 0.09144781393660885 0.0 0.0 0.0 0.0 0.0 0.0 0.0 0.0 0.0 287.52608062387577 -97.8760381827782 495.63753730225125 -1.1944486052577359 1.1352605103140387 -1.194448605257736 
0.33034346 0.05299539477338113 -1.5354660636126425 -1.5531311952037696 0.0 1.5707963267948966 0.0 0.2743434418098265 0.1828956278732177 0.09144781393660885 0.0 0.0 0.0 0.0 0.0 0.0 0.0 0.0 0.0 287.164051545404 -97.2753176948581 496.26239550301904 -1.19375098509678 1.1321066843364034 -1.1937509850967802 
0.33834344 0.05519014230785975 -1.5340028985896568 -1.5523996126922766 0.0 1.5707963267948966 0.0 0.2743434418098265 0.1828956278732177 0.09144781393660885 0.0 0.0 0.0 0.0 0.0 0.0 0.0 0.0 0.0 286.79939595988566 -96.67673374076261 496.8862465553952 -1.193048450360729 1.1289562949014476 -1.1930484503607295 
0.34634343 0.05738488984233836 -1.532539733566671 -1.5516680301807837 0.0 1.5707963267948966 0.0 0.2743434418098265 0.1828956278732177 0.09144781393660885 0.0 0.0 0.0 0.0 0.0 0.0 0.0 0.0 0.0 286.4321235077881 -96.0802978672395 497.50908741994584 -1.1923410108828836 1.125809350771767 -1.1923410108828838 
0.35434344 0.05957963737681697 -1.5310765685436853 -1.5509364476692908 0.0 1.5707963267948966 0.0 0.2743434418098265 0.1828956278732177 0.09144781393660885 0.0 0.0 0.0 0.0 0.0 0.0 0.0 0.0 0.0 286.06224388042716 -95.48602158017445 498.1309150607088 -1.1916286764931159 1.1226658606662054 -1.1916286764931163 
0.36234343 0.06177438491129558 -1.5296134035206996 -1.550204865157798 0.0 1.5707963267948966 0.0 0.2743434418098265 0.1828956278732177 0.09144781393660885 0.0 0.0 0.0 0.0 0.0 0.0 0.0 0.0 0.0 285.6897668197972 -94.8939163443671 498.7517264452073 -1.190911457017789 1.1195258332600047 -1.1909114570177892 
0.37034345 0.06396913244577421 -1.5281502384977137 -1.5494732826463051 0.0 1.5707963267948966 0.0 0.2743434418098265 0.1828956278732177 0.09144781393660885 0.0 0.0 0.0 0.0 0.0 0.0 0.0 0.0 0.0 285.3147021184005 -94.30399358330779 499.371518544465 -1.1901893622796675 1.1163892771849573 -1.1901893622796678 
0.37834343 0.06616387998025282 -1.526687073474728 -1.5487417001348123 0.0 1.5707963267948966 0.0 0.2743434418098265 0.1828956278732177 0.09144781393660885 0.0 0.0 0.0 0.0 0.0 0.0 0.0 0.0 0.0 284.93705961907517 -93.71626467895479 499.99028833302066 -1.189462402097836 1.1132562010295528 -1.1894624020978362 
0.38634345 0.06835862751473143 -1.5252239084517423 -1.5480101176233194 0.0 1.5707963267948966 0.0 0.2743434418098265 0.1828956278732177 0.09144781393660885 0.0 0.0 0.0 0.0 0.0 0.0 0.0 0.0 0.0 284.5568492148231 -93.13074097151271 500.60803278894304 -1.1887305862876152 1.1101266133391332 -1.1887305862876154 
0.39434344 0.07055337504921004 -1.5237607434287566 -1.5472785351118266 0.0 1.5707963267948966 0.0 0.2743434418098265 0.1828956278732177 0.09144781393660885 0.0 0.0 0.0 0.0 0.0 0.0 0.0 0.0 0.0 284.17408084863547 -92.54743375921102 501.2247488938449 -1.18799392466048 1.1070005226160398 -1.1879939246604805 
0.40234345 0.07274812258368865 -1.5222975784057708 -1.5465469526003337 0.0 1.5707963267948966 0.0 0.2743434418098265 0.1828956278732177 0.09144781393660885 0.0 0.0 0.0 0.0 0.0 0.0 0.0 0.0 0.0 283.78876451331826 -91.9663542980839 501.84043363289845 -1.1872524270239757 1.1038779373197631 -1.187252427023976 
0.41034344 0.07494287011816728 -1.5208344133827851 -1.5458153700888408 0.0 1.5707963267948966 0.0 0.2743434418098265 0.1828956278732177 0.09144781393660885 0.0 0.0 0.0 0.0 0.0 0.0 0.0 0.0 0.0 283.400910251317 -91.38751380175026 502.4550839948494 -1.1865061031816377 1.100758865867094 -1.1865061031816377 
0.41834345 0.07713761765264589 -1.5193712483597994 -1.545083787577348 0.0 1.5707963267948966 0.0 0.2743434418098265 0.1828956278732177 0.09144781393660885 0.0 0.0 0.0 0.0 0.0 0.0 0.0 0.0 0.0 283.0105281545392 -90.81092344119496 503.0686969720318 -1.185754962932912 1.0976433166322737 -1.1857549629329118 
0.42634344 0.0793323651871245 -1.5179080833368135 -1.5443522050658551 0.0 1.5707963267948966 0.0 0.2743434418098265 0.1828956278732177 0.09144781393660885 0.0 0.0 0.0 0.0 0.0 0.0 0.0 0.0 0.0 282.6176283641777 -90.23659434455045 503.68126956038225 -1.184999016073072 1.094531297947141 -1.1849990160730721 
0.43434343 0.08152711272160311 -1.5164449183138278 -1.5436206225543623 0.0 1.5707963267948966 0.0 0.2743434418098265 0.1828956278732177 0.09144781393660885 0.0 0.0 0.0 0.0 0.0 0.0 0.0 0.0 0.0 282.22222107053153 -89.66453759687923 504.29279875945514 -1.1842382723931435 1.0914228181012866 -1.1842382723931437 
0.44234344 0.08372186025608172 -1.514981753290842 -1.5428890400428694 0.0 1.5707963267948966 0.0 0.2743434418098265 0.1828956278732177 0.09144781393660885 0.0 0.0 0.0 0.0 0.0 0.0 0.0 0.0 0.0 281.82431651282667 -89.0947642399571 504.9032815724367 -1.1834727416798239 1.0883178853421969 -1.183472741679824 
0.45034343 0.08591660779056035 -1.5135185882678563 -1.5421574575313766 0.0 1.5707963267948966 0.0 0.2743434418098265 0.1828956278732177 0.09144781393660885 0.0 0.0 0.0 0.0 0.0 0.0 0.0 0.0 0.0 281.423924979035 -88.52728527205713 505.5127150061596 -1.1827024337154028 1.085216507875407 -1.1827024337154028 
0.45834345 0.08811135532503896 -1.5120554232448706 -1.5414258750198835 0.0 1.5707963267948966 0.0 0.2743434418098265 0.1828956278732177 0.09144781393660885 0.0 0.0 0.0 0.0 0.0 0.0 0.0 0.0 0.0 281.02105680569355 -87.96211164773432 506.12109607111785 -1.1819273582776875 1.0821186938646479 -1.181927358277688 
0.46634343 0.09030610285951757 -1.510592258221885 -1.5406942925083906 0.0 1.5707963267948966 0.0 0.2743434418098265 0.1828956278732177 0.09144781393660885 0.0 0.0 0.0 0.0 0.0 0.0 0.0 0.0 0.0 280.61572237772185 -87.39925427761122 506.72842178148073 -1.181147525139925 1.079024451431997 -1.1811475251399253 
0.47434345 0.09250085039399619 -1.5091290931988992 -1.5399627099968978 0.0 1.5707963267948966 0.0 0.2743434418098265 0.1828956278732177 0.09144781393660885 0.0 0.0 0.0 0.0 0.0 0.0 0.0 0.0 0.0 280.2079321282382 -86.83872402816387 507.33468915510764 -1.1803629440707268 1.0759337886580262 -1.180362944070727 
0.48234344 0.09469559792847479 -1.5076659281759133 -1.539231127485405 0.0 1.5707963267948966 0.0 0.2743434418098265 0.1828956278732177 0.09144781393660885 0.0 0.0 0.0 0.0 0.0 0.0 0.0 0.0 0.0 279.7976965383759 -86.28053172150912 507.93989521356275 -1.179573624833991 1.072846713581949 -1.1795736248339914 
0.49034345 0.09689034546295341 -1.5062027631529276 -1.538499544973912 0.0 1.5707963267948966 0.0 0.2743434418098265 0.1828956278732177 0.09144781393660885 0.0 0.0 0.0 0.0 0.0 0.0 0.0 0.0 0.0 279.38502613709784 -85.72468813519208 508.5440369821291 -1.1787795771888325 1.0697632342017716 -1.178779577188833 
0.49834344 0.09908509299743203 -1.5047395981299418 -1.5377679624624192 0.0 1.5707963267948966 0.0 0.2743434418098265 0.1828956278732177 0.09144781393660885 0.0 0.0 0.0 0.0 0.0 0.0 0.0 0.0 0.0 278.96993150101014 -85.17120400197486 509.1471114898232 -1.1779808108895047 1.0666833584744395 -1.177980810889505 
0.5063434 0.10127984053191064 -1.5032764331069561 -1.5370363799509263 0.0 1.5707963267948966 0.0 0.2743434418098265 0.1828956278732177 0.09144781393660885 0.0 0.0 0.0 0.0 0.0 0.0 0.0 0.0 0.0 278.5524232541752 -84.6200900096257 509.7491157694096 -1.1771773356853275 1.063607094315986 -1.1771773356853277 
0.51434344 0.10347458806638925 -1.5018132680839704 -1.5363047974394335 0.0 1.5707963267948966 0.0 0.2743434418098265 0.1828956278732177 0.09144781393660885 0.0 0.0 0.0 0.0 0.0 0.0 0.0 0.0 0.0 278.1325120679239 -84.0713568007092 510.3500468574153 -1.1763691613206158 1.0605344496016809 -1.1763691613206158 
0.52234346 0.10566933560086787 -1.5003501030609847 -1.5355732149279406 0.0 1.5707963267948966 0.0 0.2743434418098265 0.1828956278732177 0.09144781393660885 0.0 0.0 0.0 0.0 0.0 0.0 0.0 0.0 0.0 277.7102086606661 -83.52501497237705 510.94990179414356 -1.1755562975346054 1.0574654321661778 -1.1755562975346057 
0.5303434 0.10786408313534648 -1.498886938037999 -1.5348416324164478 0.0 1.5707963267948966 0.0 0.2743434418098265 0.1828956278732177 0.09144781393660885 0.0 0.0 0.0 0.0 0.0 0.0 0.0 0.0 0.0 277.28552379770116 -82.9810750761597 511.5486776236895 -1.174738754061384 1.0544000498036608 -1.174738754061384 
0.5383434 0.1100588306698251 -1.4974237730150133 -1.534110049904955 0.0 1.5707963267948966 0.0 0.2743434418098265 0.1828956278732177 0.09144781393660885 0.0 0.0 0.0 0.0 0.0 0.0 0.0 0.0 0.0 276.85846829102707 -82.43954761775888 512.1463713939532 -1.1739165406298182 1.0513383102679936 -1.1739165406298184 
0.54634345 0.1122535782043037 -1.4959606079920273 -1.533378467393462 0.0 1.5707963267948966 0.0 0.2743434418098265 0.1828956278732177 0.09144781393660885 0.0 0.0 0.0 0.0 0.0 0.0 0.0 0.0 0.0 276.4290529991483 -81.90044305684069 512.7429801566552 -1.173089666963484 1.0482802212728652 -1.1730896669634845 
0.55434346 0.11444832573878232 -1.4944974429690416 -1.5326468848819692 0.0 1.5707963267948966 0.0 0.2743434418098265 0.1828956278732177 0.09144781393660885 0.0 0.0 0.0 0.0 0.0 0.0 0.0 0.0 0.0 275.9972888268842 -81.36377180682969 513.3385009673498 -1.1722581427805991 1.04522579049194 -1.1722581427805991 
0.5623434 0.11664307327326094 -1.493034277946056 -1.5319153023704764 0.0 1.5707963267948966 0.0 0.2743434418098265 0.1828956278732177 0.09144781393660885 0.0 0.0 0.0 0.0 0.0 0.0 0.0 0.0 0.0 275.5631867251741 -80.82954423470382 513.9329308854401 -1.171421977793951 1.0421750255589999 -1.1714219777939512 
0.57034343 0.11883782080773955 -1.4915711129230702 -1.5311837198589835 0.0 1.5707963267948966 0.0 0.2743434418098265 0.1828956278732177 0.09144781393660885 0.0 0.0 0.0 0.0 0.0 0.0 0.0 0.0 0.0 275.1267576908838 -80.2977706607898 514.5262669741923 -1.1705811817108307 1.0391279340680963 -1.1705811817108307 
0.57834345 0.12103256834221816 -1.4901079479000845 -1.5304521373474904 0.0 1.5707963267948966 0.0 0.2743434418098265 0.1828956278732177 0.09144781393660885 0.0 0.0 0.0 0.0 0.0 0.0 0.0 0.0 0.0 274.68801276660975 -79.76846135855985 515.1185063007492 -1.169735764232964 1.0360845235736915 -1.1697357642329642 
0.58634347 0.12322731587669677 -1.4886447828770988 -1.5297205548359976 0.0 1.5707963267948966 0.0 0.2743434418098265 0.1828956278732177 0.09144781393660885 0.0 0.0 0.0 0.0 0.0 0.0 0.0 0.0 0.0 274.246963040483 -79.2416265544288 515.709645936146 -1.168885735056447 1.0330448015908105 -1.168885735056447 
0.5943434 0.1254220634111754 -1.487181617854113 -1.5289889723245047 0.0 1.5707963267948966 0.0 0.2743434418098265 0.1828956278732177 0.09144781393660885 0.0 0.0 0.0 0.0 0.0 0.0 0.0 0.0 0.0 273.80361964597205 -78.71727642755215 516.2996829553229 -1.1680311038716749 1.030008775595182 -1.168031103871675 
0.60234344 0.12761681094565402 -1.4857184528311271 -1.5282573898130118 0.0 1.5707963267948966 0.0 0.2743434418098265 0.1828956278732177 0.09144781393660885 0.0 0.0 0.0 0.0 0.0 0.0 0.0 0.0 0.0 273.3579937616844 -78.19542110962509 516.8886144371407 -1.1671718803632811 1.0269764530233878 -1.1671718803632816 
0.61034346 0.12981155848013262 -1.4842552878081414 -1.527525807301519 0.0 1.5707963267948966 0.0 0.2743434418098265 0.1828956278732177 0.09144781393660885 0.0 0.0 0.0 0.0 0.0 0.0 0.0 0.0 0.0 272.9100966111683 -77.67607068468203 517.4764374643942 -1.1663080742100709 1.0239478412730083 -1.1663080742100713 
0.6183434 0.13200630601461122 -1.4827921227851557 -1.5267942247900261 0.0 1.5707963267948966 0.0 0.2743434418098265 0.1828956278732177 0.09144781393660885 0.0 0.0 0.0 0.0 0.0 0.0 0.0 0.0 0.0 272.4599394627119 -77.15923518889744 518.0631491238264 -1.1654396950849528 1.0209229477027653 -1.1654396950849533 
0.6263434 0.13420105354908984 -1.48132895776217 -1.5260626422785333 0.0 1.5707963267948966 0.0 0.2743434418098265 0.1828956278732177 0.09144781393660885 0.0 0.0 0.0 0.0 0.0 0.0 0.0 0.0 0.0 272.0075336291438 -76.64492461038702 518.6487465061435 -1.1645667526548806 1.017901779632671 -1.1645667526548809 
0.63434345 0.13639580108356847 -1.4798657927391843 -1.5253310597670404 0.0 1.5707963267948966 0.0 0.2743434418098265 0.1828956278732177 0.09144781393660885 0.0 0.0 0.0 0.0 0.0 0.0 0.0 0.0 0.0 271.55289046763016 -76.13314888900999 519.2332267060285 -1.1636892565807861 1.0148843443441713 -1.1636892565807864 
0.64234346 0.1385905486180471 -1.4784026277161986 -1.5245994772555476 0.0 1.5707963267948966 0.0 0.2743434418098265 0.1828956278732177 0.09144781393660885 0.0 0.0 0.0 0.0 0.0 0.0 0.0 0.0 0.0 271.0960213794731 -75.6239179161722 519.8165868221553 -1.1628072165175174 1.0118706490802907 -1.1628072165175174 
0.6503434 0.1407852961525257 -1.4769394626932129 -1.5238678947440547 0.0 1.5707963267948966 0.0 0.2743434418098265 0.1828956278732177 0.09144781393660885 0.0 0.0 0.0 0.0 0.0 0.0 0.0 0.0 0.0 270.6369378099068 -75.11724153463008 520.3988239572031 -1.161920642113776 1.0088607010457762 -1.161920642113776 
0.65834343 0.1429800436870043 -1.4754762976702271 -1.5231363122325619 0.0 1.5707963267948966 0.0 0.2743434418098265 0.1828956278732177 0.09144781393660885 0.0 0.0 0.0 0.0 0.0 0.0 0.0 0.0 0.0 270.17565124789377 -74.61312953829533 520.9799352178704 -1.1610295430120579 1.0058545074072454 -1.161029543012058 
0.66634345 0.1451747912214829 -1.4740131326472412 -1.522404729721069 0.0 1.5707963267948966 0.0 0.2743434418098265 0.1828956278732177 0.09144781393660885 0.0 0.0 0.0 0.0 0.0 0.0 0.0 0.0 0.0 269.7121732259194 -74.11159167204053 521.5599177148897 -1.1601339288485886 1.0028520752933259 -1.160133928848589 
0.67434347 0.14736953875596154 -1.4725499676242555 -1.5216731472095761 0.0 1.5707963267948966 0.0 0.2743434418098265 0.1828956278732177 0.09144781393660885 0.0 0.0 0.0 0.0 0.0 0.0 0.0 0.0 0.0 269.246515319786 -73.61263763150578 522.1387685630402 -1.1592338092532661 0.9998534117948037 -1.1592338092532661 
0.6823434 0.14956428629044016 -1.4710868026012698 -1.5209415646980833 0.0 1.5707963267948966 0.0 0.2743434418098265 0.1828956278732177 0.09144781393660885 0.0 0.0 0.0 0.0 0.0 0.0 0.0 0.0 0.0 268.7786891484062 -73.1162770629059 522.7164848811635 -1.1583291938495985 0.9968585239647638 -1.1583291938495988 
0.69034344 0.15175903382491876 -1.469623637578284 -1.5202099821865902 0.0 1.5707963267948966 0.0 0.2743434418098265 0.1828956278732177 0.09144781393660885 0.0 0.0 0.0 0.0 0.0 0.0 0.0 0.0 0.0 268.308706373595 -72.6225195628387 523.2930637921768 -1.1574200922546476 0.9938674188187367 -1.1574200922546478 
0.69834346 0.15395378135939736 -1.4681604725552984 -1.5194783996750973 0.0 1.5707963267948966 0.0 0.2743434418098265 0.1828956278732177 0.09144781393660885 0.0 0.0 0.0 0.0 0.0 0.0 0.0 0.0 0.0 267.83657869986155 -72.13137467809405 523.8685024230872 -1.1565065140789663 0.9908801033348392 -1.1565065140789668 
0.7063434 0.15614852889387598 -1.4666973075323126 -1.5187468171636045 0.0 1.5707963267948966 0.0 0.2743434418098265 0.1828956278732177 0.09144781393660885 0.0 0.0 0.0 0.0 0.0 0.0 0.0 0.0 0.0 267.3623178741994 -71.6428519054638 524.4427979050054 -1.1555884689265452 0.9878965844539193 -1.1555884689265452 
0.7143434 0.1583432764283546 -1.465234142509327 -1.5180152346521116 0.0 1.5707963267948966 0.0 0.2743434418098265 0.1828956278732177 0.09144781393660885 0.0 0.0 0.0 0.0 0.0 0.0 0.0 0.0 0.0 266.8859356858766 -71.1569606915527 525.0159473731604 -1.1546659663947505 0.9849168690796984 -1.1546659663947507 
0.72234344 0.16053802396283323 -1.463770977486341 -1.5172836521406188 0.0 1.5707963267948966 0.0 0.2743434418098265 0.1828956278732177 0.09144781393660885 0.0 0.0 0.0 0.0 0.0 0.0 0.0 0.0 0.0 266.4074439662243 -70.67371043259004 525.5879479669129 -1.1537390160742704 0.9819409640789144 -1.1537390160742707 
0.73034346 0.16273277149731186 -1.4623078124633553 -1.516552069629126 0.0 1.5707963267948966 0.0 0.2743434418098265 0.1828956278732177 0.09144781393660885 0.0 0.0 0.0 0.0 0.0 0.0 0.0 0.0 0.0 265.9268545884257 -70.19311047424226 526.1587968297695 -1.1528076275490573 0.9789688762814647 -1.1528076275490575 
0.7383434 0.16492751903179043 -1.4608446474403696 -1.515820487117633 0.0 1.5707963267948966 0.0 0.2743434418098265 0.1828956278732177 0.09144781393660885 0.0 0.0 0.0 0.0 0.0 0.0 0.0 0.0 0.0 265.44417946730204 -69.71517011142646 526.7284911093969 -1.1518718103962722 0.9760006124805467 -1.1518718103962724 
0.74634343 0.16712226656626905 -1.4593814824173839 -1.5150889046061402 0.0 1.5707963267948966 0.0 0.2743434418098265 0.1828956278732177 0.09144781393660885 0.0 0.0 0.0 0.0 0.0 0.0 0.0 0.0 0.0 264.95943055909976 -69.23989858812467 527.2970279576355 -1.1509315741862287 0.9730361794328016 -1.150931574186229 
0.75434345 0.16931701410074768 -1.4579183173943981 -1.5143573220946474 0.0 1.5707963267948966 0.0 0.2743434418098265 0.1828956278732177 0.09144781393660885 0.0 0.0 0.0 0.0 0.0 0.0 0.0 0.0 0.0 264.4726198612763 -68.76730509719931 527.8644045305133 -1.14998692848234 0.9700755838584558 -1.1499869284823403 
0.76234347 0.1715117616352263 -1.4564551523714124 -1.5136257395831545 0.0 1.5707963267948966 0.0 0.2743434418098265 0.1828956278732177 0.09144781393660885 0.0 0.0 0.0 0.0 0.0 0.0 0.0 0.0 0.0 263.98375941228454 -68.29739878020929 528.4306179882606 -1.149037882841063 0.9671188324414618 -1.149037882841063 
0.7703434 0.17370650916970493 -1.4549919873484267 -1.5128941570716616 0.0 1.5707963267948966 0.0 0.2743434418098265 0.1828956278732177 0.09144781393660885 0.0 0.0 0.0 0.0 0.0 0.0 0.0 0.0 0.0 263.4928612913566 -67.83018872722694 528.9956654953223 -1.148084446811845 0.9641659318296394 -1.1480844468118452 
0.77834344 0.1759012567041835 -1.453528822325441 -1.5121625745601688 0.0 1.5707963267948966 0.0 0.2743434418098265 0.1828956278732177 0.09144781393660885 0.0 0.0 0.0 0.0 0.0 0.0 0.0 0.0 0.0 262.99993761828733 -67.36568397665613 529.5595442203743 -1.1471266299370724 0.9612168886348181 -1.1471266299370724 
0.78634346 0.17809600423866212 -1.452065657302455 -1.511430992048676 0.0 1.5707963267948966 0.0 0.2743434418098265 0.1828956278732177 0.09144781393660885 0.0 0.0 0.0 0.0 0.0 0.0 0.0 0.0 0.0 262.50500055321675 -66.90389351505128 530.1222513363344 -1.1461644417520154 0.9582717094329771 -1.1461644417520158 
0.7943435 0.18029075177314074 -1.4506024922794694 -1.510699409537183 0.0 1.5707963267948966 0.0 0.2743434418098265 0.1828956278732177 0.09144781393660885 0.0 0.0 0.0 0.0 0.0 0.0 0.0 0.0 0.0 262.0080622964112 -66.44482627693674 530.6837840203785 -1.145197891784779 0.9553304007643851 -1.1451978917847792 
0.8023434 0.18248549930761937 -1.4491393272564836 -1.5099678270256902 0.0 1.5707963267948966 0.0 0.2743434418098265 0.1828956278732177 0.09144781393660885 0.0 0.0 0.0 0.0 0.0 0.0 0.0 0.0 0.0 261.50913508804433 -65.98849114462809 531.2441394539534 -1.144226989556248 0.9523929691337419 -1.144226989556248 
0.81034344 0.184680246842098 -1.447676162233498 -1.5092362445141971 0.0 1.5707963267948966 0.0 0.2743434418098265 0.1828956278732177 0.09144781393660885 0.0 0.0 0.0 0.0 0.0 0.0 0.0 0.0 0.0 261.00823120797685 -65.53489694805326 531.803314822791 -1.14325174458004 0.9494594210103173 -1.1432517445800403 
0.81834346 0.18687499437657656 -1.4462129972105122 -1.5085046620027043 0.0 1.5707963267948966 0.0 0.2743434418098265 0.1828956278732177 0.09144781393660885 0.0 0.0 0.0 0.0 0.0 0.0 0.0 0.0 0.0 260.5053629755359 -65.08405246457546 532.3613073169212 -1.1422721663624518 0.9465297628280918 -1.1422721663624522 
0.8263434 0.1890697419110552 -1.4447498321875265 -1.5077730794912114 0.0 1.5707963267948966 0.0 0.2743434418098265 0.1828956278732177 0.09144781393660885 0.0 0.0 0.0 0.0 0.0 0.0 0.0 0.0 0.0 260.00054274929323 -64.63596641881651 532.9181141306873 -1.1412882644024125 0.9436040009858959 -1.141288264402413 
0.83434343 0.19126448944553381 -1.4432866671645408 -1.5070414969797186 0.0 1.5707963267948966 0.0 0.2743434418098265 0.1828956278732177 0.09144781393660885 0.0 0.0 0.0 0.0 0.0 0.0 0.0 0.0 0.0 259.4937829268426 -64.19064748248121 533.4737324627582 -1.1403000481914314 0.9406821418475486 -1.1403000481914314 
0.84234345 0.19345923698001244 -1.4418235021415549 -1.5063099144682257 0.0 1.5707963267948966 0.0 0.2743434418098265 0.1828956278732177 0.09144781393660885 0.0 0.0 0.0 0.0 0.0 0.0 0.0 0.0 0.0 258.9850959445768 -63.74810427418287 534.0281595161431 -1.1393075272135498 0.9377641917419977 -1.1393075272135502 
0.85034347 0.19565398451449106 -1.4403603371185691 -1.5055783319567329 0.0 1.5707963267948966 0.0 0.2743434418098265 0.1828956278732177 0.09144781393660885 0.0 0.0 0.0 0.0 0.0 0.0 0.0 0.0 0.0 258.4744942774639 -63.308345359269495 534.5813924982049 -1.1383107109452955 0.9348501569634572 -1.1383107109452957 
0.8583434 0.19784873204896963 -1.4388971720955834 -1.50484674944524 0.0 1.5707963267948966 0.0 0.2743434418098265 0.1828956278732177 0.09144781393660885 0.0 0.0 0.0 0.0 0.0 0.0 0.0 0.0 0.0 257.9619904388218 -62.87137924965106 535.133428620674 -1.137309608855632 0.9319400437715478 -1.1373096088556323 
0.86634344 0.20004347958344826 -1.4374340070725977 -1.5041151669337471 0.0 1.5707963267948966 0.0 0.2743434418098265 0.1828956278732177 0.09144781393660885 0.0 0.0 0.0 0.0 0.0 0.0 0.0 0.0 0.0 257.4475969800929 -62.437214403627735 535.6842650996616 -1.1363042304059112 0.9290338583914322 -1.1363042304059117 
0.87434345 0.20223822711792688 -1.435970842049612 -1.5033835844222543 0.0 1.5707963267948966 0.0 0.2743434418098265 0.1828956278732177 0.09144781393660885 0.0 0.0 0.0 0.0 0.0 0.0 0.0 0.0 0.0 256.9313264906183 -62.005859225718865 536.2338991556741 -1.13529458504983 0.9261316070139554 -1.1352945850498302 
0.8823435 0.2044329746524055 -1.4345076770266263 -1.5026520019107614 0.0 1.5707963267948966 0.0 0.2743434418098265 0.1828956278732177 0.09144781393660885 0.0 0.0 0.0 0.0 0.0 0.0 0.0 0.0 0.0 256.41319159740976 -61.5773220664933 536.7823280136264 -1.13428068223338 0.9232332957957816 -1.1342806822333802 
0.8903434 0.20662772218688413 -1.4330445120036406 -1.5019204193992686 0.0 1.5707963267948966 0.0 0.2743434418098265 0.1828956278732177 0.09144781393660885 0.0 0.0 0.0 0.0 0.0 0.0 0.0 0.0 0.0 255.89320496492286 -61.151611222400234 537.3295489028553 -1.1332625313948053 0.9203389308595323 -1.1332625313948053 
0.89834344 0.2088224697213627 -1.4315813469806549 -1.5011888368877757 0.0 1.5707963267948966 0.0 0.2743434418098265 0.1828956278732177 0.09144781393660885 0.0 0.0 0.0 0.0 0.0 0.0 0.0 0.0 0.0 255.3713792948276 -60.72873493560136 537.8755590571335 -1.1322401419645536 0.9174485182939214 -1.1322401419645538 
0.90634346 0.21101721725584133 -1.430118181957669 -1.5004572543762829 0.0 1.5707963267948966 0.0 0.2743434418098265 0.1828956278732177 0.09144781393660885 0.0 0.0 0.0 0.0 0.0 0.0 0.0 0.0 0.0 254.84772732577932 -60.3087013938037 538.4203557146828 -1.1312135233652367 0.9145620641538943 -1.1312135233652367 
0.9143434 0.21321196479031995 -1.4286550169346832 -1.49972567186479 0.0 1.5707963267948966 0.0 0.2743434418098265 0.1828956278732177 0.09144781393660885 0.0 0.0 0.0 0.0 0.0 0.0 0.0 0.0 0.0 254.3222618331889 -59.89151873009357 538.9639361181881 -1.1301826850115808 0.9116795744607639 -1.130182685011581 
0.92234343 0.21540671232479858 -1.4271918519116975 -1.4989940893532971 0.0 1.5707963267948966 0.0 0.2743434418098265 0.1828956278732177 0.09144781393660885 0.0 0.0 0.0 0.0 0.0 0.0 0.0 0.0 0.0 253.7949956289914 -59.47719502277162 539.5062975148111 -1.1291476363103874 0.908801055202346 -1.1291476363103876 
0.93034345 0.2176014598592772 -1.4257286868887118 -1.498262506841804 0.0 1.5707963267948966 0.0 0.2743434418098265 0.1828956278732177 0.09144781393660885 0.0 0.0 0.0 0.0 0.0 0.0 0.0 0.0 0.0 253.26594156141454 -59.065738295188524 540.047437156203 -1.1281083866604862 0.9059265123330963 -1.1281083866604864 
0.93834347 0.21979620739375577 -1.424265521865726 -1.4975309243303112 0.0 1.5707963267948966 0.0 0.2743434418098265 0.1828956278732177 0.09144781393660885 0.0 0.0 0.0 0.0 0.0 0.0 0.0 0.0 0.0 252.7351125147469 -58.65715651558193 540.5873522985189 -1.1270649454526958 0.9030559517742458 -1.127064945452696 
0.9463434 0.2219909549282344 -1.4228023568427404 -1.4967993418188184 0.0 1.5707963267948966 0.0 0.2743434418098265 0.1828956278732177 0.09144781393660885 0.0 0.0 0.0 0.0 0.0 0.0 0.0 0.0 0.0 252.2025214091043 -58.25145759691425 541.1260402024309 -1.1260173220697798 0.9001893794139364 -1.12601732206978 
0.95434344 0.22418570246271302 -1.4213391918197547 -1.4960677593073255 0.0 1.5707963267948966 0.0 0.2743434418098265 0.1828956278732177 0.09144781393660885 0.0 0.0 0.0 0.0 0.0 0.0 0.0 0.0 0.0 251.66818120019596 -57.84864939671148 541.6634981331415 -1.1249655258864053 0.8973268011073561 -1.1249655258864053 
0.96234345 0.22638044999719165 -1.4198760267967687 -1.4953361767958326 0.0 1.5707963267948966 0.0 0.2743434418098265 0.1828956278732177 0.09144781393660885 0.0 0.0 0.0 0.0 0.0 0.0 0.0 0.0 0.0 251.13210487909038 -57.44873971690306 542.1997233603978 -1.1239095662691014 0.8944682226768732 -1.1239095662691023 
0.9703435 0.22857519753167027 -1.418412861773783 -1.4946045942843398 0.0 1.5707963267948966 0.0 0.2743434418098265 0.1828956278732177 0.09144781393660885 0.0 0.0 0.0 0.0 0.0 0.0 0.0 0.0 0.0 250.59430547198025 -57.05173630366252 542.7347131585038 -1.1228494525762198 0.8916136499121718 -1.1228494525762205 
0.9783434 0.23076994506614884 -1.4169496967507973 -1.493873011772847 0.0 1.5707963267948966 0.0 0.2743434418098265 0.1828956278732177 0.09144781393660885 0.0 0.0 0.0 0.0 0.0 0.0 0.0 0.0 0.0 250.0547960399457 -56.65764684724939 543.2684648063347 -1.1217851941578936 0.888763088570387 -1.1217851941578938 
0.98634344 0.23296469260062747 -1.4154865317278116 -1.493141429261354 0.0 1.5707963267948966 0.0 0.2743434418098265 0.1828956278732177 0.09144781393660885 0.0 0.0 0.0 0.0 0.0 0.0 0.0 0.0 0.0 249.51358967871846 -56.266478981851904 543.8009755873501 -1.1207168003559964 0.8859165443762363 -1.1207168003559964 
0.99434346 0.2351594401351061 -1.4140233667048259 -1.4924098467498612 0.0 1.5707963267948966 0.0 0.2743434418098265 0.1828956278732177 0.09144781393660885 0.0 0.0 0.0 0.0 0.0 0.0 0.0 0.0 0.0 248.97069951844404 -55.87824028543078 544.3322427896073 -1.1196442805041051 0.883074023022155 -1.1196442805041054 
1.0023434 0.23735418766958472 -1.4125602016818402 -1.4916782642383684 0.0 1.5707963267948966 0.0 0.2743434418098265 0.1828956278732177 0.09144781393660885 0.0 0.0 0.0 0.0 0.0 0.0 0.0 0.0 0.0 248.42613872344367 -55.49293827956403 544.8622637057746 -1.1185676439274597 0.8802355301684303 -1.1185676439274599 
1.0103434 0.23954893520406334 -1.4110970366588544 -1.4909466817268755 0.0 1.5707963267948966 0.0 0.2743434418098265 0.1828956278732177 0.09144781393660885 0.0 0.0 0.0 0.0 0.0 0.0 0.0 0.0 0.0 247.87992049197607 -55.110580429292725 545.3910356331451 -1.1174868999429268 0.8774010714433333 -1.1174868999429266 
1.0183434 0.2417436827385419 -1.4096338716358687 -1.4902150992153826 0.0 1.5707963267948966 0.0 0.2743434418098265 0.1828956278732177 0.09144781393660885 0.0 0.0 0.0 0.0 0.0 0.0 0.0 0.0 0.0 247.3320580559971 -54.73117414296772 545.9185558736493 -1.1164020578589584 0.8745706524432522 -1.1164020578589584 
1.0263435 0.24393843027302053 -1.4081707066128828 -1.4894835167038898 0.0 1.5707963267948966 0.0 0.2743434418098265 0.1828956278732177 0.09144781393660885 0.0 0.0 0.0 0.0 0.0 0.0 0.0 0.0 0.0 246.78256468092027 -54.35472677209755 546.4448217338694 -1.1153131269755578 0.8717442787328249 -1.115313126975558 
1.0343435 0.24613317780749916 -1.406707541589897 -1.488751934192397 0.0 1.5707963267948966 0.0 0.2743434418098265 0.1828956278732177 0.09144781393660885 0.0 0.0 0.0 0.0 0.0 0.0 0.0 0.0 0.0 246.23145366537602 -53.98124561119706 546.9698305250516 -1.1142201165842411 0.8689219558450723 -1.1142201165842414 
1.0423435 0.24832792534197778 -1.4052443765669114 -1.488020351680904 0.0 1.5707963267948966 0.0 0.2743434418098265 0.1828956278732177 0.09144781393660885 0.0 0.0 0.0 0.0 0.0 0.0 0.0 0.0 0.0 245.67873834096952 -53.61073789763758 547.4935795631196 -1.1131230359680007 0.866103689281528 -1.1131230359680007 
1.0503434 0.2505226728764564 -1.4037812115439257 -1.487288769169411 0.0 1.5707963267948966 0.0 0.2743434418098265 0.1828956278732177 0.09144781393660885 0.0 0.0 0.0 0.0 0.0 0.0 0.0 0.0 0.0 245.12443207203896 -53.243210811497356 548.016066168689 -1.1120218944012688 0.8632894845123716 -1.1120218944012692 
1.0583434 0.252717420410935 -1.40231804652094 -1.4865571866579181 0.0 1.5707963267948966 0.0 0.2743434418098265 0.1828956278732177 0.09144781393660885 0.0 0.0 0.0 0.0 0.0 0.0 0.0 0.0 0.0 244.56854825541262 -52.87867147541375 548.537287667079 -1.1109167011498837 0.8604793469765611 -1.110916701149884 
1.0663434 0.2549121679454136 -1.4008548814979542 -1.4858256041464253 0.0 1.5707963267948966 0.0 0.2743434418098265 0.1828956278732177 0.09144781393660885 0.0 0.0 0.0 0.0 0.0 0.0 0.0 0.0 0.0 244.01110032016544 -52.51712695443592 549.057241388326 -1.1098074654710528 0.8576732820819611 -1.109807465471053 
1.0743434 0.25710691547989223 -1.3993917164749683 -1.4850940216349324 0.0 1.5707963267948966 0.0 0.2743434418098265 0.1828956278732177 0.09144781393660885 0.0 0.0 0.0 0.0 0.0 0.0 0.0 0.0 0.0 243.45210172737427 -52.15858425587895 549.5759246671977 -1.1086941966133181 0.8548712952054759 -1.1086941966133184 
1.0823435 0.25930166301437085 -1.3979285514519826 -1.4843624391234396 0.0 1.5707963267948966 0.0 0.2743434418098265 0.1828956278732177 0.09144781393660885 0.0 0.0 0.0 0.0 0.0 0.0 0.0 0.0 0.0 242.89156596987405 -51.80305032917859 550.093334843205 -1.1075769038165244 0.8520733916931805 -1.1075769038165246 
1.0903435 0.2614964105488495 -1.3964653864289969 -1.4836308566119467 0.0 1.5707963267948966 0.0 0.2743434418098265 0.1828956278732177 0.09144781393660885 0.0 0.0 0.0 0.0 0.0 0.0 0.0 0.0 0.0 242.32950657201116 -51.45053206574742 550.6094692606163 -1.1064555963117808 0.8492795768604474 -1.106455596311781 
1.0983435 0.26369115808332805 -1.3950022214060112 -1.4828992741004539 0.0 1.5707963267948966 0.0 0.2743434418098265 0.1828956278732177 0.09144781393660885 0.0 0.0 0.0 0.0 0.0 0.0 0.0 0.0 0.0 241.76593708939794 -51.101036298831815 551.1243252684701 -1.1053302833214316 0.8464898559920805 -1.1053302833214322 
1.1063434 0.2658859056178067 -1.3935390563830254 -1.482167691588961 0.0 1.5707963267948966 0.0 0.2743434418098265 0.1828956278732177 0.09144781393660885 0.0 0.0 0.0 0.0 0.0 0.0 0.0 0.0 0.0 241.20087110866575 -50.75456980336999 551.637900220588 -1.104200974059022 0.8437042343424419 -1.1042009740590224 
1.1143434 0.2680806531522853 -1.3920758913600397 -1.4814361090774681 0.0 1.5707963267948966 0.0 0.2743434418098265 0.1828956278732177 0.09144781393660885 0.0 0.0 0.0 0.0 0.0 0.0 0.0 0.0 0.0 240.6343222472175 -50.4111392958512 552.1501914755876 -1.1030676777292656 0.8409227171355828 -1.1030676777292656 
1.1223434 0.2702754006867639 -1.390612726337054 -1.4807045265659753 0.0 1.5707963267948966 0.0 0.2743434418098265 0.1828956278732177 0.09144781393660885 0.0 0.0 0.0 0.0 0.0 0.0 0.0 0.0 0.0 240.0663041529794 -50.0707514341759 552.6611963968969 -1.101930403528011 0.8381453095653715 -1.1019304035280113 
1.1303434 0.27247014822124255 -1.3891495613140683 -1.4799729440544824 0.0 1.5707963267948966 0.0 0.2743434418098265 0.1828956278732177 0.09144781393660885 0.0 0.0 0.0 0.0 0.0 0.0 0.0 0.0 0.0 239.49683050415246 -49.733412817516836 553.1709123527656 -1.1007891606422129 0.8353720167956223 -1.1007891606422129 
1.1383435 0.2746648957557211 -1.3876863962910824 -1.4792413615429896 0.0 1.5707963267948966 0.0 0.2743434418098265 0.1828956278732177 0.09144781393660885 0.0 0.0 0.0 0.0 0.0 0.0 0.0 0.0 0.0 238.92591500896293 -49.39912998618147 553.6793367162792 -1.0996439582498982 0.8326028439602244 -1.0996439582498985 
1.1463435 0.27685964329019974 -1.3862232312680967 -1.4785097790314967 0.0 1.5707963267948966 0.0 0.2743434418098265 0.1828956278732177 0.09144781393660885 0.0 0.0 0.0 0.0 0.0 0.0 0.0 0.0 0.0 238.35357140541288 -49.067909421475186 554.1864668653718 -1.0984948055201382 0.8298377961632696 -1.0984948055201385 
1.1543435 0.27905439082467837 -1.384760066245111 -1.4777781965200039 0.0 1.5707963267948966 0.0 0.2743434418098265 0.1828956278732177 0.09144781393660885 0.0 0.0 0.0 0.0 0.0 0.0 0.0 0.0 0.0 237.7798134610286 -48.739757545565745 554.692300182839 -1.0973417116130146 0.827076878479179 -1.0973417116130149 
1.1623434 0.281249138359157 -1.3832969012221252 -1.4770466140085108 0.0 1.5707963267948966 0.0 0.2743434418098265 0.1828956278732177 0.09144781393660885 0.0 0.0 0.0 0.0 0.0 0.0 0.0 0.0 0.0 237.20465497261011 -48.41468072134877 555.196834056351 -1.0961846856795934 0.824320095952832 -1.0961846856795936 
1.1703434 0.2834438858936356 -1.3818337361991395 -1.476315031497018 0.0 1.5707963267948966 0.0 0.2743434418098265 0.1828956278732177 0.09144781393660885 0.0 0.0 0.0 0.0 0.0 0.0 0.0 0.0 0.0 236.62810976597956 -48.09268525231407 555.7000658784656 -1.0950237368618922 0.8215674535996934 -1.0950237368618925 
1.1783434 0.28563863342811424 -1.3803705711761538 -1.475583448985525 0.0 1.5707963267948966 0.0 0.2743434418098265 0.1828956278732177 0.09144781393660885 0.0 0.0 0.0 0.0 0.0 0.0 0.0 0.0 0.0 236.05019169572796 -47.7737773824134 556.201993046641 -1.0938588742928532 0.8188189564059383 -1.0938588742928534 
1.1863434 0.28783338096259287 -1.378907406153168 -1.4748518664740322 0.0 1.5707963267948966 0.0 0.2743434418098265 0.1828956278732177 0.09144781393660885 0.0 0.0 0.0 0.0 0.0 0.0 0.0 0.0 0.0 235.47091464496276 -47.45796329592906 556.7026129632485 -1.0926901070963138 0.8160746093285803 -1.092690107096314 
1.1943434 0.29002812849707144 -1.3774442411301822 -1.4741202839625394 0.0 1.5707963267948966 0.0 0.2743434418098265 0.1828956278732177 0.09144781393660885 0.0 0.0 0.0 0.0 0.0 0.0 0.0 0.0 0.0 234.89029252505415 -47.14524911734361 557.2019230355861 -1.0915174443869784 0.8133344172955983 -1.0915174443869788 
1.2023435 0.29222287603155006 -1.3759810761071964 -1.4733887014510465 0.0 1.5707963267948966 0.0 0.2743434418098265 0.1828956278732177 0.09144781393660885 0.0 0.0 0.0 0.0 0.0 0.0 0.0 0.0 0.0 234.3083392753807 -46.83564091121051 557.6999206758908 -1.09034089527039 0.8105983852060593 -1.0903408952703906 
1.2103435 0.2944176235660287 -1.3745179110842107 -1.4726571189395536 0.0 1.5707963267948966 0.0 0.2743434418098265 0.1828956278732177 0.09144781393660885 0.0 0.0 0.0 0.0 0.0 0.0 0.0 0.0 0.0 233.72506886307474 -46.52914468202621 558.1966033013513 -1.0891604688429046 0.8078665179302477 -1.0891604688429048 
1.2183435 0.2966123711005073 -1.373054746061225 -1.4719255364280608 0.0 1.5707963267948966 0.0 0.2743434418098265 0.1828956278732177 0.09144781393660885 0.0 0.0 0.0 0.0 0.0 0.0 0.0 0.0 0.0 233.1404952827666 -46.22576637410304 558.6919683341215 -1.0879761741916611 0.805138820309787 -1.0879761741916616 
1.2263434 0.29880711863498594 -1.3715915810382393 -1.471193953916568 0.0 1.5707963267948966 0.0 0.2743434418098265 0.1828956278732177 0.09144781393660885 0.0 0.0 0.0 0.0 0.0 0.0 0.0 0.0 0.0 232.554632556329 -45.92551187144317 559.1860132013329 -1.086788020394559 0.8024152971577685 -1.086788020394559 
1.2343434 0.3010018661694645 -1.3701284160152536 -1.470462371405075 0.0 1.5707963267948966 0.0 0.2743434418098265 0.1828956278732177 0.09144781393660885 0.0 0.0 0.0 0.0 0.0 0.0 0.0 0.0 0.0 231.9674947326205 -45.628386997613774 559.6787353351074 -1.0855960165202272 0.7996959532588725 -1.0855960165202274 
1.2423434 0.30319661370394313 -1.3686652509922679 -1.4697307888935822 0.0 1.5707963267948966 0.0 0.2743434418098265 0.1828956278732177 0.09144781393660885 0.0 0.0 0.0 0.0 0.0 0.0 0.0 0.0 0.0 231.379095887228 -45.33439751562321 560.17013217257 -1.084400171628001 0.7969807933694932 -1.0844001716280012 
1.2503434 0.30539136123842175 -1.3672020859692822 -1.4689992063820894 0.0 1.5707963267948966 0.0 0.2743434418098265 0.1828956278732177 0.09144781393660885 0.0 0.0 0.0 0.0 0.0 0.0 0.0 0.0 0.0 230.78945012220976 -45.043549127798315 560.6602011558617 -1.0832004947678984 0.7942698222178652 -1.0832004947678984 
1.2583435 0.3075861087729004 -1.3657389209462962 -1.4682676238705965 0.0 1.5707963267948966 0.0 0.2743434418098265 0.1828956278732177 0.09144781393660885 0.0 0.0 0.0 0.0 0.0 0.0 0.0 0.0 0.0 230.19857156583606 -44.75584747566289 561.1489397321526 -1.08199699498059 0.7915630445041834 -1.08199699498059 
1.2663435 0.309780856307379 -1.3642757559233105 -1.4675360413591036 0.0 1.5707963267948966 0.0 0.2743434418098265 0.1828956278732177 0.09144781393660885 0.0 0.0 0.0 0.0 0.0 0.0 0.0 0.0 0.0 229.60647437233186 -44.47129813981702 561.6363453536534 -1.0807896812973796 0.7888604649007298 -1.0807896812973798 
1.2743435 0.3119756038418576 -1.3628125909003248 -1.4668044588476108 0.0 1.5707963267948966 0.0 0.2743434418098265 0.1828956278732177 0.09144781393660885 0.0 0.0 0.0 0.0 0.0 0.0 0.0 0.0 0.0 229.01317272161606 -44.18990663981779 562.1224154776295 -1.079578562740177 0.7861620880519937 -1.0795785627401773 
1.2823434 0.3141703513763362 -1.361349425877339 -1.466072876336118 0.0 1.5707963267948966 0.0 0.2743434418098265 0.1828956278732177 0.09144781393660885 0.0 0.0 0.0 0.0 0.0 0.0 0.0 0.0 0.0 228.4186808190425 -43.911678434060896 562.607147566413 -1.0783636483214742 0.783467918574796 -1.0783636483214742 
1.2903434 0.3163650989108148 -1.3598862608543534 -1.4653412938246249 0.0 1.5707963267948966 0.0 0.2743434418098265 0.1828956278732177 0.09144781393660885 0.0 0.0 0.0 0.0 0.0 0.0 0.0 0.0 0.0 227.82301289513896 -43.63661891966354 563.0905390874154 -1.0771449470443222 0.7807779610584101 -1.0771449470443224 
1.2983434 0.31855984644529345 -1.3584230958313677 -1.464609711313132 0.0 1.5707963267948966 0.0 0.2743434418098265 0.1828956278732177 0.09144781393660885 0.0 0.0 0.0 0.0 0.0 0.0 0.0 0.0 0.0 227.2261832053468 -43.36473343234807 563.5725875131399 -1.0759224679023103 0.7780922200646865 -1.0759224679023105 
1.3063434 0.3207545939797721 -1.356959930808382 -1.4638781288016391 0.0 1.5707963267948966 0.0 0.2743434418098265 0.1828956278732177 0.09144781393660885 0.0 0.0 0.0 0.0 0.0 0.0 0.0 0.0 0.0 226.62820602975896 -43.096027246327296 564.0532903211945 -1.0746962198795385 0.7754107001281716 -1.0746962198795387 
1.3143435 0.32294934151425064 -1.355496765785396 -1.4631465462901463 0.0 1.5707963267948966 0.0 0.2743434418098265 0.1828956278732177 0.09144781393660885 0.0 0.0 0.0 0.0 0.0 0.0 0.0 0.0 0.0 226.02909567285784 -42.83050557419044 564.5326449943047 -1.073466211950599 0.7727334057562305 -1.0734662119505993 
1.3223435 0.32514408904872927 -1.3540336007624103 -1.4624149637786534 0.0 1.5707963267948966 0.0 0.2743434418098265 0.1828956278732177 0.09144781393660885 0.0 0.0 0.0 0.0 0.0 0.0 0.0 0.0 0.0 225.42886646325343 -42.56817356679032 565.0106490203253 -1.0722324530805538 0.7700603414291681 -1.0722324530805543 
1.3303435 0.3273388365832079 -1.3525704357394246 -1.4616833812671606 0.0 1.5707963267948966 0.0 0.2743434418098265 0.1828956278732177 0.09144781393660885 0.0 0.0 0.0 0.0 0.0 0.0 0.0 0.0 0.0 224.82753275341926 -42.309036313131784 565.4872998922536 -1.0709949522249116 0.7673915116003498 -1.070994952224912 
1.3383435 0.3295335841176865 -1.3511072707164389 -1.4609517987556677 0.0 1.5707963267948966 0.0 0.2743434418098265 0.1828956278732177 0.09144781393660885 0.0 0.0 0.0 0.0 0.0 0.0 0.0 0.0 0.0 224.22510891942983 -42.0530988402611 565.962595108242 -1.0697537183296075 0.7647269206963212 -1.0697537183296078 
1.3463434 0.33172833165216514 -1.3496441056934532 -1.4602202162441749 0.0 1.5707963267948966 0.0 0.2743434418098265 0.1828956278732177 0.09144781393660885 0.0 0.0 0.0 0.0 0.0 0.0 0.0 0.0 0.0 223.62160936069557 -41.800366113156656 566.4365321716095 -1.0685087603309815 0.7620665731169284 -1.0685087603309817 
1.3543434 0.3339230791866437 -1.3481809406704675 -1.459488633732682 0.0 1.5707963267948966 0.0 0.2743434418098265 0.1828956278732177 0.09144781393660885 0.0 0.0 0.0 0.0 0.0 0.0 0.0 0.0 0.0 223.01704849969906 -41.55084303462044 566.9091085908557 -1.0672600871557592 0.7594104732354389 -1.0672600871557594 
1.3623434 0.33611782672112234 -1.3467177756474817 -1.4587570512211891 0.0 1.5707963267948966 0.0 0.2743434418098265 0.1828956278732177 0.09144781393660885 0.0 0.0 0.0 0.0 0.0 0.0 0.0 0.0 0.0 222.41144078172925 -41.304534445171114 567.3803218796718 -1.0660077077210302 0.756758625398659 -1.0660077077210302 
1.3703434 0.33831257425560096 -1.345254610624496 -1.4580254687096963 0.0 1.5707963267948966 0.0 0.2743434418098265 0.1828956278732177 0.09144781393660885 0.0 0.0 0.0 0.0 0.0 0.0 0.0 0.0 0.0 221.80480067461627 -41.06144512293778 567.8501695569538 -1.0647516309342295 0.7541110339270549 -1.0647516309342295 
1.3783435 0.3405073217900796 -1.34379144560151 -1.4572938861982034 0.0 1.5707963267948966 0.0 0.2743434418098265 0.1828956278732177 0.09144781393660885 0.0 0.0 0.0 0.0 0.0 0.0 0.0 0.0 0.0 221.19714266846512 -40.821579783555165 568.3186491468149 -1.063491865693117 0.7514677031148697 -1.0634918656931174 
1.3863435 0.3427020693245582 -1.3423282805785244 -1.4565623036867106 0.0 1.5707963267948966 0.0 0.2743434418098265 0.1828956278732177 0.09144781393660885 0.0 0.0 0.0 0.0 0.0 0.0 0.0 0.0 0.0 220.58848127538954 -40.58494308005968 568.7857581785976 -1.06222842088576 0.7488286372302436 -1.0622284208857602 
1.3943435 0.3448968168590368 -1.3408651155555387 -1.4558307211752177 0.0 1.5707963267948966 0.0 0.2743434418098265 0.1828956278732177 0.09144781393660885 0.0 0.0 0.0 0.0 0.0 0.0 0.0 0.0 0.0 219.97883102924425 -40.351539602787106 569.251494186886 -1.0609613053905127 0.7461938405153304 -1.0609613053905127 
1.4023434 0.3470915643935154 -1.339401950532553 -1.4550991386637246 0.0 1.5707963267948966 0.0 0.2743434418098265 0.1828956278732177 0.09144781393660885 0.0 0.0 0.0 0.0 0.0 0.0 0.0 0.0 0.0 219.36820648535794 -40.12137387927062 569.7158547115191 -1.0596905280759978 0.7435633171864156 -1.0596905280759983 
1.4103434 0.34928631192799403 -1.3379387855095672 -1.4543675561522318 0.0 1.5707963267948966 0.0 0.2743434418098265 0.1828956278732177 0.09144781393660885 0.0 0.0 0.0 0.0 0.0 0.0 0.0 0.0 0.0 218.75662222026534 -39.89445037414088 570.1788372976011 -1.0584160978010915 0.7409370714340353 -1.058416097801092 
1.4183434 0.35148105946247266 -1.3364756204865815 -1.453635973640739 0.0 1.5707963267948966 0.0 0.2743434418098265 0.1828956278732177 0.09144781393660885 0.0 0.0 0.0 0.0 0.0 0.0 0.0 0.0 0.0 218.1440928314381 -39.67077348902634 570.6404394955161 -1.0571380234149017 0.738315107423091 -1.0571380234149017 
1.4263434 0.3536758069969513 -1.3350124554635958 -1.452904391129246 0.0 1.5707963267948966 0.0 0.2743434418098265 0.1828956278732177 0.09144781393660885 0.0 0.0 0.0 0.0 0.0 0.0 0.0 0.0 0.0 217.53063293701675 -39.45034756245552 571.1006588609387 -1.0558563137567532 0.7356974292929684 -1.0558563137567534 
1.4343435 0.35587055453142985 -1.3335492904406099 -1.4521728086177532 0.0 1.5707963267948966 0.0 0.2743434418098265 0.1828956278732177 0.09144781393660885 0.0 0.0 0.0 0.0 0.0 0.0 0.0 0.0 0.0 216.91625717554058 -39.23317686975987 571.5594929548464 -1.0545709776561702 0.7330840411576527 -1.0545709776561705 
1.4423435 0.3580653020659085 -1.3320861254176242 -1.4514412261062604 0.0 1.5707963267948966 0.0 0.2743434418098265 0.1828956278732177 0.09144781393660885 0.0 0.0 0.0 0.0 0.0 0.0 0.0 0.0 0.0 216.30098020567848 -39.01926562297798 572.016939343533 -1.0532820239328595 0.730474947105845 -1.05328202393286 
1.4503435 0.3602600496003871 -1.3306229603946385 -1.4507096435947675 0.0 1.5707963267948966 0.0 0.2743434418098265 0.1828956278732177 0.09144781393660885 0.0 0.0 0.0 0.0 0.0 0.0 0.0 0.0 0.0 215.68481670595787 -38.80861797076093 572.472995598619 -1.0519894613966942 0.7278701512010783 -1.051989461396695 
1.4583434 0.3624547971348657 -1.3291597953716527 -1.4499780610832746 0.0 1.5707963267948966 0.0 0.2743434418098265 0.1828956278732177 0.09144781393660885 0.0 0.0 0.0 0.0 0.0 0.0 0.0 0.0 0.0 215.0677813744949 -38.601237998278826 572.9276592970658 -1.0506932988476978 0.7252696574818327 -1.050693298847698 
1.4663434 0.36464954466934435 -1.327696630348667 -1.4492464785717818 0.0 1.5707963267948966 0.0 0.2743434418098265 0.1828956278732177 0.09144781393660885 0.0 0.0 0.0 0.0 0.0 0.0 0.0 0.0 0.0 214.4498889287222 -38.39712972712843 573.380928021186 -1.0493935450760288 0.7226734699616507 -1.049393545076029 
1.4743434 0.3668442922038229 -1.3262334653256813 -1.448514896060289 0.0 1.5707963267948966 0.0 0.2743434418098265 0.1828956278732177 0.09144781393660885 0.0 0.0 0.0 0.0 0.0 0.0 0.0 0.0 0.0 213.8311541051184 -38.196297115242004 573.8327993586566 -1.0480902088619644 0.7200815926292519 -1.0480902088619646 
1.4823434 0.36903903973830154 -1.3247703003026956 -1.447783313548796 0.0 1.5707963267948966 0.0 0.2743434418098265 0.1828956278732177 0.09144781393660885 0.0 0.0 0.0 0.0 0.0 0.0 0.0 0.0 0.0 213.21159165893548 -37.99874405679709 574.283270902531 -1.046783298975887 0.7174940294486473 -1.0467832989758872 
1.4903435 0.37123378727278017 -1.32330713527971 -1.4470517310373032 0.0 1.5707963267948966 0.0 0.2743434418098265 0.1828956278732177 0.09144781393660885 0.0 0.0 0.0 0.0 0.0 0.0 0.0 0.0 0.0 212.59121636392655 -37.804474382127864 574.7323402512505 -1.0454728241782687 0.714910784359254 -1.0454728241782687 
1.4983435 0.3734285348072588 -1.321843970256724 -1.4463201485258104 0.0 1.5707963267948966 0.0 0.2743434418098265 0.1828956278732177 0.09144781393660885 0.0 0.0 0.0 0.0 0.0 0.0 0.0 0.0 0.0 211.9700430120726 -37.613491857637264 575.1800050086576 -1.0441587932196565 0.7123318612760083 -1.0441587932196568 
1.5063435 0.3756232823417374 -1.3203808052337382 -1.4455885660143175 0.0 1.5707963267948966 0.0 0.2743434418098265 0.1828956278732177 0.09144781393660885 0.0 0.0 0.0 0.0 0.0 0.0 0.0 0.0 0.0 211.34808641331014 -37.42580018571046 575.6262627840065 -1.0428412148406596 0.7097572640894799 -1.04284121484066 
1.5143435 0.377818029876216 -1.3189176402107525 -1.4448569835028247 0.0 1.5707963267948966 0.0 0.2743434418098265 0.1828956278732177 0.09144781393660885 0.0 0.0 0.0 0.0 0.0 0.0 0.0 0.0 0.0 210.72536139525647 -37.24140300462951 576.071111191976 -1.0415200977719354 0.7071869966659846 -1.0415200977719359 
1.5223434 0.3800127774106946 -1.3174544751877668 -1.4441254009913318 0.0 1.5707963267948966 0.0 0.2743434418098265 0.1828956278732177 0.09144781393660885 0.0 0.0 0.0 0.0 0.0 0.0 0.0 0.0 0.0 210.1018828029363 -37.06030388848909 576.5145478526817 -1.040195450734175 0.7046210628476968 -1.0401954507341753 
1.5303434 0.38220752494517324 -1.315991310164781 -1.4433938184798387 0.0 1.5707963267948966 0.0 0.2743434418098265 0.1828956278732177 0.09144781393660885 0.0 0.0 0.0 0.0 0.0 0.0 0.0 0.0 0.0 209.47766549850712 -36.88250634711342 576.9565703916873 -1.038867282438091 0.7020594664527625 -1.0388672824380913 
1.5383434 0.38440227247965186 -1.3145281451417954 -1.4426622359683459 0.0 1.5707963267948966 0.0 0.2743434418098265 0.1828956278732177 0.09144781393660885 0.0 0.0 0.0 0.0 0.0 0.0 0.0 0.0 0.0 208.85272436098427 -36.70801382597446 577.3971764400169 -1.0375356015844044 0.6995022112754115 -1.0375356015844048 
1.5463434 0.3865970200141305 -1.3130649801188095 -1.441930653456853 0.0 1.5707963267948966 0.0 0.2743434418098265 0.1828956278732177 0.09144781393660885 0.0 0.0 0.0 0.0 0.0 0.0 0.0 0.0 0.0 208.22707428596556 -36.53682970611107 577.8363636341672 -1.036200416863834 0.6969493010860686 -1.0362004168638344 
1.5543435 0.38879176754860906 -1.3116018150958237 -1.4411990709453602 0.0 1.5707963267948966 0.0 0.2743434418098265 0.1828956278732177 0.09144781393660885 0.0 0.0 0.0 0.0 0.0 0.0 0.0 0.0 0.0 207.6007301853562 -36.36895730404953 578.2741296161187 -1.0348617369570812 0.694400739631466 -1.0348617369570816 
1.5623435 0.3909865150830877 -1.310138650072838 -1.4404674884338673 0.0 1.5707963267948966 0.0 0.2743434418098265 0.1828956278732177 0.09144781393660885 0.0 0.0 0.0 0.0 0.0 0.0 0.0 0.0 0.0 206.97370698709213 -36.20439987172517 578.7104720333482 -1.0335195705348206 0.6918565306347534 -1.0335195705348208 
1.5703435 0.3931812626175663 -1.3086754850498523 -1.4397359059223744 0.0 1.5707963267948966 0.0 0.2743434418098265 0.1828956278732177 0.09144781393660885 0.0 0.0 0.0 0.0 0.0 0.0 0.0 0.0 0.0 206.3460196348638 -36.04316059640522 579.1453885388404 -1.0321739262576877 0.6893166777956093 -1.0321739262576881 
1.5783434 0.39537601015204493 -1.3072123200268666 -1.4390043234108816 0.0 1.5707963267948966 0.0 0.2743434418098265 0.1828956278732177 0.09144781393660885 0.0 0.0 0.0 0.0 0.0 0.0 0.0 0.0 0.0 205.71768308784004 -35.88524260061273 579.5788767910997 -1.030824812776268 0.686781184790352 -1.0308248127762683 
1.5863434 0.39757075768652356 -1.305749155003881 -1.4382727408993887 0.0 1.5707963267948966 0.0 0.2743434418098265 0.1828956278732177 0.09144781393660885 0.0 0.0 0.0 0.0 0.0 0.0 0.0 0.0 0.0 205.08871232039002 -35.73064894205179 580.0109344541623 -1.0294722387310857 0.6842500552720492 -1.029472238731086 
1.5943434 0.3997655052210022 -1.3042859899808952 -1.4375411583878959 0.0 1.5707963267948966 0.0 0.2743434418098265 0.1828956278732177 0.09144781393660885 0.0 0.0 0.0 0.0 0.0 0.0 0.0 0.0 0.0 204.45912232180635 -35.57938261353391 580.4415591976074 -1.0281162127525922 0.6817232928706268 -1.0281162127525925 
1.6023434 0.40196025275548075 -1.3028228249579095 -1.436809575876403 0.0 1.5707963267948966 0.0 0.2743434418098265 0.1828956278732177 0.09144781393660885 0.0 0.0 0.0 0.0 0.0 0.0 0.0 0.0 0.0 203.82892809602728 -35.43144654290535 580.8707486965696 -1.0267567434611597 0.6792009011929808 -1.0267567434611597 
1.6103435 0.4041550002899594 -1.3013596599349238 -1.4360779933649102 0.0 1.5707963267948966 0.0 0.2743434418098265 0.1828956278732177 0.09144781393660885 0.0 0.0 0.0 0.0 0.0 0.0 0.0 0.0 0.0 203.1981446613583 -35.28684359297621 581.2985006317504 -1.0253938394670656 0.6766828838230842 -1.0253938394670656 
1.6183435 0.406349747824438 -1.2998964949119378 -1.4353464108534173 0.0 1.5707963267948966 0.0 0.2743434418098265 0.1828956278732177 0.09144781393660885 0.0 0.0 0.0 0.0 0.0 0.0 0.0 0.0 0.0 202.5667870501939 -35.14557656145001 581.7248126894294 -1.0240275093704871 0.6741692443220968 -1.0240275093704874 
1.6263435 0.4085444953589166 -1.298433329888952 -1.4346148283419244 0.0 1.5707963267948966 0.0 0.2743434418098265 0.1828956278732177 0.09144781393660885 0.0 0.0 0.0 0.0 0.0 0.0 0.0 0.0 0.0 201.93487030873848 -35.007648180854844 582.1496825614768 -1.0226577617614914 0.671659986228474 -1.0226577617614916 
1.6343434 0.41073924289339525 -1.2969701648659664 -1.4338832458304316 0.0 1.5707963267948966 0.0 0.2743434418098265 0.1828956278732177 0.09144781393660885 0.0 0.0 0.0 0.0 0.0 0.0 0.0 0.0 0.0 201.3024094967273 -34.87306111847589 582.5731079453647 -1.021284605220024 0.6691551130580741 -1.021284605220024 
1.6423434 0.4129339904278738 -1.2955069998429807 -1.4331516633189385 0.0 1.5707963267948966 0.0 0.2743434418098265 0.1828956278732177 0.09144781393660885 0.0 0.0 0.0 0.0 0.0 0.0 0.0 0.0 0.0 200.66941968714704 -34.74181797628876 582.9950865441788 -1.0199080483159013 0.6666546283042666 -1.0199080483159018 
1.6503434 0.41512873796235245 -1.294043834819995 -1.4324200808074457 0.0 1.5707963267948966 0.0 0.2743434418098265 0.1828956278732177 0.09144781393660885 0.0 0.0 0.0 0.0 0.0 0.0 0.0 0.0 0.0 200.03591596595584 -34.61392129089397 583.4156160666297 -1.0185280996088044 0.6641585354380395 -1.0185280996088049 
1.6583434 0.41732348549683107 -1.2925806697970093 -1.4316884982959528 0.0 1.5707963267948966 0.0 0.2743434418098265 0.1828956278732177 0.09144781393660885 0.0 0.0 0.0 0.0 0.0 0.0 0.0 0.0 0.0 199.4019134318034 -34.48937353345315 583.8346942270649 -1.0171447676482677 0.6616668379081064 -1.0171447676482677 
1.6663435 0.4195182330313097 -1.2911175047740233 -1.43095691578446 0.0 1.5707963267948966 0.0 0.2743434418098265 0.1828956278732177 0.09144781393660885 0.0 0.0 0.0 0.0 0.0 0.0 0.0 0.0 0.0 198.76742719575032 -34.36817710962595 584.2523187454805 -1.0157580609736707 0.659179539141014 -1.0157580609736712 
1.6743435 0.4217129805657883 -1.2896543397510376 -1.430225333272967 0.0 1.5707963267948966 0.0 0.2743434418098265 0.1828956278732177 0.09144781393660885 0.0 0.0 0.0 0.0 0.0 0.0 0.0 0.0 0.0 198.13247238098737 -34.25033435950818 584.6684873475319 -1.0143679881142342 0.6566966425412472 -1.0143679881142345 
1.6823435 0.4239077281002669 -1.288191174728052 -1.4294937507614742 0.0 1.5707963267948966 0.0 0.2743434418098265 0.1828956278732177 0.09144781393660885 0.0 0.0 0.0 0.0 0.0 0.0 0.0 0.0 0.0 197.49706412255466 -34.13584755757169 585.0831977645464 -1.0129745575890088 0.6542181514913367 -1.012974557589009 
1.6903435 0.4261024756347455 -1.2867280097050662 -1.4287621682499814 0.0 1.5707963267948966 0.0 0.2743434418098265 0.1828956278732177 0.09144781393660885 0.0 0.0 0.0 0.0 0.0 0.0 0.0 0.0 0.0 196.86121756705995 -34.02471891260444 585.4964477335338 -1.0115777779068698 0.6517440693519638 -1.01157777790687 
1.6983434 0.42829722316922414 -1.2852648446820805 -1.4280305857384885 0.0 1.5707963267948966 0.0 0.2743434418098265 0.1828956278732177 0.09144781393660885 0.0 0.0 0.0 0.0 0.0 0.0 0.0 0.0 0.0 196.22494787239742 -33.91695056765293 585.9082349971984 -1.01017765756651 0.6492743994620668 -1.0101776575665102 
1.7063434 0.43049197070370276 -1.2838016796590948 -1.4272990032269957 0.0 1.5707963267948966 0.0 0.2743434418098265 0.1828956278732177 0.09144781393660885 0.0 0.0 0.0 0.0 0.0 0.0 0.0 0.0 0.0 195.5882702074653 -33.81254459996491 586.3185573039503 -1.0087742050564332 0.6468091451389445 -1.0087742050564334 
1.7143434 0.4326867182381814 -1.282338514636109 -1.4265674207155028 0.0 1.5707963267948966 0.0 0.2743434418098265 0.1828956278732177 0.09144781393660885 0.0 0.0 0.0 0.0 0.0 0.0 0.0 0.0 0.0 194.95119975188413 -33.711503020933876 586.7274124079167 -1.007367428854948 0.6443483096783633 -1.007367428854948 
1.7223434 0.43488146577265996 -1.2808753496131233 -1.42583583820401 0.0 1.5707963267948966 0.0 0.2743434418098265 0.1828956278732177 0.09144781393660885 0.0 0.0 0.0 0.0 0.0 0.0 0.0 0.0 0.0 194.31375169571402 -33.61382777604437 587.1347980689536 -1.0059573374301611 0.6418918963546594 -1.0059573374301611 
1.7303435 0.4370762133071386 -1.2794121845901376 -1.425104255692517 0.0 1.5707963267948966 0.0 0.2743434418098265 0.1828956278732177 0.09144781393660885 0.0 0.0 0.0 0.0 0.0 0.0 0.0 0.0 0.0 193.67594123917166 -33.51952074481888 587.540712052657 -1.004543939239973 0.6394399084208452 -1.0045439392399729 
1.7383435 0.4392709608416172 -1.2779490195671517 -1.4243726731810242 0.0 1.5707963267948966 0.0 0.2743434418098265 0.1828956278732177 0.09144781393660885 0.0 0.0 0.0 0.0 0.0 0.0 0.0 0.0 0.0 193.03778359234798 -33.42858374076553 587.9451521303738 -1.0031272427320705 0.6369923491087103 -1.0031272427320705 
1.7463435 0.44146570837609583 -1.276485854544166 -1.4236410906695314 0.0 1.5707963267948966 0.0 0.2743434418098265 0.1828956278732177 0.09144781393660885 0.0 0.0 0.0 0.0 0.0 0.0 0.0 0.0 0.0 192.39929397492438 -33.341018511327356 588.3481160792137 -1.0017072563439235 0.6345492216289282 -1.0017072563439238 
1.7543434 0.44366045591057446 -1.2750226895211803 -1.4229095081580385 0.0 1.5707963267948966 0.0 0.2743434418098265 0.1828956278732177 0.09144781393660885 0.0 0.0 0.0 0.0 0.0 0.0 0.0 0.0 0.0 191.76048761588928 -33.25682673783254 588.7496016820608 -1.0002839885027792 0.6321105291711575 -1.0002839885027794 
1.7623434 0.445855203445053 -1.2735595244981945 -1.4221779256465457 0.0 1.5707963267948966 0.0 0.2743434418098265 0.1828956278732177 0.09144781393660885 0.0 0.0 0.0 0.0 0.0 0.0 0.0 0.0 0.0 191.12137975325442 -33.176010035446055 589.1496067275838 -0.9988574476256573 0.6296762749041442 -0.9988574476256573 
1.7703434 0.44804995097953165 -1.2720963594752088 -1.4214463431350526 0.0 1.5707963267948966 0.0 0.2743434418098265 0.1828956278732177 0.09144781393660885 0.0 0.0 0.0 0.0 0.0 0.0 0.0 0.0 0.0 190.48198563377076 -33.09856995312224 589.5481290102482 -0.9974276421193448 0.6272464619758259 -0.9974276421193449 
1.7783434 0.4502446985140103 -1.2706331944522231 -1.4207147606235597 0.0 1.5707963267948966 0.0 0.2743434418098265 0.1828956278732177 0.09144781393660885 0.0 0.0 0.0 0.0 0.0 0.0 0.0 0.0 0.0 189.84232051264456 -33.02450797355896 589.9451663303269 -0.9959945803803939 0.624821093513433 -0.9959945803803941 
1.7863435 0.4524394460484889 -1.2691700294292372 -1.4199831781120669 0.0 1.5707963267948966 0.0 0.2743434418098265 0.1828956278732177 0.09144781393660885 0.0 0.0 0.0 0.0 0.0 0.0 0.0 0.0 0.0 189.20239965325231 -32.9538255131527 590.3407164939119 -0.9945582707951164 0.6224001726235905 -0.9945582707951167 
1.7943435 0.4546341935829675 -1.2677068644062515 -1.419251595600574 0.0 1.5707963267948966 0.0 0.2743434418098265 0.1828956278732177 0.09144781393660885 0.0 0.0 0.0 0.0 0.0 0.0 0.0 0.0 0.0 188.56223832685643 -32.886523921954904 590.7347773129252 -0.9931187217395809 0.61998370239242 -0.9931187217395813 
1.8023435 0.4568289411174461 -1.2662436993832658 -1.4185200130890812 0.0 1.5707963267948966 0.0 0.2743434418098265 0.1828956278732177 0.09144781393660885 0.0 0.0 0.0 0.0 0.0 0.0 0.0 0.0 0.0 187.9218518123203 -32.822604483629746 591.1273466051298 -0.9916759415796084 0.6175716858856398 -0.9916759415796087 
1.8103434 0.4590236886519247 -1.26478053436028 -1.4177884305775883 0.0 1.5707963267948966 0.0 0.2743434418098265 0.1828956278732177 0.09144781393660885 0.0 0.0 0.0 0.0 0.0 0.0 0.0 0.0 0.0 187.2812553958231 -32.762068415412905 591.5184221941413 -0.9902299386707704 0.6151641261486667 -0.9902299386707705 
1.8183434 0.46121843618640335 -1.2633173693372943 -1.4170568480660954 0.0 1.5707963267948966 0.0 0.2743434418098265 0.1828956278732177 0.09144781393660885 0.0 0.0 0.0 0.0 0.0 0.0 0.0 0.0 0.0 186.64046437057414 -32.704916868071585 591.9080019094383 -0.9887807213583851 0.6127610262067168 -0.9887807213583855 
1.8263434 0.46341318372088197 -1.2618542043143086 -1.4163252655546026 0.0 1.5707963267948966 0.0 0.2743434418098265 0.1828956278732177 0.09144781393660885 0.0 0.0 0.0 0.0 0.0 0.0 0.0 0.0 0.0 185.99949403652764 -32.651150925865835 592.2960835863744 -0.9873282979775151 0.6103623890649044 -0.9873282979775152 
1.8343434 0.4656079312553606 -1.260391039291323 -1.4155936830431097 0.0 1.5707963267948966 0.0 0.2743434418098265 0.1828956278732177 0.09144781393660885 0.0 0.0 0.0 0.0 0.0 0.0 0.0 0.0 0.0 185.35835970009683 -32.600771606511046 592.6826650661881 -0.9858726768529652 0.6079682177083426 -0.9858726768529652 
1.8423434 0.46780267878983917 -1.2589278742683372 -1.4148621005316169 0.0 1.5707963267948966 0.0 0.2743434418098265 0.1828956278732177 0.09144781393660885 0.0 0.0 0.0 0.0 0.0 0.0 0.0 0.0 0.0 184.71707667386804 -32.5537798611418 593.0677441960149 -0.9844138662992796 0.6055785151022434 -0.9844138662992797 
1.8503435 0.4699974263243178 -1.2574647092453515 -1.414130518020124 0.0 1.5707963267948966 0.0 0.2743434418098265 0.1828956278732177 0.09144781393660885 0.0 0.0 0.0 0.0 0.0 0.0 0.0 0.0 0.0 184.0756602763144 -32.51017657427656 593.4513188288975 -0.9829518746207407 0.6031932841920152 -0.9829518746207407 
1.8583435 0.4721921738587964 -1.2560015442223655 -1.4133989355086312 0.0 1.5707963267948966 0.0 0.2743434418098265 0.1828956278732177 0.09144781393660885 0.0 0.0 0.0 0.0 0.0 0.0 0.0 0.0 0.0 183.4341258315095 -32.469962563784165 593.8333868237974 -0.9814867101113668 0.6008125279033634 -0.9814867101113669 
1.8663435 0.47438692139327504 -1.2545383791993798 -1.4126673529971383 0.0 1.5707963267948966 0.0 0.2743434418098265 0.1828956278732177 0.09144781393660885 0.0 0.0 0.0 0.0 0.0 0.0 0.0 0.0 0.0 182.7924886688412 -32.433138580851015 594.2139460456052 -0.9800183810549116 0.5984362491423886 -0.9800183810549118 
1.8743434 0.47658166892775367 -1.2530752141763941 -1.4119357704856452 0.0 1.5707963267948966 0.0 0.2743434418098265 0.1828956278732177 0.09144781393660885 0.0 0.0 0.0 0.0 0.0 0.0 0.0 0.0 0.0 182.15076412272418 -32.399705309949844 594.592994365152 -0.9785468957248613 0.5960644507956829 -0.9785468957248615 
1.8823434 0.47877641646223223 -1.2516120491534084 -1.4112041879741524 0.0 1.5707963267948966 0.0 0.2743434418098265 0.1828956278732177 0.09144781393660885 0.0 0.0 0.0 0.0 0.0 0.0 0.0 0.0 0.0 181.50896753231393 -32.369663368809555 594.9705296592201 -0.9770722623844353 0.593697135730431 -0.9770722623844357 
1.8903434 0.48097116399671086 -1.2501488841304227 -1.4104726054626595 0.0 1.5707963267948966 0.0 0.2743434418098265 0.1828956278732177 0.09144781393660885 0.0 0.0 0.0 0.0 0.0 0.0 0.0 0.0 0.0 180.8671142412191 -32.343013308386176 595.3465498105538 -0.9755944892865852 0.5913343067945045 -0.9755944892865855 
1.8983434 0.4831659115311895 -1.2486857191074368 -1.4097410229511667 0.0 1.5707963267948966 0.0 0.2743434418098265 0.1828956278732177 0.09144781393660885 0.0 0.0 0.0 0.0 0.0 0.0 0.0 0.0 0.0 180.22521959721433 -32.31975561283556 595.721052707871 -0.9741135846739933 0.5889759668165617 -0.9741135846739939 
1.9063435 0.4853606590656681 -1.247222554084451 -1.4090094404396738 0.0 1.5707963267948966 0.0 0.2743434418098265 0.1828956278732177 0.09144781393660885 0.0 0.0 0.0 0.0 0.0 0.0 0.0 0.0 0.0 179.58329895195357 -32.299890699486376 596.0940362458721 -0.9726295567790736 0.5866221186061428 -0.9726295567790739 
1.9143435 0.48755540660014673 -1.2457593890614653 -1.408277857928181 0.0 1.5707963267948966 0.0 0.2743434418098265 0.1828956278732177 0.09144781393660885 0.0 0.0 0.0 0.0 0.0 0.0 0.0 0.0 0.0 178.94136766068138 -32.28341891881552 596.4654983252531 -0.9711424138239707 0.5842727649537676 -0.971142413823971 
1.9223435 0.4897501541346253 -1.2442962240384796 -1.407546275416688 0.0 1.5707963267948966 0.0 0.2743434418098265 0.1828956278732177 0.09144781393660885 0.0 0.0 0.0 0.0 0.0 0.0 0.0 0.0 0.0 178.29944108194633 -32.27034055442371 596.8354368527147 -0.9696521640205603 0.5819279086310302 -0.9696521640205605 
1.9303434 0.49194490166910393 -1.242833059015494 -1.4068146929051952 0.0 1.5707963267948966 0.0 0.2743434418098265 0.1828956278732177 0.09144781393660885 0.0 0.0 0.0 0.0 0.0 0.0 0.0 0.0 0.0 177.6575345773127 -32.26065582301292 597.2038497409741 -0.9681588155704502 0.5795875523906966 -0.9681588155704505 
1.9383434 0.49413964920358255 -1.2413698939925082 -1.4060831103937024 0.0 1.5707963267948966 0.0 0.2743434418098265 0.1828956278732177 0.09144781393660885 0.0 0.0 0.0 0.0 0.0 0.0 0.0 0.0 0.0 177.0156635110728 -32.2543648743649 597.5707349087749 -0.9666623766649799 0.5772516989667993 -0.9666623766649802 
1.9463434 0.4963343967380612 -1.2399067289695225 -1.4053515278822095 0.0 1.5707963267948966 0.0 0.2743434418098265 0.1828956278732177 0.09144781393660885 0.0 0.0 0.0 0.0 0.0 0.0 0.0 0.0 0.0 176.37384324995864 -32.25146779132068 597.9360902808979 -0.9651628554852231 0.5749203510747332 -0.9651628554852231 
1.9543434 0.4985291442725398 -1.2384435639465368 -1.4046199453707167 0.0 1.5707963267948966 0.0 0.2743434418098265 0.1828956278732177 0.09144781393660885 0.0 0.0 0.0 0.0 0.0 0.0 0.0 0.0 0.0 175.73208916285384 -32.2519645897619 598.2999137881727 -0.9636602602019867 0.5725935114113494 -0.9636602602019867 
1.9623435 0.5007238918070184 -1.236980398923551 -1.4038883628592238 0.0 1.5707963267948966 0.0 0.2743434418098265 0.1828956278732177 0.09144781393660885 0.0 0.0 0.0 0.0 0.0 0.0 0.0 0.0 0.0 175.09041662050558 -32.25585521859274 598.6622033674869 -0.9621545989758135 0.570271182655051 -0.9621545989758135 
1.9703435 0.5029186393414969 -1.2355172339005653 -1.403156780347731 0.0 1.5707963267948966 0.0 0.2743434418098265 0.1828956278732177 0.09144781393660885 0.0 0.0 0.0 0.0 0.0 0.0 0.0 0.0 0.0 174.448840995236 -32.263139559723385 599.0229569617975 -0.9606458799569834 0.5679533674658868 -0.9606458799569836 
1.9783435 0.5051133868759756 -1.2340540688775794 -1.402425197836238 0.0 1.5707963267948966 0.0 0.2743434418098265 0.1828956278732177 0.09144781393660885 0.0 0.0 0.0 0.0 0.0 0.0 0.0 0.0 0.0 173.80737766065334 -32.273817428054834 599.3821725201421 -0.959134111285515 0.565640068485645 -0.9591341112855151 
1.9863434 0.5073081344104542 -1.2325909038545937 -1.4016936153247452 0.0 1.5707963267948966 0.0 0.2743434418098265 0.1828956278732177 0.09144781393660885 0.0 0.0 0.0 0.0 0.0 0.0 0.0 0.0 0.0 173.16604199136418 -32.2878885714647 599.7398479976476 -0.9576193010911682 0.5633312883379479 -0.9576193010911683 
1.9943434 0.5095028819449329 -1.231127738831608 -1.4009620328132524 0.0 1.5707963267948966 0.0 0.2743434418098265 0.1828956278732177 0.09144781393660885 0.0 0.0 0.0 0.0 0.0 0.0 0.0 0.0 0.0 172.5248493626839 -32.30535267079434 600.0959813555428 -0.9561014574934448 0.5610270296283437 -0.9561014574934448 
2.0023434 0.5116976294794114 -1.2296645738086223 -1.4002304503017593 0.0 1.5707963267948966 0.0 0.2743434418098265 0.1828956278732177 0.09144781393660885 0.0 0.0 0.0 0.0 0.0 0.0 0.0 0.0 0.0 171.88381515034817 -32.326209339837554 600.4505705611672 -0.9545805886015926 0.5587272949444005 -0.9545805886015929 
2.0103436 0.51389237701389 -1.2282014087856366 -1.3994988677902664 0.0 1.5707963267948966 0.0 0.2743434418098265 0.1828956278732177 0.09144781393660885 0.0 0.0 0.0 0.0 0.0 0.0 0.0 0.0 0.0 171.24295473022437 -32.3504581253297 600.8036135879829 -0.9530567025146071 0.556432086855799 -0.9530567025146074 
2.0183434 0.5160871245483687 -1.2267382437626506 -1.3987672852787736 0.0 1.5707963267948966 0.0 0.2743434418098265 0.1828956278732177 0.09144781393660885 0.0 0.0 0.0 0.0 0.0 0.0 0.0 0.0 0.0 170.6022834780219 -32.378098506939025 601.1551084155842 -0.9515298073212346 0.5541414079144241 -0.9515298073212352 
2.0263433 0.5182818720828473 -1.225275078739665 -1.3980357027672807 0.0 1.5707963267948966 0.0 0.2743434418098265 0.1828956278732177 0.09144781393660885 0.0 0.0 0.0 0.0 0.0 0.0 0.0 0.0 0.0 169.96181676900397 -32.40912989725856 601.5050530297076 -0.9499999110999752 0.5518552606544572 -0.9499999110999757 
2.0343435 0.5204766196173259 -1.2238119137166792 -1.3973041202557879 0.0 1.5707963267948966 0.0 0.2743434418098265 0.1828956278732177 0.09144781393660885 0.0 0.0 0.0 0.0 0.0 0.0 0.0 0.0 0.0 169.32156997769795 -32.443551641799466 601.8534454222435 -0.9484670219190849 0.5495736475924686 -0.9484670219190853 
2.0423434 0.5226713671518045 -1.2223487486936935 -1.396572537744295 0.0 1.5707963267948966 0.0 0.2743434418098265 0.1828956278732177 0.09144781393660885 0.0 0.0 0.0 0.0 0.0 0.0 0.0 0.0 0.0 168.6815584776062 -32.481363018985846 602.2002835912452 -0.946931147836581 0.5472965712275079 -0.9469311478365814 
2.0503435 0.5248661146862831 -1.2208855836707078 -1.3958409552328022 0.0 1.5707963267948966 0.0 0.2743434418098265 0.1828956278732177 0.09144781393660885 0.0 0.0 0.0 0.0 0.0 0.0 0.0 0.0 0.0 168.04179764091717 -32.52256324015037 602.5455655409405 -0.9453922969002451 0.5450240340411955 -0.9453922969002453 
2.0583434 0.5270608622207618 -1.219422418647722 -1.3951093727213093 0.0 1.5707963267948966 0.0 0.2743434418098265 0.1828956278732177 0.09144781393660885 0.0 0.0 0.0 0.0 0.0 0.0 0.0 0.0 0.0 167.40230283821552 -32.56715144953141 602.8892892817412 -0.9438504771476248 0.5427560384978131 -0.9438504771476252 
2.0663435 0.5292556097552403 -1.2179592536247363 -1.3943777902098164 0.0 1.5707963267948966 0.0 0.2743434418098265 0.1828956278732177 0.09144781393660885 0.0 0.0 0.0 0.0 0.0 0.0 0.0 0.0 0.0 166.76308943819365 -32.6151267242715 603.2314528302533 -0.9423056966060412 0.5404925870443944 -0.9423056966060415 
2.0743434 0.531450357289719 -1.2164960886017506 -1.3936462076983236 0.0 1.5707963267948966 0.0 0.2743434418098265 0.1828956278732177 0.09144781393660885 0.0 0.0 0.0 0.0 0.0 0.0 0.0 0.0 0.0 166.12417280736142 -32.66648807441662 603.5720542092876 -0.9407579632925906 0.5382336821108152 -0.9407579632925906 
2.0823433 0.5336451048241976 -1.215032923578765 -1.3929146251868307 0.0 1.5707963267948966 0.0 0.2743434418098265 0.1828956278732177 0.09144781393660885 0.0 0.0 0.0 0.0 0.0 0.0 0.0 0.0 0.0 165.48556830975735 -32.72123444291742 603.9110914478698 -0.9392072852141489 0.5359793261098826 -0.939207285214149 
2.0903435 0.5358398523586761 -1.2135697585557792 -1.3921830426753379 0.0 1.5707963267948966 0.0 0.2743434418098265 0.1828956278732177 0.09144781393660885 0.0 0.0 0.0 0.0 0.0 0.0 0.0 0.0 0.0 164.84729130665883 -32.77936470563088 604.2485625812512 -0.9376536703673792 0.5337295214374258 -0.9376536703673792 
2.0983434 0.5380345998931548 -1.2121065935327933 -1.391451460163845 0.0 1.5707963267948966 0.0 0.2743434418098265 0.1828956278732177 0.09144781393660885 0.0 0.0 0.0 0.0 0.0 0.0 0.0 0.0 0.0 164.2093571562927 -32.840877671324044 604.584465650918 -0.936097126738732 0.5314842704723828 -0.9360971267387322 
2.1063435 0.5402293474276334 -1.2106434285098076 -1.390719877652352 0.0 1.5707963267948966 0.0 0.2743434418098265 0.1828956278732177 0.09144781393660885 0.0 0.0 0.0 0.0 0.0 0.0 0.0 0.0 0.0 163.571781213546 -32.90577208167803 604.9187987046016 -0.9345376623044536 0.5292435755768922 -0.9345376623044541 
2.1143434 0.542424094962112 -1.2091802634868218 -1.389988295140859 0.0 1.5707963267948966 0.0 0.2743434418098265 0.1828956278732177 0.09144781393660885 0.0 0.0 0.0 0.0 0.0 0.0 0.0 0.0 0.0 162.9345788296761 -32.9740466112943 605.2515597962898 -0.9329752850305907 0.527007439096379 -0.932975285030591 
2.1223435 0.5446188424965906 -1.2077170984638361 -1.3892567126293662 0.0 1.5707963267948966 0.0 0.2743434418098265 0.1828956278732177 0.09144781393660885 0.0 0.0 0.0 0.0 0.0 0.0 0.0 0.0 0.0 162.29776535202137 -33.04569986770149 605.5827469862354 -0.9314100028729948 0.5247758633596451 -0.9314100028729951 
2.1303434 0.5468135900310692 -1.2062539334408504 -1.3885251301178734 0.0 1.5707963267948966 0.0 0.2743434418098265 0.1828956278732177 0.09144781393660885 0.0 0.0 0.0 0.0 0.0 0.0 0.0 0.0 0.0 161.66135612371144 -33.12073039136383 605.9123583409669 -0.9298418237773276 0.522548850678955 -0.9298418237773279 
2.1383433 0.5490083375655479 -1.2047907684178645 -1.3877935476063805 0.0 1.5707963267948966 0.0 0.2743434418098265 0.1828956278732177 0.09144781393660885 0.0 0.0 0.0 0.0 0.0 0.0 0.0 0.0 0.0 161.0253664833779 -33.19913665569058 606.2403919332992 -0.9282707556790685 0.5203264033501247 -0.9282707556790691 
2.1463435 0.5512030851000265 -1.2033276033948788 -1.3870619650948877 0.0 1.5707963267948966 0.0 0.2743434418098265 0.1828956278732177 0.09144781393660885 0.0 0.0 0.0 0.0 0.0 0.0 0.0 0.0 0.0 160.3898117648649 -33.28091706704656 606.5668458423426 -0.9266968065035198 0.5181085236526095 -0.9266968065035203 
2.1543434 0.553397832634505 -1.201864438371893 -1.3863303825833948 0.0 1.5707963267948966 0.0 0.2743434418098265 0.1828956278732177 0.09144781393660885 0.0 0.0 0.0 0.0 0.0 0.0 0.0 0.0 0.0 159.7547072969392 -33.366069964764755 606.8917181535128 -0.9251199841658108 0.5158952138495886 -0.9251199841658111 
2.1623435 0.5555925801689837 -1.2004012733489073 -1.385598800071902 0.0 1.5707963267948966 0.0 0.2743434418098265 0.1828956278732177 0.09144781393660885 0.0 0.0 0.0 0.0 0.0 0.0 0.0 0.0 0.0 159.12006840300072 -33.45459362115912 607.2150069585421 -0.9235402965709071 0.5136864761880541 -0.9235402965709074 
2.1703434 0.5577873277034623 -1.1989381083259216 -1.384867217560409 0.0 1.5707963267948966 0.0 0.2743434418098265 0.1828956278732177 0.09144781393660885 0.0 0.0 0.0 0.0 0.0 0.0 0.0 0.0 0.0 158.48591040079359 -33.546486241539256 607.5367103554878 -0.9219577516136159 0.5114823128988962 -0.9219577516136163 
2.1783435 0.559982075237941 -1.197474943302936 -1.3841356350489162 0.0 1.5707963267948966 0.0 0.2743434418098265 0.1828956278732177 0.09144781393660885 0.0 0.0 0.0 0.0 0.0 0.0 0.0 0.0 0.0 157.85224860211594 -33.6417459642262 607.8568264487428 -0.9203723571785916 0.509282726196989 -0.9203723571785919 
2.1863434 0.5621768227724195 -1.1960117782799502 -1.3834040525374234 0.0 1.5707963267948966 0.0 0.2743434418098265 0.1828956278732177 0.09144781393660885 0.0 0.0 0.0 0.0 0.0 0.0 0.0 0.0 0.0 157.2190983125313 -33.7403708605693 608.175353349046 -0.9187841211403441 0.5070877182812767 -0.9187841211403444 
2.1943433 0.5643715703068981 -1.1945486132569645 -1.3826724700259305 0.0 1.5707963267948966 0.0 0.2743434418098265 0.1828956278732177 0.09144781393660885 0.0 0.0 0.0 0.0 0.0 0.0 0.0 0.0 0.0 156.5864748310782 -33.84235893496469 608.4922891734905 -0.9171930513632451 0.5048972913348586 -0.9171930513632455 
2.2023435 0.5665663178413768 -1.1930854482339788 -1.3819408875144377 0.0 1.5707963267948966 0.0 0.2743434418098265 0.1828956278732177 0.09144781393660885 0.0 0.0 0.0 0.0 0.0 0.0 0.0 0.0 0.0 155.95439344998195 -33.94770812487458 608.8076320455356 -0.9155991557015363 0.5027114475250746 -0.9155991557015363 
2.2103434 0.5687610653758554 -1.1916222832109928 -1.3812093050029448 0.0 1.5707963267948966 0.0 0.2743434418098265 0.1828956278732177 0.09144781393660885 0.0 0.0 0.0 0.0 0.0 0.0 0.0 0.0 0.0 155.32286945436425 -34.05641630084816 609.1213800950148 -0.9140024419993341 0.5005301890035885 -0.9140024419993344 
2.2183435 0.570955812910334 -1.1901591181880071 -1.380477722491452 0.0 1.5707963267948966 0.0 0.2743434418098265 0.1828956278732177 0.09144781393660885 0.0 0.0 0.0 0.0 0.0 0.0 0.0 0.0 0.0 154.691918121955 -34.16848126654338 609.4335314581464 -0.9124029180906412 0.4983535179064749 -0.9124029180906416 
2.2263434 0.5731505604448126 -1.1886959531650214 -1.379746139979959 0.0 1.5707963267948966 0.0 0.2743434418098265 0.1828956278732177 0.09144781393660885 0.0 0.0 0.0 0.0 0.0 0.0 0.0 0.0 0.0 154.0615547228023 -34.28390075875055 609.7440842775433 -0.9108005917993507 0.49618143635430145 -0.9108005917993508 
2.2343435 0.5753453079792912 -1.1872327881420357 -1.3790145574684662 0.0 1.5707963267948966 0.0 0.2743434418098265 0.1828956278732177 0.09144781393660885 0.0 0.0 0.0 0.0 0.0 0.0 0.0 0.0 0.0 153.43179451898362 -34.40267244741653 610.0530367022219 -0.9091954709392555 0.4940139464522125 -0.9091954709392557 
2.2423434 0.5775400555137699 -1.18576962311905 -1.3782829749569732 0.0 1.5707963267948966 0.0 0.2743434418098265 0.1828956278732177 0.09144781393660885 0.0 0.0 0.0 0.0 0.0 0.0 0.0 0.0 0.0 152.80265276431672 -34.52479393567046 610.3603868876132 -0.9075875633140561 0.4918510502900133 -0.9075875633140562 
2.2503433 0.5797348030482484 -1.1843064580960643 -1.3775513924454803 0.0 1.5707963267948966 0.0 0.2743434418098265 0.1828956278732177 0.09144781393660885 0.0 0.0 0.0 0.0 0.0 0.0 0.0 0.0 0.0 152.17414470407093 -34.65026275985094 610.6661329955705 -0.90597687671737 0.48969274994225415 -0.9059768767173705 
2.2583435 0.5819295505827271 -1.1828432930730783 -1.3768198099339874 0.0 1.5707963267948966 0.0 0.2743434418098265 0.1828956278732177 0.09144781393660885 0.0 0.0 0.0 0.0 0.0 0.0 0.0 0.0 0.0 151.54628557467774 -34.77907638953412 610.9702731943812 -0.9043634189327379 0.4875390474683107 -0.9043634189327385 
2.2663434 0.5841242981172057 -1.1813801280500926 -1.3760882274224946 0.0 1.5707963267948966 0.0 0.2743434418098265 0.1828956278732177 0.09144781393660885 0.0 0.0 0.0 0.0 0.0 0.0 0.0 0.0 0.0 150.9190906034426 -34.911232227563076 611.2728056587747 -0.902747197733634 0.4853899449124692 -0.9027471977336344 
2.2743435 0.5863190456516842 -1.179916963027107 -1.3753566449110017 0.0 1.5707963267948966 0.0 0.2743434418098265 0.1828956278732177 0.09144781393660885 0.0 0.0 0.0 0.0 0.0 0.0 0.0 0.0 0.0 150.2925750082556 -35.04672761007875 611.5737285699327 -0.9011282208834736 0.48324544430400657 -0.9011282208834742 
2.2823434 0.5885137931861629 -1.1784537980041212 -1.3746250623995089 0.0 1.5707963267948966 0.0 0.2743434418098265 0.1828956278732177 0.09144781393660885 0.0 0.0 0.0 0.0 0.0 0.0 0.0 0.0 0.0 149.66675399730326 -35.1855598065518 611.8730401154985 -0.8995064961356232 0.4811055476572739 -0.8995064961356236 
2.2903435 0.5907085407206415 -1.1769906329811355 -1.373893479888016 0.0 1.5707963267948966 0.0 0.2743434418098265 0.1828956278732177 0.09144781393660885 0.0 0.0 0.0 0.0 0.0 0.0 0.0 0.0 0.0 149.0416427687798 -35.32772601981573 612.1707384895868 -0.8978820312334083 0.47897025697177764 -0.8978820312334084 
2.2983434 0.5929032882551202 -1.1755274679581498 -1.3731618973765232 0.0 1.5707963267948966 0.0 0.2743434418098265 0.1828956278732177 0.09144781393660885 0.0 0.0 0.0 0.0 0.0 0.0 0.0 0.0 0.0 148.4172565105988 -35.473223386101466 612.4668218927928 -0.8962548339101225 0.47683957423226025 -0.8962548339101228 
2.3063436 0.5950980357895987 -1.174064302935164 -1.3724303148650303 0.0 1.5707963267948966 0.0 0.2743434418098265 0.1828956278732177 0.09144781393660885 0.0 0.0 0.0 0.0 0.0 0.0 0.0 0.0 0.0 147.79361040010497 -35.62204897507289 612.7612885322022 -0.8946249118890387 0.474713501408782 -0.8946249118890389 
2.3143435 0.5972927833240773 -1.1726011379121783 -1.3716987323535375 0.0 1.5707963267948966 0.0 0.2743434418098265 0.1828956278732177 0.09144781393660885 0.0 0.0 0.0 0.0 0.0 0.0 0.0 0.0 0.0 147.17071960378587 -35.774199789864 613.0541366213998 -0.8929922728834171 0.47259204045680203 -0.8929922728834172 
2.3223433 0.599487530858556 -1.1711379728891926 -1.3709671498420446 0.0 1.5707963267948966 0.0 0.2743434418098265 0.1828956278732177 0.09144781393660885 0.0 0.0 0.0 0.0 0.0 0.0 0.0 0.0 0.0 146.54859927698385 -35.92967276711678 613.3453643804796 -0.8913569245965143 0.47047519331725735 -0.8913569245965144 
2.3303435 0.6016822783930346 -1.1696748078662067 -1.3702355673305517 0.0 1.5707963267948966 0.0 0.2743434418098265 0.1828956278732177 0.09144781393660885 0.0 0.0 0.0 0.0 0.0 0.0 0.0 0.0 0.0 145.92726456360805 -36.088464777020974 613.634970036054 -0.8897188747215944 0.46836296191664467 -0.8897188747215948 
2.3383434 0.6038770259275132 -1.168211642843221 -1.3695039848190589 0.0 1.5707963267948966 0.0 0.2743434418098265 0.1828956278732177 0.09144781393660885 0.0 0.0 0.0 0.0 0.0 0.0 0.0 0.0 0.0 145.30673059584703 -36.25057262335431 613.9229518212627 -0.8880781309419398 0.46625534816709907 -0.88807813094194 
2.3463435 0.6060717734619918 -1.1667484778202353 -1.3687724023075658 0.0 1.5707963267948966 0.0 0.2743434418098265 0.1828956278732177 0.09144781393660885 0.0 0.0 0.0 0.0 0.0 0.0 0.0 0.0 0.0 144.68701249388027 -36.41599304352501 614.2093079757828 -0.8864347009308577 0.46415235396647353 -0.8864347009308584 
2.3543434 0.6082665209964704 -1.1652853127972496 -1.368040819796073 0.0 1.5707963267948966 0.0 0.2743434418098265 0.1828956278732177 0.09144781393660885 0.0 0.0 0.0 0.0 0.0 0.0 0.0 0.0 0.0 144.06812536559153 -36.58472270861427 614.4940367458374 -0.8847885923516956 0.4620539811984192 -0.884788592351696 
2.3623435 0.6104612685309491 -1.1638221477742638 -1.36730923728458 0.0 1.5707963267948966 0.0 0.2743434418098265 0.1828956278732177 0.09144781393660885 0.0 0.0 0.0 0.0 0.0 0.0 0.0 0.0 0.0 143.45008430628093 -36.75675822342115 614.777136384205 -0.8831398128578465 0.4599602317324628 -0.8831398128578468 
2.3703434 0.6126560160654276 -1.1623589827512781 -1.3665776547730872 0.0 1.5707963267948966 0.0 0.2743434418098265 0.1828956278732177 0.09144781393660885 0.0 0.0 0.0 0.0 0.0 0.0 0.0 0.0 0.0 142.83290439837808 -36.93209612650789 615.058605150229 -0.8814883700927632 0.45787110742408665 -0.8814883700927635 
2.3783433 0.6148507635999063 -1.1608958177282922 -1.3658460722615944 0.0 1.5707963267948966 0.0 0.2743434418098265 0.1828956278732177 0.09144781393660885 0.0 0.0 0.0 0.0 0.0 0.0 0.0 0.0 0.0 142.21660071115454 -37.11073289024705 615.3384413098269 -0.879834271689967 0.455786610114806 -0.8798342716899674 
2.3863435 0.6170455111343849 -1.1594326527053065 -1.3651144897501015 0.0 1.5707963267948966 0.0 0.2743434418098265 0.1828956278732177 0.09144781393660885 0.0 0.0 0.0 0.0 0.0 0.0 0.0 0.0 0.0 141.60118830043768 -37.29266492086933 615.6166431354984 -0.8781775252730601 0.4537067416322473 -0.8781775252730608 
2.3943434 0.6192402586688635 -1.1579694876823208 -1.3643829072386087 0.0 1.5707963267948966 0.0 0.2743434418098265 0.1828956278732177 0.09144781393660885 0.0 0.0 0.0 0.0 0.0 0.0 0.0 0.0 0.0 140.98668220832337 -37.477888558512994 615.8932089063367 -0.8765181384557353 0.4516315037902266 -0.876518138455736 
2.4023435 0.6214350062033421 -1.156506322659335 -1.3636513247271158 0.0 1.5707963267948966 0.0 0.2743434418098265 0.1828956278732177 0.09144781393660885 0.0 0.0 0.0 0.0 0.0 0.0 0.0 0.0 0.0 140.37309746288963 -37.66640007727472 616.1681369080351 -0.8748561188417882 0.4495608983888259 -0.8748561188417884 
2.4103434 0.6236297537378207 -1.1550431576363493 -1.362919742215623 0.0 1.5707963267948966 0.0 0.2743434418098265 0.1828956278732177 0.09144781393660885 0.0 0.0 0.0 0.0 0.0 0.0 0.0 0.0 0.0 139.76044907791024 -37.85819568526102 616.4414254328979 -0.8731914740251273 0.44749492721447093 -0.8731914740251276 
2.4183435 0.6258245012722994 -1.1535799926133636 -1.36218815970413 0.0 1.5707963267948966 0.0 0.2743434418098265 0.1828956278732177 0.09144781393660885 0.0 0.0 0.0 0.0 0.0 0.0 0.0 0.0 0.0 139.14875205256854 -38.05327152464158 616.7130727798487 -0.8715242115897868 0.44543359204000765 -0.8715242115897871 
2.4263434 0.628019248806778 -1.152116827590378 -1.3614565771926372 0.0 1.5707963267948966 0.0 0.2743434418098265 0.1828956278732177 0.09144781393660885 0.0 0.0 0.0 0.0 0.0 0.0 0.0 0.0 0.0 138.53802137117182 -38.25162367170342 616.9830772544399 -0.8698543391099373 0.44337689462477914 -0.8698543391099375 
2.4343433 0.6302139963412565 -1.1506536625673922 -1.3607249946811444 0.0 1.5707963267948966 0.0 0.2743434418098265 0.1828956278732177 0.09144781393660885 0.0 0.0 0.0 0.0 0.0 0.0 0.0 0.0 0.0 137.92827200286496 -38.4532481369065 617.2514371688603 -0.8681818641498975 0.44132483671470163 -0.8681818641498978 
2.4423435 0.6324087438757352 -1.1491904975444065 -1.3599934121696515 0.0 1.5707963267948966 0.0 0.2743434418098265 0.1828956278732177 0.09144781393660885 0.0 0.0 0.0 0.0 0.0 0.0 0.0 0.0 0.0 137.31951890134525 -38.65814086494039 617.5181508419462 -0.8665067942641479 0.43927742004234055 -0.866506794264148 
2.4503434 0.6346034914102138 -1.1477273325214206 -1.3592618296581587 0.0 1.5707963267948966 0.0 0.2743434418098265 0.1828956278732177 0.09144781393660885 0.0 0.0 0.0 0.0 0.0 0.0 0.0 0.0 0.0 136.71177700457685 -38.866297734782364 617.7832165991888 -0.8648291369973393 0.4372346463269857 -0.8648291369973398 
2.4583435 0.6367982389446925 -1.1462641674984348 -1.3585302471466658 0.0 1.5707963267948966 0.0 0.2743434418098265 0.1828956278732177 0.09144781393660885 0.0 0.0 0.0 0.0 0.0 0.0 0.0 0.0 0.0 136.10506123450605 -39.07771455975651 618.0466327727434 -0.863148899884308 0.4351965172747274 -0.8631488998843081 
2.4663434 0.638992986479171 -1.1448010024754491 -1.357798664635173 0.0 1.5707963267948966 0.0 0.2743434418098265 0.1828956278732177 0.09144781393660885 0.0 0.0 0.0 0.0 0.0 0.0 0.0 0.0 0.0 135.49938649677563 -39.2923870875944 618.3083977014385 -0.861466090450087 0.4331630345785313 -0.8614660904500873 
2.4743435 0.6411877340136496 -1.1433378374524634 -1.35706708212368 0.0 1.5707963267948966 0.0 0.2743434418098265 0.1828956278732177 0.09144781393660885 0.0 0.0 0.0 0.0 0.0 0.0 0.0 0.0 0.0 134.89476768044068 -39.510311000496586 618.5685097307844 -0.8597807162099185 0.4311341999183124 -0.8597807162099187 
2.4823434 0.6433824815481283 -1.1418746724294777 -1.356335499612187 0.0 1.5707963267948966 0.0 0.2743434418098265 0.1828956278732177 0.09144781393660885 0.0 0.0 0.0 0.0 0.0 0.0 0.0 0.0 0.0 134.2912196576839 -39.731481915195644 618.8269672129826 -0.858092784669266 0.4291100149610104 -0.8580927846692664 
2.4903433 0.6455772290826068 -1.140411507406492 -1.3556039171006942 0.0 1.5707963267948966 0.0 0.2743434418098265 0.1828956278732177 0.09144781393660885 0.0 0.0 0.0 0.0 0.0 0.0 0.0 0.0 0.0 133.6887572835317 -39.95589538302014 619.0837685069336 -0.8564023033238279 0.42709048136066385 -0.8564023033238283 
2.4983435 0.6477719766170855 -1.138948342383506 -1.3548723345892013 0.0 1.5707963267948966 0.0 0.2743434418098265 0.1828956278732177 0.09144781393660885 0.0 0.0 0.0 0.0 0.0 0.0 0.0 0.0 0.0 133.08739539556956 -40.183546889960425 619.3389119782462 -0.8547092796595496 0.42507560075848333 -0.85470927965955 
2.5063434 0.6499667241515641 -1.1374851773605203 -1.3541407520777085 0.0 1.5707963267948966 0.0 0.2743434418098265 0.1828956278732177 0.09144781393660885 0.0 0.0 0.0 0.0 0.0 0.0 0.0 0.0 0.0 132.48714881365908 -40.414431856734716 619.5923959992467 -0.8530137211526364 0.4230653747829262 -0.853013721152637 
2.5143435 0.6521614716860427 -1.1360220123375346 -1.3534091695662156 0.0 1.5707963267948966 0.0 0.2743434418098265 0.1828956278732177 0.09144781393660885 0.0 0.0 0.0 0.0 0.0 0.0 0.0 0.0 0.0 131.8880323396537 -40.64854563885734 619.8442189489866 -0.8513156352695678 0.4210598050497689 -0.8513156352695682 
2.5223434 0.6543562192205213 -1.134558847314549 -1.3526775870547227 0.0 1.5707963267948966 0.0 0.2743434418098265 0.1828956278732177 0.09144781393660885 0.0 0.0 0.0 0.0 0.0 0.0 0.0 0.0 0.0 131.290060757116 -40.88588352670771 620.0943792132521 -0.8496150294671082 0.41905889316217976 -0.8496150294671085 
2.5303435 0.6565509667549999 -1.1330956822915632 -1.3519460045432299 0.0 1.5707963267948966 0.0 0.2743434418098265 0.1828956278732177 0.09144781393660885 0.0 0.0 0.0 0.0 0.0 0.0 0.0 0.0 0.0 130.6932488310345 -41.12644074560049 620.3428751845719 -0.847911911192323 0.4170626407107934 -0.8479119111923232 
2.5383434 0.6587457142894786 -1.1316325172685775 -1.351214422031737 0.0 1.5707963267948966 0.0 0.2743434418098265 0.1828956278732177 0.09144781393660885 0.0 0.0 0.0 0.0 0.0 0.0 0.0 0.0 0.0 130.097611307541 -41.37021245585725 620.589705262227 -0.8462062878825902 0.41507104927378136 -0.8462062878825906 
2.5463433 0.6609404618239572 -1.1301693522455918 -1.3504828395202442 0.0 1.5707963267948966 0.0 0.2743434418098265 0.1828956278732177 0.09144781393660885 0.0 0.0 0.0 0.0 0.0 0.0 0.0 0.0 0.0 129.50316291362802 -41.617193752879196 620.834867852258 -0.8444981669656151 0.4130841204169254 -0.8444981669656154 
2.5543435 0.6631352093584357 -1.128706187222606 -1.3497512570087513 0.0 1.5707963267948966 0.0 0.2743434418098265 0.1828956278732177 0.09144781393660885 0.0 0.0 0.0 0.0 0.0 0.0 0.0 0.0 0.0 128.90991835686685 -41.867379667220916 621.0783613674745 -0.8427875558594434 0.4111018556936886 -0.8427875558594438 
2.5623434 0.6653299568929144 -1.1272430221996204 -1.3490196744972585 0.0 1.5707963267948966 0.0 0.2743434418098265 0.1828956278732177 0.09144781393660885 0.0 0.0 0.0 0.0 0.0 0.0 0.0 0.0 0.0 128.31789232512546 -42.12076516466602 621.3201842274634 -0.8410744619724746 0.40912425664528773 -0.8410744619724746 
2.5703435 0.667524704427393 -1.1257798571766344 -1.3482880919857656 0.0 1.5707963267948966 0.0 0.2743434418098265 0.1828956278732177 0.09144781393660885 0.0 0.0 0.0 0.0 0.0 0.0 0.0 0.0 0.0 127.727099486287 -42.37734514630315 621.5603348585969 -0.8393588927034767 0.407151324800764 -0.8393588927034771 
2.5783434 0.6697194519618717 -1.1243166921536487 -1.3475565094742727 0.0 1.5707963267948966 0.0 0.2743434418098265 0.1828956278732177 0.09144781393660885 0.0 0.0 0.0 0.0 0.0 0.0 0.0 0.0 0.0 127.13755448796866 -42.637114448603484 621.7988116940419 -0.8376408554416008 0.4051830616770543 -0.8376408554416009 
2.5863435 0.6719141994963502 -1.122853527130663 -1.3468249269627797 0.0 1.5707963267948966 0.0 0.2743434418098265 0.1828956278732177 0.09144781393660885 0.0 0.0 0.0 0.0 0.0 0.0 0.0 0.0 0.0 126.54927195724028 -42.90006784350026 622.0356131737677 -0.8359203575663937 0.4032194687790623 -0.835920357566394 
