Fleaurent/UniversalRobot/csv/robolib_movej_Dreieck.csv
timestamp target_q_0 target_q_1 target_q_2 target_q_3 target_q_4 target_q_5 target_qd_0 target_qd_1 target_qd_2 target_qd_3 target_qd_4 target_qd_5 target_qdd_0 target_qdd_1 target_qdd_2 target_qdd_3 target_qdd_4 target_qdd_5 target_TCP_pose_0 target_TCP_pose_1 target_TCP_pose_2 target_TCP_pose_3 target_TCP_pose_4 target_TCP_pose_5 target_TCP_speed_0 target_TCP_speed_1 target_TCP_speed_2 target_TCP_speed_3 target_TCP_speed_4 target_TCP_speed_5
0.0 0.0 -1.5707963267948966 -1.5707963267948966 0.0 1.5707963267948966 0.0 0.0 0.0 0.0 0.0 0.0 0.0 1.0 0.0 0.0 0.0 0.0 0.0 0.29514999999999997 -0.11234999999999999 0.4809 -1.2091995761561454 1.2091995761561456 -1.2091995761561458 0.0 0.0 0.0 0.0 0.0 0.0 
0.008 3.2e-05 -1.5707963267948966 -1.5707963267948966 0.0 1.5707963267948966 0.0 0.008 0.0 0.0 0.0 0.0 0.0 1.0 0.0 0.0 0.0 0.0 0.0 0.29515359504888256 -0.11234055514247841 0.4809 -1.2092147055764364 1.2091760113249628 -1.209176011324963 0.0008987244411398273 0.0023612287603910604 0.0 0.0 0.0 0.008 
0.016 0.000128 -1.5707963267948966 -1.5707963267948966 0.0 1.5707963267948966 0.0 0.016 0.0 0.0 0.0 0.0 0.0 1.0 0.0 0.0 0.0 0.0 0.0 0.29516437838209186 -0.11231221987973197 0.4809 -1.2092600917893326 1.209105316402997 -1.2091053164029972 0.0017969955180757117 0.00472263005411347 0.0 0.0 0.0 0.016 
0.024 0.000288 -1.5707963267948966 -1.5707963267948966 0.0 1.5707963267948966 0.0 0.024 0.0 0.0 0.0 0.0 0.0 1.0 0.0 0.0 0.0 0.0 0.0 0.295182344559092 -0.11226499214179592 0.4809 -1.2093357286510245 1.2089874901051165 -1.2089874901051167 0.002694359811403102 0.007084376269418208 0.0 0.0 0.0 0.024 
0.032 0.000512 -1.5707963267948966 -1.5707963267948966 0.0 1.5707963267948966 0.0 0.032 0.0 0.0 0.0 0.0 0.0 1.0 0.0 0.0 0.0 0.0 0.0 0.2952074845115868 -0.1121988684806635 0.4809 -1.2094416059222521 1.2088225302898576 -1.2088225302898579 0.0035903637913812323 0.009446639504370778 0.0 0.0 0.0 0.032 
0.04 0.0008 -1.5707963267948966 -1.5707963267948966 0.0 1.5707963267948966 0.0 0.04 0.0 0.0 0.0 0.0 0.0 1.0 0.0 0.0 0.0 0.0 0.0 0.2952397855424178 -0.11211384407318803 0.4809 -1.209577709268942 1.2086104339600623 -1.2086104339600627 0.004484553762927521 0.011809591421696713 0.0 0.0 0.0 0.04 
0.048 0.001152 -1.5707963267948966 -1.5707963267948966 0.0 1.5707963267948966 0.0 0.048 0.0 0.0 0.0 0.0 0.0 1.0 0.0 0.0 0.0 0.0 0.0 0.2952792313240216 -0.11200991272514643 0.4809 -1.2097440202630958 1.2083511972637653 -1.2083511972637655 0.005376475810807029 0.014173403103553039 0.0 0.0 0.0 0.048 
0.056 0.0015680000000000002 -1.5707963267948966 -1.5707963267948966 0.0 1.5707963267948966 0.0 0.056 0.0 0.0 0.0 0.0 0.0 1.0 0.0 0.0 0.0 0.0 0.0 0.29532580189645036 -0.11188706687646495 0.4809 -1.2099405163839287 1.208044815495334 -1.2080448154953343 0.006265675745082037 0.01653824490620122 0.0 0.0 0.0 0.056 
0.064 0.002048 -1.5707963267948966 -1.5707963267948966 0.0 1.5707963267948966 0.0 0.064 0.0 0.0 0.0 0.0 0.0 1.0 0.0 0.0 0.0 0.0 0.0 0.295379473664957 -0.11174529760760826 0.4809 -1.21016717101927 1.2076912830968698 -1.20769128309687 0.007151699046886929 0.018904286314557248 0.0 0.0 0.0 0.064 
0.072 0.0025920000000000006 -1.5707963267948966 -1.5707963267948966 0.0 1.5707963267948966 0.0 0.07200000000000001 0.0 0.0 0.0 0.0 0.0 1.0 0.0 0.0 0.0 0.0 0.0 0.2954402193971484 -0.11158459464713222 0.4809 -1.2104239534672074 1.2072905936598501 -1.2072905936598504 0.00803409081459352 0.021271695796594686 0.0 0.0 0.0 0.07200000000000001 
0.08 0.0032 -1.5707963267948966 -1.5707963267948966 0.0 1.5707963267948966 0.0 0.08 0.0 0.0 0.0 0.0 0.0 1.0 0.0 0.0 0.0 0.0 0.0 0.295508008219709 -0.11140494638040258 0.4809 -1.2107108289379842 1.2068427399270305 -1.206842739927031 0.008912395710432206 0.023640640657576723 0.0 0.0 0.0 0.08 
0.088 0.0038719999999999996 -1.5707963267948966 -1.5707963267948966 0.0 1.5707963267948966 0.0 0.088 0.0 0.0 0.0 0.0 0.0 1.0 0.0 0.0 0.0 0.0 0.0 0.2955828056147004 -0.11120633985948025 0.4809 -1.2110277585561553 1.206347713794597 -1.2063477137945973 0.009786157907634261 0.026011286894093634 0.0 0.0 0.0 0.088 
0.096 0.004608 -1.5707963267948966 -1.5707963267948966 0.0 1.5707963267948966 0.0 0.096 0.0 0.0 0.0 0.0 0.0 1.0 0.0 0.0 0.0 0.0 0.0 0.2956645734154394 -0.11098876081417536 0.4809 -1.2113746993629853 1.2058055063145694 -1.2058055063145698 0.010654921038160835 0.028383799047882182 0.0 0.0 0.0 0.096 
0.104 0.005408000000000001 -1.5707963267948966 -1.5707963267948966 0.0 1.5707963267948966 0.0 0.10400000000000001 0.0 0.0 0.0 0.0 0.0 1.0 0.0 0.0 0.0 0.0 0.0 0.29575326980196126 -0.11075219366427147 0.4809 -1.211751604319099 1.2052161076974512 -1.2052161076974515 0.011518228141084235 0.030758340059403973 0.0 0.0 0.0 0.10400000000000001 
0.112 0.006272000000000001 -1.5707963267948966 -1.5707963267948966 0.0 1.5707963267948966 0.0 0.112 0.0 0.0 0.0 0.0 0.0 1.0 0.0 0.0 0.0 0.0 0.0 0.29584884929607225 -0.11049662153292249 0.4809 -1.212158422307384 1.204579507315135 -1.2045795073151353 0.012375621611687319 0.03313507112116009 0.0 0.0 0.0 0.112 
0.12 0.0072 -1.5707963267948966 -1.5707963267948966 0.0 1.5707963267948966 0.0 0.12 0.0 0.0 0.0 0.0 0.0 1.0 0.0 0.0 0.0 0.0 0.0 0.2959512627559985 -0.1102220262612239 0.4809 -1.212595098136135 1.203895693704051 -1.2038956937040513 0.013226643151346869 0.035514151530719816 0.0 0.0 0.0 0.12 
0.128 0.008192 -1.5707963267948966 -1.5707963267948966 0.0 1.5707963267948966 0.0 0.128 0.0 0.0 0.0 0.0 0.0 1.0 0.0 0.0 0.0 0.0 0.0 0.29606045737063685 -0.10992838842396122 0.4809 -1.2130615725424498 1.2031646545685644 -1.2031646545685646 0.014070833718267036 0.03789573854344152 0.0 0.0 0.0 0.128 
0.136 0.009248000000000001 -1.5707963267948966 -1.5707963267948966 0.0 1.5707963267948966 0.0 0.136 0.0 0.0 0.0 0.0 0.0 1.0 0.0 0.0 0.0 0.0 0.0 0.29617637665341584 -0.10961568734653783 0.4809 -1.2135577821958687 1.202386376784623 -1.2023863767846232 0.014907733479129145 0.040279987224864554 0.0 0.0 0.0 0.136 
0.144 0.010368000000000002 -1.5707963267948966 -1.5707963267948966 0.0 1.5707963267948966 0.0 0.14400000000000002 0.0 0.0 0.0 0.0 0.0 1.0 0.0 0.0 0.0 0.0 0.0 0.2962989604357729 -0.10928390112308517 0.4809 -1.2140836597022584 1.201560846403644 -1.2015608464036442 0.015736881761724265 0.04266705030275131 0.0 0.0 0.0 0.14400000000000002 
0.152 0.011552 -1.5707963267948966 -1.5707963267948966 0.0 1.5707963267948966 0.0 0.152 0.0 0.0 0.0 0.0 0.0 1.0 0.0 0.0 0.0 0.0 0.0 0.2964281448602577 -0.10893300663575797 0.4809 -1.2146391336079376 1.2006880486566487 -1.200688048656649 0.016557817008635213 0.04505707801875917 0.0 0.0 0.0 0.152 
0.16 0.0128 -1.5707963267948966 -1.5707963267948966 0.0 1.5707963267948966 0.0 0.16 0.0 0.0 0.0 0.0 0.0 1.0 0.0 0.0 0.0 0.0 0.0 0.2965638623732683 -0.1085629795752177 0.4809 -1.2152241284040484 1.1997679679586404 -1.1997679679586406 0.01737007673203483 0.04745021797972293 0.0 0.0 0.0 0.16 
0.168 0.014112000000000001 -1.5707963267948966 -1.5707963267948966 0.0 1.5707963267948966 0.0 0.168 0.0 0.0 0.0 0.0 0.0 1.0 0.0 0.0 0.0 0.0 0.0 0.2967060417174319 -0.1081737944623074 0.4809 -1.2158385645311605 1.1988005879132215 -1.1988005879132217 0.018173197469667644 0.049846615008528564 0.0 0.0 0.0 0.168 
0.176 0.015487999999999998 -1.5707963267948966 -1.5707963267948966 0.0 1.5707963267948966 0.0 0.176 0.0 0.0 0.0 0.0 0.0 1.0 0.0 0.0 0.0 0.0 0.0 0.2968546079236366 -0.10776542467092122 0.4809 -1.21648235838412 1.1977858913174522 -1.1977858913174524 0.018966714742082134 0.05224641099456004 0.0 0.0 0.0 0.176 
0.184 0.016928 -1.5707963267948966 -1.5707963267948966 0.0 1.5707963267948966 0.0 0.184 0.0 0.0 0.0 0.0 0.0 1.0 0.0 0.0 0.0 0.0 0.0 0.2970094823027274 -0.10733784245207202 0.4809 -1.2171554223171324 1.1967238601669474 -1.1967238601669477 0.01975016301118125 0.054649744743701836 0.0 0.0 0.0 0.184 
0.192 0.018432 -1.5707963267948966 -1.5707963267948966 0.0 1.5707963267948966 0.0 0.192 0.0 0.0 0.0 0.0 0.0 1.0 0.0 0.0 0.0 0.0 0.0 0.2971705824368762 -0.10689101895916102 0.4809 -1.217857664649078 1.195614475661211 -1.1956144756612113 0.020523075640158917 0.05705675182788023 0.0 0.0 0.0 0.192 
0.2 0.020000000000000004 -1.5707963267948966 -1.5707963267948966 0.0 1.5707963267948966 0.0 0.2 0.0 0.0 0.0 0.0 0.0 1.0 0.0 0.0 0.0 0.0 0.0 0.29733782217063637 -0.10642492427445274 0.4809 -1.2185889896690676 1.194457718209207 -1.1944577182092075 0.02128498485489055 0.059467564434127276 0.0 0.0 0.0 0.2 
0.208 0.021632000000000005 -1.5707963267948966 -1.5707963267948966 0.0 1.5707963267948966 0.0 0.20800000000000002 0.0 0.0 0.0 0.0 0.0 1.0 0.0 0.0 0.0 0.0 0.0 0.29751111160169463 -0.10593952743675973 0.4809 -1.2193492976422196 1.1932535674351608 -1.193253567435161 0.022035421706846026 0.06188231121315249 0.0 0.0 0.0 0.20800000000000002 
0.216 0.023327999999999998 -1.5707963267948966 -1.5707963267948966 0.0 1.5707963267948966 0.0 0.216 0.0 0.0 0.0 0.0 0.0 1.0 0.0 0.0 0.0 0.0 0.0 0.2976903570713333 -0.1054347964703403 0.4809 -1.2201384848156724 1.192002002184595 -1.1920020021845952 0.022773916037593506 0.06430111712740799 0.0 0.0 0.0 0.216 
0.224 0.025088000000000003 -1.5707963267948966 -1.5707963267948966 0.0 1.5707963267948966 0.0 0.224 0.0 0.0 0.0 0.0 0.0 1.0 0.0 0.0 0.0 0.0 0.0 0.2978754611546139 -0.1049106984150143 0.4809 -1.2209564434248221 1.1907030005305959 -1.190703000530596 0.023499996444963204 0.06672410329863351 0.0 0.0 0.0 0.224 
0.232 0.026912000000000002 -1.5707963267948966 -1.5707963267948966 0.0 1.5707963267948966 0.0 0.232 0.0 0.0 0.0 0.0 0.0 1.0 0.0 0.0 0.0 0.0 0.0 0.2980663226502984 -0.10436719935750016 0.4809 -1.2218030616997861 1.1893565397803083 -1.1893565397803085 0.02421319025094004 0.06915138685486924 0.0 0.0 0.0 0.232 
0.24 0.0288 -1.5707963267948966 -1.5707963267948966 0.0 1.5707963267948966 0.0 0.24 0.0 0.0 0.0 0.0 0.0 1.0 0.0 0.0 0.0 0.0 0.0 0.29826283657051944 -0.10380426446397853 0.4809 -1.2226782238720857 1.187962596481655 -1.1879625964816551 0.024913023471354847 0.07158308077692466 0.0 0.0 0.0 0.24 
0.248 0.030751999999999998 -1.5707963267948966 -1.5707963267948966 0.0 1.5707963267948966 0.0 0.248 0.0 0.0 0.0 0.0 0.0 1.0 0.0 0.0 0.0 0.0 0.0 0.29846489413021626 -0.10322185801388581 0.4809 -1.2235818101815525 1.1865211464302812 -1.1865211464302814 0.02559902078744368 0.07401929374429363 0.0 0.0 0.0 0.248 
0.256 0.032768 -1.5707963267948966 -1.5707963267948966 0.0 1.5707963267948966 0.0 0.256 0.0 0.0 0.0 0.0 0.0 1.0 0.0 0.0 0.0 0.0 0.0 0.29867238273635055 -0.10261994343494303 0.4809 -1.2245136968834491 1.1850321646767241 -1.1850321646767243 0.026270705519345416 0.07646012998050575 0.0 0.0 0.0 0.256 
0.264 0.034848000000000004 -1.5707963267948966 -1.5707963267948966 0.0 1.5707963267948966 0.0 0.264 0.0 0.0 0.0 0.0 0.0 1.0 0.0 0.0 0.0 0.0 0.0 0.29888518597691854 -0.10199848333942413 0.4809 -1.2254737562558078 1.1834956255337983 -1.1834956255337985 0.026927599601607972 0.0789056890979065 0.0 0.0 0.0 0.264 
0.272 0.036992000000000004 -1.5707963267948966 -1.5707963267948966 0.0 1.5707963267948966 0.0 0.272 0.0 0.0 0.0 0.0 0.0 1.0 0.0 0.0 0.0 0.0 0.0 0.299103183609775 -0.1013574395616681 0.4809 -1.2264618566069785 1.1819115025842022 -1.1819115025842024 0.027569223560773723 0.0813560659418588 0.0 0.0 0.0 0.272 
0.28 0.039200000000000006 -1.5707963267948966 -1.5707963267948966 0.0 1.5707963267948966 0.0 0.28 0.0 0.0 0.0 0.0 0.0 1.0 0.0 0.0 0.0 0.0 0.0 0.29932625155128667 -0.10069677319684 0.4809 -1.227477862283392 1.180279768688341 -1.1802797686883413 0.028195096495115205 0.08381135043436028 0.0 0.0 0.0 0.28 
0.288 0.04147200000000001 -1.5707963267948966 -1.5707963267948966 0.0 1.5707963267948966 0.0 0.28800000000000003 0.0 0.0 0.0 0.0 0.0 1.0 0.0 0.0 0.0 0.0 0.0 0.2995542618648325 -0.10001644464094554 0.4809 -1.228521633677521 1.1786003959923594 -1.1786003959923597 0.02880473605659232 0.08627162741707178 0.0 0.0 0.0 0.28800000000000003 
0.296 0.04380799999999999 -1.5707963267948966 -1.5707963267948966 0.0 1.5707963267948966 0.0 0.296 0.0 0.0 0.0 0.0 0.0 1.0 0.0 0.0 0.0 0.0 0.0 0.29978708274916877 -0.09931641363210332 0.4809 -1.229593027236055 1.1768733559363898 -1.17687335593639 0.029397658435102583 0.08873697649375395 0.0 0.0 0.0 0.296 
0.304 0.046208 -1.5707963267948966 -1.5707963267948966 0.0 1.5707963267948966 0.0 0.304 0.0 0.0 0.0 0.0 0.0 1.0 0.0 0.0 0.0 0.0 0.0 0.30002457852667697 -0.09859663929308059 0.4809 -1.230691895468271 1.1750986192630084 -1.1750986192630086 0.0299733783450965 0.0912074718721098 0.0 0.0 0.0 0.304 
0.312 0.048672 -1.5707963267948966 -1.5707963267948966 0.0 1.5707963267948966 0.0 0.312 0.0 0.0 0.0 0.0 0.0 1.0 0.0 0.0 0.0 0.0 0.0 0.3002666096315153 -0.09785708017509613 0.4809 -1.2318180869546018 1.1732761560258933 -1.1732761560258935 0.030531409014629994 0.09368318220503277 0.0 0.0 0.0 0.312 
0.32 0.0512 -1.5707963267948966 -1.5707963267948966 0.0 1.5707963267948966 0.0 0.32 0.0 0.0 0.0 0.0 0.0 1.0 0.0 0.0 0.0 0.0 0.0 0.3005130325976918 -0.09709769430289576 0.4809 -1.2329714463554022 1.1714059355986934 -1.1714059355986937 0.031071262176926646 0.09616417043126138 0.0 0.0 0.0 0.32 
0.328 0.053792000000000006 -1.5707963267948966 -1.5707963267948966 0.0 1.5707963267948966 0.0 0.328 0.0 0.0 0.0 0.0 0.0 1.0 0.0 0.0 0.0 0.0 0.0 0.3007637000470806 -0.09631843922110499 0.4809 -1.2341518144199064 1.1694879266840952 -1.1694879266840954 0.03159244806452244 0.09865049361544244 0.0 0.0 0.0 0.328 
0.336 0.056448000000000005 -1.5707963267948966 -1.5707963267948966 0.0 1.5707963267948966 0.0 0.336 0.0 0.0 0.0 0.0 0.0 1.0 0.0 0.0 0.0 0.0 0.0 0.3010184606774018 -0.09551927204186333 0.4809 -1.2353590279953721 1.1675220973230866 -1.1675220973230869 0.03209447540606608 0.10114220278760701 0.0 0.0 0.0 0.336 
0.344 0.05916800000000001 -1.5707963267948966 -1.5707963267948966 0.0 1.5707963267948966 0.0 0.34400000000000003 0.0 0.0 0.0 0.0 0.0 1.0 0.0 0.0 0.0 0.0 0.0 0.30127715925018655 -0.0947001494937454 0.4809 -1.2365929200364143 1.1655084149044206 -1.1655084149044208 0.03257685142584842 0.10363934278206419 0.0 0.0 0.0 0.34400000000000003 
0.352 0.06195199999999999 -1.5707963267948966 -1.5707963267948966 0.0 1.5707963267948966 0.0 0.352 0.0 0.0 0.0 0.0 0.0 1.0 0.0 0.0 0.0 0.0 0.0 0.30153963657874977 -0.09386102797197293 0.4809 -1.2378533196145127 1.163446846174269 -1.1634468461742693 0.03303908184613447 0.10614195207571991 0.0 0.0 0.0 0.352 
0.36 0.0648 -1.5707963267948966 -1.5707963267948966 0.0 1.5707963267948966 0.0 0.36 0.0 0.0 0.0 0.0 0.0 1.0 0.0 0.0 0.0 0.0 0.0 0.3018057295161929 -0.09300186358992268 0.4809 -1.2391400519277098 1.1613373572460712 -1.1613373572460715 0.033480670892372166 0.10865006262582944 0.0 0.0 0.0 0.36 
0.368 0.067712 -1.5707963267948966 -1.5707963267948966 0.0 1.5707963267948966 0.0 0.368 0.0 0.0 0.0 0.0 0.0 1.0 0.0 0.0 0.0 0.0 0.0 0.30207527094345976 -0.09212261223193446 0.4809 -1.240452938310473 1.159179913610567 -1.1591799136105674 0.03390112130135188 0.11116369970719318 0.0 0.0 0.0 0.368 
0.376 0.070688 -1.5707963267948966 -1.5707963267948966 0.0 1.5707963267948966 0.0 0.376 0.0 0.0 0.0 0.0 0.0 1.0 0.0 0.0 0.0 0.0 0.0 0.30234808975747013 -0.09122322960742385 0.4809 -1.2417917962437328 1.1569744801460164 -1.156974480146017 0.03429993433239137 0.11368288174880876 0.0 0.0 0.0 0.376 
0.384 0.073728 -1.5707963267948966 -1.5707963267948966 0.0 1.5707963267948966 0.0 0.384 0.0 0.0 0.0 0.0 0.0 1.0 0.0 0.0 0.0 0.0 0.0 0.30262401085935503 -0.09030367130630367 0.4809 -1.2431564393650893 1.1547210211286019 -1.154721021128602 0.034676609781620606 0.11620762016999234 0.0 0.0 0.0 0.384 
0.392 0.07683200000000001 -1.5707963267948966 -1.5707963267948966 0.0 1.5707963267948966 0.0 0.392 0.0 0.0 0.0 0.0 0.0 1.0 0.0 0.0 0.0 0.0 0.0 0.302902855142819 -0.08936389285571879 0.4809 -1.244546677479181 1.1524195002430102 -1.1524195002430104 0.035030645999441765 0.11873791921598506 0.0 0.0 0.0 0.392 
0.4 0.08000000000000002 -1.5707963267948966 -1.5707963267948966 0.0 1.5707963267948966 0.0 0.4 0.0 0.0 0.0 0.0 0.0 1.0 0.0 0.0 0.0 0.0 0.0 0.3031844394826546 -0.08840384977809795 0.4809 -1.245962316568212 1.1500698805931906 -1.1500698805931908 0.035361539911239186 0.12127377579306185 0.0 0.0 0.0 0.4 
0.408 0.08323200000000001 -1.5707963267948966 -1.5707963267948966 0.0 1.5707963267948966 0.0 0.40800000000000003 0.0 0.0 0.0 0.0 0.0 1.0 0.0 0.0 0.0 0.0 0.0 0.30346857672343663 -0.08742349765052664 0.4809 -1.247403158802641 1.1476721247132875 -1.1476721247132877 0.03566878704141487 0.12381517930316216 0.0 0.0 0.0 0.40800000000000003 
0.416 0.08652800000000002 -1.5707963267948966 -1.5707963267948966 0.0 1.5707963267948966 0.0 0.41600000000000004 0.0 0.0 0.0 0.0 0.0 1.0 0.0 0.0 0.0 0.0 0.0 0.3037550756684213 -0.08642279216544467 0.4809 -1.2488690025520166 1.145226194578745 -1.1452261945787452 0.03595188154082499 0.12636211147806328 0.0 0.0 0.0 0.41600000000000004 
0.424 0.089888 -1.5707963267948966 -1.5707963267948966 0.0 1.5707963267948966 0.0 0.424 0.0 0.0 0.0 0.0 0.0 1.0 0.0 0.0 0.0 0.0 0.0 0.3040437410686794 -0.08540168919267249 0.4809 -1.2503596423959624 1.1427320516175752 -1.1427320516175754 0.036210316217693134 0.12891454621312004 0.0 0.0 0.0 0.424 
0.432 0.09331199999999999 -1.5707963267948966 -1.5707963267948966 0.0 1.5707963267948966 0.0 0.432 0.0 0.0 0.0 0.0 0.0 1.0 0.0 0.0 0.0 0.0 0.0 0.3043343736124907 -0.08436014484276874 0.4809 -1.2518748691353065 1.140189656721796 -1.1401896567217962 0.0364435825720761 0.131472449400596 0.0 0.0 0.0 0.432 
0.44 0.0968 -1.5707963267948966 -1.5707963267948966 0.0 1.5707963267948966 0.0 0.44 0.0 0.0 0.0 0.0 0.0 1.0 0.0 0.0 0.0 0.0 0.0 0.30462676991502846 -0.08329811553172307 0.4809 -1.2534144698033538 1.1375989702590303 -1.1375989702590306 0.036651170833958156 0.13403577876261252 0.0 0.0 0.0 0.44 
0.448 0.10035200000000001 -1.5707963267948966 -1.5707963267948966 0.0 1.5707963267948966 0.0 0.448 0.0 0.0 0.0 0.0 0.0 1.0 0.0 0.0 0.0 0.0 0.0 0.3049207225083637 -0.08221555804698659 0.4809 -1.254978227677287 1.1349599520842613 -1.1349599520842617 0.03683257000504999 0.13660448368374695 0.0 0.0 0.0 0.448 
0.456 0.103968 -1.5707963267948966 -1.5707963267948966 0.0 1.5707963267948966 0.0 0.456 0.0 0.0 0.0 0.0 0.0 1.0 0.0 0.0 0.0 0.0 0.0 0.3052160198318187 -0.08111242961484301 0.4809 -1.256565922289704 1.132272561551745 -1.1322725615517453 0.03698726790436841 0.1391785050433093 0.0 0.0 0.0 0.456 
0.464 0.10764800000000001 -1.5707963267948966 -1.5707963267948966 0.0 1.5707963267948966 0.0 0.464 0.0 0.0 0.0 0.0 0.0 1.0 0.0 0.0 0.0 0.0 0.0 0.3055124462227003 -0.07998868796912251 0.4809 -1.2581773294402823 1.129536757527078 -1.1295367575270783 0.037114751217672846 0.14175777504733295 0.0 0.0 0.0 0.464 
0.472 0.11139200000000002 -1.5707963267948966 -1.5707963267948966 0.0 1.5707963267948966 0.0 0.47200000000000003 0.0 0.0 0.0 0.0 0.0 1.0 0.0 0.0 0.0 0.0 0.0 0.30580978190744534 -0.07884429142126091 0.4809 -1.2598122212075618 1.1267524983994113 -1.1267524983994115 0.03721450555083515 0.14434221706031422 0.0 0.0 0.0 0.47200000000000003 
0.48 0.1152 -1.5707963267948966 -1.5707963267948966 0.0 1.5707963267948966 0.0 0.48 0.0 0.0 0.0 0.0 0.0 1.0 0.0 0.0 0.0 0.0 0.0 0.3061078029932077 -0.07767919893170575 0.4809 -1.2614703659608488 1.1239197420938114 -1.1239197420938116 0.03728601548721876 0.1469317454367397 0.0 0.0 0.0 0.48 
0.488 0.119072 -1.5707963267948966 -1.5707963267948966 0.0 1.5707963267948966 0.0 0.488 0.0 0.0 0.0 0.0 0.0 1.0 0.0 0.0 0.0 0.0 0.0 0.3064062814599219 -0.0764933701826708 0.4809 -1.2631515283722325 1.1210384460837686 -1.1210384460837688 0.03732876464914335 0.14952626535244187 0.0 0.0 0.0 0.488 
0.496 0.12300799999999999 -1.5707963267948966 -1.5707963267948966 0.0 1.5707963267948966 0.0 0.496 0.0 0.0 0.0 0.0 0.0 1.0 0.0 0.0 0.0 0.0 0.0 0.3067049851528739 -0.07528676565224031 0.4809 -1.26485546942871 1.1181085674038405 -1.1181085674038407 0.03734223576351119 0.15212567263582547 0.0 0.0 0.0 0.496 
0.504 0.127008 -1.5707963267948966 -1.5707963267948966 0.0 1.5707963267948966 0.0 0.504 0.0 0.0 0.0 0.0 0.0 1.0 0.0 0.0 0.0 0.0 0.0 0.307003677775815 -0.07405934668982386 0.4809 -1.2665819464444141 1.1151300626624359 -1.1151300626624363 0.03732591073167123 0.15472985359901076 0.0 0.0 0.0 0.504 
0.512 0.131072 -1.5707963267948966 -1.5707963267948966 0.0 1.5707963267948966 0.0 0.512 0.0 0.0 0.0 0.0 0.0 1.0 0.0 0.0 0.0 0.0 0.0 0.30730211888465053 -0.07281107559296222 0.4809 -1.268330713072941 1.1121028880547332 -1.1121028880547335 0.037279270703596656 0.15733868486894106 0.0 0.0 0.0 0.512 
0.52 0.13520000000000001 -1.5707963267948966 -1.5707963267948966 0.0 1.5707963267948966 0.0 0.52 0.0 0.0 0.0 0.0 0.0 1.0 0.0 0.0 0.0 0.0 0.0 0.3076000638817408 -0.07154191568548418 0.4809 -1.2701015193197747 1.1090269993757274 -1.1090269993757278 0.03720179615645178 0.15995203321850524 0.0 0.0 0.0 0.52 
0.528 0.13939200000000002 -1.5707963267948966 -1.5707963267948966 0.0 1.5707963267948966 0.0 0.528 0.0 0.0 0.0 0.0 0.0 1.0 0.0 0.0 0.0 0.0 0.0 0.3078972640108474 -0.07025183139701446 0.4809 -1.271894111554794 1.1059023520334073 -1.1059023520334075 0.03709296697762364 0.16256975539772742 0.0 0.0 0.0 0.528 
0.536 0.14364800000000003 -1.5707963267948966 -1.5707963267948966 0.0 1.5707963267948966 0.0 0.536 0.0 0.0 0.0 0.0 0.0 1.0 0.0 0.0 0.0 0.0 0.0 0.30819346635276196 -0.0689407883438313 0.4809 -1.2737082325248719 1.1027289010620551 -1.1027289010620553 0.03695226255229358 0.16519169796508043 0.0 0.0 0.0 0.536 
0.544 0.14796800000000002 -1.5707963267948966 -1.5707963267948966 0.0 1.5707963267948966 0.0 0.544 0.0 0.0 0.0 0.0 0.0 1.0 0.0 0.0 0.0 0.0 0.0 0.30848841382165504 -0.06760875341107321 0.4809 -1.2755436213665516 1.0995066011356742 -1.0995066011356744 0.036779161855623826 0.16781769711898034 0.0 0.0 0.0 0.544 
0.552 0.15235200000000002 -1.5707963267948966 -1.5707963267948966 0.0 1.5707963267948966 0.0 0.552 0.0 0.0 0.0 0.0 0.0 1.0 0.0 0.0 0.0 0.0 0.0 0.3087818451621793 -0.06625569483629246 0.4809 -1.2774000136187915 1.0962354065815236 -1.0962354065815239 0.03657314354963344 0.170447578529523 0.0 0.0 0.0 0.552 
0.56 0.15680000000000002 -1.5707963267948966 -1.5707963267948966 0.0 1.5707963267948966 0.0 0.56 0.0 0.0 0.0 0.0 0.0 1.0 0.0 0.0 0.0 0.0 0.0 0.30907349494736847 -0.06488158229435392 0.4809 -1.2792771412357875 1.0929152713937798 -1.09291527139378 0.0363336860848382 0.17308115717052636 0.0 0.0 0.0 0.56 
0.568 0.16131200000000004 -1.5707963267948966 -1.5707963267948966 0.0 1.5707963267948966 0.0 0.5680000000000001 0.0 0.0 0.0 0.0 0.0 1.0 0.0 0.0 0.0 0.0 0.0 0.30936309357736735 -0.0634863869836757 0.4809 -1.2811747325998544 1.089546149247304 -1.0895461492473042 0.0360602678067278 0.17571823715194468 0.0 0.0 0.0 0.5680000000000001 
0.576 0.16588800000000004 -1.5707963267948966 -1.5707963267948966 0.0 1.5707963267948966 0.0 0.5760000000000001 0.0 0.0 0.0 0.0 0.0 1.0 0.0 0.0 0.0 0.0 0.0 0.3096503672790346 -0.06207008171380915 0.4809 -1.283092512534367 1.086127993511522 -1.0861279935115224 0.035752367067154074 0.17835861155272395 0.0 0.0 0.0 0.5760000000000001 
0.584 0.17052799999999999 -1.5707963267948966 -1.5707963267948966 0.0 1.5707963267948966 0.0 0.584 0.0 0.0 0.0 0.0 0.0 1.0 0.0 0.0 0.0 0.0 0.0 0.3099350381064552 -0.060632640994353594 0.4809 -1.2850302023167552 1.0826607572644071 -1.0826607572644074 0.0354094623407025 0.18100206225416982 0.0 0.0 0.0 0.584 
0.592 0.17523199999999997 -1.5707963267948966 -1.5707963267948966 0.0 1.5707963267948966 0.0 0.592 0.0 0.0 0.0 0.0 0.0 1.0 0.0 0.0 0.0 0.0 0.0 0.31021682394240463 -0.059174041125202206 0.4809 -1.2869875196915488 1.0791443933065696 -1.0791443933065699 0.035031032346119706 0.18364835977390354 0.0 0.0 0.0 0.592 
0.6 0.18 -1.5707963267948966 -1.5707963267948966 0.0 1.5707963267948966 0.0 0.6 0.0 0.0 0.0 0.0 0.0 1.0 0.0 0.0 0.0 0.0 0.0 0.31049543850080535 -0.05769426028811344 0.4809 -1.2889641788834592 1.0755788541754445 -1.0755788541754447 0.03461655617286806 0.1862972631004832 0.0 0.0 0.0 0.6 
0.608 0.184832 -1.5707963267948966 -1.5707963267948966 0.0 1.5707963267948966 0.0 0.608 0.0 0.0 0.0 0.0 0.0 1.0 0.0 0.0 0.0 0.0 0.0 0.3107705913302158 -0.05619327863960258 0.4809 -1.290959890610505 1.0719640921595757 -1.0719640921595759 0.034165513412878365 0.1889485195287712 0.0 0.0 0.0 0.608 
0.616 0.189728 -1.5707963267948966 -1.5707963267948966 0.0 1.5707963267948966 0.0 0.616 0.0 0.0 0.0 0.0 0.0 1.0 0.0 0.0 0.0 0.0 0.0 0.3110419878183944 -0.05467107840514708 0.4809 -1.2929743620971663 1.0683000593129957 -1.0683000593129959 0.0336773842975706 0.19160186449613095 0.0 0.0 0.0 0.616 
0.624 0.194688 -1.5707963267948966 -1.5707963267948966 0.0 1.5707963267948966 0.0 0.624 0.0 0.0 0.0 0.0 0.0 1.0 0.0 0.0 0.0 0.0 0.0 0.31130932919798215 -0.05312764397469878 0.4809 -1.2950072970875648 1.064586707469696 -1.0645867074696962 0.03315164984021204 0.19425702141954088 0.0 0.0 0.0 0.624 
0.632 0.199712 -1.5707963267948966 -1.5707963267948966 0.0 1.5707963267948966 0.0 0.632 0.0 0.0 0.0 0.0 0.0 1.0 0.0 0.0 0.0 0.0 0.0 0.31157231255334383 -0.05156296199949521 0.4809 -1.2970583958586641 1.0608239882581854 -1.0608239882581856 0.032587791983680975 0.1969137015337133 0.0 0.0 0.0 0.632 
0.64 0.2048 -1.5707963267948966 -1.5707963267948966 0.0 1.5707963267948966 0.0 0.64 0.0 0.0 0.0 0.0 0.0 1.0 0.0 0.0 0.0 0.0 0.0 0.3118306308286149 -0.04997702149016154 0.4809 -1.299127355233488 1.0570118531161334 -1.0570118531161337 0.03198529375370339 0.19957160373031355 0.0 0.0 0.0 0.64 
0.648 0.209952 -1.5707963267948966 -1.5707963267948966 0.0 1.5707963267948966 0.0 0.648 0.0 0.0 0.0 0.0 0.0 1.0 0.0 0.0 0.0 0.0 0.0 0.3120839728369953 -0.04836981391609422 0.4809 -1.3012138685943437 1.0531502533050965 -1.053150253305097 0.031343639417629056 0.20223041439837294 0.0 0.0 0.0 0.648 
0.656 0.21516800000000003 -1.5707963267948966 -1.5707963267948966 0.0 1.5707963267948966 0.0 0.656 0.0 0.0 0.0 0.0 0.0 1.0 0.0 0.0 0.0 0.0 0.0 0.31233202327133625 -0.046741333306116004 0.4809 -1.3033176258960528 1.0492391399253238 -1.049239139925324 0.0306623146488121 0.2048898072659966 0.0 0.0 0.0 0.656 
0.664 0.22044800000000003 -1.5707963267948966 -1.5707963267948966 0.0 1.5707963267948966 0.0 0.664 0.0 0.0 0.0 0.0 0.0 1.0 0.0 0.0 0.0 0.0 0.0 0.31257446271606504 -0.045091576350392154 0.4809 -1.3054383136791738 1.0452784639306374 -1.0452784639306376 0.029940806696660393 0.2075494432434672 0.0 0.0 0.0 0.664 
0.672 0.22579200000000002 -1.5707963267948966 -1.5707963267948966 0.0 1.5707963267948966 0.0 0.672 0.0 0.0 0.0 0.0 0.0 1.0 0.0 0.0 0.0 0.0 0.0 0.31281096766049216 -0.043420542503595255 0.4809 -1.307575615083226 1.0412681761433915 -1.0412681761433917 0.029178604562416013 0.21020897026785074 0.0 0.0 0.0 0.672 
0.68 0.23120000000000004 -1.5707963267948966 -1.5707963267948966 0.0 1.5707963267948966 0.0 0.68 0.0 0.0 0.0 0.0 0.0 1.0 0.0 0.0 0.0 0.0 0.0 0.3130412105135487 -0.04172823408930752 0.4809 -1.3097292098598872 1.0372082272694958 -1.0372082272694962 0.028375199180729116 0.21286802314921313 0.0 0.0 0.0 0.68 
0.688 0.23667200000000005 -1.5707963267948966 -1.5707963267948966 0.0 1.5707963267948966 0.0 0.6880000000000001 0.0 0.0 0.0 0.0 0.0 1.0 0.0 0.0 0.0 0.0 0.0 0.3132648596199996 -0.040014656405646144 0.4809 -1.3118987743861812 1.0330985679135136 -1.0330985679135138 0.02753008360708455 0.21552622341855976 0.0 0.0 0.0 0.6880000000000001 
0.696 0.24220800000000003 -1.5707963267948966 -1.5707963267948966 0.0 1.5707963267948966 0.0 0.6960000000000001 0.0 0.0 0.0 0.0 0.0 1.0 0.0 0.0 0.0 0.0 0.0 0.31348157927817927 -0.03827981783209778 0.4809 -1.3140839816776364 1.0289391485938213 -1.0289391485938215 0.02664275321114006 0.2181831791776128 0.0 0.0 0.0 0.6960000000000001 
0.704 0.24780799999999997 -1.5707963267948966 -1.5707963267948966 0.0 1.5707963267948966 0.0 0.704 0.0 0.0 0.0 0.0 0.0 1.0 0.0 0.0 0.0 0.0 0.0 0.3136910297592985 -0.03652372993754743 0.4809 -1.3162845014014093 1.0247299197578326 -1.0247299197578328 0.02571270587603339 0.22083848495054614 0.0 0.0 0.0 0.704 
0.712 0.253472 -1.5707963267948966 -1.5707963267948966 0.0 1.5707963267948966 0.0 0.712 0.0 0.0 0.0 0.0 0.0 1.0 0.0 0.0 0.0 0.0 0.0 0.3138928673283695 -0.03474640758948484 0.4809 -1.3184999998893734 1.0204708317972837 -1.020470831797284 0.024739442203713206 0.2234917215377991 0.0 0.0 0.0 0.712 
0.72 0.2592 -1.5707963267948966 -1.5707963267948966 0.0 1.5707963267948966 0.0 0.72 0.0 0.0 0.0 0.0 0.0 1.0 0.0 0.0 0.0 0.0 0.0 0.31408674426679806 -0.03294786906437189 0.4809 -1.3207301401511626 1.0161618350635744 -1.0161618350635746 0.023722465726347758 0.22614245587209458 0.0 0.0 0.0 0.72 
0.728 0.26497265103853884 -1.5707963267948966 -1.5707963267948966 0.0 1.5707963267948966 0.0 0.7192025091165353 0.0 0.0 0.0 0.0 0.0 -1.0 0.0 0.0 0.0 0.0 0.0 0.31427170654075526 -0.03113421699611842 0.4809 -1.3229671017855493 1.0118174445877266 -1.011817444587727 0.022391806982987046 0.22602499988844663 0.0 0.0 0.0 0.7192025091165353 
0.736 0.27069427111147115 -1.5707963267948966 -1.5707963267948966 0.0 1.5707963267948966 0.0 0.7112025091165353 0.0 0.0 0.0 0.0 0.0 -1.0 0.0 0.0 0.0 0.0 0.0 0.3144446995973484 -0.02933557388450618 0.4809 -1.3251738343391288 1.0075096821444578 -1.007509682144458 0.0208635337530343 0.22363385933202937 0.0 0.0 0.0 0.7112025091165353 
0.744 0.2763518911844034 -1.5707963267948966 -1.5707963267948966 0.0 1.5707963267948966 0.0 0.7032025091165353 0.0 0.0 0.0 0.0 0.0 -1.0 0.0 0.0 0.0 0.0 0.0 0.31460563577951495 -0.02755610523581259 0.4809 -1.327345659028822 1.003248375313765 -1.0032483753137653 0.019377522343302707 0.22123147246235772 0.0 0.0 0.0 0.7032025091165353 
0.752 0.2819455112573357 -1.5707963267948966 -1.5707963267948966 0.0 1.5707963267948966 0.0 0.6952025091165352 0.0 0.0 0.0 0.0 0.0 -1.0 0.0 0.0 0.0 0.0 0.0 0.31475485158926253 -0.02579589891865147 0.4809 -1.3294829300472628 0.999033592087036 -0.9990335920870365 0.01793337365316302 0.21881836258145798 0.0 0.0 0.0 0.6952025091165352 
0.76 0.287475131330268 -1.5707963267948966 -1.5707963267948966 0.0 1.5707963267948966 0.0 0.6872025091165352 0.0 0.0 0.0 0.0 0.0 -1.0 0.0 0.0 0.0 0.0 0.0 0.3148926803130229 -0.024055038667196427 0.4809 -1.3315859970171628 0.9948653991102787 -0.9948653991102789 0.016530682928992662 0.21639504001354035 0.0 0.0 0.0 0.6872025091165352 
0.768 0.29294075140320025 -1.5707963267948966 -1.5707963267948966 0.0 1.5707963267948966 0.0 0.6792025091165352 0.0 0.0 0.0 0.0 0.0 -1.0 0.0 0.0 0.0 0.0 0.0 0.3150194519773741 -0.022333604184611236 0.4809 -1.3336552050141421 0.9907438617065052 -0.9907438617065054 0.015169039999803503 0.21396200220354836 0.0 0.0 0.0 0.6792025091165352 
0.776 0.2983423714761325 -1.5707963267948966 -1.5707963267948966 0.0 1.5707963267948966 0.0 0.6712025091165352 0.0 0.0 0.0 0.0 0.0 -1.0 0.0 0.0 0.0 0.0 0.0 0.31513549330662555 -0.02063167124567845 0.4809 -1.3356908945890877 0.9866690438976826 -0.9866690438976828 0.013848029507366848 0.21151973381908415 0.0 0.0 0.0 0.6712025091165352 
0.784 0.30367999154906483 -1.5707963267948966 -1.5707963267948966 0.0 1.5707963267948966 0.0 0.6632025091165352 0.0 0.0 0.0 0.0 0.0 -1.0 0.0 0.0 0.0 0.0 0.0 0.3152411276822227 -0.01894931179859983 0.4809 -1.3376934017900441 0.9826410084262595 -0.9826410084262599 0.012567231130862971 0.20906870685557613 0.0 0.0 0.0 0.6632025091165352 
0.792 0.3089536116219971 -1.5707963267948966 -1.5707963267948966 0.0 1.5707963267948966 0.0 0.6552025091165352 0.0 0.0 0.0 0.0 0.0 -1.0 0.0 0.0 0.0 0.0 0.0 0.3153366751039265 -0.01728659406594235 0.4809 -1.3396630581836453 0.9786598167762739 -0.9786598167762741 0.011326219806084437 0.20660938074455829 0.0 0.0 0.0 0.6552025091165352 
0.8 0.3141632316949294 -1.5707963267948966 -1.5707963267948966 0.0 1.5707963267948966 0.0 0.6472025091165352 0.0 0.0 0.0 0.0 0.0 -1.0 0.0 0.0 0.0 0.0 0.0 0.3154224521527252 -0.01564358264470639 0.4809 -1.3416001908760937 0.9747255291940536 -0.9747255291940539 0.010124565939225859 0.204142202464934 0.0 0.0 0.0 0.6472025091165352 
0.808 0.3193088517678617 -1.5707963267948966 -1.5707963267948966 0.0 1.5707963267948966 0.0 0.6392025091165352 0.0 0.0 0.0 0.0 0.0 -1.0 0.0 0.0 0.0 0.0 0.0 0.3154987719554346 -0.014020338605492205 0.4809 -1.3435051225336962 0.9708382047085129 -0.9708382047085131 0.008961835615294041 0.20166760665709932 0.0 0.0 0.0 0.6392025091165352 
0.816 0.324390471840794 -1.5707963267948966 -1.5707963267948966 0.0 1.5707963267948966 0.0 0.6312025091165352 0.0 0.0 0.0 0.0 0.0 -1.0 0.0 0.0 0.0 0.0 0.0 0.3155659441509445 -0.012416919590742238 0.4809 -1.3453781714029622 0.9669979011510534 -0.9669979011510537 0.007837590801174762 0.1991860157398046 0.0 0.0 0.0 0.6312025091165352 
0.824 0.3294080919137263 -1.5707963267948966 -1.5707963267948966 0.0 1.5707963267948966 0.0 0.6232025091165352 0.0 0.0 0.0 0.0 0.0 -1.0 0.0 0.0 0.0 0.0 0.0 0.31562427485806827 -0.010833379912038074 0.4809 -1.3472196513302759 0.9632046751750782 -0.9632046751750785 0.006751389543394797 0.19669784002963508 0.0 0.0 0.0 0.6232025091165352 
0.832 0.33436171198665854 -1.5707963267948966 -1.5707963267948966 0.0 1.5707963267948966 0.0 0.6152025091165352 0.0 0.0 0.0 0.0 0.0 -1.0 0.0 0.0 0.0 0.0 0.0 0.31567406664495345 -0.009269770646431464 0.4809 -1.3490298717811435 0.9594585822751246 -0.9594585822751248 0.005702786160619443 0.19420347786299572 0.0 0.0 0.0 0.6152025091165352 
0.84 0.33925133205959074 -1.5707963267948966 -1.5707963267948966 0.0 1.5707963267948966 0.0 0.6072025091165353 0.0 0.0 0.0 0.0 0.0 -1.0 0.0 0.0 0.0 0.0 0.0 0.3157156185000115 -0.007726139731789875 0.4809 -1.3508091378590252 0.9557596768056195 -0.9557596768056197 0.004691331430927767 0.19170331572048582 0.0 0.0 0.0 0.6072025091165353 
0.848 0.34407695213252304 -1.5707963267948966 -1.5707963267948966 0.0 1.5707963267948966 0.0 0.5992025091165353 0.0 0.0 0.0 0.0 0.0 -1.0 0.0 0.0 0.0 0.0 0.0 0.3157492258043249 -0.006202532061137689 0.4809 -1.352557750323764 0.95210801199927 -0.9521080119992702 0.0037165727739094582 0.18919772835355494 0.0 0.0 0.0 0.5992025091165353 
0.856 0.3488385722054553 -1.5707963267948966 -1.5707963267948966 0.0 1.5707963267948966 0.0 0.5912025091165353 0.0 0.0 0.0 0.0 0.0 -1.0 0.0 0.0 0.0 0.0 0.0 0.31577518030549023 -0.004698989575975601 0.4809 -1.3542760056096073 0.9485036399850867 -0.9485036399850869 0.0027780544276292196 0.18668707891333217 0.0 0.0 0.0 0.5912025091165353 
0.864 0.3535361922783876 -1.5707963267948966 -1.5707963267948966 0.0 1.5707963267948966 0.0 0.5832025091165353 0.0 0.0 0.0 0.0 0.0 -1.0 0.0 0.0 0.0 0.0 0.0 0.31579377009285736 -0.0032155513585608794 0.4809 -1.3559641958428414 0.9449466118060571 -0.9449466118060573 0.0018753176205057887 0.1841717190815247 0.0 0.0 0.0 0.5832025091165353 
0.872 0.3581698123513199 -1.5707963267948966 -1.5707963267948966 0.0 1.5707963267948966 0.0 0.5752025091165353 0.0 0.0 0.0 0.0 0.0 -1.0 0.0 0.0 0.0 0.0 0.0 0.31580527957412263 -0.0017522537231326012 0.4809 -1.3576226088590306 0.9414369774364614 -0.9414369774364616 0.0010079007381546628 0.18165198920328424 0.0 0.0 0.0 0.5752025091165353 
0.88 0.3627394324242522 -1.5707963267948966 -1.5707963267948966 0.0 1.5707963267948966 0.0 0.5672025091165352 0.0 0.0 0.0 0.0 0.0 -1.0 0.0 0.0 0.0 0.0 0.0 0.3158099894532373 -0.00030913030606630545 0.4809 -1.3592515282198832 0.93797478579885 -0.9379747857988502 0.00017533948524477096 0.17912821842194274 0.0 0.0 0.0 0.5672025091165352 
0.888 0.3672450524971845 -1.5707963267948966 -1.5707963267948966 0.0 1.5707963267948966 0.0 0.5592025091165352 0.0 0.0 0.0 0.0 0.0 -1.0 0.0 0.0 0.0 0.0 0.0 0.3158081767095909 0.001113787845056259 0.4809 -1.3608512332297378 0.9345600847806785 -0.9345600847806788 -0.0006228329575789589 0.17660072481552136 0.0 0.0 0.0 0.5592025091165352 
0.896 0.3716866725701168 -1.5707963267948966 -1.5707963267948966 0.0 1.5707963267948966 0.0 0.5512025091165352 0.0 0.0 0.0 0.0 0.0 -1.0 0.0 0.0 0.0 0.0 0.0 0.31580011457843044 0.0025164721834764446 0.4809 -1.3624219989516835 0.931192921250608 -0.9311929212506083 -0.0013870857816541823 0.17406981553492018 0.0 0.0 0.0 0.5512025091165352 
0.904 0.376064292643049 -1.5707963267948966 -1.5707963267948966 0.0 1.5707963267948966 0.0 0.5432025091165352 0.0 0.0 0.0 0.0 0.0 -1.0 0.0 0.0 0.0 0.0 0.0 0.3157860725324765 0.003898896576399663 0.4809 -1.3639640962233182 0.9278733410744805 -0.9278733410744807 -0.002117890403086166 0.17153578694369742 0.0 0.0 0.0 0.5432025091165352 
0.912 0.38037791271598137 -1.5707963267948966 -1.5707963267948966 0.0 1.5707963267948966 0.0 0.5352025091165352 0.0 0.0 0.0 0.0 0.0 -1.0 0.0 0.0 0.0 0.0 0.0 0.31576631626469837 0.005261037219260932 0.4809 -1.3654777916721486 0.9246013891309687 -0.9246013891309689 -0.00281572032030393 0.16899892475935197 0.0 0.0 0.0 0.5352025091165352 
0.92 0.38462753278891365 -1.5707963267948966 -1.5707963267948966 0.0 1.5707963267948966 0.0 0.5272025091165352 0.0 0.0 0.0 0.0 0.0 -1.0 0.0 0.0 0.0 0.0 0.0 0.3157411076722091 0.006602872551126175 0.4809 -1.3669633477306455 0.9213771093269071 -0.9213771093269074 -0.0034810509763304174 0.16645950419602273 0.0 0.0 0.0 0.5272025091165352 
0.928 0.3888131528618459 -1.5707963267948966 -1.5707963267948966 0.0 1.5707963267948966 0.0 0.5192025091165352 0.0 0.0 0.0 0.0 0.0 -1.0 0.0 0.0 0.0 0.0 0.0 0.3157107048412444 0.007924383171240765 0.4809 -1.3684210226509486 0.9182005446123107 -0.9182005446123109 -0.004114359625709051 0.16391779010852395 0.0 0.0 0.0 0.5192025091165352 
0.936 0.39293477293477824 -1.5707963267948966 -1.5707963267948966 0.0 1.5707963267948966 0.0 0.5112025091165352 0.0 0.0 0.0 0.0 0.0 -1.0 0.0 0.0 0.0 0.0 0.0 0.31567536203318713 0.009225551756735114 0.4809 -1.3698510705192375 0.9150717369950851 -0.9150717369950854 -0.004716125206027449 0.1613740371376359 0.0 0.0 0.0 0.5112025091165352 
0.944 0.3969923930077105 -1.5707963267948966 -1.5707963267948966 0.0 1.5707963267948966 0.0 0.5032025091165352 0.0 0.0 0.0 0.0 0.0 -1.0 0.0 0.0 0.0 0.0 0.0 0.3156353296716022 0.010506362981497607 0.4809 -1.3712537412697683 0.9119907275554306 -0.9119907275554309 -0.005286828213978677 0.158828489856575 0.0 0.0 0.0 0.5032025091165352 
0.952 0.4009860130806428 -1.5707963267948966 -1.5707963267948966 0.0 1.5707963267948966 0.0 0.4952025091165352 0.0 0.0 0.0 0.0 0.0 -1.0 0.0 0.0 0.0 0.0 0.0 0.3155908543302439 0.01176680343622372 0.4809 -1.3726292806985836 0.9089575564599492 -0.9089575564599495 -0.005826950585899054 0.15628138291856775 0.0 0.0 0.0 0.4952025091165352 
0.96 0.404915633153575 -1.5707963267948966 -1.5707963267948966 0.0 1.5707963267948966 0.0 0.4872025091165353 0.0 0.0 0.0 0.0 0.0 -1.0 0.0 0.0 0.0 0.0 0.0 0.3155421787220026 0.013006861549649678 0.4809 -1.3739779304769015 0.9059722629754541 -0.9059722629754544 -0.006336975582720709 0.15373294120545786 0.0 0.0 0.0 0.4872025091165353 
0.968 0.40878125322650727 -1.5707963267948966 -1.5707963267948966 0.0 1.5707963267948966 0.0 0.4792025091165353 0.0 0.0 0.0 0.0 0.0 -1.0 0.0 0.0 0.0 0.0 0.0 0.3154895416887529 0.014226527510979376 0.4809 -1.375299928164184 0.9030348854824882 -0.9030348854824884 -0.006817387679276734 0.15118337997727613 0.0 0.0 0.0 0.4792025091165353 
0.976 0.41258287329943955 -1.5707963267948966 -1.5707963267948966 0.0 1.5707963267948966 0.0 0.4712025091165353 0.0 0.0 0.0 0.0 0.0 -1.0 0.0 0.0 0.0 0.0 0.0 0.3154331781920713 0.015425793193510843 0.4809 -1.3765955072209022 0.9001454614885566 -0.9001454614885568 -0.007268672457895081 0.14863290502270715 0.0 0.0 0.0 0.4712025091165353 
0.984 0.4163204933723718 -1.5707963267948966 -1.5707963267948966 0.0 1.5707963267948966 0.0 0.46320250911653527 0.0 0.0 0.0 0.0 0.0 -1.0 0.0 0.0 0.0 0.0 0.0 0.31537331930478796 0.01660465207947028 0.4809 -1.377864897020988 0.8973040276410753 -0.8973040276410755 -0.007691316506217728 0.14608171281038804 0.0 0.0 0.0 0.46320250911653527 
0.992 0.4199941134453041 -1.5707963267948966 -1.5707963267948966 0.0 1.5707963267948966 0.0 0.45520250911653526 0.0 0.0 0.0 0.0 0.0 -1.0 0.0 0.0 0.0 0.0 0.0 0.3153101922033384 0.01776309918605948 0.4809 -1.3791083228639878 0.8945106197400399 -0.8945106197400401 -0.008085807319180162 0.14352999064097663 0.0 0.0 0.0 0.45520250911653526 
1.0 0.42360373351823644 -1.5707963267948966 -1.5707963267948966 0.0 1.5707963267948966 0.0 0.44720250911653525 0.0 0.0 0.0 0.0 0.0 -1.0 0.0 0.0 0.0 0.0 0.0 0.31524402016088415 0.018901130992722632 0.4809 -1.380326005986922 0.8917652727504203 -0.8917652727504205 -0.00845263320508587 0.14097791679993102 0.0 0.0 0.0 0.44720250911653525 
1.008 0.42714935359116873 -1.5707963267948966 -1.5707963267948966 0.0 1.5707963267948966 0.0 0.43920250911653524 0.0 0.0 0.0 0.0 0.0 -1.0 0.0 0.0 0.0 0.0 0.0 0.3151750225411677 0.020018745369637932 0.4809 -1.3815181635758493 0.8890680208142817 -0.8890680208142819 -0.008792283195710002 0.1384256607109414 0.0 0.0 0.0 0.43920250911653524 
1.016 0.43063097366410097 -1.5707963267948966 -1.5707963267948966 0.0 1.5707963267948966 0.0 0.43120250911653524 0.0 0.0 0.0 0.0 0.0 -1.0 0.0 0.0 0.0 0.0 0.0 0.31510341479307136 0.02111594150743932 0.4809 -1.3826850087771478 0.8864188972626389 -0.8864188972626391 -0.009105246960365828 0.13587338308996075 0.0 0.0 0.0 0.43120250911653524 
1.024 0.43404859373703325 -1.5707963267948966 -1.5707963267948966 0.0 1.5707963267948966 0.0 0.42320250911653523 0.0 0.0 0.0 0.0 0.0 -1.0 0.0 0.0 0.0 0.0 0.0 0.3150294084458473 0.022192719848172587 0.4809 -1.3838267507085136 0.8838179346270443 -0.8838179346270444 -0.009392014723866972 0.1333212360997804 0.0 0.0 0.0 0.42320250911653523 
1.032 0.4374022138099656 -1.5707963267948966 -1.5707963267948966 0.0 1.5707963267948966 0.0 0.4152025091165352 0.0 0.0 0.0 0.0 0.0 -1.0 0.0 0.0 0.0 0.0 0.0 0.3149532111049894 0.023249082017489826 0.4809 -1.3849435944696797 0.881265164650915 -0.8812651646509152 -0.009653077188317895 0.1307693635051014 0.0 0.0 0.0 0.4152025091165352 
1.04 0.4406918338828979 -1.5707963267948966 -1.5707963267948966 0.0 1.5707963267948966 0.0 0.4072025091165352 0.0 0.0 0.0 0.0 0.0 -1.0 0.0 0.0 0.0 0.0 0.0 0.3148750264487147 0.024285030758086724 0.4809 -1.386035741152866 0.878760618300602 -0.8787606183006021 -0.009888925458665147 0.128217900828052 0.0 0.0 0.0 0.4072025091165352 
1.048 0.44391745395583015 -1.5707963267948966 -1.5707963267948966 0.0 1.5707963267948966 0.0 0.3992025091165352 0.0 0.0 0.0 0.0 0.0 -1.0 0.0 0.0 0.0 0.0 0.0 0.31479505422502646 0.025300569864385225 0.4809 -1.3871033878529575 0.8763043257762024 -0.8763043257762025 -0.010100050971940779 0.12566697550410633 0.0 0.0 0.0 0.3992025091165352 
1.056 0.44707907402876246 -1.5707963267948966 -1.5707963267948966 0.0 1.5707963267948966 0.0 0.3912025091165352 0.0 0.0 0.0 0.0 0.0 -1.0 0.0 0.0 0.0 0.0 0.0 0.3147134902493284 0.02629570411846531 0.4809 -1.3881467276774195 0.8738963165221216 -0.8738963165221217 -0.010286945430129637 0.1231167070383595 0.0 0.0 0.0 0.3912025091165352 
1.064 0.4501766941016947 -1.5707963267948966 -1.5707963267948966 0.0 1.5707963267948966 0.0 0.3832025091165352 0.0 0.0 0.0 0.0 0.0 -1.0 0.0 0.0 0.0 0.0 0.0 0.3146305264025615 0.02727043922724802 0.4809 -1.3891659497559543 0.8715366192373859 -0.871536619237386 -0.010450100736591429 0.12056720716211784 0.0 0.0 0.0 0.3832025091165352 
1.072 0.453210314174627 -1.5707963267948966 -1.5707963267948966 0.0 1.5707963267948966 0.0 0.3752025091165352 0.0 0.0 0.0 0.0 0.0 -1.0 0.0 0.0 0.0 0.0 0.0 0.31454635062983594 0.028224781760932623 0.4809 -1.3901612392498972 0.8692252618857055 -0.8692252618857056 -0.010590008935968538 0.1180185799897639 0.0 0.0 0.0 0.3752025091165352 
1.08 0.4561799342475593 -1.5707963267948966 -1.5707963267948966 0.0 1.5707963267948966 0.0 0.3672025091165352 0.0 0.0 0.0 0.0 0.0 -1.0 0.0 0.0 0.0 0.0 0.0 0.31446114693952965 0.029158739092689238 0.4809 -1.391132777361367 0.8669622717052999 -0.8669622717053 -0.01070716215750989 0.11547092217585875 0.0 0.0 0.0 0.3672025091165352 
1.088 0.4590855543204916 -1.5707963267948966 -1.5707963267948966 0.0 1.5707963267948966 0.0 0.3592025091165352 0.0 0.0 0.0 0.0 0.0 -1.0 0.0 0.0 0.0 0.0 0.0 0.31437509540282693 0.030072319339609462 0.4809 -1.3920807413421616 0.8647476752184767 -0.8647476752184768 -0.010802052561741425 0.11292432307244556 0.0 0.0 0.0 0.3592025091165352 
1.096 0.46192717439342385 -1.5707963267948966 -1.5707963267948966 0.0 1.5707963267948966 0.0 0.35120250911653517 0.0 0.0 0.0 0.0 0.0 -1.0 0.0 0.0 0.0 0.0 0.0 0.3142883721536707 0.030965531304916093 0.4809 -1.3930053045024147 0.862581498240975 -0.8625814982409751 -0.010875172290413149 0.11037886488652054 0.0 0.0 0.0 0.35120250911653517 
1.104 0.46470479446635615 -1.5707963267948966 -1.5707963267948966 0.0 1.5707963267948966 0.0 0.34320250911653516 0.0 0.0 0.0 0.0 0.0 -1.0 0.0 0.0 0.0 0.0 0.0 0.3142011493891024 0.03183838442143302 0.4809 -1.3939066362190091 0.860463765891074 -0.8604637658910741 -0.010927013419652616 0.10783462283763923 0.0 0.0 0.0 0.34320250911653516 
1.112 0.4674184145392884 -1.5707963267948966 -1.5707963267948966 0.0 1.5707963267948966 0.0 0.33520250911653515 0.0 0.0 0.0 0.0 0.0 -1.0 0.0 0.0 0.0 0.0 0.0 0.3141135953699633 0.03269088869631635 0.4809 -1.394784901943752 0.8583945025984648 -0.8583945025984648 -0.010958067916254617 0.10529166531562775 0.0 0.0 0.0 0.33520250911653515 
1.12 0.4700680346122207 -1.5707963267948966 -1.5707963267948966 0.0 1.5707963267948966 0.0 0.32720250911653515 0.0 0.0 0.0 0.0 0.0 -1.0 0.0 0.0 0.0 0.0 0.0 0.31402587442193447 0.03352305465704807 0.4809 -1.3956402632113205 0.8563737321128951 -0.8563737321128952 -0.010968827597036877 0.10275005403837094 0.0 0.0 0.0 0.32720250911653515 
1.128 0.47265365468515297 -1.5707963267948966 -1.5707963267948966 0.0 1.5707963267948966 0.0 0.31920250911653514 0.0 0.0 0.0 0.0 0.0 -1.0 0.0 0.0 0.0 0.0 0.0 0.3139381469368886 0.03433489329869142 0.4809 -1.3964728776469733 0.8544014775125831 -0.8544014775125832 -0.010959784091190809 0.10020984420965033 0.0 0.0 0.0 0.31920250911653514 
1.136 0.47517527475808524 -1.5707963267948966 -1.5707963267948966 0.0 1.5707963267948966 0.0 0.31120250911653513 0.0 0.0 0.0 0.0 0.0 -1.0 0.0 0.0 0.0 0.0 0.0 0.3138505693745322 0.03512641603240965 0.4809 -1.397282898974037 0.8524777612124049 -0.852477761212405 -0.010931428805557171 0.0976710846770076 0.0 0.0 0.0 0.31120250911653513 
1.144 0.4776328948310176 -1.5707963267948966 -1.5707963267948966 0.0 1.5707963267948966 0.0 0.3032025091165351 0.0 0.0 0.0 0.0 0.0 -1.0 0.0 0.0 0.0 0.0 0.0 0.3137632942643136 0.0358976346352478 0.4809 -1.3980704770211705 0.85060260497186 -0.8506026049718601 -0.010884252892755769 0.09513381808960963 0.0 0.0 0.0 0.3032025091165351 
1.152 0.48002651490394976 -1.5707963267948966 -1.5707963267948966 0.0 1.5707963267948966 0.0 0.2952025091165351 0.0 0.0 0.0 0.0 0.0 -1.0 0.0 0.0 0.0 0.0 0.0 0.31367647020757483 0.036648561201176676 0.4809 -1.3988357577294053 0.8487760299028109 -0.8487760299028109 -0.010818747222098253 0.09259808105609417 0.0 0.0 0.0 0.2952025091165351 
1.16 0.48235613497688207 -1.5707963267948966 -1.5707963267948966 0.0 1.5707963267948966 0.0 0.28720250911653533 0.0 0.0 0.0 0.0 0.0 -1.0 0.0 0.0 0.0 0.0 0.0 0.3135902418799256 0.0373792080934003 0.4809 -1.3995788831589726 0.8469980564770058 -0.8469980564770059 -0.01073540235321367 0.09006390430237586 0.0 0.0 0.0 0.28720250911653533 
1.168 0.4846217550498143 -1.5707963267948966 -1.5707963267948966 0.0 1.5707963267948966 0.0 0.2792025091165353 0.0 0.0 0.0 0.0 0.0 -1.0 0.0 0.0 0.0 0.0 0.0 0.3135047500338172 0.03808958789792483 0.4809 -1.4002999914959156 0.8452687045333831 -0.8452687045333832 -0.010634708512315431 0.08753131282939398 0.0 0.0 0.0 0.2792025091165353 
1.176 0.4868233751227466 -1.5707963267948966 -1.5707963267948966 0.0 1.5707963267948966 0.0 0.2712025091165353 0.0 0.0 0.0 0.0 0.0 -1.0 0.0 0.0 0.0 0.0 0.0 0.3134201315012964 0.03877971337838978 0.4809 -1.400999217058486 0.8435879932851557 -0.8435879932851558 -0.010517155571039381 0.08500032607078603 0.0 0.0 0.0 0.2712025091165353 
1.184 0.48896099519567887 -1.5707963267948966 -1.5707963267948966 0.0 1.5707963267948966 0.0 0.2632025091165353 0.0 0.0 0.0 0.0 0.0 -1.0 0.0 0.0 0.0 0.0 0.0 0.3133365191969179 0.03944959743215971 0.4809 -1.4016766903033393 0.841955941326687 -0.841955941326687 -0.010383233027781663 0.08247095805047022 0.0 0.0 0.0 0.2632025091165353 
1.192 0.49103461526861114 -1.5707963267948966 -1.5707963267948966 0.0 1.5707963267948966 0.0 0.2552025091165353 0.0 0.0 0.0 0.0 0.0 -1.0 0.0 0.0 0.0 0.0 0.0 0.3132540421207975 0.04009925304767677 0.4809 -1.4023325378315192 0.8403725666401476 -0.8403725666401477 -0.010233429991465986 0.07994321754012436 0.0 0.0 0.0 0.2552025091165353 
1.2 0.49304423534154346 -1.5707963267948966 -1.5707963267948966 0.0 1.5707963267948966 0.0 0.2472025091165353 0.0 0.0 0.0 0.0 0.0 -1.0 0.0 0.0 0.0 0.0 0.0 0.3131728253617842 0.040728693263072 0.4809 -1.4029668823942407 0.8388378866019663 -0.8388378866019665 -0.010068235167669125 0.07741710821654757 0.0 0.0 0.0 0.2472025091165353 
1.208 0.4949898554144757 -1.5707963267948966 -1.5707963267948966 0.0 1.5707963267948966 0.0 0.2392025091165353 0.0 0.0 0.0 0.0 0.0 -1.0 0.0 0.0 0.0 0.0 0.0 0.31309299010073527 0.041337931126035586 0.4809 -1.4035798428984716 0.8373519179890686 -0.8373519179890687 -0.009888136847034235 0.07489262881889443 0.0 0.0 0.0 0.2392025091165353 
1.216 0.496871475487408 -1.5707963267948966 -1.5707963267948966 0.0 1.5707963267948966 0.0 0.23120250911653528 0.0 0.0 0.0 0.0 0.0 -1.0 0.0 0.0 0.0 0.0 0.0 0.3130146536138746 0.04192697965494403 0.4809 -1.4041715344123211 0.8359146769849088 -0.835914676984909 -0.009693622895900988 0.07236977330577098 0.0 0.0 0.0 0.23120250911653528 
1.224 0.49868909556034025 -1.5707963267948966 -1.5707963267948966 0.0 1.5707963267948966 0.0 0.22320250911653527 0.0 0.0 0.0 0.0 0.0 -1.0 0.0 0.0 0.0 0.0 0.0 0.31293792927621716 0.04249585180124372 0.4809 -1.404742068170223 0.8345261791852936 -0.8345261791852937 -0.009485180749082034 0.06984853101218454 0.0 0.0 0.0 0.22320250911653527 
1.232 0.5004427156332727 -1.5707963267948966 -1.5707963267948966 0.0 1.5707963267948966 0.0 0.21520250911653527 0.0 0.0 0.0 0.0 0.0 -1.0 0.0 0.0 0.0 0.0 0.0 0.3128629265650436 0.043044560413089475 0.4809 -1.4052915515779372 0.8331864396040038 -0.833186439604004 -0.00926329740471514 0.06732888680633971 0.0 0.0 0.0 0.21520250911653527 
1.24 0.5021323357062049 -1.5707963267948966 -1.5707963267948966 0.0 1.5707963267948966 0.0 0.20720250911653526 0.0 0.0 0.0 0.0 0.0 -1.0 0.0 0.0 0.0 0.0 0.0 0.3127897510634071 0.04357311820023645 0.4809 -1.405820088217354 0.8318954726782117 -0.8318954726782118 -0.009028459421120362 0.06481082124627441 0.0 0.0 0.0 0.20720250911653526 
1.248 0.5037579557791372 -1.5707963267948966 -1.5707963267948966 0.0 1.5707963267948966 0.0 0.19920250911653525 0.0 0.0 0.0 0.0 0.0 -1.0 0.0 0.0 0.0 0.0 0.0 0.31271850446365834 0.04408153770018548 0.4809 -1.4063277778511079 0.8306532922736931 -0.8306532922736932 -0.00878115291559209 0.06229431073633117 0.0 0.0 0.0 0.19920250911653525 
1.256 0.5053195758520694 -1.5707963267948966 -1.5707963267948966 0.0 1.5707963267948966 0.0 0.19120250911653525 0.0 0.0 0.0 0.0 0.0 -1.0 0.0 0.0 0.0 0.0 0.0 0.3126492845709721 0.04456983124557806 0.4809 -1.4068147164270117 0.8294599116898427 -0.8294599116898428 -0.008521863565055077 0.05977932768345951 0.0 0.0 0.0 0.19120250911653525 
1.264 0.5068171959250019 -1.5707963267948966 -1.5707963267948966 0.0 1.5707963267948966 0.0 0.18320250911653524 0.0 0.0 0.0 0.0 0.0 -1.0 0.0 0.0 0.0 0.0 0.0 0.31258218530686155 0.04503801093284247 0.4809 -1.407280996082299 0.828315343664487 -0.8283153436644871 -0.008251076608514688 0.05726584065334681 0.0 0.0 0.0 0.18320250911653524 
1.272 0.508250815997934 -1.5707963267948966 -1.5707963267948966 0.0 1.5707963267948966 0.0 0.17520250911653523 0.0 0.0 0.0 0.0 0.0 -1.0 0.0 0.0 0.0 0.0 0.0 0.3125172967126664 0.04548608859208705 0.4809 -1.4077267051476898 0.8272196003785012 -0.8272196003785012 -0.00796927685123066 0.054753814526375885 0.0 0.0 0.0 0.17520250911653523 
1.28 0.5096204360708664 -1.5707963267948966 -1.5707963267948966 0.0 1.5707963267948966 0.0 0.16720250911653523 0.0 0.0 0.0 0.0 0.0 -1.0 0.0 0.0 0.0 0.0 0.0 0.3124547049530002 0.04591407575824171 0.4809 -1.408151928151272 0.8261726934602246 -0.8261726934602247 -0.007676948670544699 0.05224321065340834 0.0 0.0 0.0 0.16720250911653523 
1.288 0.5109260561437985 -1.5707963267948966 -1.5707963267948966 0.0 1.5707963267948966 0.0 0.15920250911653522 0.0 0.0 0.0 0.0 0.0 -1.0 0.0 0.0 0.0 0.0 0.0 0.3123944923191453 0.046321983643443525 0.4809 -1.4085567458222035 0.8251746339896846 -0.8251746339896847 -0.007374576023291313 0.04973398701139412 0.0 0.0 0.0 0.15920250911653522 
1.296 0.5121676762167309 -1.5707963267948966 -1.5707963267948966 0.0 1.5707963267948966 0.0 0.1512025091165352 0.0 0.0 0.0 0.0 0.0 -1.0 0.0 0.0 0.0 0.0 0.0 0.31233673723238203 0.04670982311066808 0.4809 -1.4089412350942403 0.8242254325026204 -0.8242254325026205 -0.007062642454722538 0.04722609835880811 0.0 0.0 0.0 0.1512025091165352 
1.304 0.5133452962896631 -1.5707963267948966 -1.5707963267948966 0.0 1.5707963267948966 0.0 0.1432025091165352 0.0 0.0 0.0 0.0 0.0 -1.0 0.0 0.0 0.0 0.0 0.0 0.31228151424724115 0.04707760464860215 0.4809 -1.409305469109088 0.8233250989943178 -0.8233250989943179 -0.00674163110887609 0.04471949639091597 0.0 0.0 0.0 0.1432025091165352 
1.312 0.5144589163625954 -1.5707963267948966 -1.5707963267948966 0.0 1.5707963267948966 0.0 0.1352025091165352 0.0 0.0 0.0 0.0 0.0 -1.0 0.0 0.0 0.0 0.0 0.0 0.31222889405466714 0.047425338347759076 0.4809 -1.4096495172195764 0.8224736429232443 -0.8224736429232444 -0.006412024740317663 0.04221412989487183 0.0 0.0 0.0 0.1352025091165352 
1.32 0.5155085364355277 -1.5707963267948966 -1.5707963267948966 0.0 1.5707963267948966 0.0 0.1272025091165352 0.0 0.0 0.0 0.0 0.0 -1.0 0.0 0.0 0.0 0.0 0.0 0.31217894348508274 0.04775303387783329 0.4809 -1.4099734449926644 0.8216710732144978 -0.821671073214498 -0.006074305727187303 0.03970994490465156 0.0 0.0 0.0 0.1272025091165352 
1.328 0.51649415650846 -1.5707963267948966 -1.5707963267948966 0.0 1.5707963267948966 0.0 0.11920250911653518 0.0 0.0 0.0 0.0 0.0 -1.0 0.0 0.0 0.0 0.0 0.0 0.3121317255113442 0.04806070046629443 0.4809 -1.410277314212273 0.8209173982630579 -0.820917398263058 -0.005728956085480528 0.037206884855825864 0.0 0.0 0.0 0.11920250911653518 
1.336 0.5174157765813923 -1.5707963267948966 -1.5707963267948966 0.0 1.5707963267948966 0.0 0.11120250911653518 0.0 0.0 0.0 0.0 0.0 -1.0 0.0 0.0 0.0 0.0 0.0 0.3120872992515771 0.048348346878218464 0.4809 -1.4105611828819506 0.8202126259368508 -0.8202126259368508 -0.005376457484494493 0.034704890740178344 0.0 0.0 0.0 0.11120250911653518 
1.344 0.5182733966543246 -1.5707963267948966 -1.5707963267948966 0.0 1.5707963267948966 0.0 0.10320250911653517 0.0 0.0 0.0 0.0 0.0 -1.0 0.0 0.0 0.0 0.0 0.0 0.31204571997188485 0.04861598139735545 0.4809 -1.4108251052273648 0.819556763579621 -0.8195567635796212 -0.00501729126336988 0.03220390126017423 0.0 0.0 0.0 0.10320250911653517 
1.352 0.5190670167272569 -1.5707963267948966 -1.5707963267948966 0.0 1.5707963267948966 0.0 0.09520250911653516 0.0 0.0 0.0 0.0 0.0 -1.0 0.0 0.0 0.0 0.0 0.0 0.3120070390889199 0.048863611808432315 0.4809 -1.411069131698631 0.8189498180136147 -0.8189498180136148 -0.004651938448659113 0.02970385298328604 0.0 0.0 0.0 0.09520250911653516 
1.36 0.5197966368001892 -1.5707963267948966 -1.5707963267948966 0.0 1.5707963267948966 0.0 0.08720250911653515 0.0 0.0 0.0 0.0 0.0 -1.0 0.0 0.0 0.0 0.0 0.0 0.31197130417231145 0.04909124538068984 0.4809 -1.4112933089724733 0.8183917955420729 -0.818391795542073 -0.00428087977285167 0.02720468049618335 0.0 0.0 0.0 0.08720250911653515 
1.368 0.5204622568731214 -1.5707963267948966 -1.5707963267948966 0.0 1.5707963267948966 0.0 0.07920250911653515 0.0 0.0 0.0 0.0 0.0 -1.0 0.0 0.0 0.0 0.0 0.0 0.3119385589469404 0.04929888885265249 0.4809 -1.4114976799542214 0.817882701951539 -0.8178827019515391 -0.003904595693787262 0.02470631655879388 0.0 0.0 0.0 0.07920250911653515 
1.376 0.5210638769460536 -1.5707963267948966 -1.5707963267948966 0.0 1.5707963267948966 0.0 0.07120250911653514 0.0 0.0 0.0 0.0 0.0 -1.0 0.0 0.0 0.0 0.0 0.0 0.3119088432950563 0.04948654841813044 0.4809 -1.4116822837796394 0.8174225425139735 -0.8174225425139736 -0.00352356641488779 0.022208692258244178 0.0 0.0 0.0 0.07120250911653514 
1.384 0.521601497018986 -1.5707963267948966 -1.5707963267948966 0.0 1.5707963267948966 0.0 0.06320250911653513 0.0 0.0 0.0 0.0 0.0 -1.0 0.0 0.0 0.0 0.0 0.0 0.3118821932582296 0.04965422971345241 0.4809 -1.4118471558165953 0.8170113219886872 -0.8170113219886873 -0.0031382719061390056 0.019711737162688227 0.0 0.0 0.0 0.06320250911653513 
1.392 0.5220751170919182 -1.5707963267948966 -1.5707963267948966 0.0 1.5707963267948966 0.0 0.055202509116535126 0.0 0.0 0.0 0.0 0.0 -1.0 0.0 0.0 0.0 0.0 0.0 0.3118586410391323 0.049801937805928904 0.4809 -1.411992327666567 0.8166490446240832 -0.8166490446240833 -0.0027491919257529055 0.017215379475032957 0.0 0.0 0.0 0.055202509116535126 
1.4 0.5224847371648507 -1.5707963267948966 -1.5707963267948966 0.0 1.5707963267948966 0.0 0.04720250911653512 0.0 0.0 0.0 0.0 0.0 -1.0 0.0 0.0 0.0 0.0 0.0 0.31183821500314385 0.04992967718354489 0.4809 -1.4121178271659836 0.8163357141592138 -0.8163357141592139 -0.002356806042441933 0.014719546186569937 0.0 0.0 0.0 0.04720250911653512 
1.408 0.5228303572377828 -1.5707963267948966 -1.5707963267948966 0.0 1.5707963267948966 0.0 0.03920250911653533 0.0 0.0 0.0 0.0 0.0 -1.0 0.0 0.0 0.0 0.0 0.0 0.3118209396797762 0.05003745174588087 0.4809 -1.4122236783874071 0.8160713338251517 -0.8160713338251518 -0.0019615936582360917 0.012224163230523041 0.0 0.0 0.0 0.03920250911653533 
1.416 0.5231119773107151 -1.5707963267948966 -1.5707963267948966 0.0 1.5707963267948966 0.0 0.031202509116535326 0.0 0.0 0.0 0.0 0.0 -1.0 0.0 0.0 0.0 0.0 0.0 0.3118068357639141 0.05012526479626276 0.4809 -1.4123099016405565 0.8158559063461742 -0.8158559063461743 -0.001564034031774136 0.009729155635521562 0.0 0.0 0.0 0.031202509116535326 
1.424 0.5233295973836473 -1.5707963267948966 -1.5707963267948966 0.0 1.5707963267948966 0.0 0.02320250911653532 0.0 0.0 0.0 0.0 0.0 -1.0 0.0 0.0 0.0 0.0 0.0 0.31179592011686813 0.050193119035138296 0.4809 -1.4123765134731647 0.8156894339407633 -0.8156894339407634 -0.0011646063020001388 0.007234447679010151 0.0 0.0 0.0 0.02320250911653532 
1.432 0.5234832174565797 -1.5707963267948966 -1.5707963267948966 0.0 1.5707963267948966 0.0 0.015202509116535312 0.0 0.0 0.0 0.0 0.0 -1.0 0.0 0.0 0.0 0.0 0.0 0.31178820576723587 0.05024101655468139 0.4809 -1.4124235266716807 0.8155719183224184 -0.8155719183224185 -0.0007637895121965453 0.004739963040604591 0.0 0.0 0.0 0.015202509116535312 
1.44 0.5235728375295121 -1.5707963267948966 -1.5707963267948966 0.0 1.5707963267948966 0.0 0.007202509116535305 0.0 0.0 0.0 0.0 0.0 -1.0 0.0 0.0 0.0 0.0 0.0 0.3117837019115704 0.05026895883462249 0.4809 -1.4124509502618114 0.8155033607002864 -0.8155033607002865 -0.00036206263428510644 0.002245624955405212 0.0 0.0 0.0 0.007202509116535305 
1.448 0.5235984576024442 -1.5707963267948966 -1.5707963267948966 0.0 1.5707963267948966 0.0 -0.0007974908834647021 0.0 0.0 0.0 0.0 0.0 -1.0 0.0 0.0 0.0 0.0 0.0 0.31178241391485345 0.05027694673930565 0.4809 -1.4124587895089027 0.8154837617796055 -0.8154837617796056 4.009540667303663e-05 -0.0002486436327217139 0.0 0.0 0.0 -0.0007974908834647021 
