Fleaurent/UniversalRobot/csv/robolib_movej_Dreieck_Zeit.csv
timestamp target_q_0 target_q_1 target_q_2 target_q_3 target_q_4 target_q_5 target_qd_0 target_qd_1 target_qd_2 target_qd_3 target_qd_4 target_qd_5 target_qdd_0 target_qdd_1 target_qdd_2 target_qdd_3 target_qdd_4 target_qdd_5 target_current_0 target_current_1 target_current_2 target_current_3 target_current_4 target_current_5 target_moment_0 target_moment_1 target_moment_2 target_moment_3 target_moment_4 target_moment_5 actual_q_0 actual_q_1 actual_q_2 actual_q_3 actual_q_4 actual_q_5 actual_qd_0 actual_qd_1 actual_qd_2 actual_qd_3 actual_qd_4 actual_qd_5 actual_current_0 actual_current_1 actual_current_2 actual_current_3 actual_current_4 actual_current_5 joint_control_output_0 joint_control_output_1 joint_control_output_2 joint_control_output_3 joint_control_output_4 joint_control_output_5 actual_TCP_pose_0 actual_TCP_pose_1 actual_TCP_pose_2 actual_TCP_pose_3 actual_TCP_pose_4 actual_TCP_pose_5 actual_TCP_speed_0 actual_TCP_speed_1 actual_TCP_speed_2 actual_TCP_speed_3 actual_TCP_speed_4 actual_TCP_speed_5 actual_TCP_force_0 actual_TCP_force_1 actual_TCP_force_2 actual_TCP_force_3 actual_TCP_force_4 actual_TCP_force_5 target_TCP_pose_0 target_TCP_pose_1 target_TCP_pose_2 target_TCP_pose_3 target_TCP_pose_4 target_TCP_pose_5 target_TCP_speed_0 target_TCP_speed_1 target_TCP_speed_2 target_TCP_speed_3 target_TCP_speed_4 target_TCP_speed_5

5770.504 7.41594285980085e-17 -1.5707963267948966 -1.5707963267948966 0.0 1.5707963267948966 0.0 0.0 0.0 0.0 0.0 0.0 0.0 0.0 0.0 0.0 0.0 0.0 0.0 -1.6018983243994446e-26 0.4870342307692309 0.6867077006507593 0.06409467546754684 -8.567713817370151e-28 0.0 -2.1032924999364705e-25 6.394759450000002 6.3947594500000005 0.2913103000000004 -3.894025929994733e-27 0.0 7.41594285980085e-17 -1.570796314870016 -1.570796314870016 0.0 1.5707963705062866 0.0 0.0 0.0 0.0 0.0 0.0 0.0 -1.6018983942199055e-26 0.48703423142433167 0.6867076754570007 0.064094677567482 -8.567714098795418e-28 0.0 -1.6018983942199055e-26 0.48703423142433167 0.6867076754570007 0.064094677567482 -8.567714098795418e-28 0.0 0.2951499950589256 -0.11234999647001061 0.4809000069994156 -1.2091995794109558 1.2091995265551612 -1.2091995551462713 0.0 0.0 0.0 0.0 0.0 0.0 9.98197363699076e-07 -5.258967243140418e-07 1.1449168978424664e-06 -1.8103060445482418e-15 1.8116749963477937e-08 4.30709452948295e-08 0.2951500000000001 -0.11235000004997343 0.4808999999601586 -1.2091995763071837 1.2091995763071837 -1.209199576059172 0.0 0.0 0.0 0.0 0.0 0.0
5770.512 7.41594285980085e-17 -1.5707963267948966 -1.5707963267948966 0.0 1.5707963267948966 0.0 0.0 0.0 0.0 0.0 0.0 0.0 0.0 0.0 0.0 0.0 0.0 0.0 -1.6018983243994446e-26 0.4870342307692309 0.6867077006507593 0.06409467546754684 -8.567713817370151e-28 0.0 -2.1032924999364705e-25 6.394759450000002 6.3947594500000005 0.2913103000000004 -3.894025929994733e-27 0.0 7.41594285980085e-17 -1.570796314870016 -1.570796314870016 0.0 1.5707963705062866 0.0 0.0 0.0 0.0 0.0 0.0 0.0 -1.6018983942199055e-26 0.48703423142433167 0.6867076754570007 0.064094677567482 -8.567714098795418e-28 0.0 -1.6018983942199055e-26 0.48703423142433167 0.6867076754570007 0.064094677567482 -8.567714098795418e-28 0.0 0.2951499950589256 -0.11234999647001061 0.4809000069994156 -1.2091995794109558 1.2091995265551612 -1.2091995551462713 0.0 0.0 0.0 0.0 0.0 0.0 9.98197363699076e-07 -5.258967243140418e-07 1.1449168978424664e-06 -1.8103060445482418e-15 1.8116749963477937e-08 4.30709452948295e-08 0.2951500000000001 -0.11235000004997343 0.4808999999601586 -1.2091995763071837 1.2091995763071837 -1.209199576059172 0.0 0.0 0.0 0.0 0.0 0.0
5770.5199999999995 7.41594285980085e-17 -1.5707963267948966 -1.5707963267948966 0.0 1.5707963267948966 0.0 0.0 0.0 0.0 0.0 0.0 0.0 0.0 0.0 0.0 0.0 0.0 0.0 -1.6018983243994446e-26 0.4870342307692309 0.6867077006507593 0.06409467546754684 -8.567713817370151e-28 0.0 -2.1032924999364705e-25 6.394759450000002 6.3947594500000005 0.2913103000000004 -3.894025929994733e-27 0.0 7.41594285980085e-17 -1.570796314870016 -1.570796314870016 0.0 1.5707963705062866 0.0 0.0 0.0 0.0 0.0 0.0 0.0 -1.6018983942199055e-26 0.48703423142433167 0.6867076754570007 0.064094677567482 -8.567714098795418e-28 0.0 -1.6018983942199055e-26 0.48703423142433167 0.6867076754570007 0.064094677567482 -8.567714098795418e-28 0.0 0.2951499950589256 -0.11234999647001061 0.4809000069994156 -1.2091995794109558 1.2091995265551612 -1.2091995551462713 0.0 0.0 0.0 0.0 0.0 0.0 9.98197363699076e-07 -5.258967243140418e-07 1.1449168978424664e-06 -1.8103060445482418e-15 1.8116749963477937e-08 4.30709452948295e-08 0.2951500000000001 -0.11235000004997343 0.4808999999601586 -1.2091995763071837 1.2091995763071837 -1.209199576059172 0.0 0.0 0.0 0.0 0.0 0.0
5770.527999999999 7.41594285980085e-17 -1.5707963267948966 -1.5707963267948966 0.0 1.5707963267948966 0.0 0.0 0.0 0.0 0.0 0.0 0.0 0.0 0.0 0.0 0.0 0.0 0.0 -1.6018983243994446e-26 0.4870342307692309 0.6867077006507593 0.06409467546754684 -8.567713817370151e-28 0.0 -2.1032924999364705e-25 6.394759450000002 6.3947594500000005 0.2913103000000004 -3.894025929994733e-27 0.0 7.41594285980085e-17 -1.570796314870016 -1.570796314870016 0.0 1.5707963705062866 0.0 0.0 0.0 0.0 0.0 0.0 0.0 -1.6018983942199055e-26 0.48703423142433167 0.6867076754570007 0.064094677567482 -8.567714098795418e-28 0.0 -1.6018983942199055e-26 0.48703423142433167 0.6867076754570007 0.064094677567482 -8.567714098795418e-28 0.0 0.2951499950589256 -0.11234999647001061 0.4809000069994156 -1.2091995794109558 1.2091995265551612 -1.2091995551462713 0.0 0.0 0.0 0.0 0.0 0.0 9.98197363699076e-07 -5.258967243140418e-07 1.1449168978424664e-06 -1.8103060445482418e-15 1.8116749963477937e-08 4.30709452948295e-08 0.2951500000000001 -0.11235000004997343 0.4808999999601586 -1.2091995763071837 1.2091995763071837 -1.209199576059172 0.0 0.0 0.0 0.0 0.0 0.0
5770.536 7.41594285980085e-17 -1.5707963267948966 -1.5707963267948966 0.0 1.5707963267948966 0.0 0.0 0.0 0.0 0.0 0.0 0.0 0.0 0.0 0.0 0.0 0.0 0.0 -1.6018983243994446e-26 0.4870342307692309 0.6867077006507593 0.06409467546754684 -8.567713817370151e-28 0.0 -2.1032924999364705e-25 6.394759450000002 6.3947594500000005 0.2913103000000004 -3.894025929994733e-27 0.0 7.41594285980085e-17 -1.570796314870016 -1.570796314870016 0.0 1.5707963705062866 0.0 0.0 0.0 0.0 0.0 0.0 0.0 -1.6018983942199055e-26 0.48703423142433167 0.6867076754570007 0.064094677567482 -8.567714098795418e-28 0.0 -1.6018983942199055e-26 0.48703423142433167 0.6867076754570007 0.064094677567482 -8.567714098795418e-28 0.0 0.2951499950589256 -0.11234999647001061 0.4809000069994156 -1.2091995794109558 1.2091995265551612 -1.2091995551462713 0.0 0.0 0.0 0.0 0.0 0.0 9.98197363699076e-07 -5.258967243140418e-07 1.1449168978424664e-06 -1.8103060445482418e-15 1.8116749963477937e-08 4.30709452948295e-08 0.2951500000000001 -0.11235000004997343 0.4808999999601586 -1.2091995763071837 1.2091995763071837 -1.209199576059172 0.0 0.0 0.0 0.0 0.0 0.0
5770.544 7.41594285980085e-17 -1.5707963267948966 -1.5707963267948966 0.0 1.5707963267948966 0.0 0.0 0.0 0.0 0.0 0.0 0.0 0.0 0.0 0.0 0.0 0.0 0.0 -1.6018983243994446e-26 0.4870342307692309 0.6867077006507593 0.06409467546754684 -8.567713817370151e-28 0.0 -2.1032924999364705e-25 6.394759450000002 6.3947594500000005 0.2913103000000004 -3.894025929994733e-27 0.0 7.41594285980085e-17 -1.570796314870016 -1.570796314870016 0.0 1.5707963705062866 0.0 0.0 0.0 0.0 0.0 0.0 0.0 -1.6018983942199055e-26 0.48703423142433167 0.6867076754570007 0.064094677567482 -8.567714098795418e-28 0.0 -1.6018983942199055e-26 0.48703423142433167 0.6867076754570007 0.064094677567482 -8.567714098795418e-28 0.0 0.2951499950589256 -0.11234999647001061 0.4809000069994156 -1.2091995794109558 1.2091995265551612 -1.2091995551462713 0.0 0.0 0.0 0.0 0.0 0.0 9.98197363699076e-07 -5.258967243140418e-07 1.1449168978424664e-06 -1.8103060445482418e-15 1.8116749963477937e-08 4.30709452948295e-08 0.2951500000000001 -0.11235000004997343 0.4808999999601586 -1.2091995763071837 1.2091995763071837 -1.209199576059172 0.0 0.0 0.0 0.0 0.0 0.0
5770.552 7.41594285980085e-17 -1.5707963267948966 -1.5707963267948966 0.0 1.5707963267948966 0.0 0.0 0.0 0.0 0.0 0.0 0.0 0.0 0.0 0.0 0.0 0.0 0.0 -1.6018983243994446e-26 0.4870342307692309 0.6867077006507593 0.06409467546754684 -8.567713817370151e-28 0.0 -2.1032924999364705e-25 6.394759450000002 6.3947594500000005 0.2913103000000004 -3.894025929994733e-27 0.0 7.41594285980085e-17 -1.570796314870016 -1.570796314870016 0.0 1.5707963705062866 0.0 0.0 0.0 0.0 0.0 0.0 0.0 -1.6018983942199055e-26 0.48703423142433167 0.6867076754570007 0.064094677567482 -8.567714098795418e-28 0.0 -1.6018983942199055e-26 0.48703423142433167 0.6867076754570007 0.064094677567482 -8.567714098795418e-28 0.0 0.2951499950589256 -0.11234999647001061 0.4809000069994156 -1.2091995794109558 1.2091995265551612 -1.2091995551462713 0.0 0.0 0.0 0.0 0.0 0.0 9.98197363699076e-07 -5.258967243140418e-07 1.1449168978424664e-06 -1.8103060445482418e-15 1.8116749963477937e-08 4.30709452948295e-08 0.2951500000000001 -0.11235000004997343 0.4808999999601586 -1.2091995763071837 1.2091995763071837 -1.209199576059172 0.0 0.0 0.0 0.0 0.0 0.0
5770.5599999999995 7.41594285980085e-17 -1.5707963267948966 -1.5707963267948966 0.0 1.5707963267948966 0.0 0.0 0.0 0.0 0.0 0.0 0.0 0.0 0.0 0.0 0.0 0.0 0.0 -1.6018983243994446e-26 0.4870342307692309 0.6867077006507593 0.06409467546754684 -8.567713817370151e-28 0.0 -2.1032924999364705e-25 6.394759450000002 6.3947594500000005 0.2913103000000004 -3.894025929994733e-27 0.0 7.41594285980085e-17 -1.570796314870016 -1.570796314870016 0.0 1.5707963705062866 0.0 0.0 0.0 0.0 0.0 0.0 0.0 -1.6018983942199055e-26 0.48703423142433167 0.6867076754570007 0.064094677567482 -8.567714098795418e-28 0.0 -1.6018983942199055e-26 0.48703423142433167 0.6867076754570007 0.064094677567482 -8.567714098795418e-28 0.0 0.2951499950589256 -0.11234999647001061 0.4809000069994156 -1.2091995794109558 1.2091995265551612 -1.2091995551462713 0.0 0.0 0.0 0.0 0.0 0.0 9.98197363699076e-07 -5.258967243140418e-07 1.1449168978424664e-06 -1.8103060445482418e-15 1.8116749963477937e-08 4.30709452948295e-08 0.2951500000000001 -0.11235000004997343 0.4808999999601586 -1.2091995763071837 1.2091995763071837 -1.209199576059172 0.0 0.0 0.0 0.0 0.0 0.0
5770.567999999999 7.41594285980085e-17 -1.5707963267948966 -1.5707963267948966 0.0 1.5707963267948966 0.0 0.0 0.0 0.0 0.0 0.0 0.0 0.0 0.0 0.0 0.0 0.0 0.0 -1.6018983243994446e-26 0.4870342307692309 0.6867077006507593 0.06409467546754684 -8.567713817370151e-28 0.0 -2.1032924999364705e-25 6.394759450000002 6.3947594500000005 0.2913103000000004 -3.894025929994733e-27 0.0 7.41594285980085e-17 -1.570796314870016 -1.570796314870016 0.0 1.5707963705062866 0.0 0.0 0.0 0.0 0.0 0.0 0.0 -1.6018983942199055e-26 0.48703423142433167 0.6867076754570007 0.064094677567482 -8.567714098795418e-28 0.0 -1.6018983942199055e-26 0.48703423142433167 0.6867076754570007 0.064094677567482 -8.567714098795418e-28 0.0 0.2951499950589256 -0.11234999647001061 0.4809000069994156 -1.2091995794109558 1.2091995265551612 -1.2091995551462713 0.0 0.0 0.0 0.0 0.0 0.0 9.98197363699076e-07 -5.258967243140418e-07 1.1449168978424664e-06 -1.8103060445482418e-15 1.8116749963477937e-08 4.30709452948295e-08 0.2951500000000001 -0.11235000004997343 0.4808999999601586 -1.2091995763071837 1.2091995763071837 -1.209199576059172 0.0 0.0 0.0 0.0 0.0 0.0
5770.576 7.41594285980085e-17 -1.5707963267948966 -1.5707963267948966 0.0 1.5707963267948966 0.0 0.0 0.0 0.0 0.0 0.0 0.0 0.0 0.0 0.0 0.0 0.0 0.0 -1.6018983243994446e-26 0.4870342307692309 0.6867077006507593 0.06409467546754684 -8.567713817370151e-28 0.0 -2.1032924999364705e-25 6.394759450000002 6.3947594500000005 0.2913103000000004 -3.894025929994733e-27 0.0 7.41594285980085e-17 -1.570796314870016 -1.570796314870016 0.0 1.5707963705062866 0.0 0.0 0.0 0.0 0.0 0.0 0.0 -1.6018983942199055e-26 0.48703423142433167 0.6867076754570007 0.064094677567482 -8.567714098795418e-28 0.0 -1.6018983942199055e-26 0.48703423142433167 0.6867076754570007 0.064094677567482 -8.567714098795418e-28 0.0 0.2951499950589256 -0.11234999647001061 0.4809000069994156 -1.2091995794109558 1.2091995265551612 -1.2091995551462713 0.0 0.0 0.0 0.0 0.0 0.0 9.98197363699076e-07 -5.258967243140418e-07 1.1449168978424664e-06 -1.8103060445482418e-15 1.8116749963477937e-08 4.30709452948295e-08 0.2951500000000001 -0.11235000004997343 0.4808999999601586 -1.2091995763071837 1.2091995763071837 -1.209199576059172 0.0 0.0 0.0 0.0 0.0 0.0
5770.584 7.41594285980085e-17 -1.5707963267948966 -1.5707963267948966 0.0 1.5707963267948966 0.0 0.0 0.0 0.0 0.0 0.0 0.0 0.0 0.0 0.0 0.0 0.0 0.0 -1.6018983243994446e-26 0.4870342307692309 0.6867077006507593 0.06409467546754684 -8.567713817370151e-28 0.0 -2.1032924999364705e-25 6.394759450000002 6.3947594500000005 0.2913103000000004 -3.894025929994733e-27 0.0 7.41594285980085e-17 -1.570796314870016 -1.570796314870016 0.0 1.5707963705062866 0.0 0.0 0.0 0.0 0.0 0.0 0.0 -1.6018983942199055e-26 0.48703423142433167 0.6867076754570007 0.064094677567482 -8.567714098795418e-28 0.0 -1.6018983942199055e-26 0.48703423142433167 0.6867076754570007 0.064094677567482 -8.567714098795418e-28 0.0 0.2951499950589256 -0.11234999647001061 0.4809000069994156 -1.2091995794109558 1.2091995265551612 -1.2091995551462713 0.0 0.0 0.0 0.0 0.0 0.0 9.98197363699076e-07 -5.258967243140418e-07 1.1449168978424664e-06 -1.8103060445482418e-15 1.8116749963477937e-08 4.30709452948295e-08 0.2951500000000001 -0.11235000004997343 0.4808999999601586 -1.2091995763071837 1.2091995763071837 -1.209199576059172 0.0 0.0 0.0 0.0 0.0 0.0
5770.592 7.41594285980085e-17 -1.5707963267948966 -1.5707963267948966 0.0 1.5707963267948966 0.0 0.0 0.0 0.0 0.0 0.0 0.0 0.0 0.0 0.0 0.0 0.0 0.0 -1.6018983243994446e-26 0.4870342307692309 0.6867077006507593 0.06409467546754684 -8.567713817370151e-28 0.0 -2.1032924999364705e-25 6.394759450000002 6.3947594500000005 0.2913103000000004 -3.894025929994733e-27 0.0 7.41594285980085e-17 -1.570796314870016 -1.570796314870016 0.0 1.5707963705062866 0.0 0.0 0.0 0.0 0.0 0.0 0.0 -1.6018983942199055e-26 0.48703423142433167 0.6867076754570007 0.064094677567482 -8.567714098795418e-28 0.0 -1.6018983942199055e-26 0.48703423142433167 0.6867076754570007 0.064094677567482 -8.567714098795418e-28 0.0 0.2951499950589256 -0.11234999647001061 0.4809000069994156 -1.2091995794109558 1.2091995265551612 -1.2091995551462713 0.0 0.0 0.0 0.0 0.0 0.0 9.98197363699076e-07 -5.258967243140418e-07 1.1449168978424664e-06 -1.8103060445482418e-15 1.8116749963477937e-08 4.30709452948295e-08 0.2951500000000001 -0.11235000004997343 0.4808999999601586 -1.2091995763071837 1.2091995763071837 -1.209199576059172 0.0 0.0 0.0 0.0 0.0 0.0
5770.599999999999 7.41594285980085e-17 -1.5707963267948966 -1.5707963267948966 0.0 1.5707963267948966 0.0 0.0 0.0 0.0 0.0 0.0 0.0 0.0 0.0 0.0 0.0 0.0 0.0 -1.6018983243994446e-26 0.4870342307692309 0.6867077006507593 0.06409467546754684 -8.567713817370151e-28 0.0 -2.1032924999364705e-25 6.394759450000002 6.3947594500000005 0.2913103000000004 -3.894025929994733e-27 0.0 7.41594285980085e-17 -1.570796314870016 -1.570796314870016 0.0 1.5707963705062866 0.0 0.0 0.0 0.0 0.0 0.0 0.0 -1.6018983942199055e-26 0.48703423142433167 0.6867076754570007 0.064094677567482 -8.567714098795418e-28 0.0 -1.6018983942199055e-26 0.48703423142433167 0.6867076754570007 0.064094677567482 -8.567714098795418e-28 0.0 0.2951499950589256 -0.11234999647001061 0.4809000069994156 -1.2091995794109558 1.2091995265551612 -1.2091995551462713 0.0 0.0 0.0 0.0 0.0 0.0 9.98197363699076e-07 -5.258967243140418e-07 1.1449168978424664e-06 -1.8103060445482418e-15 1.8116749963477937e-08 4.30709452948295e-08 0.2951500000000001 -0.11235000004997343 0.4808999999601586 -1.2091995763071837 1.2091995763071837 -1.209199576059172 0.0 0.0 0.0 0.0 0.0 0.0
5770.608 7.41594285980085e-17 -1.5707963267948966 -1.5707963267948966 0.0 1.5707963267948966 0.0 0.0 0.0 0.0 0.0 0.0 0.0 0.0 0.0 0.0 0.0 0.0 0.0 -1.6018983243994446e-26 0.4870342307692309 0.6867077006507593 0.06409467546754684 -8.567713817370151e-28 0.0 -2.1032924999364705e-25 6.394759450000002 6.3947594500000005 0.2913103000000004 -3.894025929994733e-27 0.0 7.41594285980085e-17 -1.570796314870016 -1.570796314870016 0.0 1.5707963705062866 0.0 0.0 0.0 0.0 0.0 0.0 0.0 -1.6018983942199055e-26 0.48703423142433167 0.6867076754570007 0.064094677567482 -8.567714098795418e-28 0.0 -1.6018983942199055e-26 0.48703423142433167 0.6867076754570007 0.064094677567482 -8.567714098795418e-28 0.0 0.2951499950589256 -0.11234999647001061 0.4809000069994156 -1.2091995794109558 1.2091995265551612 -1.2091995551462713 0.0 0.0 0.0 0.0 0.0 0.0 9.98197363699076e-07 -5.258967243140418e-07 1.1449168978424664e-06 -1.8103060445482418e-15 1.8116749963477937e-08 4.30709452948295e-08 0.2951500000000001 -0.11235000004997343 0.4808999999601586 -1.2091995763071837 1.2091995763071837 -1.209199576059172 0.0 0.0 0.0 0.0 0.0 0.0
5770.616 7.41594285980085e-17 -1.5707963267948966 -1.5707963267948966 0.0 1.5707963267948966 0.0 0.0 0.0 0.0 0.0 0.0 0.0 0.0 0.0 0.0 0.0 0.0 0.0 -1.6018983243994446e-26 0.4870342307692309 0.6867077006507593 0.06409467546754684 -8.567713817370151e-28 0.0 -2.1032924999364705e-25 6.394759450000002 6.3947594500000005 0.2913103000000004 -3.894025929994733e-27 0.0 7.41594285980085e-17 -1.570796314870016 -1.570796314870016 0.0 1.5707963705062866 0.0 0.0 0.0 0.0 0.0 0.0 0.0 -1.6018983942199055e-26 0.48703423142433167 0.6867076754570007 0.064094677567482 -8.567714098795418e-28 0.0 -1.6018983942199055e-26 0.48703423142433167 0.6867076754570007 0.064094677567482 -8.567714098795418e-28 0.0 0.2951499950589256 -0.11234999647001061 0.4809000069994156 -1.2091995794109558 1.2091995265551612 -1.2091995551462713 0.0 0.0 0.0 0.0 0.0 0.0 9.98197363699076e-07 -5.258967243140418e-07 1.1449168978424664e-06 -1.8103060445482418e-15 1.8116749963477937e-08 4.30709452948295e-08 0.2951500000000001 -0.11235000004997343 0.4808999999601586 -1.2091995763071837 1.2091995763071837 -1.209199576059172 0.0 0.0 0.0 0.0 0.0 0.0
5770.624 7.41594285980085e-17 -1.5707963267948966 -1.5707963267948966 0.0 1.5707963267948966 0.0 0.0 0.0 0.0 0.0 0.0 0.0 0.0 0.0 0.0 0.0 0.0 0.0 -1.6018983243994446e-26 0.4870342307692309 0.6867077006507593 0.06409467546754684 -8.567713817370151e-28 0.0 -2.1032924999364705e-25 6.394759450000002 6.3947594500000005 0.2913103000000004 -3.894025929994733e-27 0.0 7.41594285980085e-17 -1.570796314870016 -1.570796314870016 0.0 1.5707963705062866 0.0 0.0 0.0 0.0 0.0 0.0 0.0 -1.6018983942199055e-26 0.48703423142433167 0.6867076754570007 0.064094677567482 -8.567714098795418e-28 0.0 -1.6018983942199055e-26 0.48703423142433167 0.6867076754570007 0.064094677567482 -8.567714098795418e-28 0.0 0.2951499950589256 -0.11234999647001061 0.4809000069994156 -1.2091995794109558 1.2091995265551612 -1.2091995551462713 0.0 0.0 0.0 0.0 0.0 0.0 9.98197363699076e-07 -5.258967243140418e-07 1.1449168978424664e-06 -1.8103060445482418e-15 1.8116749963477937e-08 4.30709452948295e-08 0.2951500000000001 -0.11235000004997343 0.4808999999601586 -1.2091995763071837 1.2091995763071837 -1.209199576059172 0.0 0.0 0.0 0.0 0.0 0.0
5770.632 7.41594285980085e-17 -1.5707963267948966 -1.5707963267948966 0.0 1.5707963267948966 0.0 0.0 0.0 0.0 0.0 0.0 0.0 0.0 0.0 0.0 0.0 0.0 0.0 -1.6018983243994446e-26 0.4870342307692309 0.6867077006507593 0.06409467546754684 -8.567713817370151e-28 0.0 -2.1032924999364705e-25 6.394759450000002 6.3947594500000005 0.2913103000000004 -3.894025929994733e-27 0.0 7.41594285980085e-17 -1.570796314870016 -1.570796314870016 0.0 1.5707963705062866 0.0 0.0 0.0 0.0 0.0 0.0 0.0 -1.6018983942199055e-26 0.48703423142433167 0.6867076754570007 0.064094677567482 -8.567714098795418e-28 0.0 -1.6018983942199055e-26 0.48703423142433167 0.6867076754570007 0.064094677567482 -8.567714098795418e-28 0.0 0.2951499950589256 -0.11234999647001061 0.4809000069994156 -1.2091995794109558 1.2091995265551612 -1.2091995551462713 0.0 0.0 0.0 0.0 0.0 0.0 9.98197363699076e-07 -5.258967243140418e-07 1.1449168978424664e-06 -1.8103060445482418e-15 1.8116749963477937e-08 4.30709452948295e-08 0.2951500000000001 -0.11235000004997343 0.4808999999601586 -1.2091995763071837 1.2091995763071837 -1.209199576059172 0.0 0.0 0.0 0.0 0.0 0.0
5770.639999999999 7.41594285980085e-17 -1.5707963267948966 -1.5707963267948966 0.0 1.5707963267948966 0.0 0.0 0.0 0.0 0.0 0.0 0.0 0.0 0.0 0.0 0.0 0.0 0.0 -1.6018983243994446e-26 0.4870342307692309 0.6867077006507593 0.06409467546754684 -8.567713817370151e-28 0.0 -2.1032924999364705e-25 6.394759450000002 6.3947594500000005 0.2913103000000004 -3.894025929994733e-27 0.0 7.41594285980085e-17 -1.570796314870016 -1.570796314870016 0.0 1.5707963705062866 0.0 0.0 0.0 0.0 0.0 0.0 0.0 -1.6018983942199055e-26 0.48703423142433167 0.6867076754570007 0.064094677567482 -8.567714098795418e-28 0.0 -1.6018983942199055e-26 0.48703423142433167 0.6867076754570007 0.064094677567482 -8.567714098795418e-28 0.0 0.2951499950589256 -0.11234999647001061 0.4809000069994156 -1.2091995794109558 1.2091995265551612 -1.2091995551462713 0.0 0.0 0.0 0.0 0.0 0.0 9.98197363699076e-07 -5.258967243140418e-07 1.1449168978424664e-06 -1.8103060445482418e-15 1.8116749963477937e-08 4.30709452948295e-08 0.2951500000000001 -0.11235000004997343 0.4808999999601586 -1.2091995763071837 1.2091995763071837 -1.209199576059172 0.0 0.0 0.0 0.0 0.0 0.0
5770.648 7.41594285980085e-17 -1.5707963267948966 -1.5707963267948966 0.0 1.5707963267948966 0.0 0.0 0.0 0.0 0.0 0.0 0.0 0.0 0.0 0.0 0.0 0.0 0.0 -1.6018983243994446e-26 0.4870342307692309 0.6867077006507593 0.06409467546754684 -8.567713817370151e-28 0.0 -2.1032924999364705e-25 6.394759450000002 6.3947594500000005 0.2913103000000004 -3.894025929994733e-27 0.0 7.41594285980085e-17 -1.570796314870016 -1.570796314870016 0.0 1.5707963705062866 0.0 0.0 0.0 0.0 0.0 0.0 0.0 -1.6018983942199055e-26 0.48703423142433167 0.6867076754570007 0.064094677567482 -8.567714098795418e-28 0.0 -1.6018983942199055e-26 0.48703423142433167 0.6867076754570007 0.064094677567482 -8.567714098795418e-28 0.0 0.2951499950589256 -0.11234999647001061 0.4809000069994156 -1.2091995794109558 1.2091995265551612 -1.2091995551462713 0.0 0.0 0.0 0.0 0.0 0.0 9.98197363699076e-07 -5.258967243140418e-07 1.1449168978424664e-06 -1.8103060445482418e-15 1.8116749963477937e-08 4.30709452948295e-08 0.2951500000000001 -0.11235000004997343 0.4808999999601586 -1.2091995763071837 1.2091995763071837 -1.209199576059172 0.0 0.0 0.0 0.0 0.0 0.0
5770.656 7.41594285980085e-17 -1.5707963267948966 -1.5707963267948966 0.0 1.5707963267948966 0.0 0.0 0.0 0.0 0.0 0.0 0.0 0.0 0.0 0.0 0.0 0.0 0.0 -1.6018983243994446e-26 0.4870342307692309 0.6867077006507593 0.06409467546754684 -8.567713817370151e-28 0.0 -2.1032924999364705e-25 6.394759450000002 6.3947594500000005 0.2913103000000004 -3.894025929994733e-27 0.0 7.41594285980085e-17 -1.570796314870016 -1.570796314870016 0.0 1.5707963705062866 0.0 0.0 0.0 0.0 0.0 0.0 0.0 -1.6018983942199055e-26 0.48703423142433167 0.6867076754570007 0.064094677567482 -8.567714098795418e-28 0.0 -1.6018983942199055e-26 0.48703423142433167 0.6867076754570007 0.064094677567482 -8.567714098795418e-28 0.0 0.2951499950589256 -0.11234999647001061 0.4809000069994156 -1.2091995794109558 1.2091995265551612 -1.2091995551462713 0.0 0.0 0.0 0.0 0.0 0.0 9.98197363699076e-07 -5.258967243140418e-07 1.1449168978424664e-06 -1.8103060445482418e-15 1.8116749963477937e-08 4.30709452948295e-08 0.2951500000000001 -0.11235000004997343 0.4808999999601586 -1.2091995763071837 1.2091995763071837 -1.209199576059172 0.0 0.0 0.0 0.0 0.0 0.0
5770.664 7.41594285980085e-17 -1.5707963267948966 -1.5707963267948966 0.0 1.5707963267948966 0.0 0.0 0.0 0.0 0.0 0.0 0.0 0.0 0.0 0.0 0.0 0.0 0.0 -1.6018983243994446e-26 0.4870342307692309 0.6867077006507593 0.06409467546754684 -8.567713817370151e-28 0.0 -2.1032924999364705e-25 6.394759450000002 6.3947594500000005 0.2913103000000004 -3.894025929994733e-27 0.0 7.41594285980085e-17 -1.570796314870016 -1.570796314870016 0.0 1.5707963705062866 0.0 0.0 0.0 0.0 0.0 0.0 0.0 -1.6018983942199055e-26 0.48703423142433167 0.6867076754570007 0.064094677567482 -8.567714098795418e-28 0.0 -1.6018983942199055e-26 0.48703423142433167 0.6867076754570007 0.064094677567482 -8.567714098795418e-28 0.0 0.2951499950589256 -0.11234999647001061 0.4809000069994156 -1.2091995794109558 1.2091995265551612 -1.2091995551462713 0.0 0.0 0.0 0.0 0.0 0.0 9.98197363699076e-07 -5.258967243140418e-07 1.1449168978424664e-06 -1.8103060445482418e-15 1.8116749963477937e-08 4.30709452948295e-08 0.2951500000000001 -0.11235000004997343 0.4808999999601586 -1.2091995763071837 1.2091995763071837 -1.209199576059172 0.0 0.0 0.0 0.0 0.0 0.0
5770.672 7.41594285980085e-17 -1.5707963267948966 -1.5707963267948966 0.0 1.5707963267948966 0.0 0.0 0.0 0.0 0.0 0.0 0.0 0.0 0.0 0.0 0.0 0.0 0.0 -1.6018983243994446e-26 0.4870342307692309 0.6867077006507593 0.06409467546754684 -8.567713817370151e-28 0.0 -2.1032924999364705e-25 6.394759450000002 6.3947594500000005 0.2913103000000004 -3.894025929994733e-27 0.0 7.41594285980085e-17 -1.570796314870016 -1.570796314870016 0.0 1.5707963705062866 0.0 0.0 0.0 0.0 0.0 0.0 0.0 -1.6018983942199055e-26 0.48703423142433167 0.6867076754570007 0.064094677567482 -8.567714098795418e-28 0.0 -1.6018983942199055e-26 0.48703423142433167 0.6867076754570007 0.064094677567482 -8.567714098795418e-28 0.0 0.2951499950589256 -0.11234999647001061 0.4809000069994156 -1.2091995794109558 1.2091995265551612 -1.2091995551462713 0.0 0.0 0.0 0.0 0.0 0.0 9.98197363699076e-07 -5.258967243140418e-07 1.1449168978424664e-06 -1.8103060445482418e-15 1.8116749963477937e-08 4.30709452948295e-08 0.2951500000000001 -0.11235000004997343 0.4808999999601586 -1.2091995763071837 1.2091995763071837 -1.209199576059172 0.0 0.0 0.0 0.0 0.0 0.0
5770.679999999999 7.41594285980085e-17 -1.5707963267948966 -1.5707963267948966 0.0 1.5707963267948966 0.0 0.0 0.0 0.0 0.0 0.0 0.0 0.0 0.0 0.0 0.0 0.0 0.0 -1.6018983243994446e-26 0.4870342307692309 0.6867077006507593 0.06409467546754684 -8.567713817370151e-28 0.0 -2.1032924999364705e-25 6.394759450000002 6.3947594500000005 0.2913103000000004 -3.894025929994733e-27 0.0 7.41594285980085e-17 -1.570796314870016 -1.570796314870016 0.0 1.5707963705062866 0.0 0.0 0.0 0.0 0.0 0.0 0.0 -1.6018983942199055e-26 0.48703423142433167 0.6867076754570007 0.064094677567482 -8.567714098795418e-28 0.0 -1.6018983942199055e-26 0.48703423142433167 0.6867076754570007 0.064094677567482 -8.567714098795418e-28 0.0 0.2951499950589256 -0.11234999647001061 0.4809000069994156 -1.2091995794109558 1.2091995265551612 -1.2091995551462713 0.0 0.0 0.0 0.0 0.0 0.0 9.98197363699076e-07 -5.258967243140418e-07 1.1449168978424664e-06 -1.8103060445482418e-15 1.8116749963477937e-08 4.30709452948295e-08 0.2951500000000001 -0.11235000004997343 0.4808999999601586 -1.2091995763071837 1.2091995763071837 -1.209199576059172 0.0 0.0 0.0 0.0 0.0 0.0
5770.688 7.41594285980085e-17 -1.5707963267948966 -1.5707963267948966 0.0 1.5707963267948966 0.0 0.0 0.0 0.0 0.0 0.0 0.0 0.0 0.0 0.0 0.0 0.0 0.0 -1.6018983243994446e-26 0.4870342307692309 0.6867077006507593 0.06409467546754684 -8.567713817370151e-28 0.0 -2.1032924999364705e-25 6.394759450000002 6.3947594500000005 0.2913103000000004 -3.894025929994733e-27 0.0 7.41594285980085e-17 -1.570796314870016 -1.570796314870016 0.0 1.5707963705062866 0.0 0.0 0.0 0.0 0.0 0.0 0.0 -1.6018983942199055e-26 0.48703423142433167 0.6867076754570007 0.064094677567482 -8.567714098795418e-28 0.0 -1.6018983942199055e-26 0.48703423142433167 0.6867076754570007 0.064094677567482 -8.567714098795418e-28 0.0 0.2951499950589256 -0.11234999647001061 0.4809000069994156 -1.2091995794109558 1.2091995265551612 -1.2091995551462713 0.0 0.0 0.0 0.0 0.0 0.0 9.98197363699076e-07 -5.258967243140418e-07 1.1449168978424664e-06 -1.8103060445482418e-15 1.8116749963477937e-08 4.30709452948295e-08 0.2951500000000001 -0.11235000004997343 0.4808999999601586 -1.2091995763071837 1.2091995763071837 -1.209199576059172 0.0 0.0 0.0 0.0 0.0 0.0
5770.696 7.41594285980085e-17 -1.5707963267948966 -1.5707963267948966 0.0 1.5707963267948966 0.0 0.0 0.0 0.0 0.0 0.0 0.0 0.0 0.0 0.0 0.0 0.0 0.0 -1.6018983243994446e-26 0.4870342307692309 0.6867077006507593 0.06409467546754684 -8.567713817370151e-28 0.0 -2.1032924999364705e-25 6.394759450000002 6.3947594500000005 0.2913103000000004 -3.894025929994733e-27 0.0 7.41594285980085e-17 -1.570796314870016 -1.570796314870016 0.0 1.5707963705062866 0.0 0.0 0.0 0.0 0.0 0.0 0.0 -1.6018983942199055e-26 0.48703423142433167 0.6867076754570007 0.064094677567482 -8.567714098795418e-28 0.0 -1.6018983942199055e-26 0.48703423142433167 0.6867076754570007 0.064094677567482 -8.567714098795418e-28 0.0 0.2951499950589256 -0.11234999647001061 0.4809000069994156 -1.2091995794109558 1.2091995265551612 -1.2091995551462713 0.0 0.0 0.0 0.0 0.0 0.0 9.98197363699076e-07 -5.258967243140418e-07 1.1449168978424664e-06 -1.8103060445482418e-15 1.8116749963477937e-08 4.30709452948295e-08 0.2951500000000001 -0.11235000004997343 0.4808999999601586 -1.2091995763071837 1.2091995763071837 -1.209199576059172 0.0 0.0 0.0 0.0 0.0 0.0
5770.704 7.41594285980085e-17 -1.5707963267948966 -1.5707963267948966 0.0 1.5707963267948966 0.0 0.0 0.0 0.0 0.0 0.0 0.0 0.0 0.0 0.0 0.0 0.0 0.0 -1.6018983243994446e-26 0.4870342307692309 0.6867077006507593 0.06409467546754684 -8.567713817370151e-28 0.0 -2.1032924999364705e-25 6.394759450000002 6.3947594500000005 0.2913103000000004 -3.894025929994733e-27 0.0 7.41594285980085e-17 -1.570796314870016 -1.570796314870016 0.0 1.5707963705062866 0.0 0.0 0.0 0.0 0.0 0.0 0.0 -1.6018983942199055e-26 0.48703423142433167 0.6867076754570007 0.064094677567482 -8.567714098795418e-28 0.0 -1.6018983942199055e-26 0.48703423142433167 0.6867076754570007 0.064094677567482 -8.567714098795418e-28 0.0 0.2951499950589256 -0.11234999647001061 0.4809000069994156 -1.2091995794109558 1.2091995265551612 -1.2091995551462713 0.0 0.0 0.0 0.0 0.0 0.0 9.98197363699076e-07 -5.258967243140418e-07 1.1449168978424664e-06 -1.8103060445482418e-15 1.8116749963477937e-08 4.30709452948295e-08 0.2951500000000001 -0.11235000004997343 0.4808999999601586 -1.2091995763071837 1.2091995763071837 -1.209199576059172 0.0 0.0 0.0 0.0 0.0 0.0
5770.7119999999995 7.41594285980085e-17 -1.5707963267948966 -1.5707963267948966 0.0 1.5707963267948966 0.0 0.0 0.0 0.0 0.0 0.0 0.0 0.0 0.0 0.0 0.0 0.0 0.0 -1.6018983243994446e-26 0.4870342307692309 0.6867077006507593 0.06409467546754684 -8.567713817370151e-28 0.0 -2.1032924999364705e-25 6.394759450000002 6.3947594500000005 0.2913103000000004 -3.894025929994733e-27 0.0 7.41594285980085e-17 -1.570796314870016 -1.570796314870016 0.0 1.5707963705062866 0.0 0.0 0.0 0.0 0.0 0.0 0.0 -1.6018983942199055e-26 0.48703423142433167 0.6867076754570007 0.064094677567482 -8.567714098795418e-28 0.0 -1.6018983942199055e-26 0.48703423142433167 0.6867076754570007 0.064094677567482 -8.567714098795418e-28 0.0 0.2951499950589256 -0.11234999647001061 0.4809000069994156 -1.2091995794109558 1.2091995265551612 -1.2091995551462713 0.0 0.0 0.0 0.0 0.0 0.0 9.98197363699076e-07 -5.258967243140418e-07 1.1449168978424664e-06 -1.8103060445482418e-15 1.8116749963477937e-08 4.30709452948295e-08 0.2951500000000001 -0.11235000004997343 0.4808999999601586 -1.2091995763071837 1.2091995763071837 -1.209199576059172 0.0 0.0 0.0 0.0 0.0 0.0
5770.719999999999 7.41594285980085e-17 -1.5707963267948966 -1.5707963267948966 0.0 1.5707963267948966 0.0 0.0 0.0 0.0 0.0 0.0 0.0 0.0 0.0 0.0 0.0 0.0 0.0 -1.6018983243994446e-26 0.4870342307692309 0.6867077006507593 0.06409467546754684 -8.567713817370151e-28 0.0 -2.1032924999364705e-25 6.394759450000002 6.3947594500000005 0.2913103000000004 -3.894025929994733e-27 0.0 7.41594285980085e-17 -1.570796314870016 -1.570796314870016 0.0 1.5707963705062866 0.0 0.0 0.0 0.0 0.0 0.0 0.0 -1.6018983942199055e-26 0.48703423142433167 0.6867076754570007 0.064094677567482 -8.567714098795418e-28 0.0 -1.6018983942199055e-26 0.48703423142433167 0.6867076754570007 0.064094677567482 -8.567714098795418e-28 0.0 0.2951499950589256 -0.11234999647001061 0.4809000069994156 -1.2091995794109558 1.2091995265551612 -1.2091995551462713 0.0 0.0 0.0 0.0 0.0 0.0 9.98197363699076e-07 -5.258967243140418e-07 1.1449168978424664e-06 -1.8103060445482418e-15 1.8116749963477937e-08 4.30709452948295e-08 0.2951500000000001 -0.11235000004997343 0.4808999999601586 -1.2091995763071837 1.2091995763071837 -1.209199576059172 0.0 0.0 0.0 0.0 0.0 0.0
5770.728 7.41594285980085e-17 -1.5707963267948966 -1.5707963267948966 0.0 1.5707963267948966 0.0 0.0 0.0 0.0 0.0 0.0 0.0 0.0 0.0 0.0 0.0 0.0 0.0 -1.6018983243994446e-26 0.4870342307692309 0.6867077006507593 0.06409467546754684 -8.567713817370151e-28 0.0 -2.1032924999364705e-25 6.394759450000002 6.3947594500000005 0.2913103000000004 -3.894025929994733e-27 0.0 7.41594285980085e-17 -1.570796314870016 -1.570796314870016 0.0 1.5707963705062866 0.0 0.0 0.0 0.0 0.0 0.0 0.0 -1.6018983942199055e-26 0.48703423142433167 0.6867076754570007 0.064094677567482 -8.567714098795418e-28 0.0 -1.6018983942199055e-26 0.48703423142433167 0.6867076754570007 0.064094677567482 -8.567714098795418e-28 0.0 0.2951499950589256 -0.11234999647001061 0.4809000069994156 -1.2091995794109558 1.2091995265551612 -1.2091995551462713 0.0 0.0 0.0 0.0 0.0 0.0 9.98197363699076e-07 -5.258967243140418e-07 1.1449168978424664e-06 -1.8103060445482418e-15 1.8116749963477937e-08 4.30709452948295e-08 0.2951500000000001 -0.11235000004997343 0.4808999999601586 -1.2091995763071837 1.2091995763071837 -1.209199576059172 0.0 0.0 0.0 0.0 0.0 0.0
5770.736 7.41594285980085e-17 -1.5707963267948966 -1.5707963267948966 0.0 1.5707963267948966 0.0 0.0 0.0 0.0 0.0 0.0 0.0 0.0 0.0 0.0 0.0 0.0 0.0 -1.6018983243994446e-26 0.4870342307692309 0.6867077006507593 0.06409467546754684 -8.567713817370151e-28 0.0 -2.1032924999364705e-25 6.394759450000002 6.3947594500000005 0.2913103000000004 -3.894025929994733e-27 0.0 7.41594285980085e-17 -1.570796314870016 -1.570796314870016 0.0 1.5707963705062866 0.0 0.0 0.0 0.0 0.0 0.0 0.0 -1.6018983942199055e-26 0.48703423142433167 0.6867076754570007 0.064094677567482 -8.567714098795418e-28 0.0 -1.6018983942199055e-26 0.48703423142433167 0.6867076754570007 0.064094677567482 -8.567714098795418e-28 0.0 0.2951499950589256 -0.11234999647001061 0.4809000069994156 -1.2091995794109558 1.2091995265551612 -1.2091995551462713 0.0 0.0 0.0 0.0 0.0 0.0 9.98197363699076e-07 -5.258967243140418e-07 1.1449168978424664e-06 -1.8103060445482418e-15 1.8116749963477937e-08 4.30709452948295e-08 0.2951500000000001 -0.11235000004997343 0.4808999999601586 -1.2091995763071837 1.2091995763071837 -1.209199576059172 0.0 0.0 0.0 0.0 0.0 0.0
5770.744 7.41594285980085e-17 -1.5707963267948966 -1.5707963267948966 0.0 1.5707963267948966 0.0 0.0 0.0 0.0 0.0 0.0 0.0 0.0 0.0 0.0 0.0 0.0 0.0 -1.6018983243994446e-26 0.4870342307692309 0.6867077006507593 0.06409467546754684 -8.567713817370151e-28 0.0 -2.1032924999364705e-25 6.394759450000002 6.3947594500000005 0.2913103000000004 -3.894025929994733e-27 0.0 7.41594285980085e-17 -1.570796314870016 -1.570796314870016 0.0 1.5707963705062866 0.0 0.0 0.0 0.0 0.0 0.0 0.0 -1.6018983942199055e-26 0.48703423142433167 0.6867076754570007 0.064094677567482 -8.567714098795418e-28 0.0 -1.6018983942199055e-26 0.48703423142433167 0.6867076754570007 0.064094677567482 -8.567714098795418e-28 0.0 0.2951499950589256 -0.11234999647001061 0.4809000069994156 -1.2091995794109558 1.2091995265551612 -1.2091995551462713 0.0 0.0 0.0 0.0 0.0 0.0 9.98197363699076e-07 -5.258967243140418e-07 1.1449168978424664e-06 -1.8103060445482418e-15 1.8116749963477937e-08 4.30709452948295e-08 0.2951500000000001 -0.11235000004997343 0.4808999999601586 -1.2091995763071837 1.2091995763071837 -1.209199576059172 0.0 0.0 0.0 0.0 0.0 0.0
5770.7519999999995 7.41594285980085e-17 -1.5707963267948966 -1.5707963267948966 0.0 1.5707963267948966 0.0 0.0 0.0 0.0 0.0 0.0 0.0 0.0 0.0 0.0 0.0 0.0 0.0 -1.6018983243994446e-26 0.4870342307692309 0.6867077006507593 0.06409467546754684 -8.567713817370151e-28 0.0 -2.1032924999364705e-25 6.394759450000002 6.3947594500000005 0.2913103000000004 -3.894025929994733e-27 0.0 7.41594285980085e-17 -1.570796314870016 -1.570796314870016 0.0 1.5707963705062866 0.0 0.0 0.0 0.0 0.0 0.0 0.0 -1.6018983942199055e-26 0.48703423142433167 0.6867076754570007 0.064094677567482 -8.567714098795418e-28 0.0 -1.6018983942199055e-26 0.48703423142433167 0.6867076754570007 0.064094677567482 -8.567714098795418e-28 0.0 0.2951499950589256 -0.11234999647001061 0.4809000069994156 -1.2091995794109558 1.2091995265551612 -1.2091995551462713 0.0 0.0 0.0 0.0 0.0 0.0 9.98197363699076e-07 -5.258967243140418e-07 1.1449168978424664e-06 -1.8103060445482418e-15 1.8116749963477937e-08 4.30709452948295e-08 0.2951500000000001 -0.11235000004997343 0.4808999999601586 -1.2091995763071837 1.2091995763071837 -1.209199576059172 0.0 0.0 0.0 0.0 0.0 0.0
5770.759999999999 7.41594285980085e-17 -1.5707963267948966 -1.5707963267948966 0.0 1.5707963267948966 0.0 0.0 0.0 0.0 0.0 0.0 0.0 0.0 0.0 0.0 0.0 0.0 0.0 -1.6018983243994446e-26 0.4870342307692309 0.6867077006507593 0.06409467546754684 -8.567713817370151e-28 0.0 -2.1032924999364705e-25 6.394759450000002 6.3947594500000005 0.2913103000000004 -3.894025929994733e-27 0.0 7.41594285980085e-17 -1.570796314870016 -1.570796314870016 0.0 1.5707963705062866 0.0 0.0 0.0 0.0 0.0 0.0 0.0 -1.6018983942199055e-26 0.48703423142433167 0.6867076754570007 0.064094677567482 -8.567714098795418e-28 0.0 -1.6018983942199055e-26 0.48703423142433167 0.6867076754570007 0.064094677567482 -8.567714098795418e-28 0.0 0.2951499950589256 -0.11234999647001061 0.4809000069994156 -1.2091995794109558 1.2091995265551612 -1.2091995551462713 0.0 0.0 0.0 0.0 0.0 0.0 9.98197363699076e-07 -5.258967243140418e-07 1.1449168978424664e-06 -1.8103060445482418e-15 1.8116749963477937e-08 4.30709452948295e-08 0.2951500000000001 -0.11235000004997343 0.4808999999601586 -1.2091995763071837 1.2091995763071837 -1.209199576059172 0.0 0.0 0.0 0.0 0.0 0.0
5770.768 7.41594285980085e-17 -1.5707963267948966 -1.5707963267948966 0.0 1.5707963267948966 0.0 0.0 0.0 0.0 0.0 0.0 0.0 0.0 0.0 0.0 0.0 0.0 0.0 -1.6018983243994446e-26 0.4870342307692309 0.6867077006507593 0.06409467546754684 -8.567713817370151e-28 0.0 -2.1032924999364705e-25 6.394759450000002 6.3947594500000005 0.2913103000000004 -3.894025929994733e-27 0.0 7.41594285980085e-17 -1.570796314870016 -1.570796314870016 0.0 1.5707963705062866 0.0 0.0 0.0 0.0 0.0 0.0 0.0 -1.6018983942199055e-26 0.48703423142433167 0.6867076754570007 0.064094677567482 -8.567714098795418e-28 0.0 -1.6018983942199055e-26 0.48703423142433167 0.6867076754570007 0.064094677567482 -8.567714098795418e-28 0.0 0.2951499950589256 -0.11234999647001061 0.4809000069994156 -1.2091995794109558 1.2091995265551612 -1.2091995551462713 0.0 0.0 0.0 0.0 0.0 0.0 9.98197363699076e-07 -5.258967243140418e-07 1.1449168978424664e-06 -1.8103060445482418e-15 1.8116749963477937e-08 4.30709452948295e-08 0.2951500000000001 -0.11235000004997343 0.4808999999601586 -1.2091995763071837 1.2091995763071837 -1.209199576059172 0.0 0.0 0.0 0.0 0.0 0.0
5770.776 1.8616845428765607e-08 -1.5707963267948966 -1.5707963267948966 0.0 1.5707963267948966 0.0 9.30842267730309e-06 0.0 0.0 0.0 0.0 0.0 0.0011635528346628863 0.0 0.0 0.0 0.0 0.0 7.262232786738131e-05 0.48702381082392104 0.6867062104765247 0.06409162226612182 1.9833199674656054e-06 0.0 0.0009535311648987166 6.394622636118084 6.394745573199493 0.29129642319952365 9.014189252131175e-06 0.0 1.8616844954522094e-08 -1.570796314870016 -1.570796314870016 0.0 1.5707963705062866 0.0 9.308422704634722e-06 0.0 0.0 0.0 0.0 0.0 7.262232975335792e-05 0.48702380061149597 0.6867061853408813 0.06409162282943726 1.98331986211997e-06 0.0 7.262232975335792e-05 0.48702380061149597 0.6867061853408813 0.06409162282943726 1.98331986211997e-06 0.0 0.295149997150528 -0.11234999097524889 0.4809000069994156 -1.2091995882129942 1.2091995128457194 -1.2091995414368293 1.0458012068595129e-06 2.747380934748848e-06 0.0 0.0 0.0 9.308422704634722e-06 4.103385779229661e-07 -2.1630377447207516e-07 1.1096291145913204e-06 -4.0598800431562214e-15 5.841649280610075e-08 1.7715760019824367e-08 0.2951500020916026 -0.1123499945552115 0.4808999999601586 -1.209199585109223 1.2091995625977414 -1.2091995623497298 1.0458012371126094e-06 2.747380972675528e-06 0.0 0.0 0.0 9.30842267730309e-06
5770.784 1.6755160826561505e-07 -1.5707963267948966 -1.5707963267948966 0.0 1.5707963267948966 0.0 4.188790204786391e-05 0.0 0.0 0.0 0.0 0.0 0.0040724349213201025 0.0 0.0 0.0 0.0 0.0 0.00025417814753583466 0.4869977609809665 0.6867024850448608 0.06408398927059632 6.941620950396492e-06 0.0 0.003337359077145509 6.39428060168009 6.394710881234753 0.2912617312348602 3.1549667219552055e-05 0.0 1.6755160459069884e-07 -1.570796314870016 -1.570796314870016 0.0 1.5707963705062866 0.0 4.18879026256036e-05 0.0 0.0 0.0 0.0 0.0 0.0002541781577747315 0.4869977533817291 0.6867024898529053 0.06408398598432541 6.941620995348785e-06 0.0 0.0002541781577747315 0.4869977533817291 0.6867024898529053 0.06408398598432541 6.941620995348785e-06 0.0 0.2951500138833436 -0.11234994701715378 0.4809000069994156 -1.2091996586292986 1.2091994031701834 -1.2091994317612906 4.706103640646262e-06 1.2363215041491048e-05 0.0 0.0 0.0 4.18879026256036e-05 -5.93275068722271e-07 3.119352687659054e-07 -2.7999801379902874e-07 -2.093357070791887e-15 1.2768085765638176e-08 -2.5547713085206614e-08 0.29515001882441916 -0.11234995059711471 0.4808999999601586 -1.209199655525532 1.209199452922202 -1.2091994526741907 4.7061037256942905e-06 1.2363215077942459e-05 0.0 0.0 0.0 4.188790204786391e-05
5770.7919999999995 6.702064328399819e-07 -1.5707963267948966 -1.5707963267948966 0.0 1.5707963267948966 0.0 0.00011170107212763708 0.0 0.0 0.0 0.0 0.0 0.008726646259971646 0.0 0.0 0.0 0.0 0.0 0.0005446674590053597 0.48695608134500074 0.6866965243759665 0.06407177652235527 1.4874908428972823e-05 0.0 0.007151483736740374 6.393733348059859 6.394655374293875 0.2912062242941047 6.760645880968148e-05 0.0 6.702064183627954e-07 -1.570796314870016 -1.570796314870016 0.0 1.5707963705062866 0.0 0.00011170106881763786 0.0 0.0 0.0 0.0 0.0 0.0005446674767881632 0.48695608973503113 0.6866965293884277 0.06407177448272705 1.487490862928098e-05 0.0 0.0005446674767881632 0.48695608973503113 0.6866965293884277 0.06407177448272705 1.487490862928098e-05 0.0 0.29515007035654806 -0.11234979865856431 0.4809000069994156 -1.209199896284271 1.209199033015238 -1.2091990616063366 1.254959259160805e-05 3.296857832042743e-05 0.0 0.0 0.0 0.00011170106881763786 2.605544059226168e-07 -1.383625714114292e-07 -2.62354749509609e-07 3.7566352838804943e-14 -5.299527482938252e-08 1.1330999432600413e-08 0.29515007529762655 -0.11234980223851958 0.4808999999601586 -1.2091998931805208 1.2091990827672456 -1.2091990825192342 1.2549593363370638e-05 3.29685798492977e-05 0.0 0.0 0.0 0.00011170107212763708
5770.8 1.8616845355347772e-06 -1.5707963267948966 -1.5707963267948966 0.0 1.5707963267948966 0.0 0.00023271056693257723 0.0 0.0 0.0 0.0 0.0 0.015126186850617519 0.0 0.0 0.0 0.0 0.0 0.0009440902622759567 0.48689877222264494 0.6866883285290324 0.06405498414267448 2.5783198462505192e-05 0.0 0.012395905143683312 6.3929808792833285 6.394579052928056 0.2911299029284555 0.0001171846370120861 0.0 1.8616844954522094e-06 -1.570796314870016 -1.570796314870016 0.0 1.5707963705062866 0.0 0.00023271056124940515 0.0 0.0 0.0 0.0 0.0 0.0009440902504138649 0.4868987798690796 0.6866883039474487 0.06405498087406158 2.578319799795281e-05 0.0 0.0009440902504138649 0.4868987798690796 0.6866883039474487 0.06405498087406158 2.578319799795281e-05 0.0 0.2951502042186606 -0.11234944699364628 0.4809000069994156 -1.2092004596142398 1.209198155610853 -1.2091981842019308 2.614490286595172e-05 6.868456967660105e-05 0.0 0.0 0.0 0.00023271056124940515 1.3515560437698587e-06 -7.113388129780988e-07 1.003764523206178e-06 9.008664569959204e-14 -4.800273112169462e-08 5.8260971086290504e-08 0.29515020915974627 -0.1123494505735881 0.4808999999601586 -1.2092004565105283 1.2091982053628336 -1.2091982051148227 2.614490433754325e-05 6.86845725038333e-05 0.0 0.0 0.0 0.00023271056693257723
5770.808 4.188790204860549e-06 -1.5707963267948966 -1.5707963267948966 0.0 1.5707963267948966 0.0 0.00041887902047863895 0.0 0.0 0.0 0.0 0.0 0.023271056693257713 0.0 0.0 0.0 0.0 0.0 0.0014524465573476255 0.48682583429538184 0.6866778976356142 0.06403361240109576 3.96665267436453e-05 0.0 0.019070623297974324 6.392023204298363 6.3944819183623665 0.2910327683629802 0.0001802843640498679 0.0 4.18879017161089e-06 -1.570796314870016 -1.570796314870016 0.0 1.5707963705062866 0.0 0.00041887903353199363 0.0 0.0 0.0 0.0 0.0 0.0014524465659633279 0.4868258237838745 0.686677873134613 0.0640336126089096 3.966652730014175e-05 0.0 0.0014524465659633279 0.4868258237838745 0.686677873134613 0.0640336126089096 3.966652730014175e-05 0.0 0.29515046566689723 -0.11234876014762651 0.4809000069994156 -1.209201559866747 1.209196441930086 -1.2091964705211233 4.7060540069155555e-05 0.00012363234180506777 0.0 0.0 0.0 0.00041887903353199363 3.6996645876612286e-07 -1.9543214571309896e-07 1.0743387499137932e-06 -2.431389725178343e-13 5.735628727406171e-08 1.6003491703254083e-08 0.29515047060799043 -0.11234876372755885 0.4808999999601586 -1.2092015567630847 1.2091964916820566 -1.2091964914340456 4.7060540102185896e-05 0.00012363234002208434 0.0 0.0 0.0 0.00041887902047863895
5770.816 8.210028801455483e-06 -1.5707963267948966 -1.5707963267948966 0.0 1.5707963267948966 0.0 0.0006841690667817769 0.0 0.0 0.0 0.0 0.0 0.033161255787892245 0.0 0.0 0.0 0.0 0.0 0.0020697363442203666 0.48673726884701773 0.6866652319435409 0.06400766180539406 5.652496051182117e-05 0.0 0.027175638199613415 6.3908603399613435 6.3943639729046415 0.290914822905516 0.00025690594552622723 0.0 8.210028681787662e-06 -1.570796314870016 -1.570796314870016 0.0 1.5707963705062866 0.0 0.0006841690628789365 0.0 0.0 0.0 0.0 0.0 0.0020697363652288914 0.48673728108406067 0.6866652369499207 0.06400766223669052 5.652496110997163e-05 0.0 0.0020697363652288914 0.48673728108406067 0.6866652369499207 0.06400766223669052 5.652496110997163e-05 0.0 0.2951509174456718 -0.11234757327629934 0.4809000069994156 -1.209203461098778 1.2091934806889029 -1.2091935092798705 7.686473392516838e-05 0.00020193312659666363 0.0 0.0 0.0 0.0006841690628789365 4.680995717775529e-07 -2.478924420889011e-07 -2.094263296130074e-07 4.5466342445969557e-13 -5.514389922226918e-08 2.029998883913067e-08 0.2951509223867891 -0.1123475768561863 0.4808999999601586 -1.2092034579952475 1.2091935304407833 -1.2091935301927732 7.686473681289093e-05 0.00020193313112915016 0.0 0.0 0.0 0.0006841690667817769
5770.824 1.4595606758085402e-05 -1.5707963267948966 -1.5707963267948966 0.0 1.5707963267948966 0.0 0.0010425433398579458 0.0 0.0 0.0 0.0 0.0 0.0447967841345211 0.0 0.0 0.0 0.0 0.0 0.002795959622894179 0.4866330780457399 0.686650331871365 0.06397713321313697 7.635861332589667e-05 0.0 0.03671094984860057 6.389492314740565 6.394225220452526 0.2907760704537075 0.00034704989756620034 0.0 1.4595606444345322e-05 -1.570796314870016 -1.570796314870016 0.0 1.5707963705062866 0.0 0.0010425433283671737 0.0 0.0 0.0 0.0 0.0 0.0027959595900028944 0.4866330921649933 0.6866503357887268 0.06397712975740433 7.635861402377486e-05 0.0 0.0027959595900028944 0.4866330921649933 0.6866503357887268 0.06397712975740433 7.635861402377486e-05 0.0 0.29515163484381984 -0.11234568856487377 0.4809000069994156 -1.2092064801737255 1.2091887783453044 -1.2091888069361607 0.00011712524808412543 0.0003077083677630886 0.0 0.0 0.0 0.0010425433283671737 6.111540285957982e-07 -3.199329211854263e-07 -2.4471539523415035e-07 1.2863243183047468e-12 -8.791009419826163e-08 2.620006713518601e-08 0.2951516397849818 -0.1123456921446719 0.4808999999601586 -1.2092064770704305 1.2091888280970002 -1.209188827848991 0.00011712525310715882 0.0003077083763059843 0.0 0.0 0.0 0.0010425433398579458
5770.831999999999 2.4127431579643765e-05 -1.5707963267948966 -1.5707963267948966 0.0 1.5707963267948966 0.0 0.0015079644737231003 0.0 0.0 0.0 0.0 0.0 0.05817764173314432 0.0 0.0 0.0 0.0 0.0 0.003631116393369066 0.48651326528076183 0.6866331980733494 0.063942027964836 9.916766269605558e-05 0.0 0.047676558244935836 6.387919173136403 6.394065667098645 0.2906165171001796 0.00045071702695357257 0.0 2.4127431970555335e-05 -1.570796314870016 -1.570796314870016 0.0 1.5707963705062866 0.0 0.001507964450865984 0.0 0.0 0.0 0.0 0.0 0.003631116356700659 0.48651325702667236 0.6866331696510315 0.06394203007221222 9.9167664302513e-05 0.0 0.003631116356700659 0.48651325702667236 0.6866331696510315 0.06394203007221222 9.9167664302513e-05 0.0 0.29515270568991375 -0.11234287522588308 0.4809000069994156 -1.2092109867564103 1.2091817590975265 -1.209181787688217 0.00016940906214870454 0.00044507978775730017 0.0 0.0 0.0 0.001507964450865984 6.414942908559051e-07 -3.356572907980567e-07 1.2860601984215095e-06 -1.4546771871817968e-12 6.015550478621316e-08 2.7484300672103176e-08 0.2951527106310307 -0.1123428788058421 0.4808999999601586 -1.2092109836529967 1.2091818088496784 -1.2091818086016706 0.00016940907011498972 0.00044507980195466877 0.0 0.0 0.0 0.0015079644737231003
5770.84 3.769911184315166e-05 -1.5707963267948966 -1.5707963267948966 0.0 1.5707963267948966 0.0 0.0020943951023931944 0.0 0.0 0.0 0.0 0.0 0.07330382858376175 0.0 0.0 0.0 0.0 0.0 0.004575206655645017 0.48637783555356223 0.6866138315149928 0.06390234803869045 0.0001249523705749098 0.0 0.060072463388619074 6.386140980818272 6.393885321833916 0.2904361718358481 0.000567908524262965 0.0 3.769911199924536e-05 -1.570796314870016 -1.570796314870016 0.0 1.5707963705062866 0.0 0.0020943949930369854 0.0 0.0 0.0 0.0 0.0 0.004575206432491541 0.4863778352737427 0.6866138577461243 0.063902348279953 0.00012495237751863897 0.0 0.004575206432491541 0.4863778352737427 0.6866138577461243 0.063902348279953 0.00012495237751863897 0.0 0.2951542303442876 -0.11233886949745575 0.4809000069994156 -1.2092174033027403 1.2091717648851028 -1.2091717934755568 0.00023528196579890664 0.000618169542206761 0.0 0.0 0.0 0.0020943949930369854 -1.0176426105914293e-06 5.499798539202763e-07 -1.1403189191449763e-06 2.0644530690177822e-13 -5.441549758668238e-09 -4.507805492605194e-08 0.2951542352854795 -0.11233887307727838 0.4808999999601586 -1.2092174001997433 1.2091718146369927 -1.209171814388987 0.00023528198558142252 0.0006181695848325168 0.0 0.0 0.0 0.0020943951023931944
5770.848 5.631595719775784e-05 -1.5707963267948966 -1.5707963267948966 0.0 1.5707963267948966 0.0 0.002815797859884184 0.0 0.0 0.0 0.0 0.0 0.09017534468637368 0.0 0.0 0.0 0.0 0.0 0.00562823040972205 0.48622679592371365 0.6865922335590932 0.06385809622692291 0.00015371310670783317 0.0 0.07389866527965053 6.384157830478361 6.393684197348987 0.29023504735136463 0.0006986260699871018 0.0 5.63159555895254e-05 -1.570796314870016 -1.570796314870016 0.0 1.5707963705062866 0.0 0.0028157979249954224 0.0 0.0 0.0 0.0 0.0 0.005628230515867472 0.48622679710388184 0.6865922212600708 0.06385809928178787 0.00015371310291811824 0.0 0.005628230515867472 0.48622679710388184 0.6865922212600708 0.06385809928178787 0.00015371310291811824 0.0 0.29515632168830175 -0.11233337463784714 0.4809000069994156 -1.209226205049002 1.2091580553832093 -1.2091580839733391 0.0003163080832129834 0.0008311005581592015 0.0 0.0 0.0 0.0028157979249954224 5.336774510855987e-07 -2.877437139586203e-07 6.021820394901192e-07 -9.955921481847019e-13 1.7655080663505648e-08 2.3585897768808525e-08 0.29515632662975855 -0.11233337821705705 0.4808999999601586 -1.2092262019472584 1.209158105133678 -1.2091581048856748 0.00031630808597714983 0.0008311005528553513 0.0 0.0 0.0 0.002815797859884184
5770.856 8.109497836473866e-05 -1.5707963267948966 -1.5707963267948966 0.0 1.5707963267948966 0.0 0.0036861353802120226 0.0 0.0 0.0 0.0 0.0 0.10879219004097983 0.0 0.0 0.0 0.0 0.0 0.00679018765560015 0.4860601560093044 0.6865684060623517 0.06380927633370734 0.00018545037484251722 0.0 0.08915516391802998 6.381969848402167 6.393462310933831 0.2900131609366998 0.0008428719536592408 0.0 8.109497866826132e-05 -1.570796314870016 -1.570796314870016 0.0 1.5707963705062866 0.0 0.0036861354019492865 0.0 0.0 0.0 0.0 0.0 0.0067901876755058765 0.48606014251708984 0.6865683794021606 0.06380927562713623 0.00018545037892181426 0.0 0.0067901876755058765 0.48606014251708984 0.6865683794021606 0.06380927562713623 0.00018545037892181426 0.0 0.29515910510897114 -0.11232606091805458 0.4809000069994156 -1.2092379199960746 1.209139807995562 -1.2091398365852601 0.00041404906971155315 0.001087996426549849 0.0 0.0 0.0 0.0036861354019492865 2.918748657242736e-07 -1.5488161809260917e-07 1.1491379457723732e-06 -5.354851143782324e-12 6.599258125374748e-08 1.2668203658975364e-08 0.2951591100503019 -0.11232606449770632 0.4808999999601586 -1.2092379168939853 1.2091398577472758 -1.2091398574992767 0.0004140490804649729 0.0010879964383483118 0.0 0.0 0.0 0.0036861353802120226
5770.864 0.00011326488713749814 -1.5707963267948966 -1.5707963267948966 0.0 1.5707963267948966 0.0 0.004719370297392666 0.0 0.0 0.0 0.0 0.0 0.1291543646475804 0.0 0.0 0.0 0.0 0.0 0.008061078393279327 0.48587792854194967 0.6865423514825126 0.06375589339468896 0.00022016484179775467 0.0 0.10584195930375756 6.3795772017558 6.393219685475455 0.2897705354788613 0.001000649205970795 0.0 0.0001132648903876543 -1.570796314870016 -1.570796314870016 0.0 1.5707963705062866 0.0 0.004719370510429144 0.0 0.0 0.0 0.0 0.0 0.008061078377068043 0.4858779311180115 0.6865423321723938 0.06375589221715927 0.0002201648458139971 0.0 0.008061078377068043 0.4858779311180115 0.6865423321723938 0.06375589221715927 0.0002201648458139971 0.0 0.2951627184757035 -0.11231656561757841 0.4809000069994156 -1.2092531288784434 1.2091161178593304 -1.2091161464484685 0.0005300634876082795 0.0013929822293523347 0.0 0.0 0.0 0.004719370510429144 8.768975797613393e-07 -4.6077980541109924e-07 8.18137494293621e-07 1.4931009463021732e-12 -1.3185168435131942e-08 3.772774958627916e-08 0.29516272341681843 -0.1123165691979409 0.4808999999601586 -1.2092531257756856 1.209116167613003 -1.2091161673650086 0.0005300634805778103 0.0013929821897908595 0.0 0.0 0.0 0.004719370297392666
5770.871999999999 0.00015416609638156794 -1.5707963267948966 -1.5707963267948966 0.0 1.5707963267948966 0.0 0.005929465245442068 0.0 0.0 0.0 0.0 0.0 0.15126186850617526 0.0 0.0 0.0 0.0 0.0 0.009440902622759572 0.48568012997639565 0.6865140729960438 0.06369795391809642 0.00025785736939144404 0.0 0.1239590514368332 6.376980106590075 6.392956350553759 0.2895072005577482 0.0011719617438841132 0.0 0.00015416608948726207 -1.570796314870016 -1.570796314870016 0.0 1.5707963705062866 0.0 0.005929465405642986 0.0 0.0 0.0 0.0 0.0 0.00944090262055397 0.48568013310432434 0.6865140795707703 0.06369795650243759 0.0002578573767095804 0.0 0.00944090262055397 0.48568013310432434 0.6865140795707703 0.06369795650243759 0.0002578573767095804 0.0 0.29516731211102465 -0.11230449301451897 0.4809000069994156 -1.209272465129885 1.2090859978410018 -1.2090860264294274 0.0006659056062278646 0.0017501843660389467 0.0 0.0 0.0 0.005929465405642986 -8.272977968845486e-08 4.386134552616513e-08 -2.3202502815854682e-07 3.0404793472302974e-14 -1.9660906472697488e-10 -3.6265499448876123e-09 0.29516731705342525 -0.11230449659168504 0.4808999999601586 -1.2092724620328437 1.209086047586935 -1.2090860473389466 0.0006659056094472635 0.0017501843480586647 0.0 0.0 0.0 0.005929465245442068
5770.88 0.0002052507200346073 -1.5707963267948966 -1.5707963267948966 0.0 1.5707963267948966 0.0 0.007330382858376184 0.0 0.0 0.0 0.0 0.0 0.17511470161676454 0.0 0.0 0.0 0.0 0.0 0.010929660344040897 0.4854667811547141 0.6864835746263529 0.0636354661474462 0.0002985290492278218 0.0 0.14350644031725698 6.374178836561397 6.392672343635524 0.28922319364014293 0.00135681452874045 0.0 0.00020525071886368096 -1.570796314870016 -1.570796314870016 0.0 1.5707963705062866 0.0 0.0073303827084600925 0.0 0.0 0.0 0.0 0.0 0.010929659940302372 0.48546677827835083 0.6864835619926453 0.06363546848297119 0.00029852904845029116 0.0 0.010929659940302372 0.48546677827835083 0.6864835619926453 0.06363546848297119 0.00029852904845029116 0.0 0.295173048759285 -0.1122894143552452 0.4809000069994156 -1.209296614867014 1.209048378487357 -1.2090484070748932 0.0008231243813327999 0.0021637314126285107 0.0 0.0 0.0 0.0073303827084600925 3.278816124471296e-07 -1.4781799239466378e-07 6.014657679264609e-07 -6.547721173003943e-12 3.1892899431614066e-08 1.2115340073612203e-08 0.2951730537012257 -0.11228941793384818 0.4808999999601586 -1.2092966117684172 1.2090484282371694 -1.209048427989189 0.00082312442439932 0.0021637314931060177 0.0 0.0 0.0 0.007330382858376184
5770.888 0.0002680825731064031 -1.5707963267948966 -1.5707963267948966 0.0 1.5707963267948966 0.0 0.008936085770210966 0.0 0.0 0.0 0.0 0.0 0.20071286397934773 0.0 0.0 0.0 0.0 0.0 0.012527351557123267 0.4852379080250891 0.6864508613825459 0.06356844034583885 0.00034218124034391545 0.0 0.1644841259450285 6.37117373236942 6.392367711366544 0.2889185613718376 0.0015552137373630957 0.0 0.00026808257098309696 -1.570796314870016 -1.570796314870016 0.0 1.5707963705062866 0.0 0.008936085738241673 0.0 0.0 0.0 0.0 0.0 0.012527351267635822 0.48523789644241333 0.6864508390426636 0.06356844305992126 0.000342181243468076 0.0 0.012527351267635822 0.48523789644241333 0.6864508390426636 0.06356844305992126 0.000342181243468076 0.0 0.2951801035285095 -0.1122708678642577 0.4809000069994156 -1.2093263167909114 1.209002108083908 -1.2090021366703505 0.0010032621011418085 0.002637754713353814 0.0 0.0 0.0 0.008936085738241673 2.296722679111658e-07 -1.0303529592609549e-07 1.033383153542682e-06 -2.074497200184064e-11 7.736940970470531e-08 8.429434621216293e-09 0.2951801084707819 -0.11227087144226904 0.4808999999601586 -1.2093263136941796 1.2090021578326067 -1.2090021575846357 0.001003262136704445 0.0026377547669550836 0.0 0.0 0.0 0.008936085770210966
5770.896 0.0003443371716788701 -1.5707963267948966 -1.5707963267948966 0.0 1.5707963267948966 0.0 0.010760536614962374 0.0 0.0 0.0 0.0 0.0 0.22805635559392595 0.0 0.0 0.0 0.0 0.0 0.014233976262006752 0.48499354241519405 0.6864159394087199 0.06349688910184763 0.00038881560971522697 0.0 0.18689210832014866 6.367965211911499 6.392042510961883 0.28859336096789745 0.0017671669461557064 0.0 0.00034433716791681945 -1.570796314870016 -1.570796314870016 0.0 1.5707963705062866 0.0 0.010760536417365074 0.0 0.0 0.0 0.0 0.0 0.014233976602554321 0.4849935472011566 0.6864159107208252 0.06349688768386841 0.00038881562068127096 0.0 0.014233976602554321 0.4849935472011566 0.6864159107208252 0.06349688768386841 0.00038881562068127096 0.0 0.2951886638400763 -0.11224835869804782 0.4809000069994156 -1.2093623621580116 1.2089459525819626 -1.208945981167077 0.0012078525515598012 0.003176388367244478 0.0 0.0 0.0 0.010760536417365074 1.3546016094417524e-06 -7.338015820515868e-07 1.2225214751321403e-06 7.54530263710161e-12 -2.1913885241864266e-08 6.008671159492076e-08 0.29518866878280553 -0.11224836227519853 0.4808999999601586 -1.2093623590637717 1.2089460023289533 -1.2089460020809937 0.001207852612231835 0.0031763884787593794 0.0 0.0 0.0 0.010760536614962374
5770.9039999999995 0.00043580173290605023 -1.5707963267948966 -1.5707963267948966 0.0 1.5707963267948966 0.0 0.012817698026646358 0.0 0.0 0.0 0.0 0.0 0.25714517646049795 0.0 0.0 0.0 0.0 0.0 0.016049534458691273 0.4847337228601609 0.6863788161437981 0.0634208276569992 0.00043843417562063053 0.0 0.21073038744261643 6.364553781153913 6.391696811694277 0.28824766170106136 0.0019926833281957656 0.0 0.000435801746789366 -1.570796314870016 -1.570796314870016 0.0 1.5707963705062866 0.0 0.01281769759953022 0.0 0.0 0.0 0.0 0.0 0.01604953408241272 0.4847337305545807 0.6863788366317749 0.06342082470655441 0.00043843418825417757 0.0 0.01604953408241272 0.4847337305545807 0.6863788366317749 0.06342082470655441 0.00043843418825417757 0.0 0.2951989293541794 -0.11222135892173744 0.4809000069994156 -1.2094055946909437 1.2088785955921388 -1.2088786241756608 0.0014384194428671733 0.0037837706081669566 0.0 0.0 0.0 0.01281769759953022 -3.6849370812089674e-07 2.1736618024007498e-07 -9.575517496879218e-07 2.6321306501029863e-11 -6.039040155797391e-08 -1.787286159838325e-08 0.2951989342952555 -0.11222136250364498 0.4808999999601586 -1.2094055915904234 1.208878645351524 -1.2088786451035785 0.0014384195367105358 0.0037837707975844044 0.0 0.0 0.0 0.012817698026646358
5770.911999999999 0.0005443751750141134 -1.5707963267948966 -1.5707963267948966 0.0 1.5707963267948966 0.0 0.015121532639278873 0.0 0.0 0.0 0.0 0.0 0.2879793265790644 0.0 0.0 0.0 0.0 0.0 0.017974026147176875 0.4844584954851409 0.6863395004919008 0.06334027425484644 0.0004910393538665069 0.0 0.2359989633124324 6.3609400457199 6.391330696480679 0.2878815464882771 0.002231773863323274 0.0 0.0005443751579150558 -1.570796314870016 -1.570796314870016 0.0 1.5707963705062866 0.0 0.01512153260409832 0.0 0.0 0.0 0.0 0.0 0.01797402650117874 0.4844585061073303 0.6863394975662231 0.06334027647972107 0.0004910393618047237 0.0 0.01797402650117874 0.4844585061073303 0.6863394975662231 0.06334027647972107 0.0004910393618047237 0.0 0.29521111186996485 -0.11218930750563667 0.4809000069994156 -1.2094569104305954 1.2087986384385323 -1.2087986670201638 0.0016964742712776973 0.00446404445323379 0.0 0.0 0.0 0.01512153260409832 6.844428483118987e-07 -3.817412370550345e-07 1.751772780469295e-07 1.847704286497097e-11 -3.394037420573354e-08 3.125904135755403e-08 0.29521111681490575 -0.11218931107786137 0.4808999999601586 -1.2094569073471628 1.2087986881743875 -1.2087986879264585 0.0016964743292420916 0.004464044538394565 0.0 0.0 0.0 0.015121532639278873
5770.92 0.0006720681173013574 -1.5707963267948966 -1.5707963267948966 0.0 1.5707963267948966 0.0 0.01768600308687587 0.0 0.0 0.0 0.0 0.0 0.3205588059496246 0.0 0.0 0.0 0.0 0.0 0.020007451327463517 0.48416791494245565 0.6862980030032556 0.0632552505116333 0.0005466340068700925 0.0 0.262697835929596 6.357124723194443 6.390944263566917 0.28749511357537333 0.0024844515612245702 0.0 0.000672068097628653 -1.570796314870016 -1.570796314870016 0.0 1.5707963705062866 0.0 0.01768600381910801 0.0 0.0 0.0 0.0 0.0 0.020007451996207237 0.4841679036617279 0.6862980127334595 0.06325525045394897 0.0005466340226121247 0.0 0.020007451996207237 0.4841679036617279 0.6862980127334595 0.06325525045394897 0.0005466340226121247 0.0 0.2952254352456253 -0.11215161021637769 0.4809000069994156 -1.20951725772654 1.2087045999622568 -1.2087046285416647 0.0019835138066059688 0.005221358175251953 0.0 0.0 0.0 0.01768600381910801 -9.801081231031628e-07 4.7470002239004444e-07 -4.261279468718292e-07 -3.257158205906399e-11 4.8462917836015827e-08 -3.900342157424573e-08 0.295225440191311 -0.11215161378721111 0.4808999999601586 -1.2095172546471982 1.208704649695378 -1.208704649447468 0.001983513787638726 0.005221358046547813 0.0 0.0 0.0 0.01768600308687587
5770.928 0.0008210028801382069 -1.5707963267948966 -1.5707963267948966 0.0 1.5707963267948966 0.0 0.01954768762233649 0.0 0.0 0.0 0.0 0.0 0.23271056693257738 0.0 0.0 0.0 0.0 0.0 0.014524465573476269 0.4849555914180333 0.6864106985260416 0.0634861511155879 0.00039694418478023233 0.0 0.19070623297974343 6.367466915318777 6.391993706814206 0.288544556820347 0.0018041113198261557 0.0 0.0008210028754547238 -1.570796314870016 -1.570796314870016 0.0 1.5707963705062866 0.0 0.019547687843441963 0.0 0.0 0.0 0.0 0.0 0.014524465426802635 0.4849555790424347 0.6864107251167297 0.06348615139722824 0.0003969441750086844 0.0 0.014524465426802635 0.4849555790424347 0.6864107251167297 0.06348615139722824 0.0003969441750086844 0.0 0.2952421352464324 -0.11210763963808404 0.4809000069994156 -1.2095876369850613 1.2085949166632723 -1.2085949452400866 0.002191445144510348 0.0057713010980285345 0.0 0.0 0.0 0.019547687843441963 -1.6839254188376033e-06 8.94223382717728e-07 -1.1551594789228385e-06 -4.1323856347082363e-11 5.033280816435729e-08 -7.330569206307542e-08 0.29524214019096945 -0.1121076432126063 0.4808999999601586 -1.2095876339019886 1.2085949664064537 -1.2085949661585662 0.0021914451895963796 0.005771301129403148 0.0 0.0 0.0 0.01954768762233649
5770.936 0.0009848311192587416 -1.5707963267948966 -1.5707963267948966 0.0 1.5707963267948966 0.0 0.02140937215779711 0.0 0.0 0.0 0.0 0.0 0.23271056693257783 0.0 0.0 0.0 0.0 0.0 0.014524465573476298 0.4849566589824318 0.6864109046114738 0.0634865733617399 0.0003970000985025463 0.0 0.1907062329797438 6.36748093243933 6.391995625922966 0.2885464759291078 0.001804365447694073 0.0 0.0009848311310634017 -1.570796314870016 -1.570796314870016 0.0 1.5707963705062866 0.0 0.021409371867775917 0.0 0.0 0.0 0.0 0.0 0.014524465426802635 0.48495665192604065 0.6864109039306641 0.06348657608032227 0.00039700011257082224 0.0 0.014524465426802635 0.48495665192604065 0.6864109039306641 0.06348657608032227 0.00039700011257082224 0.0 0.2952604976832878 -0.11205926912983326 0.4809000069994156 -1.2096650456308977 1.2084742632492118 -1.2084742918231737 0.002399118564031782 0.006321341792766099 0.0 0.0 0.0 0.021409371867775917 -3.5443283047058294e-07 1.956117984286033e-07 8.767076908923697e-08 -4.901740176147564e-11 4.977055437847265e-08 -1.6113127826054738e-08 0.2952605026265627 -0.11205927270841369 0.4808999999601586 -1.2096650425437236 1.20847431300346 -1.2084743127555975 0.002399118673146506 0.006321341984230313 0.0 0.0 0.0 0.02140937215779711
5770.9439999999995 0.001163552834662961 -1.5707963267948966 -1.5707963267948966 0.0 1.5707963267948966 0.0 0.02327105669325773 0.0 0.0 0.0 0.0 0.0 0.23271056693257738 0.0 0.0 0.0 0.0 0.0 0.014524465573476269 0.4849578235981392 0.6864111294319449 0.0634870339939057 0.0003970610952905239 0.0 0.19070623297974343 6.367496223843569 6.391997719496159 0.28854856950230146 0.001804642678095431 0.0 0.0011635528644546866 -1.570796314870016 -1.570796314870016 0.0 1.5707963705062866 0.0 0.02327105589210987 0.0 0.0 0.0 0.0 0.0 0.014524465426802635 0.48495781421661377 0.6864111423492432 0.06348703056573868 0.0003970610850956291 0.0 0.014524465426802635 0.48495781421661377 0.6864111423492432 0.06348703056573868 0.0003970610850956291 0.0 0.2952805203944773 -0.11200649787249803 0.4809000069994156 -1.2097494812247922 1.2083426392103498 -1.208342667781199 0.0026065094722703868 0.00687148949395117 0.0 0.0 0.0 0.02327105589210987 -9.99874716912711e-07 5.341031652568285e-07 -6.371371103791274e-07 -2.0389433871494584e-11 1.752365084172718e-08 -4.3791970423387344e-08 0.295280525336377 -0.11200650145550617 0.4808999999601586 -1.2097494781331448 1.2083426889766704 -1.2083426887288349 0.0026065096453845387 0.0068714898455177545 0.0 0.0 0.0 0.02327105669325773
5770.951999999999 0.0013571680263508655 -1.5707963267948966 -1.5707963267948966 0.0 1.5707963267948966 0.0 0.02513274122871835 0.0 0.0 0.0 0.0 0.0 0.23271056693257738 0.0 0.0 0.0 0.0 0.0 0.014524465573476269 0.4849590852651558 0.6864113729874556 0.06348753301208536 0.000397127175144167 0.0 0.19070623297974343 6.367512789531496 6.391999987533785 0.28855083753992794 0.001804943011030239 0.0 0.0013571680756285787 -1.570796314870016 -1.570796314870016 0.0 1.5707963705062866 0.0 0.025132741779088974 0.0 0.0 0.0 0.0 0.0 0.014524465426802635 0.48495909571647644 0.6864113807678223 0.06348752975463867 0.00039712717989459634 0.0 0.014524465426802635 0.48495909571647644 0.6864113807678223 0.06348752975463867 0.00039712717989459634 0.0 0.2953022010215119 -0.11194932497315814 0.4809000069994156 -1.2098409411058828 1.2082000439907672 -1.208200072558245 0.0028135934768937004 0.007421753965070283 0.0 0.0 0.0 0.025132741779088974 2.660239912940735e-07 -1.3056730822170287e-07 -4.091790128248765e-07 9.63710628407411e-11 -7.100679320771724e-08 1.0701432052624554e-08 0.29530220596192386 -0.11194932856096362 0.4808999999601586 -1.2098409380093913 1.2082000937701671 -1.2082000935223605 0.0028135935054514672 0.007421753926710722 0.0 0.0 0.0 0.02513274122871835
5770.96 0.001565676694322455 -1.5707963267948966 -1.5707963267948966 0.0 1.5707963267948966 0.0 0.02699442576417897 0.0 0.0 0.0 0.0 0.0 0.23271056693257738 0.0 0.0 0.0 0.0 0.0 0.014524465573476269 0.48496044398348126 0.6864116352780055 0.06348807041627882 0.0003971983380634751 0.0 0.19070623297974343 6.367530629503109 6.392002430035843 0.2885532800419872 0.001805266446498494 0.0 0.001565676648169756 -1.570796314870016 -1.570796314870016 0.0 1.5707963705062866 0.0 0.026994425803422928 0.0 0.0 0.0 0.0 0.0 0.014524465426802635 0.4849604368209839 0.6864116191864014 0.06348807364702225 0.00039719833876006305 0.0 0.014524465426802635 0.4849604368209839 0.6864116191864014 0.06348807364702225 0.00039719833876006305 0.0 0.2953255369960365 -0.11188774949965641 0.4809000069994156 -1.209939422336762 1.208046477074133 -1.2080465056379797 0.0030203455521804457 0.00797214329629554 0.0 0.0 0.0 0.026994425803422928 2.2921057261984347e-07 -1.1126243715379636e-07 7.71544976683971e-07 -9.132086584643468e-11 5.832495859537527e-08 9.138608673309392e-09 0.29532554194787397 -0.11188775305824868 0.4808999999601586 -1.2099394192900372 1.2080465267818778 -1.208046526534103 0.0030203456438516823 0.007972143418377806 0.0 0.0 0.0 0.02699442576417897
5770.968 0.0017890788385777293 -1.5707963267948966 -1.5707963267948966 0.0 1.5707963267948966 0.0 0.028856110299639588 0.0 0.0 0.0 0.0 0.0 0.23271056693257738 0.0 0.0 0.0 0.0 0.0 0.014524465573476269 0.4849618997531156 0.6864119163035945 0.0634886462064861 0.0003972745840484478 0.0 0.19070623297974343 6.367549743758407 6.392005047002333 0.28855589700847933 0.0018056129845001954 0.0 0.0017890788149088621 -1.570796314870016 -1.570796314870016 0.0 1.5707963705062866 0.0 0.02885610982775688 0.0 0.0 0.0 0.0 0.0 0.014524465426802635 0.4849618971347809 0.6864119172096252 0.06348864734172821 0.0003972745907958597 0.0 0.014524465426802635 0.4849618971347809 0.6864119172096252 0.06348864734172821 0.0003972745907958597 0.0 0.295350525591867 -0.11182177034327048 0.4809000069994156 -1.2100449219234495 1.2078819376407846 -1.2078819662007407 0.0032267412861596203 0.008522667204164633 0.0 0.0 0.0 0.02885610982775688 -1.7590872777123563e-07 1.0144121001150654e-07 -1.5369118605595706e-08 -3.381284195300936e-11 1.8899210732147625e-08 -8.364464530022963e-09 0.2953505305419851 -0.111821773907397 0.4808999999601586 -1.2100449188711322 1.2078819873636195 -1.2078819871158784 0.003226741441773208 0.008522667486376593 0.0 0.0 0.0 0.028856110299639588
5770.976 0.002027374459116689 -1.5707963267948966 -1.5707963267948966 0.0 1.5707963267948966 0.0 0.030717794835100207 0.0 0.0 0.0 0.0 0.0 0.23271056693257738 0.0 0.0 0.0 0.0 0.0 0.014524465573476269 0.484963452574059 0.686412216064223 0.06348926038270719 0.0003973559130990855 0.0 0.19070623297974343 6.367570132297394 6.3920078384332575 0.2885586884394042 0.0018059826250353434 0.0 0.0020273744594305754 -1.570796314870016 -1.570796314870016 0.0 1.5707963705062866 0.0 0.030717795714735985 0.0 0.0 0.0 0.0 0.0 0.014524465426802635 0.48496344685554504 0.6864122152328491 0.06348925828933716 0.0003973559068981558 0.0 0.014524465426802635 0.48496344685554504 0.6864122152328491 0.06348925828933716 0.0003973559068981558 0.0 0.29537716384673796 -0.11175138642519163 0.4809000069994156 -1.210157436485526 1.2077064250822105 -1.2077064536380169 0.0034327562590475563 0.009073335377842197 0.0 0.0 0.0 0.030717795714735985 -2.7670164075699536e-07 1.5395254508248247e-07 -8.311599305426637e-09 -2.7156363111662045e-11 1.3394683367604689e-08 -1.2626449347392824e-08 0.2953771687950252 -0.11175138999522241 0.4808999999601586 -1.2101574334272471 1.207706474821142 -1.207706474573437 0.003432756270410512 0.009073335270018346 0.0 0.0 0.0 0.030717794835100207
5770.9839999999995 0.002280563555939333 -1.5707963267948966 -1.5707963267948966 0.0 1.5707963267948966 0.0 0.03257947937056083 0.0 0.0 0.0 0.0 0.0 0.23271056693257738 0.0 0.0 0.0 0.0 0.0 0.014524465573476269 0.48496510244631125 0.6864125345598906 0.06348991294494208 0.00039744232521538795 0.0 0.19070623297974343 6.367591795120067 6.3920108043286135 0.2885616543347618 0.0018063753681039382 0.0 0.0022805635817348957 -1.570796314870016 -1.570796314870016 0.0 1.5707963705062866 0.0 0.03257947787642479 0.0 0.0 0.0 0.0 0.0 0.014524465426802635 0.48496511578559875 0.686412513256073 0.06348991394042969 0.00039744231617078185 0.0 0.014524465426802635 0.48496511578559875 0.686412513256073 0.06348991394042969 0.00039744231617078185 0.0 0.29540544861434415 -0.11167659655923125 0.4809000069994156 -1.2102769624761325 1.2075199386581414 -1.2075199672095382 0.0036383652069158913 0.009624155277706365 0.0 0.0 0.0 0.03257947787642479 1.534878591829327e-06 -7.953512144065215e-07 9.515118836559774e-07 1.103647560174988e-10 -4.839329986879167e-08 6.546688983593551e-08 0.2954054535606893 -0.11167660013553649 0.4808999999601586 -1.210276959411523 1.2075199884141763 -1.2075199881665093 0.0036383654902900813 0.009624155880231642 0.0 0.0 0.0 0.03257947937056083
5770.992 0.0025486461290456625 -1.5707963267948966 -1.5707963267948966 0.0 1.5707963267948966 0.0 0.03444116390602145 0.0 0.0 0.0 0.0 0.0 0.23271056693257783 0.0 0.0 0.0 0.0 0.0 0.0145244655734763 0.4849668493698725 0.6864128717905975 0.06349060389319083 0.0003975338203973561 0.0 0.19070623297974382 6.367614732226426 6.392013944688403 0.2885647946945523 0.0018067912137059835 0.0 0.002548646181821823 -1.570796314870016 -1.570796314870016 0.0 1.5707963705062866 0.0 0.03444116562604904 0.0 0.0 0.0 0.0 0.0 0.014524465426802635 0.48496684432029724 0.6864128708839417 0.0634906068444252 0.0003975338186137378 0.0 0.014524465426802635 0.48496684432029724 0.6864128708839417 0.0634906068444252 0.0003975338186137378 0.0 0.2954353765512192 -0.11159739948643298 0.4809000069994156 -1.2104034961270276 1.20732247758234 -1.207322506129068 0.0038435445191485986 0.010175138735594707 0.0 0.0 0.0 0.03444116562604904 -2.3780442256937197e-07 1.3349393182930307e-07 1.0249153441565407e-07 -1.0723554821369706e-10 4.207478351801154e-08 -1.0974649656855202e-08 0.295435381495512 -0.11159740306938311 0.4808999999601586 -1.210403493055719 1.207322527356485 -1.2073225271088583 0.0038435444505989648 0.010175138397724905 0.0 0.0 0.0 0.03444116390602145
5771.0 0.0028316221784356766 -1.5707963267948966 -1.5707963267948966 0.0 1.5707963267948966 0.0 0.036302848441482065 0.0 0.0 0.0 0.0 0.0 0.23271056693257697 0.0 0.0 0.0 0.0 0.0 0.014524465573476244 0.48496869334474263 0.6864132277563436 0.06349133322745337 0.0003976303986449869 0.0 0.1907062329797431 6.3676389436164715 6.392017259512624 0.2885681095187756 0.0018072301618414655 0.0 0.0028316222596913576 -1.570796314870016 -1.570796314870016 0.0 1.5707963705062866 0.0 0.036302849650382996 0.0 0.0 0.0 0.0 0.0 0.014524465426802635 0.4849686920642853 0.6864132285118103 0.0634913295507431 0.00039763038512319326 0.0 0.014524465426802635 0.4849686920642853 0.6864132285118103 0.0634913295507431 0.00039763038512319326 0.0 0.29546694411664304 -0.11151379387532179 0.4809000069994156 -1.210537033448645 1.2071140410226546 -1.207114069564454 0.004048268492999607 0.010726292048924608 0.0 0.0 0.0 0.036302849650382996 -9.804627155972115e-08 6.003081708714176e-08 -1.1135149155260286e-07 4.948802016627131e-11 -1.7476557287265714e-08 -4.877785874146775e-09 0.29546694905877363 -0.1115137974652874 0.4808999999601586 -1.2105370303702698 1.2071140908159161 -1.2071140905683324 0.004048268488516455 0.01072629187114776 0.0 0.0 0.0 0.036302848441482065
5771.008 0.003129491704109376 -1.5707963267948966 -1.5707963267948966 0.0 1.5707963267948966 0.0 0.03816453297694269 0.0 0.0 0.0 0.0 0.0 0.23271056693257783 0.0 0.0 0.0 0.0 0.0 0.014524465573476298 0.48497063437092175 0.686413602457129 0.06349210094772974 0.0003977320599582855 0.0 0.1907062329797438 6.367664429290203 6.3920207488012775 0.28857159880743166 0.0018076922125104073 0.0 0.003129491815343499 -1.570796314870016 -1.570796314870016 0.0 1.5707963705062866 0.0 0.03816453367471695 0.0 0.0 0.0 0.0 0.0 0.014524465426802635 0.4849706292152405 0.686413586139679 0.06349210441112518 0.0003977320739068091 0.0 0.014524465426802635 0.4849706292152405 0.686413586139679 0.06349210441112518 0.0003977320739068091 0.0 0.29550014757254234 -0.11142577832216775 0.4809000069994156 -1.2106775702301495 1.2068946281010784 -1.20689465663769 0.004252512869007917 0.01127762533291612 0.0 0.0 0.0 0.03816453367471695 3.4635196260235943e-07 -1.7177900045037564e-07 7.863657326100501e-07 -1.5844648903579757e-10 5.06291228071495e-08 1.409400816911757e-08 0.29550015251240175 -0.11142578191951975 0.4808999999601586 -1.2106775671443415 1.2068946779144636 -1.2068946776669247 0.004252512928549136 0.01127762531525115 0.0 0.0 0.0 0.03816453297694269
5771.016 0.0034422547060667602 -1.5707963267948966 -1.5707963267948966 0.0 1.5707963267948966 0.0 0.0400262175124033 0.0 0.0 0.0 0.0 0.0 0.23271056693257697 0.0 0.0 0.0 0.0 0.0 0.014524465573476244 0.48497267244841 0.686413995892954 0.06349290705401993 0.0003978388043372459 0.0 0.1907062329797431 6.3676911892476245 6.392024412554367 0.2885752625605206 0.0018081773657127825 0.0 0.003442254615947604 -1.570796314870016 -1.570796314870016 0.0 1.5707963705062866 0.0 0.0400262176990509 0.0 0.0 0.0 0.0 0.0 0.014524465426802635 0.48497268557548523 0.6864140033721924 0.06349290907382965 0.00039783879765309393 0.0 0.014524465426802635 0.48497268557548523 0.6864140033721924 0.06349290907382965 0.00039783879765309393 0.0 0.2955349829574655 -0.11133335142007433 0.4809000069994156 -1.2108251019296836 1.2066642380653199 -1.206664266596484 0.004456252961104834 0.011829147565540812 0.0 0.0 0.0 0.0400262176990509 4.222800765883722e-07 -2.117507092035828e-07 -2.835551040811357e-07 1.721909521442195e-10 -5.0022011236414754e-08 1.7491710557664485e-08 0.2955349879208671 -0.11133335495637421 0.4808999999601586 -1.2108250989458917 1.2066642877283231 -1.2066642874808318 0.004456253081869439 0.011829147709046108 0.0 0.0 0.0 0.0400262175124033
5771.023999999999 0.0037699111843078293 -1.5707963267948966 -1.5707963267948966 0.0 1.5707963267948966 0.0 0.041887902047863926 0.0 0.0 0.0 0.0 0.0 0.23271056693257783 0.0 0.0 0.0 0.0 0.0 0.0145244655734763 0.4849748075772071 0.686414408063818 0.06349375154632392 0.0003979506317818742 0.0 0.19070623297974382 6.36771922348873 6.392028250771887 0.28857910077804216 0.0018086856214486182 0.0 0.00376991112716496 -1.570796314870016 -1.570796314870016 0.0 1.5707963705062866 0.0 0.04188790172338486 0.0 0.0 0.0 0.0 0.0 0.014524465426802635 0.48497480154037476 0.6864144206047058 0.0634937509894371 0.00039795064367353916 0.0 0.014524465426802635 0.48497480154037476 0.6864144206047058 0.0634937509894371 0.00039795064367353916 0.0 0.29557144619018233 -0.11123651148404162 0.4809000069994156 -1.2109796241137163 1.2064228696028243 -1.2064228981282816 0.004659464061095707 0.012380867690253093 0.0 0.0 0.0 0.04188790172338486 -8.062523194865828e-07 4.3016161880541867e-07 -5.595043834084673e-07 -7.660551740583082e-11 2.0320135898945442e-08 -3.553297115490018e-08 0.2955714511510742 -0.11123651502846185 0.4808999999601586 -1.2109796211217347 1.2064229192879599 -1.2064229190405178 0.0046594642456579535 0.012380867993961193 0.0 0.0 0.0 0.041887902047863926
5771.032 0.004112461138832584 -1.5707963267948966 -1.5707963267948966 0.0 1.5707963267948966 0.0 0.04374958658332454 0.0 0.0 0.0 0.0 0.0 0.23271056693257697 0.0 0.0 0.0 0.0 0.0 0.014524465573476244 0.48497703975731327 0.6864148389697214 0.06349463442464173 0.00039806754229216435 0.0 0.1907062329797431 6.367748532013524 6.3920322634538405 0.28858311345999665 0.0018092169797178869 0.0 0.004112461116164923 -1.570796314870016 -1.570796314870016 0.0 1.5707963705062866 0.0 0.04374958574771881 0.0 0.0 0.0 0.0 0.0 0.014524465426802635 0.48497703671455383 0.6864148378372192 0.06349463760852814 0.00039806755376048386 0.0 0.014524465426802635 0.48497703671455383 0.6864148378372192 0.06349463760852814 0.00039806755376048386 0.0 0.29560953291397274 -0.11113525696410695 0.4809000069994156 -1.2111411317981442 1.206170521869899 -1.2061705503893894 0.004862121454145961 0.012932794608062957 0.0 0.0 0.0 0.04374958574771881 -1.2098543115630254e-07 7.236174326026272e-08 1.1731231002999623e-07 -1.413843414415351e-10 3.4378971607124345e-08 -6.019249659076538e-09 0.295609537872247 -0.11113526051701882 0.4808999999601586 -1.2111411287976073 1.2061705715781734 -1.2061705713307833 0.004862121702449644 0.012932795071998425 0.0 0.0 0.0 0.04374958658332454
5771.04 0.004469904569641023 -1.5707963267948966 -1.5707963267948966 0.0 1.5707963267948966 0.0 0.045611271118785164 0.0 0.0 0.0 0.0 0.0 0.23271056693257783 0.0 0.0 0.0 0.0 0.0 0.014524465573476298 0.4849793689887281 0.6864152886106639 0.06349555568897337 0.0003981895358681225 0.0 0.1907062329797438 6.367779114822001 6.392036450600225 0.288587300606384 0.0018097714405206167 0.0 0.004469904582947493 -1.570796314870016 -1.570796314870016 0.0 1.5707963705062866 0.0 0.045611269772052765 0.0 0.0 0.0 0.0 0.0 0.014524465426802635 0.4849793612957001 0.6864153146743774 0.06349555402994156 0.00039818952791392803 0.0 0.014524465426802635 0.4849793612957001 0.6864153146743774 0.06349555402994156 0.00039818952791392803 0.0 0.2956492386002591 -0.11102958617045404 0.4809000069994156 -1.211309619887695 1.2059071938057477 -1.2059072223190122 0.005064200407499958 0.013484937179698413 0.0 0.0 0.0 0.045611269772052765 -1.4140596210471114e-06 7.457766324312702e-07 -1.1735091197552847e-06 -7.488590459039707e-11 1.6753406634184978e-08 -6.156001380641435e-08 0.29564924355580885 -0.1110295897322291 0.4808999999601586 -1.2113096168782387 1.2059072435381686 -1.2059072432908327 0.005064200719484187 0.013484937803887745 0.0 0.0 0.0 0.045611271118785164
5771.048 0.004842241476733147 -1.5707963267948966 -1.5707963267948966 0.0 1.5707963267948966 0.0 0.04747295565424578 0.0 0.0 0.0 0.0 0.0 0.23271056693257697 0.0 0.0 0.0 0.0 0.0 0.014524465573476244 0.48498179527145213 0.6864157569866457 0.06349651533931881 0.0003983166125097423 0.0 0.1907062329797431 6.367810971914167 6.392040812211043 0.288591662217204 0.0018103490038567788 0.0 0.004842241294682026 -1.570796314870016 -1.570796314870016 0.0 1.5707963705062866 0.0 0.04747295379638672 0.0 0.0 0.0 0.0 0.0 0.014524465426802635 0.48498180508613586 0.6864157319068909 0.06349651515483856 0.0003983166243415326 0.0 0.014524465426802635 0.48498180508613586 0.6864157319068909 0.06349651515483856 0.0003983166243415326 0.0 0.2956905584967131 -0.11091949741139775 0.4809000069994156 -1.2114850829564574 1.2056328844755886 -1.2056329129823669 0.005265676175729722 0.014037304221542245 0.0 0.0 0.0 0.04747295379638672 1.4911711247124448e-06 -7.67157293078844e-07 1.091250821599846e-06 1.8602836715120404e-10 -3.841748497517212e-08 6.336704122427862e-08 0.2956905634752577 -0.11091950091356206 0.4808999999601586 -1.2114850800474242 1.2056329340616279 -1.2056329338143479 0.005265676548060606 0.014037305007239854 0.0 0.0 0.0 0.04747295565424578
5771.056 0.005229471860108956 -1.5707963267948966 -1.5707963267948966 0.0 1.5707963267948966 0.0 0.0493346401897064 0.0 0.0 0.0 0.0 0.0 0.23271056693257783 0.0 0.0 0.0 0.0 0.0 0.0145244655734763 0.4849843186054852 0.686416244097667 0.06349751337567809 0.00039844877221703004 0.0 0.19070623297974382 6.367844103290021 6.392045348286295 0.2885961982924569 0.0018109496697264016 0.0 0.00522947171702981 -1.570796314870016 -1.570796314870016 0.0 1.5707963705062866 0.0 0.04933464154601097 0.0 0.0 0.0 0.0 0.0 0.014524465426802635 0.48498430848121643 0.6864162683486938 0.06349751353263855 0.0003984487848356366 0.0 0.014524465426802635 0.48498430848121643 0.6864162683486938 0.06349751353263855 0.0003984487848356366 0.0 0.295733487730454 -0.11080498871836333 0.4809000069994156 -1.2116675156868106 1.2053475923845944 -1.2053476208846272 0.005466524399930245 0.01458990561033358 0.0 0.0 0.0 0.04933464154601097 -1.476533686912076e-06 7.773431517034879e-07 -1.0556484615900108e-06 -2.0880817691802555e-10 3.992870810060358e-08 -6.435327768075651e-08 0.295733492706036 -0.11080499223012483 0.4808999999601586 -1.2116675127681011 1.2053476419967881 -1.205347641749567 0.005466524422896422 0.014589905454697448 0.0 0.0 0.0 0.0493346401897064
5771.063999999999 0.00563159571976845 -1.5707963267948966 -1.5707963267948966 0.0 1.5707963267948966 0.0 0.05119632472516702 0.0 0.0 0.0 0.0 0.0 0.23271056693257697 0.0 0.0 0.0 0.0 0.0 0.014524465573476244 0.4849869389908269 0.6864167499437273 0.0634985497980512 0.0003985860149899796 0.0 0.1907062329797431 6.367878508949558 6.392050058825977 0.2886009088321427 0.0018115734381294573 0.0 0.005631595849990845 -1.570796314870016 -1.570796314870016 0.0 1.5707963705062866 0.0 0.051196325570344925 0.0 0.0 0.0 0.0 0.0 0.014524465426802635 0.48498693108558655 0.686416745185852 0.06349854916334152 0.0003985860093962401 0.0 0.014524465426802635 0.48498693108558655 0.686416745185852 0.06349854916334152 0.0003985860093962401 0.0 0.2957780211786525 -0.11068605819043242 0.4809000069994156 -1.2118569123208223 1.2050513163356176 -1.2050513448286448 0.005666719471215522 0.01514274786881467 0.0 0.0 0.0 0.051196325570344925 -2.4493047033310515e-07 1.361691174280996e-07 1.9423929088196537e-07 -1.9069998811609688e-10 3.386193944975791e-08 -1.1239619320165242e-08 0.2957780261253956 -0.11068606178102944 0.4808999999601586 -1.2118569092824292 1.2050513661465203 -1.2050513658993598 0.0056667195614914815 0.015142747872084687 0.0 0.0 0.0 0.05119632472516702
5771.072 0.006048613055711629 -1.5707963267948966 -1.5707963267948966 0.0 1.5707963267948966 0.0 0.05305800926062764 0.0 0.0 0.0 0.0 0.0 0.23271056693257783 0.0 0.0 0.0 0.0 0.0 0.014524465573476298 0.48498965642747793 0.686417274524827 0.0634996246064381 0.0003987283408285971 0.0 0.1907062329797438 6.367914188892786 6.392054943830095 0.2886057938362611 0.0018122203090659736 0.0 0.006048613227903843 -1.570796314870016 -1.570796314870016 0.0 1.5707963705062866 0.0 0.05305800959467888 0.0 0.0 0.0 0.0 0.0 0.014524465426802635 0.48498964309692383 0.686417281627655 0.06349962204694748 0.00039872832712717354 0.0 0.014524465426802635 0.48498964309692383 0.686417281627655 0.06349962204694748 0.00039872832712717354 0.0 0.29582415346865754 -0.11056270399482525 0.4809000069994156 -1.212053266660631 1.2047440554293336 -1.2047440839150956 0.005866237009371078 0.01569584077307779 0.0 0.0 0.0 0.05305800959467888 -9.93023334831018e-07 5.24232705351977e-07 -3.647167395432285e-07 -2.5996367475041896e-10 4.2978388807348085e-08 -4.3363526059910526e-08 0.2958241584122573 -0.11056270759577476 0.4808999999601586 -1.2120532636118702 1.2047441052684122 -1.2047441050213146 0.005866237163496683 0.015695840936554926 0.0 0.0 0.0 0.05305800926062764
5771.08 0.006480523867938493 -1.5707963267948966 -1.5707963267948966 0.0 1.5707963267948966 0.0 0.054919693796088256 0.0 0.0 0.0 0.0 0.0 0.23271056693257697 0.0 0.0 0.0 0.0 0.0 0.014524465573476244 0.48499247091543773 0.686417817840966 0.06350073780083883 0.00039887574973287635 0.0 0.1907062329797431 6.367951143119698 6.392060003298644 0.2886108533048125 0.0018128902825359228 0.0 0.0064805238507688046 -1.570796314870016 -1.570796314870016 0.0 1.5707963705062866 0.0 0.05491969361901283 0.0 0.0 0.0 0.0 0.0 0.014524465426802635 0.48499247431755066 0.686417818069458 0.06350073963403702 0.0003988757380284369 0.0 0.014524465426802635 0.48499247431755066 0.686417818069458 0.06350073963403702 0.0003988757380284369 0.0 0.29587187908099877 -0.11043492409185623 0.4809000069994156 -1.2122565725071854 1.204425808378152 -1.2044258368563894 0.006065052195963683 0.016249192949610063 0.0 0.0 0.0 0.05491969361901283 1.7513838745657314e-07 -8.207424813656716e-08 2.9093193101257376e-08 2.713853815910696e-11 -4.187645660446205e-09 6.867891982451106e-09 0.29587188404706555 -0.11043492763464333 0.4808999999601586 -1.212256569557277 1.2044258580748528 -1.2044258578278204 0.006065052410087777 0.01624919327473657 0.0 0.0 0.0 0.054919693796088256
5771.088 0.006927328156449042 -1.5707963267948966 -1.5707963267948966 0.0 1.5707963267948966 0.0 0.05678137833154888 0.0 0.0 0.0 0.0 0.0 0.23271056693257783 0.0 0.0 0.0 0.0 0.0 0.0145244655734763 0.48499538245470647 0.6864183798921442 0.06350188938125337 0.0003990282417028235 0.0 0.19070623297974382 6.367989371630296 6.392065237231625 0.2886160872377965 0.0018135833585393327 0.0 0.006927328184247017 -1.570796314870016 -1.570796314870016 0.0 1.5707963705062866 0.0 0.056781377643346786 0.0 0.0 0.0 0.0 0.0 0.014524465426802635 0.48499539494514465 0.686418354511261 0.06350188702344894 0.0003990282421000302 0.0 0.014524465426802635 0.48499539494514465 0.686418354511261 0.06350188702344894 0.0003990282421000302 0.0 0.2959211923489491 -0.11030271623523816 0.4809000069994156 -1.2124668236600091 1.204096573506238 -1.2040966019766906 0.006263140185639977 0.016802812975435143 0.0 0.0 0.0 0.056781377643346786 1.6490358035432145e-06 -8.452406543243121e-07 1.0580804102969534e-06 4.454353713196809e-10 -6.429998441124072e-08 7.015731916480421e-08 0.2959211973116382 -0.11030271978911292 0.4808999999601586 -1.2124668206989802 1.2040966232331225 -1.2040966229861576 0.006263140463344444 0.01680281346087705 0.0 0.0 0.0 0.05678137833154888
5771.096 0.007389025921243276 -1.5707963267948966 -1.5707963267948966 0.0 1.5707963267948966 0.0 0.058643062867009495 0.0 0.0 0.0 0.0 0.0 0.23271056693257697 0.0 0.0 0.0 0.0 0.0 0.014524465573476244 0.48499839104528425 0.6864189606783617 0.06350307934768175 0.00039918581673843256 0.0 0.1907062329797431 6.368028874424581 6.3920706456290395 0.28862149563521355 0.0018142995370761758 0.0 0.007389025762677193 -1.570796314870016 -1.570796314870016 0.0 1.5707963705062866 0.0 0.05864306166768074 0.0 0.0 0.0 0.0 0.0 0.014524465426802635 0.4849984049797058 0.6864189505577087 0.06350307911634445 0.00039918581023812294 0.0 0.014524465426802635 0.4849984049797058 0.6864189505577087 0.06350307911634445 0.00039918581023812294 0.0 0.29597208730415114 -0.11016607838585848 0.4809000069994156 -1.2126840132598795 1.2037563497789847 -1.203756378241393 0.006460476128468449 0.017356709367689523 0.0 0.0 0.0 0.05864306166768074 1.142048170694261e-06 -5.820866648733453e-07 4.3701815920230966e-07 4.608043949407462e-10 -6.236200029923885e-08 4.8392261387807194e-08 0.29597209228901156 -0.11016608188228307 0.4808999999601586 -1.212684010396881 1.2037563993654852 -1.2037563991185902 0.006460476465634841 0.01735671001498484 0.0 0.0 0.0 0.058643062867009495
5771.103999999999 0.007865617162321195 -1.5707963267948966 -1.5707963267948966 0.0 1.5707963267948966 0.0 0.06050474740247012 0.0 0.0 0.0 0.0 0.0 0.23271056693257783 0.0 0.0 0.0 0.0 0.0 0.014524465573476298 0.48500149668717085 0.6864195601996184 0.06350430770012391 0.0003993484748397093 0.0 0.1907062329797438 6.3680696515025526 6.392076228490886 0.28862707849706315 0.0018150388181464789 0.0 0.00786561705172062 -1.570796314870016 -1.570796314870016 0.0 1.5707963705062866 0.0 0.060504745692014694 0.0 0.0 0.0 0.0 0.0 0.014524465426802635 0.48500150442123413 0.6864195466041565 0.06350430846214294 0.0003993484715465456 0.0 0.014524465426802635 0.48500150442123413 0.6864195466041565 0.06350430846214294 0.0003993484715465456 0.0 0.29602455788203097 -0.11002500816106893 0.4809000069994156 -1.2129081346654171 1.2034051354305895 -1.2034051638846934 0.006657035138547317 0.017910890593243366 0.0 0.0 0.0 0.060504745692014694 9.401728889673914e-07 -4.769939303075384e-07 6.099275087447188e-07 2.0847326306302967e-10 -2.6503800298409098e-08 3.9685212742794296e-08 0.29602456286327977 -0.11002501166931634 0.4808999999601586 -1.212908131790546 1.2034051850492822 -1.2034051848024592 0.006657035539005813 0.017910891400969377 0.0 0.0 0.0 0.06050474740247012
5771.112 0.0083571018796828 -1.5707963267948966 -1.5707963267948966 0.0 1.5707963267948966 0.0 0.06236643193793074 0.0 0.0 0.0 0.0 0.0 0.23271056693257783 0.0 0.0 0.0 0.0 0.0 0.014524465573476298 0.4850046993803665 0.6864201784559145 0.06350557443857993 0.00039951621600664957 0.0 0.1907062329797438 6.368111702864213 6.392081985817168 0.28863283582334576 0.0018158012017502223 0.0 0.008357102051377296 -1.570796314870016 -1.570796314870016 0.0 1.5707963705062866 0.0 0.06236643344163895 0.0 0.0 0.0 0.0 0.0 0.014524465426802635 0.4850046932697296 0.686420202255249 0.06350557506084442 0.00039951622602529824 0.0 0.014524465426802635 0.4850046932697296 0.686420202255249 0.06350557506084442 0.00039951622602529824 0.0 0.29607859776747614 -0.10987950324851439 0.4809000069994156 -1.213139180795838 1.2030429289935465 -1.203042957439086 0.0068527927259488235 0.01846536616115909 0.0 0.0 0.0 0.06236643344163895 -1.2443838995836904e-06 6.515753281283052e-07 -1.0260069257931498e-06 -2.0506344633394013e-10 2.4537080133167505e-08 -5.425939956286071e-08 0.2960786027194301 -0.10987950683789471 0.4808999999601586 -1.2131391777993032 1.2030429788170305 -1.2030429785702819 0.006852792784578956 0.01846536602477897 0.0 0.0 0.0 0.06236643193793074
5771.12 0.008863480073328087 -1.5707963267948966 -1.5707963267948966 0.0 1.5707963267948966 0.0 0.06422811647339136 0.0 0.0 0.0 0.0 0.0 0.23271056693257697 0.0 0.0 0.0 0.0 0.0 0.014524465573476244 0.4850079991248711 0.6864208154472498 0.06350687956304973 0.0003996890402392532 0.0 0.1907062329797431 6.368155028509558 6.3920879176078795 0.28863876761406104 0.0018165866878874055 0.0 0.00886347983032465 -1.570796314870016 -1.570796314870016 0.0 1.5707963705062866 0.0 0.0642281174659729 0.0 0.0 0.0 0.0 0.0 0.014524465426802635 0.48500800132751465 0.6864207983016968 0.06350687891244888 0.0003996890445705503 0.0 0.014524465426802635 0.48500800132751465 0.6864207983016968 0.06350687891244888 0.0003996890445705503 0.0 0.2961342003438976 -0.10972956154462449 0.4809000069994156 -1.2133771439126373 1.2026697296420246 -1.20266975807874 0.007047723168377844 0.019020142205379807 0.0 0.0 0.0 0.0642281174659729 7.774965415403793e-07 -3.917767506765224e-07 7.348456810662666e-07 7.829388446188765e-11 -8.833124355990144e-09 3.262996465569629e-08 0.29613420534317314 -0.10972956500869054 0.4808999999601586 -1.2133771411223468 1.2026697791565255 -1.2026697789098533 0.007047723281952745 0.019020142232536518 0.0 0.0 0.0 0.06422811647339136
5771.128 0.009384751743257062 -1.5707963267948966 -1.5707963267948966 0.0 1.5707963267948966 0.0 0.06608980100885198 0.0 0.0 0.0 0.0 0.0 0.23271056693257783 0.0 0.0 0.0 0.0 0.0 0.0145244655734763 0.4850113959206847 0.6864214711736244 0.06350822307353336 0.0003998669475375246 0.0 0.19070623297974382 6.368199628438591 6.3920940238630255 0.2886448738692091 0.0018173952765580491 0.0 0.009384751319885254 -1.570796314870016 -1.570796314870016 0.0 1.5707963705062866 0.0 0.06608980149030685 0.0 0.0 0.0 0.0 0.0 0.014524465426802635 0.48501139879226685 0.6864214539527893 0.06350822001695633 0.00039986695628613234 0.0 0.014524465426802635 0.48501139879226685 0.6864214539527893 0.06350822001695633 0.00039986695628613234 0.0 0.29619135899992366 -0.10957518032781674 0.4809000069994156 -1.2136220169327534 1.2022855351328423 -1.2022855635604734 0.007241801916129985 0.019575228119449166 0.0 0.0 0.0 0.06608980149030685 8.168160490286971e-07 -4.1141883847870346e-07 6.86854499588836e-07 2.5358581356298154e-10 -2.7020214982050742e-08 3.4281764235526094e-08 0.2961913640207681 -0.1095751837358528 0.4808999999601586 -1.2136220142388379 1.202285584510943 -1.2022855842643496 0.007241802088610905 0.019575228308673004 0.0 0.0 0.0 0.06608980100885198
5771.1359999999995 0.00992091688946972 -1.5707963267948966 -1.5707963267948966 0.0 1.5707963267948966 0.0 0.0679514855443126 0.0 0.0 0.0 0.0 0.0 0.23271056693257783 0.0 0.0 0.0 0.0 0.0 0.014524465573476298 0.4850148897678072 0.6864221456350382 0.06350960497003083 0.0004000499379014594 0.0 0.1907062329797438 6.368245502651309 6.392100304582604 0.28865115458879015 0.0018182269677621326 0.0 0.009920916520059109 -1.570796314870016 -1.570796314870016 0.0 1.5707963705062866 0.0 0.06795148551464081 0.0 0.0 0.0 0.0 0.0 0.014524465426802635 0.4850148856639862 0.6864221692085266 0.06350960582494736 0.0004000499320682138 0.0 0.014524465426802635 0.4850148856639862 0.6864221692085266 0.06350960582494736 0.0004000499320682138 0.0 0.296250066822077 -0.10941635708617839 0.4809000069994156 -1.2138737921153038 1.20189034386464 -1.201890372282927 0.007435004003606217 0.020130632124371738 0.0 0.0 0.0 0.06795148551464081 -1.1280167655096478e-06 5.889289196226342e-07 -1.011186159875177e-06 -1.670876761563419e-10 1.684145000035942e-08 -4.9120921384913296e-08 0.29625007183884383 -0.10941636050750796 0.4808999999601586 -1.2138737894080132 1.2018903932789482 -1.201890393032436 0.007435004239337223 0.020130632474058767 0.0 0.0 0.0 0.0679514855443126
5771.143999999999 0.010471975511966063 -1.5707963267948966 -1.5707963267948966 0.0 1.5707963267948966 0.0 0.06981317007977321 0.0 0.0 0.0 0.0 0.0 0.23271056693257608 0.0 0.0 0.0 0.0 0.0 0.014524465573476187 0.4850184806662386 0.6864228388314912 0.06351102525254212 0.000400238011331056 0.0 0.19070623297974235 6.368292651147714 6.392106759766614 0.2886576097728039 0.0018190817614996495 0.0 0.010471975430846214 -1.570796314870016 -1.570796314870016 0.0 1.5707963705062866 0.0 0.06981316953897476 0.0 0.0 0.0 0.0 0.0 0.014524465426802635 0.4850184917449951 0.6864228248596191 0.06351102888584137 0.00040023800102062523 0.0 0.014524465426802635 0.4850184917449951 0.6864228248596191 0.06351102888584137 0.00040023800102062523 0.0 0.29631031669705976 -0.10925308924228799 0.4809000069994156 -1.2141324614995859 1.201484154191657 -1.2014841826003397 0.0076273044419285915 0.020686362375719136 0.0 0.0 0.0 0.06981316953897476 1.1371052316027115e-06 -5.751866115403652e-07 6.875602260190098e-07 2.482649901975604e-10 -2.3706703507399195e-08 4.812729141409415e-08 0.2963103216842145 -0.10925309274627605 0.4808999999601586 -1.2141324586692954 1.2014842038148064 -1.2014842035683775 0.007627304745637007 0.020686362884132378 0.0 0.0 0.0 0.06981317007977321
5771.152 0.011037927610746092 -1.5707963267948966 -1.5707963267948966 0.0 1.5707963267948966 0.0 0.07167485461523383 0.0 0.0 0.0 0.0 0.0 0.23271056693257783 0.0 0.0 0.0 0.0 0.0 0.014524465573476298 0.4850221686159793 0.6864235507629839 0.06351248392106719 0.00040043116782632334 0.0 0.1907062329797438 6.368341073927808 6.3921133894150595 0.28866423942125036 0.0018199596577706397 0.0 0.01103792805224657 -1.570796314870016 -1.570796314870016 0.0 1.5707963705062866 0.0 0.07167485356330872 0.0 0.0 0.0 0.0 0.0 0.014524465426802635 0.4850221574306488 0.6864235401153564 0.06351248174905777 0.0004004311631433666 0.0 0.014524465426802635 0.4850221574306488 0.6864235401153564 0.06351248174905777 0.0004004311631433666 0.0 0.29637210131156466 -0.10908537415374643 0.4809000069994156 -1.2143980169051873 1.2010669644238425 -1.201066992822661 0.007818678218368517 0.021242426961756492 0.0 0.0 0.0 0.07167485356330872 -1.9704129558002382e-07 1.0992776998178676e-07 4.1866847598386784e-07 -4.5398295660896214e-10 4.112755001325692e-08 -9.15937553736459e-09 0.2963721062436915 -0.1090853778098015 0.4808999999601586 -1.2143980138424069 1.2010670144284945 -1.2010670141821511 0.007818678595165378 0.021242427627027223 0.0 0.0 0.0 0.07167485461523383
