Fleaurent/UniversalRobot/csv/robot_movej_10.csv
timestamp target_q_0 target_q_1 target_q_2 target_q_3 target_q_4 target_q_5 target_qd_0 target_qd_1 target_qd_2 target_qd_3 target_qd_4 target_qd_5 target_qdd_0 target_qdd_1 target_qdd_2 target_qdd_3 target_qdd_4 target_qdd_5 target_current_0 target_current_1 target_current_2 target_current_3 target_current_4 target_current_5 target_moment_0 target_moment_1 target_moment_2 target_moment_3 target_moment_4 target_moment_5 actual_q_0 actual_q_1 actual_q_2 actual_q_3 actual_q_4 actual_q_5 actual_qd_0 actual_qd_1 actual_qd_2 actual_qd_3 actual_qd_4 actual_qd_5 actual_current_0 actual_current_1 actual_current_2 actual_current_3 actual_current_4 actual_current_5 joint_control_output_0 joint_control_output_1 joint_control_output_2 joint_control_output_3 joint_control_output_4 joint_control_output_5 actual_TCP_pose_0 actual_TCP_pose_1 actual_TCP_pose_2 actual_TCP_pose_3 actual_TCP_pose_4 actual_TCP_pose_5 actual_TCP_speed_0 actual_TCP_speed_1 actual_TCP_speed_2 actual_TCP_speed_3 actual_TCP_speed_4 actual_TCP_speed_5 actual_TCP_force_0 actual_TCP_force_1 actual_TCP_force_2 actual_TCP_force_3 actual_TCP_force_4 actual_TCP_force_5 target_TCP_pose_0 target_TCP_pose_1 target_TCP_pose_2 target_TCP_pose_3 target_TCP_pose_4 target_TCP_pose_5 target_TCP_speed_0 target_TCP_speed_1 target_TCP_speed_2 target_TCP_speed_3 target_TCP_speed_4 target_TCP_speed_5
398.32 8.142358315366138e-17 -1.5707963267948966 -1.5707963267948966 0.0 1.5707963267948966 0.0 0.0 0.0 0.0 0.0 0.0 0.0 0.0 0.0 0.0 0.0 0.0 0.0 -1.6018983243994446e-26 0.4870342307692309 0.6867077006507593 0.06409467546754684 -8.567713817370151e-28 0.0 -2.1032924999364705e-25 6.394759450000002 6.3947594500000005 0.2913103000000004 -3.894025929994733e-27 0.0 8.142358315366138e-17 -1.570796314870016 -1.570796314870016 0.0 1.5707963705062866 0.0 0.0 0.0 0.0 0.0 0.0 0.0 -1.6018983942199055e-26 0.48703423142433167 0.6867076754570007 0.064094677567482 -8.567714098795418e-28 0.0 -1.6018983942199055e-26 0.48703423142433167 0.6867076754570007 0.064094677567482 -8.567714098795418e-28 0.0 0.2951499950589256 -0.11234999647001058 0.4809000069994156 -1.2091995794109558 1.2091995265551612 -1.2091995551462713 0.0 0.0 0.0 0.0 0.0 0.0 9.98197363699077e-07 -5.258967243140419e-07 1.144916897842466e-06 -1.8103060643113828e-15 1.8116749963477848e-08 4.307094529482934e-08 0.2951500000000001 -0.11235000004997343 0.4808999999601586 -1.2091995763071837 1.2091995763071837 -1.209199576059172 0.0 0.0 0.0 0.0 0.0 0.0
398.328 8.142358315366138e-17 -1.5707963267948966 -1.5707963267948966 0.0 1.5707963267948966 0.0 0.0 0.0 0.0 0.0 0.0 0.0 0.0 0.0 0.0 0.0 0.0 0.0 -1.6018983243994446e-26 0.4870342307692309 0.6867077006507593 0.06409467546754684 -8.567713817370151e-28 0.0 -2.1032924999364705e-25 6.394759450000002 6.3947594500000005 0.2913103000000004 -3.894025929994733e-27 0.0 8.142358315366138e-17 -1.570796314870016 -1.570796314870016 0.0 1.5707963705062866 0.0 0.0 0.0 0.0 0.0 0.0 0.0 -1.6018983942199055e-26 0.48703423142433167 0.6867076754570007 0.064094677567482 -8.567714098795418e-28 0.0 -1.6018983942199055e-26 0.48703423142433167 0.6867076754570007 0.064094677567482 -8.567714098795418e-28 0.0 0.2951499950589256 -0.11234999647001058 0.4809000069994156 -1.2091995794109558 1.2091995265551612 -1.2091995551462713 0.0 0.0 0.0 0.0 0.0 0.0 9.98197363699077e-07 -5.258967243140419e-07 1.144916897842466e-06 -1.8103060643113828e-15 1.8116749963477848e-08 4.307094529482934e-08 0.2951500000000001 -0.11235000004997343 0.4808999999601586 -1.2091995763071837 1.2091995763071837 -1.209199576059172 0.0 0.0 0.0 0.0 0.0 0.0
398.33599999999996 8.142358315366138e-17 -1.5707963267948966 -1.5707963267948966 0.0 1.5707963267948966 0.0 0.0 0.0 0.0 0.0 0.0 0.0 0.0 0.0 0.0 0.0 0.0 0.0 -1.6018983243994446e-26 0.4870342307692309 0.6867077006507593 0.06409467546754684 -8.567713817370151e-28 0.0 -2.1032924999364705e-25 6.394759450000002 6.3947594500000005 0.2913103000000004 -3.894025929994733e-27 0.0 8.142358315366138e-17 -1.570796314870016 -1.570796314870016 0.0 1.5707963705062866 0.0 0.0 0.0 0.0 0.0 0.0 0.0 -1.6018983942199055e-26 0.48703423142433167 0.6867076754570007 0.064094677567482 -8.567714098795418e-28 0.0 -1.6018983942199055e-26 0.48703423142433167 0.6867076754570007 0.064094677567482 -8.567714098795418e-28 0.0 0.2951499950589256 -0.11234999647001058 0.4809000069994156 -1.2091995794109558 1.2091995265551612 -1.2091995551462713 0.0 0.0 0.0 0.0 0.0 0.0 9.98197363699077e-07 -5.258967243140419e-07 1.144916897842466e-06 -1.8103060643113828e-15 1.8116749963477848e-08 4.307094529482934e-08 0.2951500000000001 -0.11235000004997343 0.4808999999601586 -1.2091995763071837 1.2091995763071837 -1.209199576059172 0.0 0.0 0.0 0.0 0.0 0.0
398.344 8.142358315366138e-17 -1.5707963267948966 -1.5707963267948966 0.0 1.5707963267948966 0.0 0.0 0.0 0.0 0.0 0.0 0.0 0.0 0.0 0.0 0.0 0.0 0.0 -1.6018983243994446e-26 0.4870342307692309 0.6867077006507593 0.06409467546754684 -8.567713817370151e-28 0.0 -2.1032924999364705e-25 6.394759450000002 6.3947594500000005 0.2913103000000004 -3.894025929994733e-27 0.0 8.142358315366138e-17 -1.570796314870016 -1.570796314870016 0.0 1.5707963705062866 0.0 0.0 0.0 0.0 0.0 0.0 0.0 -1.6018983942199055e-26 0.48703423142433167 0.6867076754570007 0.064094677567482 -8.567714098795418e-28 0.0 -1.6018983942199055e-26 0.48703423142433167 0.6867076754570007 0.064094677567482 -8.567714098795418e-28 0.0 0.2951499950589256 -0.11234999647001058 0.4809000069994156 -1.2091995794109558 1.2091995265551612 -1.2091995551462713 0.0 0.0 0.0 0.0 0.0 0.0 9.98197363699077e-07 -5.258967243140419e-07 1.144916897842466e-06 -1.8103060643113828e-15 1.8116749963477848e-08 4.307094529482934e-08 0.2951500000000001 -0.11235000004997343 0.4808999999601586 -1.2091995763071837 1.2091995763071837 -1.209199576059172 0.0 0.0 0.0 0.0 0.0 0.0
398.352 8.142358315366138e-17 -1.5707963267948966 -1.5707963267948966 0.0 1.5707963267948966 0.0 0.0 0.0 0.0 0.0 0.0 0.0 0.0 0.0 0.0 0.0 0.0 0.0 -1.6018983243994446e-26 0.4870342307692309 0.6867077006507593 0.06409467546754684 -8.567713817370151e-28 0.0 -2.1032924999364705e-25 6.394759450000002 6.3947594500000005 0.2913103000000004 -3.894025929994733e-27 0.0 8.142358315366138e-17 -1.570796314870016 -1.570796314870016 0.0 1.5707963705062866 0.0 0.0 0.0 0.0 0.0 0.0 0.0 -1.6018983942199055e-26 0.48703423142433167 0.6867076754570007 0.064094677567482 -8.567714098795418e-28 0.0 -1.6018983942199055e-26 0.48703423142433167 0.6867076754570007 0.064094677567482 -8.567714098795418e-28 0.0 0.2951499950589256 -0.11234999647001058 0.4809000069994156 -1.2091995794109558 1.2091995265551612 -1.2091995551462713 0.0 0.0 0.0 0.0 0.0 0.0 9.98197363699077e-07 -5.258967243140419e-07 1.144916897842466e-06 -1.8103060643113828e-15 1.8116749963477848e-08 4.307094529482934e-08 0.2951500000000001 -0.11235000004997343 0.4808999999601586 -1.2091995763071837 1.2091995763071837 -1.209199576059172 0.0 0.0 0.0 0.0 0.0 0.0
398.35999999999996 8.142358315366138e-17 -1.5707963267948966 -1.5707963267948966 0.0 1.5707963267948966 0.0 0.0 0.0 0.0 0.0 0.0 0.0 0.0 0.0 0.0 0.0 0.0 0.0 -1.6018983243994446e-26 0.4870342307692309 0.6867077006507593 0.06409467546754684 -8.567713817370151e-28 0.0 -2.1032924999364705e-25 6.394759450000002 6.3947594500000005 0.2913103000000004 -3.894025929994733e-27 0.0 8.142358315366138e-17 -1.570796314870016 -1.570796314870016 0.0 1.5707963705062866 0.0 0.0 0.0 0.0 0.0 0.0 0.0 -1.6018983942199055e-26 0.48703423142433167 0.6867076754570007 0.064094677567482 -8.567714098795418e-28 0.0 -1.6018983942199055e-26 0.48703423142433167 0.6867076754570007 0.064094677567482 -8.567714098795418e-28 0.0 0.2951499950589256 -0.11234999647001058 0.4809000069994156 -1.2091995794109558 1.2091995265551612 -1.2091995551462713 0.0 0.0 0.0 0.0 0.0 0.0 9.98197363699077e-07 -5.258967243140419e-07 1.144916897842466e-06 -1.8103060643113828e-15 1.8116749963477848e-08 4.307094529482934e-08 0.2951500000000001 -0.11235000004997343 0.4808999999601586 -1.2091995763071837 1.2091995763071837 -1.209199576059172 0.0 0.0 0.0 0.0 0.0 0.0
398.368 8.142358315366138e-17 -1.5707963267948966 -1.5707963267948966 0.0 1.5707963267948966 0.0 0.0 0.0 0.0 0.0 0.0 0.0 0.0 0.0 0.0 0.0 0.0 0.0 -1.6018983243994446e-26 0.4870342307692309 0.6867077006507593 0.06409467546754684 -8.567713817370151e-28 0.0 -2.1032924999364705e-25 6.394759450000002 6.3947594500000005 0.2913103000000004 -3.894025929994733e-27 0.0 8.142358315366138e-17 -1.570796314870016 -1.570796314870016 0.0 1.5707963705062866 0.0 0.0 0.0 0.0 0.0 0.0 0.0 -1.6018983942199055e-26 0.48703423142433167 0.6867076754570007 0.064094677567482 -8.567714098795418e-28 0.0 -1.6018983942199055e-26 0.48703423142433167 0.6867076754570007 0.064094677567482 -8.567714098795418e-28 0.0 0.2951499950589256 -0.11234999647001058 0.4809000069994156 -1.2091995794109558 1.2091995265551612 -1.2091995551462713 0.0 0.0 0.0 0.0 0.0 0.0 9.98197363699077e-07 -5.258967243140419e-07 1.144916897842466e-06 -1.8103060643113828e-15 1.8116749963477848e-08 4.307094529482934e-08 0.2951500000000001 -0.11235000004997343 0.4808999999601586 -1.2091995763071837 1.2091995763071837 -1.209199576059172 0.0 0.0 0.0 0.0 0.0 0.0
398.376 8.142358315366138e-17 -1.5707963267948966 -1.5707963267948966 0.0 1.5707963267948966 0.0 0.0 0.0 0.0 0.0 0.0 0.0 0.0 0.0 0.0 0.0 0.0 0.0 -1.6018983243994446e-26 0.4870342307692309 0.6867077006507593 0.06409467546754684 -8.567713817370151e-28 0.0 -2.1032924999364705e-25 6.394759450000002 6.3947594500000005 0.2913103000000004 -3.894025929994733e-27 0.0 8.142358315366138e-17 -1.570796314870016 -1.570796314870016 0.0 1.5707963705062866 0.0 0.0 0.0 0.0 0.0 0.0 0.0 -1.6018983942199055e-26 0.48703423142433167 0.6867076754570007 0.064094677567482 -8.567714098795418e-28 0.0 -1.6018983942199055e-26 0.48703423142433167 0.6867076754570007 0.064094677567482 -8.567714098795418e-28 0.0 0.2951499950589256 -0.11234999647001058 0.4809000069994156 -1.2091995794109558 1.2091995265551612 -1.2091995551462713 0.0 0.0 0.0 0.0 0.0 0.0 9.98197363699077e-07 -5.258967243140419e-07 1.144916897842466e-06 -1.8103060643113828e-15 1.8116749963477848e-08 4.307094529482934e-08 0.2951500000000001 -0.11235000004997343 0.4808999999601586 -1.2091995763071837 1.2091995763071837 -1.209199576059172 0.0 0.0 0.0 0.0 0.0 0.0
398.38399999999996 8.142358315366138e-17 -1.5707963267948966 -1.5707963267948966 0.0 1.5707963267948966 0.0 0.0 0.0 0.0 0.0 0.0 0.0 0.0 0.0 0.0 0.0 0.0 0.0 -1.6018983243994446e-26 0.4870342307692309 0.6867077006507593 0.06409467546754684 -8.567713817370151e-28 0.0 -2.1032924999364705e-25 6.394759450000002 6.3947594500000005 0.2913103000000004 -3.894025929994733e-27 0.0 8.142358315366138e-17 -1.570796314870016 -1.570796314870016 0.0 1.5707963705062866 0.0 0.0 0.0 0.0 0.0 0.0 0.0 -1.6018983942199055e-26 0.48703423142433167 0.6867076754570007 0.064094677567482 -8.567714098795418e-28 0.0 -1.6018983942199055e-26 0.48703423142433167 0.6867076754570007 0.064094677567482 -8.567714098795418e-28 0.0 0.2951499950589256 -0.11234999647001058 0.4809000069994156 -1.2091995794109558 1.2091995265551612 -1.2091995551462713 0.0 0.0 0.0 0.0 0.0 0.0 9.98197363699077e-07 -5.258967243140419e-07 1.144916897842466e-06 -1.8103060643113828e-15 1.8116749963477848e-08 4.307094529482934e-08 0.2951500000000001 -0.11235000004997343 0.4808999999601586 -1.2091995763071837 1.2091995763071837 -1.209199576059172 0.0 0.0 0.0 0.0 0.0 0.0
398.392 8.142358315366138e-17 -1.5707963267948966 -1.5707963267948966 0.0 1.5707963267948966 0.0 0.0 0.0 0.0 0.0 0.0 0.0 0.0 0.0 0.0 0.0 0.0 0.0 -1.6018983243994446e-26 0.4870342307692309 0.6867077006507593 0.06409467546754684 -8.567713817370151e-28 0.0 -2.1032924999364705e-25 6.394759450000002 6.3947594500000005 0.2913103000000004 -3.894025929994733e-27 0.0 8.142358315366138e-17 -1.570796314870016 -1.570796314870016 0.0 1.5707963705062866 0.0 0.0 0.0 0.0 0.0 0.0 0.0 -1.6018983942199055e-26 0.48703423142433167 0.6867076754570007 0.064094677567482 -8.567714098795418e-28 0.0 -1.6018983942199055e-26 0.48703423142433167 0.6867076754570007 0.064094677567482 -8.567714098795418e-28 0.0 0.2951499950589256 -0.11234999647001058 0.4809000069994156 -1.2091995794109558 1.2091995265551612 -1.2091995551462713 0.0 0.0 0.0 0.0 0.0 0.0 9.98197363699077e-07 -5.258967243140419e-07 1.144916897842466e-06 -1.8103060643113828e-15 1.8116749963477848e-08 4.307094529482934e-08 0.2951500000000001 -0.11235000004997343 0.4808999999601586 -1.2091995763071837 1.2091995763071837 -1.209199576059172 0.0 0.0 0.0 0.0 0.0 0.0
398.4 8.142358315366138e-17 -1.5707963267948966 -1.5707963267948966 0.0 1.5707963267948966 0.0 0.0 0.0 0.0 0.0 0.0 0.0 0.0 0.0 0.0 0.0 0.0 0.0 -1.6018983243994446e-26 0.4870342307692309 0.6867077006507593 0.06409467546754684 -8.567713817370151e-28 0.0 -2.1032924999364705e-25 6.394759450000002 6.3947594500000005 0.2913103000000004 -3.894025929994733e-27 0.0 8.142358315366138e-17 -1.570796314870016 -1.570796314870016 0.0 1.5707963705062866 0.0 0.0 0.0 0.0 0.0 0.0 0.0 -1.6018983942199055e-26 0.48703423142433167 0.6867076754570007 0.064094677567482 -8.567714098795418e-28 0.0 -1.6018983942199055e-26 0.48703423142433167 0.6867076754570007 0.064094677567482 -8.567714098795418e-28 0.0 0.2951499950589256 -0.11234999647001058 0.4809000069994156 -1.2091995794109558 1.2091995265551612 -1.2091995551462713 0.0 0.0 0.0 0.0 0.0 0.0 9.98197363699077e-07 -5.258967243140419e-07 1.144916897842466e-06 -1.8103060643113828e-15 1.8116749963477848e-08 4.307094529482934e-08 0.2951500000000001 -0.11235000004997343 0.4808999999601586 -1.2091995763071837 1.2091995763071837 -1.209199576059172 0.0 0.0 0.0 0.0 0.0 0.0
398.40799999999996 8.142358315366138e-17 -1.5707963267948966 -1.5707963267948966 0.0 1.5707963267948966 0.0 0.0 0.0 0.0 0.0 0.0 0.0 0.0 0.0 0.0 0.0 0.0 0.0 -1.6018983243994446e-26 0.4870342307692309 0.6867077006507593 0.06409467546754684 -8.567713817370151e-28 0.0 -2.1032924999364705e-25 6.394759450000002 6.3947594500000005 0.2913103000000004 -3.894025929994733e-27 0.0 8.142358315366138e-17 -1.570796314870016 -1.570796314870016 0.0 1.5707963705062866 0.0 0.0 0.0 0.0 0.0 0.0 0.0 -1.6018983942199055e-26 0.48703423142433167 0.6867076754570007 0.064094677567482 -8.567714098795418e-28 0.0 -1.6018983942199055e-26 0.48703423142433167 0.6867076754570007 0.064094677567482 -8.567714098795418e-28 0.0 0.2951499950589256 -0.11234999647001058 0.4809000069994156 -1.2091995794109558 1.2091995265551612 -1.2091995551462713 0.0 0.0 0.0 0.0 0.0 0.0 9.98197363699077e-07 -5.258967243140419e-07 1.144916897842466e-06 -1.8103060643113828e-15 1.8116749963477848e-08 4.307094529482934e-08 0.2951500000000001 -0.11235000004997343 0.4808999999601586 -1.2091995763071837 1.2091995763071837 -1.209199576059172 0.0 0.0 0.0 0.0 0.0 0.0
398.416 8.142358315366138e-17 -1.5707963267948966 -1.5707963267948966 0.0 1.5707963267948966 0.0 0.0 0.0 0.0 0.0 0.0 0.0 0.0 0.0 0.0 0.0 0.0 0.0 -1.6018983243994446e-26 0.4870342307692309 0.6867077006507593 0.06409467546754684 -8.567713817370151e-28 0.0 -2.1032924999364705e-25 6.394759450000002 6.3947594500000005 0.2913103000000004 -3.894025929994733e-27 0.0 8.142358315366138e-17 -1.570796314870016 -1.570796314870016 0.0 1.5707963705062866 0.0 0.0 0.0 0.0 0.0 0.0 0.0 -1.6018983942199055e-26 0.48703423142433167 0.6867076754570007 0.064094677567482 -8.567714098795418e-28 0.0 -1.6018983942199055e-26 0.48703423142433167 0.6867076754570007 0.064094677567482 -8.567714098795418e-28 0.0 0.2951499950589256 -0.11234999647001058 0.4809000069994156 -1.2091995794109558 1.2091995265551612 -1.2091995551462713 0.0 0.0 0.0 0.0 0.0 0.0 9.98197363699077e-07 -5.258967243140419e-07 1.144916897842466e-06 -1.8103060643113828e-15 1.8116749963477848e-08 4.307094529482934e-08 0.2951500000000001 -0.11235000004997343 0.4808999999601586 -1.2091995763071837 1.2091995763071837 -1.209199576059172 0.0 0.0 0.0 0.0 0.0 0.0
398.424 8.142358315366138e-17 -1.5707963267948966 -1.5707963267948966 0.0 1.5707963267948966 0.0 0.0 0.0 0.0 0.0 0.0 0.0 0.0 0.0 0.0 0.0 0.0 0.0 -1.6018983243994446e-26 0.4870342307692309 0.6867077006507593 0.06409467546754684 -8.567713817370151e-28 0.0 -2.1032924999364705e-25 6.394759450000002 6.3947594500000005 0.2913103000000004 -3.894025929994733e-27 0.0 8.142358315366138e-17 -1.570796314870016 -1.570796314870016 0.0 1.5707963705062866 0.0 0.0 0.0 0.0 0.0 0.0 0.0 -1.6018983942199055e-26 0.48703423142433167 0.6867076754570007 0.064094677567482 -8.567714098795418e-28 0.0 -1.6018983942199055e-26 0.48703423142433167 0.6867076754570007 0.064094677567482 -8.567714098795418e-28 0.0 0.2951499950589256 -0.11234999647001058 0.4809000069994156 -1.2091995794109558 1.2091995265551612 -1.2091995551462713 0.0 0.0 0.0 0.0 0.0 0.0 9.98197363699077e-07 -5.258967243140419e-07 1.144916897842466e-06 -1.8103060643113828e-15 1.8116749963477848e-08 4.307094529482934e-08 0.2951500000000001 -0.11235000004997343 0.4808999999601586 -1.2091995763071837 1.2091995763071837 -1.209199576059172 0.0 0.0 0.0 0.0 0.0 0.0
398.43199999999996 8.142358315366138e-17 -1.5707963267948966 -1.5707963267948966 0.0 1.5707963267948966 0.0 0.0 0.0 0.0 0.0 0.0 0.0 0.0 0.0 0.0 0.0 0.0 0.0 -1.6018983243994446e-26 0.4870342307692309 0.6867077006507593 0.06409467546754684 -8.567713817370151e-28 0.0 -2.1032924999364705e-25 6.394759450000002 6.3947594500000005 0.2913103000000004 -3.894025929994733e-27 0.0 8.142358315366138e-17 -1.570796314870016 -1.570796314870016 0.0 1.5707963705062866 0.0 0.0 0.0 0.0 0.0 0.0 0.0 -1.6018983942199055e-26 0.48703423142433167 0.6867076754570007 0.064094677567482 -8.567714098795418e-28 0.0 -1.6018983942199055e-26 0.48703423142433167 0.6867076754570007 0.064094677567482 -8.567714098795418e-28 0.0 0.2951499950589256 -0.11234999647001058 0.4809000069994156 -1.2091995794109558 1.2091995265551612 -1.2091995551462713 0.0 0.0 0.0 0.0 0.0 0.0 9.98197363699077e-07 -5.258967243140419e-07 1.144916897842466e-06 -1.8103060643113828e-15 1.8116749963477848e-08 4.307094529482934e-08 0.2951500000000001 -0.11235000004997343 0.4808999999601586 -1.2091995763071837 1.2091995763071837 -1.209199576059172 0.0 0.0 0.0 0.0 0.0 0.0
398.44 8.142358315366138e-17 -1.5707963267948966 -1.5707963267948966 0.0 1.5707963267948966 0.0 0.0 0.0 0.0 0.0 0.0 0.0 0.0 0.0 0.0 0.0 0.0 0.0 -1.6018983243994446e-26 0.4870342307692309 0.6867077006507593 0.06409467546754684 -8.567713817370151e-28 0.0 -2.1032924999364705e-25 6.394759450000002 6.3947594500000005 0.2913103000000004 -3.894025929994733e-27 0.0 8.142358315366138e-17 -1.570796314870016 -1.570796314870016 0.0 1.5707963705062866 0.0 0.0 0.0 0.0 0.0 0.0 0.0 -1.6018983942199055e-26 0.48703423142433167 0.6867076754570007 0.064094677567482 -8.567714098795418e-28 0.0 -1.6018983942199055e-26 0.48703423142433167 0.6867076754570007 0.064094677567482 -8.567714098795418e-28 0.0 0.2951499950589256 -0.11234999647001058 0.4809000069994156 -1.2091995794109558 1.2091995265551612 -1.2091995551462713 0.0 0.0 0.0 0.0 0.0 0.0 9.98197363699077e-07 -5.258967243140419e-07 1.144916897842466e-06 -1.8103060643113828e-15 1.8116749963477848e-08 4.307094529482934e-08 0.2951500000000001 -0.11235000004997343 0.4808999999601586 -1.2091995763071837 1.2091995763071837 -1.209199576059172 0.0 0.0 0.0 0.0 0.0 0.0
398.448 8.142358315366138e-17 -1.5707963267948966 -1.5707963267948966 0.0 1.5707963267948966 0.0 0.0 0.0 0.0 0.0 0.0 0.0 0.0 0.0 0.0 0.0 0.0 0.0 -1.6018983243994446e-26 0.4870342307692309 0.6867077006507593 0.06409467546754684 -8.567713817370151e-28 0.0 -2.1032924999364705e-25 6.394759450000002 6.3947594500000005 0.2913103000000004 -3.894025929994733e-27 0.0 8.142358315366138e-17 -1.570796314870016 -1.570796314870016 0.0 1.5707963705062866 0.0 0.0 0.0 0.0 0.0 0.0 0.0 -1.6018983942199055e-26 0.48703423142433167 0.6867076754570007 0.064094677567482 -8.567714098795418e-28 0.0 -1.6018983942199055e-26 0.48703423142433167 0.6867076754570007 0.064094677567482 -8.567714098795418e-28 0.0 0.2951499950589256 -0.11234999647001058 0.4809000069994156 -1.2091995794109558 1.2091995265551612 -1.2091995551462713 0.0 0.0 0.0 0.0 0.0 0.0 9.98197363699077e-07 -5.258967243140419e-07 1.144916897842466e-06 -1.8103060643113828e-15 1.8116749963477848e-08 4.307094529482934e-08 0.2951500000000001 -0.11235000004997343 0.4808999999601586 -1.2091995763071837 1.2091995763071837 -1.209199576059172 0.0 0.0 0.0 0.0 0.0 0.0
398.45599999999996 8.142358315366138e-17 -1.5707963267948966 -1.5707963267948966 0.0 1.5707963267948966 0.0 0.0 0.0 0.0 0.0 0.0 0.0 0.0 0.0 0.0 0.0 0.0 0.0 -1.6018983243994446e-26 0.4870342307692309 0.6867077006507593 0.06409467546754684 -8.567713817370151e-28 0.0 -2.1032924999364705e-25 6.394759450000002 6.3947594500000005 0.2913103000000004 -3.894025929994733e-27 0.0 8.142358315366138e-17 -1.570796314870016 -1.570796314870016 0.0 1.5707963705062866 0.0 0.0 0.0 0.0 0.0 0.0 0.0 -1.6018983942199055e-26 0.48703423142433167 0.6867076754570007 0.064094677567482 -8.567714098795418e-28 0.0 -1.6018983942199055e-26 0.48703423142433167 0.6867076754570007 0.064094677567482 -8.567714098795418e-28 0.0 0.2951499950589256 -0.11234999647001058 0.4809000069994156 -1.2091995794109558 1.2091995265551612 -1.2091995551462713 0.0 0.0 0.0 0.0 0.0 0.0 9.98197363699077e-07 -5.258967243140419e-07 1.144916897842466e-06 -1.8103060643113828e-15 1.8116749963477848e-08 4.307094529482934e-08 0.2951500000000001 -0.11235000004997343 0.4808999999601586 -1.2091995763071837 1.2091995763071837 -1.209199576059172 0.0 0.0 0.0 0.0 0.0 0.0
398.464 8.142358315366138e-17 -1.5707963267948966 -1.5707963267948966 0.0 1.5707963267948966 0.0 0.0 0.0 0.0 0.0 0.0 0.0 0.0 0.0 0.0 0.0 0.0 0.0 -1.6018983243994446e-26 0.4870342307692309 0.6867077006507593 0.06409467546754684 -8.567713817370151e-28 0.0 -2.1032924999364705e-25 6.394759450000002 6.3947594500000005 0.2913103000000004 -3.894025929994733e-27 0.0 8.142358315366138e-17 -1.570796314870016 -1.570796314870016 0.0 1.5707963705062866 0.0 0.0 0.0 0.0 0.0 0.0 0.0 -1.6018983942199055e-26 0.48703423142433167 0.6867076754570007 0.064094677567482 -8.567714098795418e-28 0.0 -1.6018983942199055e-26 0.48703423142433167 0.6867076754570007 0.064094677567482 -8.567714098795418e-28 0.0 0.2951499950589256 -0.11234999647001058 0.4809000069994156 -1.2091995794109558 1.2091995265551612 -1.2091995551462713 0.0 0.0 0.0 0.0 0.0 0.0 9.98197363699077e-07 -5.258967243140419e-07 1.144916897842466e-06 -1.8103060643113828e-15 1.8116749963477848e-08 4.307094529482934e-08 0.2951500000000001 -0.11235000004997343 0.4808999999601586 -1.2091995763071837 1.2091995763071837 -1.209199576059172 0.0 0.0 0.0 0.0 0.0 0.0
398.472 8.142358315366138e-17 -1.5707963267948966 -1.5707963267948966 0.0 1.5707963267948966 0.0 0.0 0.0 0.0 0.0 0.0 0.0 0.0 0.0 0.0 0.0 0.0 0.0 -1.6018983243994446e-26 0.4870342307692309 0.6867077006507593 0.06409467546754684 -8.567713817370151e-28 0.0 -2.1032924999364705e-25 6.394759450000002 6.3947594500000005 0.2913103000000004 -3.894025929994733e-27 0.0 8.142358315366138e-17 -1.570796314870016 -1.570796314870016 0.0 1.5707963705062866 0.0 0.0 0.0 0.0 0.0 0.0 0.0 -1.6018983942199055e-26 0.48703423142433167 0.6867076754570007 0.064094677567482 -8.567714098795418e-28 0.0 -1.6018983942199055e-26 0.48703423142433167 0.6867076754570007 0.064094677567482 -8.567714098795418e-28 0.0 0.2951499950589256 -0.11234999647001058 0.4809000069994156 -1.2091995794109558 1.2091995265551612 -1.2091995551462713 0.0 0.0 0.0 0.0 0.0 0.0 9.98197363699077e-07 -5.258967243140419e-07 1.144916897842466e-06 -1.8103060643113828e-15 1.8116749963477848e-08 4.307094529482934e-08 0.2951500000000001 -0.11235000004997343 0.4808999999601586 -1.2091995763071837 1.2091995763071837 -1.209199576059172 0.0 0.0 0.0 0.0 0.0 0.0
398.47999999999996 8.142358315366138e-17 -1.5707963267948966 -1.5707963267948966 0.0 1.5707963267948966 0.0 0.0 0.0 0.0 0.0 0.0 0.0 0.0 0.0 0.0 0.0 0.0 0.0 -1.6018983243994446e-26 0.4870342307692309 0.6867077006507593 0.06409467546754684 -8.567713817370151e-28 0.0 -2.1032924999364705e-25 6.394759450000002 6.3947594500000005 0.2913103000000004 -3.894025929994733e-27 0.0 8.142358315366138e-17 -1.570796314870016 -1.570796314870016 0.0 1.5707963705062866 0.0 0.0 0.0 0.0 0.0 0.0 0.0 -1.6018983942199055e-26 0.48703423142433167 0.6867076754570007 0.064094677567482 -8.567714098795418e-28 0.0 -1.6018983942199055e-26 0.48703423142433167 0.6867076754570007 0.064094677567482 -8.567714098795418e-28 0.0 0.2951499950589256 -0.11234999647001058 0.4809000069994156 -1.2091995794109558 1.2091995265551612 -1.2091995551462713 0.0 0.0 0.0 0.0 0.0 0.0 9.98197363699077e-07 -5.258967243140419e-07 1.144916897842466e-06 -1.8103060643113828e-15 1.8116749963477848e-08 4.307094529482934e-08 0.2951500000000001 -0.11235000004997343 0.4808999999601586 -1.2091995763071837 1.2091995763071837 -1.209199576059172 0.0 0.0 0.0 0.0 0.0 0.0
398.488 8.142358315366138e-17 -1.5707963267948966 -1.5707963267948966 0.0 1.5707963267948966 0.0 0.0 0.0 0.0 0.0 0.0 0.0 0.0 0.0 0.0 0.0 0.0 0.0 -1.6018983243994446e-26 0.4870342307692309 0.6867077006507593 0.06409467546754684 -8.567713817370151e-28 0.0 -2.1032924999364705e-25 6.394759450000002 6.3947594500000005 0.2913103000000004 -3.894025929994733e-27 0.0 8.142358315366138e-17 -1.570796314870016 -1.570796314870016 0.0 1.5707963705062866 0.0 0.0 0.0 0.0 0.0 0.0 0.0 -1.6018983942199055e-26 0.48703423142433167 0.6867076754570007 0.064094677567482 -8.567714098795418e-28 0.0 -1.6018983942199055e-26 0.48703423142433167 0.6867076754570007 0.064094677567482 -8.567714098795418e-28 0.0 0.2951499950589256 -0.11234999647001058 0.4809000069994156 -1.2091995794109558 1.2091995265551612 -1.2091995551462713 0.0 0.0 0.0 0.0 0.0 0.0 9.98197363699077e-07 -5.258967243140419e-07 1.144916897842466e-06 -1.8103060643113828e-15 1.8116749963477848e-08 4.307094529482934e-08 0.2951500000000001 -0.11235000004997343 0.4808999999601586 -1.2091995763071837 1.2091995763071837 -1.209199576059172 0.0 0.0 0.0 0.0 0.0 0.0
398.496 8.142358315366138e-17 -1.5707963267948966 -1.5707963267948966 0.0 1.5707963267948966 0.0 0.0 0.0 0.0 0.0 0.0 0.0 0.0 0.0 0.0 0.0 0.0 0.0 -1.6018983243994446e-26 0.4870342307692309 0.6867077006507593 0.06409467546754684 -8.567713817370151e-28 0.0 -2.1032924999364705e-25 6.394759450000002 6.3947594500000005 0.2913103000000004 -3.894025929994733e-27 0.0 8.142358315366138e-17 -1.570796314870016 -1.570796314870016 0.0 1.5707963705062866 0.0 0.0 0.0 0.0 0.0 0.0 0.0 -1.6018983942199055e-26 0.48703423142433167 0.6867076754570007 0.064094677567482 -8.567714098795418e-28 0.0 -1.6018983942199055e-26 0.48703423142433167 0.6867076754570007 0.064094677567482 -8.567714098795418e-28 0.0 0.2951499950589256 -0.11234999647001058 0.4809000069994156 -1.2091995794109558 1.2091995265551612 -1.2091995551462713 0.0 0.0 0.0 0.0 0.0 0.0 9.98197363699077e-07 -5.258967243140419e-07 1.144916897842466e-06 -1.8103060643113828e-15 1.8116749963477848e-08 4.307094529482934e-08 0.2951500000000001 -0.11235000004997343 0.4808999999601586 -1.2091995763071837 1.2091995763071837 -1.209199576059172 0.0 0.0 0.0 0.0 0.0 0.0
398.50399999999996 8.142358315366138e-17 -1.5707963267948966 -1.5707963267948966 0.0 1.5707963267948966 0.0 0.0 0.0 0.0 0.0 0.0 0.0 0.0 0.0 0.0 0.0 0.0 0.0 -1.6018983243994446e-26 0.4870342307692309 0.6867077006507593 0.06409467546754684 -8.567713817370151e-28 0.0 -2.1032924999364705e-25 6.394759450000002 6.3947594500000005 0.2913103000000004 -3.894025929994733e-27 0.0 8.142358315366138e-17 -1.570796314870016 -1.570796314870016 0.0 1.5707963705062866 0.0 0.0 0.0 0.0 0.0 0.0 0.0 -1.6018983942199055e-26 0.48703423142433167 0.6867076754570007 0.064094677567482 -8.567714098795418e-28 0.0 -1.6018983942199055e-26 0.48703423142433167 0.6867076754570007 0.064094677567482 -8.567714098795418e-28 0.0 0.2951499950589256 -0.11234999647001058 0.4809000069994156 -1.2091995794109558 1.2091995265551612 -1.2091995551462713 0.0 0.0 0.0 0.0 0.0 0.0 9.98197363699077e-07 -5.258967243140419e-07 1.144916897842466e-06 -1.8103060643113828e-15 1.8116749963477848e-08 4.307094529482934e-08 0.2951500000000001 -0.11235000004997343 0.4808999999601586 -1.2091995763071837 1.2091995763071837 -1.209199576059172 0.0 0.0 0.0 0.0 0.0 0.0
398.512 8.142358315366138e-17 -1.5707963267948966 -1.5707963267948966 0.0 1.5707963267948966 0.0 0.0 0.0 0.0 0.0 0.0 0.0 0.0 0.0 0.0 0.0 0.0 0.0 -1.6018983243994446e-26 0.4870342307692309 0.6867077006507593 0.06409467546754684 -8.567713817370151e-28 0.0 -2.1032924999364705e-25 6.394759450000002 6.3947594500000005 0.2913103000000004 -3.894025929994733e-27 0.0 8.142358315366138e-17 -1.570796314870016 -1.570796314870016 0.0 1.5707963705062866 0.0 0.0 0.0 0.0 0.0 0.0 0.0 -1.6018983942199055e-26 0.48703423142433167 0.6867076754570007 0.064094677567482 -8.567714098795418e-28 0.0 -1.6018983942199055e-26 0.48703423142433167 0.6867076754570007 0.064094677567482 -8.567714098795418e-28 0.0 0.2951499950589256 -0.11234999647001058 0.4809000069994156 -1.2091995794109558 1.2091995265551612 -1.2091995551462713 0.0 0.0 0.0 0.0 0.0 0.0 9.98197363699077e-07 -5.258967243140419e-07 1.144916897842466e-06 -1.8103060643113828e-15 1.8116749963477848e-08 4.307094529482934e-08 0.2951500000000001 -0.11235000004997343 0.4808999999601586 -1.2091995763071837 1.2091995763071837 -1.209199576059172 0.0 0.0 0.0 0.0 0.0 0.0
398.52 8.142358315366138e-17 -1.5707963267948966 -1.5707963267948966 0.0 1.5707963267948966 0.0 0.0 0.0 0.0 0.0 0.0 0.0 0.0 0.0 0.0 0.0 0.0 0.0 -1.6018983243994446e-26 0.4870342307692309 0.6867077006507593 0.06409467546754684 -8.567713817370151e-28 0.0 -2.1032924999364705e-25 6.394759450000002 6.3947594500000005 0.2913103000000004 -3.894025929994733e-27 0.0 8.142358315366138e-17 -1.570796314870016 -1.570796314870016 0.0 1.5707963705062866 0.0 0.0 0.0 0.0 0.0 0.0 0.0 -1.6018983942199055e-26 0.48703423142433167 0.6867076754570007 0.064094677567482 -8.567714098795418e-28 0.0 -1.6018983942199055e-26 0.48703423142433167 0.6867076754570007 0.064094677567482 -8.567714098795418e-28 0.0 0.2951499950589256 -0.11234999647001058 0.4809000069994156 -1.2091995794109558 1.2091995265551612 -1.2091995551462713 0.0 0.0 0.0 0.0 0.0 0.0 9.98197363699077e-07 -5.258967243140419e-07 1.144916897842466e-06 -1.8103060643113828e-15 1.8116749963477848e-08 4.307094529482934e-08 0.2951500000000001 -0.11235000004997343 0.4808999999601586 -1.2091995763071837 1.2091995763071837 -1.209199576059172 0.0 0.0 0.0 0.0 0.0 0.0
398.52799999999996 8.142358315366138e-17 -1.5707963267948966 -1.5707963267948966 0.0 1.5707963267948966 0.0 0.0 0.0 0.0 0.0 0.0 0.0 0.0 0.0 0.0 0.0 0.0 0.0 -1.6018983243994446e-26 0.4870342307692309 0.6867077006507593 0.06409467546754684 -8.567713817370151e-28 0.0 -2.1032924999364705e-25 6.394759450000002 6.3947594500000005 0.2913103000000004 -3.894025929994733e-27 0.0 8.142358315366138e-17 -1.570796314870016 -1.570796314870016 0.0 1.5707963705062866 0.0 0.0 0.0 0.0 0.0 0.0 0.0 -1.6018983942199055e-26 0.48703423142433167 0.6867076754570007 0.064094677567482 -8.567714098795418e-28 0.0 -1.6018983942199055e-26 0.48703423142433167 0.6867076754570007 0.064094677567482 -8.567714098795418e-28 0.0 0.2951499950589256 -0.11234999647001058 0.4809000069994156 -1.2091995794109558 1.2091995265551612 -1.2091995551462713 0.0 0.0 0.0 0.0 0.0 0.0 9.98197363699077e-07 -5.258967243140419e-07 1.144916897842466e-06 -1.8103060643113828e-15 1.8116749963477848e-08 4.307094529482934e-08 0.2951500000000001 -0.11235000004997343 0.4808999999601586 -1.2091995763071837 1.2091995763071837 -1.209199576059172 0.0 0.0 0.0 0.0 0.0 0.0
398.536 8.142358315366138e-17 -1.5707963267948966 -1.5707963267948966 0.0 1.5707963267948966 0.0 0.0 0.0 0.0 0.0 0.0 0.0 0.0 0.0 0.0 0.0 0.0 0.0 -1.6018983243994446e-26 0.4870342307692309 0.6867077006507593 0.06409467546754684 -8.567713817370151e-28 0.0 -2.1032924999364705e-25 6.394759450000002 6.3947594500000005 0.2913103000000004 -3.894025929994733e-27 0.0 8.142358315366138e-17 -1.570796314870016 -1.570796314870016 0.0 1.5707963705062866 0.0 0.0 0.0 0.0 0.0 0.0 0.0 -1.6018983942199055e-26 0.48703423142433167 0.6867076754570007 0.064094677567482 -8.567714098795418e-28 0.0 -1.6018983942199055e-26 0.48703423142433167 0.6867076754570007 0.064094677567482 -8.567714098795418e-28 0.0 0.2951499950589256 -0.11234999647001058 0.4809000069994156 -1.2091995794109558 1.2091995265551612 -1.2091995551462713 0.0 0.0 0.0 0.0 0.0 0.0 9.98197363699077e-07 -5.258967243140419e-07 1.144916897842466e-06 -1.8103060643113828e-15 1.8116749963477848e-08 4.307094529482934e-08 0.2951500000000001 -0.11235000004997343 0.4808999999601586 -1.2091995763071837 1.2091995763071837 -1.209199576059172 0.0 0.0 0.0 0.0 0.0 0.0
398.544 8.142358315366138e-17 -1.5707963267948966 -1.5707963267948966 0.0 1.5707963267948966 0.0 0.0 0.0 0.0 0.0 0.0 0.0 0.0 0.0 0.0 0.0 0.0 0.0 -1.6018983243994446e-26 0.4870342307692309 0.6867077006507593 0.06409467546754684 -8.567713817370151e-28 0.0 -2.1032924999364705e-25 6.394759450000002 6.3947594500000005 0.2913103000000004 -3.894025929994733e-27 0.0 8.142358315366138e-17 -1.570796314870016 -1.570796314870016 0.0 1.5707963705062866 0.0 0.0 0.0 0.0 0.0 0.0 0.0 -1.6018983942199055e-26 0.48703423142433167 0.6867076754570007 0.064094677567482 -8.567714098795418e-28 0.0 -1.6018983942199055e-26 0.48703423142433167 0.6867076754570007 0.064094677567482 -8.567714098795418e-28 0.0 0.2951499950589256 -0.11234999647001058 0.4809000069994156 -1.2091995794109558 1.2091995265551612 -1.2091995551462713 0.0 0.0 0.0 0.0 0.0 0.0 9.98197363699077e-07 -5.258967243140419e-07 1.144916897842466e-06 -1.8103060643113828e-15 1.8116749963477848e-08 4.307094529482934e-08 0.2951500000000001 -0.11235000004997343 0.4808999999601586 -1.2091995763071837 1.2091995763071837 -1.209199576059172 0.0 0.0 0.0 0.0 0.0 0.0
398.55199999999996 8.142358315366138e-17 -1.5707963267948966 -1.5707963267948966 0.0 1.5707963267948966 0.0 0.0 0.0 0.0 0.0 0.0 0.0 0.0 0.0 0.0 0.0 0.0 0.0 -1.6018983243994446e-26 0.4870342307692309 0.6867077006507593 0.06409467546754684 -8.567713817370151e-28 0.0 -2.1032924999364705e-25 6.394759450000002 6.3947594500000005 0.2913103000000004 -3.894025929994733e-27 0.0 8.142358315366138e-17 -1.570796314870016 -1.570796314870016 0.0 1.5707963705062866 0.0 0.0 0.0 0.0 0.0 0.0 0.0 -1.6018983942199055e-26 0.48703423142433167 0.6867076754570007 0.064094677567482 -8.567714098795418e-28 0.0 -1.6018983942199055e-26 0.48703423142433167 0.6867076754570007 0.064094677567482 -8.567714098795418e-28 0.0 0.2951499950589256 -0.11234999647001058 0.4809000069994156 -1.2091995794109558 1.2091995265551612 -1.2091995551462713 0.0 0.0 0.0 0.0 0.0 0.0 9.98197363699077e-07 -5.258967243140419e-07 1.144916897842466e-06 -1.8103060643113828e-15 1.8116749963477848e-08 4.307094529482934e-08 0.2951500000000001 -0.11235000004997343 0.4808999999601586 -1.2091995763071837 1.2091995763071837 -1.209199576059172 0.0 0.0 0.0 0.0 0.0 0.0
398.56 8.142358315366138e-17 -1.5707963267948966 -1.5707963267948966 0.0 1.5707963267948966 0.0 0.0 0.0 0.0 0.0 0.0 0.0 0.0 0.0 0.0 0.0 0.0 0.0 -1.6018983243994446e-26 0.4870342307692309 0.6867077006507593 0.06409467546754684 -8.567713817370151e-28 0.0 -2.1032924999364705e-25 6.394759450000002 6.3947594500000005 0.2913103000000004 -3.894025929994733e-27 0.0 8.142358315366138e-17 -1.570796314870016 -1.570796314870016 0.0 1.5707963705062866 0.0 0.0 0.0 0.0 0.0 0.0 0.0 -1.6018983942199055e-26 0.48703423142433167 0.6867076754570007 0.064094677567482 -8.567714098795418e-28 0.0 -1.6018983942199055e-26 0.48703423142433167 0.6867076754570007 0.064094677567482 -8.567714098795418e-28 0.0 0.2951499950589256 -0.11234999647001058 0.4809000069994156 -1.2091995794109558 1.2091995265551612 -1.2091995551462713 0.0 0.0 0.0 0.0 0.0 0.0 9.98197363699077e-07 -5.258967243140419e-07 1.144916897842466e-06 -1.8103060643113828e-15 1.8116749963477848e-08 4.307094529482934e-08 0.2951500000000001 -0.11235000004997343 0.4808999999601586 -1.2091995763071837 1.2091995763071837 -1.209199576059172 0.0 0.0 0.0 0.0 0.0 0.0
398.568 8.142358315366138e-17 -1.5707963267948966 -1.5707963267948966 0.0 1.5707963267948966 0.0 0.0 0.0 0.0 0.0 0.0 0.0 0.0 0.0 0.0 0.0 0.0 0.0 -1.6018983243994446e-26 0.4870342307692309 0.6867077006507593 0.06409467546754684 -8.567713817370151e-28 0.0 -2.1032924999364705e-25 6.394759450000002 6.3947594500000005 0.2913103000000004 -3.894025929994733e-27 0.0 8.142358315366138e-17 -1.570796314870016 -1.570796314870016 0.0 1.5707963705062866 0.0 0.0 0.0 0.0 0.0 0.0 0.0 -1.6018983942199055e-26 0.48703423142433167 0.6867076754570007 0.064094677567482 -8.567714098795418e-28 0.0 -1.6018983942199055e-26 0.48703423142433167 0.6867076754570007 0.064094677567482 -8.567714098795418e-28 0.0 0.2951499950589256 -0.11234999647001058 0.4809000069994156 -1.2091995794109558 1.2091995265551612 -1.2091995551462713 0.0 0.0 0.0 0.0 0.0 0.0 9.98197363699077e-07 -5.258967243140419e-07 1.144916897842466e-06 -1.8103060643113828e-15 1.8116749963477848e-08 4.307094529482934e-08 0.2951500000000001 -0.11235000004997343 0.4808999999601586 -1.2091995763071837 1.2091995763071837 -1.209199576059172 0.0 0.0 0.0 0.0 0.0 0.0
398.57599999999996 8.142358315366138e-17 -1.5707963267948966 -1.5707963267948966 0.0 1.5707963267948966 0.0 0.0 0.0 0.0 0.0 0.0 0.0 0.0 0.0 0.0 0.0 0.0 0.0 -1.6018983243994446e-26 0.4870342307692309 0.6867077006507593 0.06409467546754684 -8.567713817370151e-28 0.0 -2.1032924999364705e-25 6.394759450000002 6.3947594500000005 0.2913103000000004 -3.894025929994733e-27 0.0 8.142358315366138e-17 -1.570796314870016 -1.570796314870016 0.0 1.5707963705062866 0.0 0.0 0.0 0.0 0.0 0.0 0.0 -1.6018983942199055e-26 0.48703423142433167 0.6867076754570007 0.064094677567482 -8.567714098795418e-28 0.0 -1.6018983942199055e-26 0.48703423142433167 0.6867076754570007 0.064094677567482 -8.567714098795418e-28 0.0 0.2951499950589256 -0.11234999647001058 0.4809000069994156 -1.2091995794109558 1.2091995265551612 -1.2091995551462713 0.0 0.0 0.0 0.0 0.0 0.0 9.98197363699077e-07 -5.258967243140419e-07 1.144916897842466e-06 -1.8103060643113828e-15 1.8116749963477848e-08 4.307094529482934e-08 0.2951500000000001 -0.11235000004997343 0.4808999999601586 -1.2091995763071837 1.2091995763071837 -1.209199576059172 0.0 0.0 0.0 0.0 0.0 0.0
398.584 8.142358315366138e-17 -1.5707963267948966 -1.5707963267948966 0.0 1.5707963267948966 0.0 0.0 0.0 0.0 0.0 0.0 0.0 0.0 0.0 0.0 0.0 0.0 0.0 -1.6018983243994446e-26 0.4870342307692309 0.6867077006507593 0.06409467546754684 -8.567713817370151e-28 0.0 -2.1032924999364705e-25 6.394759450000002 6.3947594500000005 0.2913103000000004 -3.894025929994733e-27 0.0 8.142358315366138e-17 -1.570796314870016 -1.570796314870016 0.0 1.5707963705062866 0.0 0.0 0.0 0.0 0.0 0.0 0.0 -1.6018983942199055e-26 0.48703423142433167 0.6867076754570007 0.064094677567482 -8.567714098795418e-28 0.0 -1.6018983942199055e-26 0.48703423142433167 0.6867076754570007 0.064094677567482 -8.567714098795418e-28 0.0 0.2951499950589256 -0.11234999647001058 0.4809000069994156 -1.2091995794109558 1.2091995265551612 -1.2091995551462713 0.0 0.0 0.0 0.0 0.0 0.0 9.98197363699077e-07 -5.258967243140419e-07 1.144916897842466e-06 -1.8103060643113828e-15 1.8116749963477848e-08 4.307094529482934e-08 0.2951500000000001 -0.11235000004997343 0.4808999999601586 -1.2091995763071837 1.2091995763071837 -1.209199576059172 0.0 0.0 0.0 0.0 0.0 0.0
398.592 8.142358315366138e-17 -1.5707963267948966 -1.5707963267948966 0.0 1.5707963267948966 0.0 0.0 0.0 0.0 0.0 0.0 0.0 0.0 0.0 0.0 0.0 0.0 0.0 -1.6018983243994446e-26 0.4870342307692309 0.6867077006507593 0.06409467546754684 -8.567713817370151e-28 0.0 -2.1032924999364705e-25 6.394759450000002 6.3947594500000005 0.2913103000000004 -3.894025929994733e-27 0.0 8.142358315366138e-17 -1.570796314870016 -1.570796314870016 0.0 1.5707963705062866 0.0 0.0 0.0 0.0 0.0 0.0 0.0 -1.6018983942199055e-26 0.48703423142433167 0.6867076754570007 0.064094677567482 -8.567714098795418e-28 0.0 -1.6018983942199055e-26 0.48703423142433167 0.6867076754570007 0.064094677567482 -8.567714098795418e-28 0.0 0.2951499950589256 -0.11234999647001058 0.4809000069994156 -1.2091995794109558 1.2091995265551612 -1.2091995551462713 0.0 0.0 0.0 0.0 0.0 0.0 9.98197363699077e-07 -5.258967243140419e-07 1.144916897842466e-06 -1.8103060643113828e-15 1.8116749963477848e-08 4.307094529482934e-08 0.2951500000000001 -0.11235000004997343 0.4808999999601586 -1.2091995763071837 1.2091995763071837 -1.209199576059172 0.0 0.0 0.0 0.0 0.0 0.0
398.59999999999997 8.142358315366138e-17 -1.5707963267948966 -1.5707963267948966 0.0 1.5707963267948966 0.0 0.0 0.0 0.0 0.0 0.0 0.0 0.0 0.0 0.0 0.0 0.0 0.0 -1.6018983243994446e-26 0.4870342307692309 0.6867077006507593 0.06409467546754684 -8.567713817370151e-28 0.0 -2.1032924999364705e-25 6.394759450000002 6.3947594500000005 0.2913103000000004 -3.894025929994733e-27 0.0 8.142358315366138e-17 -1.570796314870016 -1.570796314870016 0.0 1.5707963705062866 0.0 0.0 0.0 0.0 0.0 0.0 0.0 -1.6018983942199055e-26 0.48703423142433167 0.6867076754570007 0.064094677567482 -8.567714098795418e-28 0.0 -1.6018983942199055e-26 0.48703423142433167 0.6867076754570007 0.064094677567482 -8.567714098795418e-28 0.0 0.2951499950589256 -0.11234999647001058 0.4809000069994156 -1.2091995794109558 1.2091995265551612 -1.2091995551462713 0.0 0.0 0.0 0.0 0.0 0.0 9.98197363699077e-07 -5.258967243140419e-07 1.144916897842466e-06 -1.8103060643113828e-15 1.8116749963477848e-08 4.307094529482934e-08 0.2951500000000001 -0.11235000004997343 0.4808999999601586 -1.2091995763071837 1.2091995763071837 -1.209199576059172 0.0 0.0 0.0 0.0 0.0 0.0
398.608 8.142358315366138e-17 -1.5707963267948966 -1.5707963267948966 0.0 1.5707963267948966 0.0 0.0 0.0 0.0 0.0 0.0 0.0 0.0 0.0 0.0 0.0 0.0 0.0 -1.6018983243994446e-26 0.4870342307692309 0.6867077006507593 0.06409467546754684 -8.567713817370151e-28 0.0 -2.1032924999364705e-25 6.394759450000002 6.3947594500000005 0.2913103000000004 -3.894025929994733e-27 0.0 8.142358315366138e-17 -1.570796314870016 -1.570796314870016 0.0 1.5707963705062866 0.0 0.0 0.0 0.0 0.0 0.0 0.0 -1.6018983942199055e-26 0.48703423142433167 0.6867076754570007 0.064094677567482 -8.567714098795418e-28 0.0 -1.6018983942199055e-26 0.48703423142433167 0.6867076754570007 0.064094677567482 -8.567714098795418e-28 0.0 0.2951499950589256 -0.11234999647001058 0.4809000069994156 -1.2091995794109558 1.2091995265551612 -1.2091995551462713 0.0 0.0 0.0 0.0 0.0 0.0 9.98197363699077e-07 -5.258967243140419e-07 1.144916897842466e-06 -1.8103060643113828e-15 1.8116749963477848e-08 4.307094529482934e-08 0.2951500000000001 -0.11235000004997343 0.4808999999601586 -1.2091995763071837 1.2091995763071837 -1.209199576059172 0.0 0.0 0.0 0.0 0.0 0.0
398.616 8.142358315366138e-17 -1.5707963267948966 -1.5707963267948966 0.0 1.5707963267948966 0.0 0.0 0.0 0.0 0.0 0.0 0.0 0.0 0.0 0.0 0.0 0.0 0.0 -1.6018983243994446e-26 0.4870342307692309 0.6867077006507593 0.06409467546754684 -8.567713817370151e-28 0.0 -2.1032924999364705e-25 6.394759450000002 6.3947594500000005 0.2913103000000004 -3.894025929994733e-27 0.0 8.142358315366138e-17 -1.570796314870016 -1.570796314870016 0.0 1.5707963705062866 0.0 0.0 0.0 0.0 0.0 0.0 0.0 -1.6018983942199055e-26 0.48703423142433167 0.6867076754570007 0.064094677567482 -8.567714098795418e-28 0.0 -1.6018983942199055e-26 0.48703423142433167 0.6867076754570007 0.064094677567482 -8.567714098795418e-28 0.0 0.2951499950589256 -0.11234999647001058 0.4809000069994156 -1.2091995794109558 1.2091995265551612 -1.2091995551462713 0.0 0.0 0.0 0.0 0.0 0.0 9.98197363699077e-07 -5.258967243140419e-07 1.144916897842466e-06 -1.8103060643113828e-15 1.8116749963477848e-08 4.307094529482934e-08 0.2951500000000001 -0.11235000004997343 0.4808999999601586 -1.2091995763071837 1.2091995763071837 -1.209199576059172 0.0 0.0 0.0 0.0 0.0 0.0
398.62399999999997 8.142358315366138e-17 -1.5707963267948966 -1.5707963267948966 0.0 1.5707963267948966 0.0 0.0 0.0 0.0 0.0 0.0 0.0 0.0 0.0 0.0 0.0 0.0 0.0 -1.6018983243994446e-26 0.4870342307692309 0.6867077006507593 0.06409467546754684 -8.567713817370151e-28 0.0 -2.1032924999364705e-25 6.394759450000002 6.3947594500000005 0.2913103000000004 -3.894025929994733e-27 0.0 8.142358315366138e-17 -1.570796314870016 -1.570796314870016 0.0 1.5707963705062866 0.0 0.0 0.0 0.0 0.0 0.0 0.0 -1.6018983942199055e-26 0.48703423142433167 0.6867076754570007 0.064094677567482 -8.567714098795418e-28 0.0 -1.6018983942199055e-26 0.48703423142433167 0.6867076754570007 0.064094677567482 -8.567714098795418e-28 0.0 0.2951499950589256 -0.11234999647001058 0.4809000069994156 -1.2091995794109558 1.2091995265551612 -1.2091995551462713 0.0 0.0 0.0 0.0 0.0 0.0 9.98197363699077e-07 -5.258967243140419e-07 1.144916897842466e-06 -1.8103060643113828e-15 1.8116749963477848e-08 4.307094529482934e-08 0.2951500000000001 -0.11235000004997343 0.4808999999601586 -1.2091995763071837 1.2091995763071837 -1.209199576059172 0.0 0.0 0.0 0.0 0.0 0.0
398.632 8.142358315366138e-17 -1.5707963267948966 -1.5707963267948966 0.0 1.5707963267948966 0.0 0.0 0.0 0.0 0.0 0.0 0.0 0.0 0.0 0.0 0.0 0.0 0.0 -1.6018983243994446e-26 0.4870342307692309 0.6867077006507593 0.06409467546754684 -8.567713817370151e-28 0.0 -2.1032924999364705e-25 6.394759450000002 6.3947594500000005 0.2913103000000004 -3.894025929994733e-27 0.0 8.142358315366138e-17 -1.570796314870016 -1.570796314870016 0.0 1.5707963705062866 0.0 0.0 0.0 0.0 0.0 0.0 0.0 -1.6018983942199055e-26 0.48703423142433167 0.6867076754570007 0.064094677567482 -8.567714098795418e-28 0.0 -1.6018983942199055e-26 0.48703423142433167 0.6867076754570007 0.064094677567482 -8.567714098795418e-28 0.0 0.2951499950589256 -0.11234999647001058 0.4809000069994156 -1.2091995794109558 1.2091995265551612 -1.2091995551462713 0.0 0.0 0.0 0.0 0.0 0.0 9.98197363699077e-07 -5.258967243140419e-07 1.144916897842466e-06 -1.8103060643113828e-15 1.8116749963477848e-08 4.307094529482934e-08 0.2951500000000001 -0.11235000004997343 0.4808999999601586 -1.2091995763071837 1.2091995763071837 -1.209199576059172 0.0 0.0 0.0 0.0 0.0 0.0
398.64 8.142358315366138e-17 -1.5707963267948966 -1.5707963267948966 0.0 1.5707963267948966 0.0 0.0 0.0 0.0 0.0 0.0 0.0 0.0 0.0 0.0 0.0 0.0 0.0 -1.6018983243994446e-26 0.4870342307692309 0.6867077006507593 0.06409467546754684 -8.567713817370151e-28 0.0 -2.1032924999364705e-25 6.394759450000002 6.3947594500000005 0.2913103000000004 -3.894025929994733e-27 0.0 8.142358315366138e-17 -1.570796314870016 -1.570796314870016 0.0 1.5707963705062866 0.0 0.0 0.0 0.0 0.0 0.0 0.0 -1.6018983942199055e-26 0.48703423142433167 0.6867076754570007 0.064094677567482 -8.567714098795418e-28 0.0 -1.6018983942199055e-26 0.48703423142433167 0.6867076754570007 0.064094677567482 -8.567714098795418e-28 0.0 0.2951499950589256 -0.11234999647001058 0.4809000069994156 -1.2091995794109558 1.2091995265551612 -1.2091995551462713 0.0 0.0 0.0 0.0 0.0 0.0 9.98197363699077e-07 -5.258967243140419e-07 1.144916897842466e-06 -1.8103060643113828e-15 1.8116749963477848e-08 4.307094529482934e-08 0.2951500000000001 -0.11235000004997343 0.4808999999601586 -1.2091995763071837 1.2091995763071837 -1.209199576059172 0.0 0.0 0.0 0.0 0.0 0.0
398.64799999999997 8.142358315366138e-17 -1.5707963267948966 -1.5707963267948966 0.0 1.5707963267948966 0.0 0.0 0.0 0.0 0.0 0.0 0.0 0.0 0.0 0.0 0.0 0.0 0.0 -1.6018983243994446e-26 0.4870342307692309 0.6867077006507593 0.06409467546754684 -8.567713817370151e-28 0.0 -2.1032924999364705e-25 6.394759450000002 6.3947594500000005 0.2913103000000004 -3.894025929994733e-27 0.0 8.142358315366138e-17 -1.570796314870016 -1.570796314870016 0.0 1.5707963705062866 0.0 0.0 0.0 0.0 0.0 0.0 0.0 -1.6018983942199055e-26 0.48703423142433167 0.6867076754570007 0.064094677567482 -8.567714098795418e-28 0.0 -1.6018983942199055e-26 0.48703423142433167 0.6867076754570007 0.064094677567482 -8.567714098795418e-28 0.0 0.2951499950589256 -0.11234999647001058 0.4809000069994156 -1.2091995794109558 1.2091995265551612 -1.2091995551462713 0.0 0.0 0.0 0.0 0.0 0.0 9.98197363699077e-07 -5.258967243140419e-07 1.144916897842466e-06 -1.8103060643113828e-15 1.8116749963477848e-08 4.307094529482934e-08 0.2951500000000001 -0.11235000004997343 0.4808999999601586 -1.2091995763071837 1.2091995763071837 -1.209199576059172 0.0 0.0 0.0 0.0 0.0 0.0
398.656 8.142358315366138e-17 -1.5707963267948966 -1.5707963267948966 0.0 1.5707963267948966 0.0 0.0 0.0 0.0 0.0 0.0 0.0 0.0 0.0 0.0 0.0 0.0 0.0 -1.6018983243994446e-26 0.4870342307692309 0.6867077006507593 0.06409467546754684 -8.567713817370151e-28 0.0 -2.1032924999364705e-25 6.394759450000002 6.3947594500000005 0.2913103000000004 -3.894025929994733e-27 0.0 8.142358315366138e-17 -1.570796314870016 -1.570796314870016 0.0 1.5707963705062866 0.0 0.0 0.0 0.0 0.0 0.0 0.0 -1.6018983942199055e-26 0.48703423142433167 0.6867076754570007 0.064094677567482 -8.567714098795418e-28 0.0 -1.6018983942199055e-26 0.48703423142433167 0.6867076754570007 0.064094677567482 -8.567714098795418e-28 0.0 0.2951499950589256 -0.11234999647001058 0.4809000069994156 -1.2091995794109558 1.2091995265551612 -1.2091995551462713 0.0 0.0 0.0 0.0 0.0 0.0 9.98197363699077e-07 -5.258967243140419e-07 1.144916897842466e-06 -1.8103060643113828e-15 1.8116749963477848e-08 4.307094529482934e-08 0.2951500000000001 -0.11235000004997343 0.4808999999601586 -1.2091995763071837 1.2091995763071837 -1.209199576059172 0.0 0.0 0.0 0.0 0.0 0.0
398.664 8.142358315366138e-17 -1.5707963267948966 -1.5707963267948966 0.0 1.5707963267948966 0.0 0.0 0.0 0.0 0.0 0.0 0.0 0.0 0.0 0.0 0.0 0.0 0.0 -1.6018983243994446e-26 0.4870342307692309 0.6867077006507593 0.06409467546754684 -8.567713817370151e-28 0.0 -2.1032924999364705e-25 6.394759450000002 6.3947594500000005 0.2913103000000004 -3.894025929994733e-27 0.0 8.142358315366138e-17 -1.570796314870016 -1.570796314870016 0.0 1.5707963705062866 0.0 0.0 0.0 0.0 0.0 0.0 0.0 -1.6018983942199055e-26 0.48703423142433167 0.6867076754570007 0.064094677567482 -8.567714098795418e-28 0.0 -1.6018983942199055e-26 0.48703423142433167 0.6867076754570007 0.064094677567482 -8.567714098795418e-28 0.0 0.2951499950589256 -0.11234999647001058 0.4809000069994156 -1.2091995794109558 1.2091995265551612 -1.2091995551462713 0.0 0.0 0.0 0.0 0.0 0.0 9.98197363699077e-07 -5.258967243140419e-07 1.144916897842466e-06 -1.8103060643113828e-15 1.8116749963477848e-08 4.307094529482934e-08 0.2951500000000001 -0.11235000004997343 0.4808999999601586 -1.2091995763071837 1.2091995763071837 -1.209199576059172 0.0 0.0 0.0 0.0 0.0 0.0
398.67199999999997 8.142358315366138e-17 -1.5707963267948966 -1.5707963267948966 0.0 1.5707963267948966 0.0 0.0 0.0 0.0 0.0 0.0 0.0 0.0 0.0 0.0 0.0 0.0 0.0 -1.6018983243994446e-26 0.4870342307692309 0.6867077006507593 0.06409467546754684 -8.567713817370151e-28 0.0 -2.1032924999364705e-25 6.394759450000002 6.3947594500000005 0.2913103000000004 -3.894025929994733e-27 0.0 8.142358315366138e-17 -1.570796314870016 -1.570796314870016 0.0 1.5707963705062866 0.0 0.0 0.0 0.0 0.0 0.0 0.0 -1.6018983942199055e-26 0.48703423142433167 0.6867076754570007 0.064094677567482 -8.567714098795418e-28 0.0 -1.6018983942199055e-26 0.48703423142433167 0.6867076754570007 0.064094677567482 -8.567714098795418e-28 0.0 0.2951499950589256 -0.11234999647001058 0.4809000069994156 -1.2091995794109558 1.2091995265551612 -1.2091995551462713 0.0 0.0 0.0 0.0 0.0 0.0 9.98197363699077e-07 -5.258967243140419e-07 1.144916897842466e-06 -1.8103060643113828e-15 1.8116749963477848e-08 4.307094529482934e-08 0.2951500000000001 -0.11235000004997343 0.4808999999601586 -1.2091995763071837 1.2091995763071837 -1.209199576059172 0.0 0.0 0.0 0.0 0.0 0.0
398.68 8.142358315366138e-17 -1.5707963267948966 -1.5707963267948966 0.0 1.5707963267948966 0.0 0.0 0.0 0.0 0.0 0.0 0.0 0.0 0.0 0.0 0.0 0.0 0.0 -1.6018983243994446e-26 0.4870342307692309 0.6867077006507593 0.06409467546754684 -8.567713817370151e-28 0.0 -2.1032924999364705e-25 6.394759450000002 6.3947594500000005 0.2913103000000004 -3.894025929994733e-27 0.0 8.142358315366138e-17 -1.570796314870016 -1.570796314870016 0.0 1.5707963705062866 0.0 0.0 0.0 0.0 0.0 0.0 0.0 -1.6018983942199055e-26 0.48703423142433167 0.6867076754570007 0.064094677567482 -8.567714098795418e-28 0.0 -1.6018983942199055e-26 0.48703423142433167 0.6867076754570007 0.064094677567482 -8.567714098795418e-28 0.0 0.2951499950589256 -0.11234999647001058 0.4809000069994156 -1.2091995794109558 1.2091995265551612 -1.2091995551462713 0.0 0.0 0.0 0.0 0.0 0.0 9.98197363699077e-07 -5.258967243140419e-07 1.144916897842466e-06 -1.8103060643113828e-15 1.8116749963477848e-08 4.307094529482934e-08 0.2951500000000001 -0.11235000004997343 0.4808999999601586 -1.2091995763071837 1.2091995763071837 -1.209199576059172 0.0 0.0 0.0 0.0 0.0 0.0
398.688 8.142358315366138e-17 -1.5707963267948966 -1.5707963267948966 0.0 1.5707963267948966 0.0 0.0 0.0 0.0 0.0 0.0 0.0 0.0 0.0 0.0 0.0 0.0 0.0 -1.6018983243994446e-26 0.4870342307692309 0.6867077006507593 0.06409467546754684 -8.567713817370151e-28 0.0 -2.1032924999364705e-25 6.394759450000002 6.3947594500000005 0.2913103000000004 -3.894025929994733e-27 0.0 8.142358315366138e-17 -1.570796314870016 -1.570796314870016 0.0 1.5707963705062866 0.0 0.0 0.0 0.0 0.0 0.0 0.0 -1.6018983942199055e-26 0.48703423142433167 0.6867076754570007 0.064094677567482 -8.567714098795418e-28 0.0 -1.6018983942199055e-26 0.48703423142433167 0.6867076754570007 0.064094677567482 -8.567714098795418e-28 0.0 0.2951499950589256 -0.11234999647001058 0.4809000069994156 -1.2091995794109558 1.2091995265551612 -1.2091995551462713 0.0 0.0 0.0 0.0 0.0 0.0 9.98197363699077e-07 -5.258967243140419e-07 1.144916897842466e-06 -1.8103060643113828e-15 1.8116749963477848e-08 4.307094529482934e-08 0.2951500000000001 -0.11235000004997343 0.4808999999601586 -1.2091995763071837 1.2091995763071837 -1.209199576059172 0.0 0.0 0.0 0.0 0.0 0.0
398.69599999999997 8.142358315366138e-17 -1.5707963267948966 -1.5707963267948966 0.0 1.5707963267948966 0.0 0.0 0.0 0.0 0.0 0.0 0.0 0.0 0.0 0.0 0.0 0.0 0.0 -1.6018983243994446e-26 0.4870342307692309 0.6867077006507593 0.06409467546754684 -8.567713817370151e-28 0.0 -2.1032924999364705e-25 6.394759450000002 6.3947594500000005 0.2913103000000004 -3.894025929994733e-27 0.0 8.142358315366138e-17 -1.570796314870016 -1.570796314870016 0.0 1.5707963705062866 0.0 0.0 0.0 0.0 0.0 0.0 0.0 -1.6018983942199055e-26 0.48703423142433167 0.6867076754570007 0.064094677567482 -8.567714098795418e-28 0.0 -1.6018983942199055e-26 0.48703423142433167 0.6867076754570007 0.064094677567482 -8.567714098795418e-28 0.0 0.2951499950589256 -0.11234999647001058 0.4809000069994156 -1.2091995794109558 1.2091995265551612 -1.2091995551462713 0.0 0.0 0.0 0.0 0.0 0.0 9.98197363699077e-07 -5.258967243140419e-07 1.144916897842466e-06 -1.8103060643113828e-15 1.8116749963477848e-08 4.307094529482934e-08 0.2951500000000001 -0.11235000004997343 0.4808999999601586 -1.2091995763071837 1.2091995763071837 -1.209199576059172 0.0 0.0 0.0 0.0 0.0 0.0
398.704 8.142358315366138e-17 -1.5707963267948966 -1.5707963267948966 0.0 1.5707963267948966 0.0 0.0 0.0 0.0 0.0 0.0 0.0 0.0 0.0 0.0 0.0 0.0 0.0 -1.6018983243994446e-26 0.4870342307692309 0.6867077006507593 0.06409467546754684 -8.567713817370151e-28 0.0 -2.1032924999364705e-25 6.394759450000002 6.3947594500000005 0.2913103000000004 -3.894025929994733e-27 0.0 8.142358315366138e-17 -1.570796314870016 -1.570796314870016 0.0 1.5707963705062866 0.0 0.0 0.0 0.0 0.0 0.0 0.0 -1.6018983942199055e-26 0.48703423142433167 0.6867076754570007 0.064094677567482 -8.567714098795418e-28 0.0 -1.6018983942199055e-26 0.48703423142433167 0.6867076754570007 0.064094677567482 -8.567714098795418e-28 0.0 0.2951499950589256 -0.11234999647001058 0.4809000069994156 -1.2091995794109558 1.2091995265551612 -1.2091995551462713 0.0 0.0 0.0 0.0 0.0 0.0 9.98197363699077e-07 -5.258967243140419e-07 1.144916897842466e-06 -1.8103060643113828e-15 1.8116749963477848e-08 4.307094529482934e-08 0.2951500000000001 -0.11235000004997343 0.4808999999601586 -1.2091995763071837 1.2091995763071837 -1.209199576059172 0.0 0.0 0.0 0.0 0.0 0.0
398.712 8.142358315366138e-17 -1.5707963267948966 -1.5707963267948966 0.0 1.5707963267948966 0.0 0.0 0.0 0.0 0.0 0.0 0.0 0.0 0.0 0.0 0.0 0.0 0.0 -1.6018983243994446e-26 0.4870342307692309 0.6867077006507593 0.06409467546754684 -8.567713817370151e-28 0.0 -2.1032924999364705e-25 6.394759450000002 6.3947594500000005 0.2913103000000004 -3.894025929994733e-27 0.0 8.142358315366138e-17 -1.570796314870016 -1.570796314870016 0.0 1.5707963705062866 0.0 0.0 0.0 0.0 0.0 0.0 0.0 -1.6018983942199055e-26 0.48703423142433167 0.6867076754570007 0.064094677567482 -8.567714098795418e-28 0.0 -1.6018983942199055e-26 0.48703423142433167 0.6867076754570007 0.064094677567482 -8.567714098795418e-28 0.0 0.2951499950589256 -0.11234999647001058 0.4809000069994156 -1.2091995794109558 1.2091995265551612 -1.2091995551462713 0.0 0.0 0.0 0.0 0.0 0.0 9.98197363699077e-07 -5.258967243140419e-07 1.144916897842466e-06 -1.8103060643113828e-15 1.8116749963477848e-08 4.307094529482934e-08 0.2951500000000001 -0.11235000004997343 0.4808999999601586 -1.2091995763071837 1.2091995763071837 -1.209199576059172 0.0 0.0 0.0 0.0 0.0 0.0
398.71999999999997 8.142358315366138e-17 -1.5707963267948966 -1.5707963267948966 0.0 1.5707963267948966 0.0 0.0 0.0 0.0 0.0 0.0 0.0 0.0 0.0 0.0 0.0 0.0 0.0 -1.6018983243994446e-26 0.4870342307692309 0.6867077006507593 0.06409467546754684 -8.567713817370151e-28 0.0 -2.1032924999364705e-25 6.394759450000002 6.3947594500000005 0.2913103000000004 -3.894025929994733e-27 0.0 8.142358315366138e-17 -1.570796314870016 -1.570796314870016 0.0 1.5707963705062866 0.0 0.0 0.0 0.0 0.0 0.0 0.0 -1.6018983942199055e-26 0.48703423142433167 0.6867076754570007 0.064094677567482 -8.567714098795418e-28 0.0 -1.6018983942199055e-26 0.48703423142433167 0.6867076754570007 0.064094677567482 -8.567714098795418e-28 0.0 0.2951499950589256 -0.11234999647001058 0.4809000069994156 -1.2091995794109558 1.2091995265551612 -1.2091995551462713 0.0 0.0 0.0 0.0 0.0 0.0 9.98197363699077e-07 -5.258967243140419e-07 1.144916897842466e-06 -1.8103060643113828e-15 1.8116749963477848e-08 4.307094529482934e-08 0.2951500000000001 -0.11235000004997343 0.4808999999601586 -1.2091995763071837 1.2091995763071837 -1.209199576059172 0.0 0.0 0.0 0.0 0.0 0.0
398.728 8.142358315366138e-17 -1.5707963267948966 -1.5707963267948966 0.0 1.5707963267948966 0.0 0.0 0.0 0.0 0.0 0.0 0.0 0.0 0.0 0.0 0.0 0.0 0.0 -1.6018983243994446e-26 0.4870342307692309 0.6867077006507593 0.06409467546754684 -8.567713817370151e-28 0.0 -2.1032924999364705e-25 6.394759450000002 6.3947594500000005 0.2913103000000004 -3.894025929994733e-27 0.0 8.142358315366138e-17 -1.570796314870016 -1.570796314870016 0.0 1.5707963705062866 0.0 0.0 0.0 0.0 0.0 0.0 0.0 -1.6018983942199055e-26 0.48703423142433167 0.6867076754570007 0.064094677567482 -8.567714098795418e-28 0.0 -1.6018983942199055e-26 0.48703423142433167 0.6867076754570007 0.064094677567482 -8.567714098795418e-28 0.0 0.2951499950589256 -0.11234999647001058 0.4809000069994156 -1.2091995794109558 1.2091995265551612 -1.2091995551462713 0.0 0.0 0.0 0.0 0.0 0.0 9.98197363699077e-07 -5.258967243140419e-07 1.144916897842466e-06 -1.8103060643113828e-15 1.8116749963477848e-08 4.307094529482934e-08 0.2951500000000001 -0.11235000004997343 0.4808999999601586 -1.2091995763071837 1.2091995763071837 -1.209199576059172 0.0 0.0 0.0 0.0 0.0 0.0
398.736 8.142358315366138e-17 -1.5707963267948966 -1.5707963267948966 0.0 1.5707963267948966 0.0 0.0 0.0 0.0 0.0 0.0 0.0 0.0 0.0 0.0 0.0 0.0 0.0 -1.6018983243994446e-26 0.4870342307692309 0.6867077006507593 0.06409467546754684 -8.567713817370151e-28 0.0 -2.1032924999364705e-25 6.394759450000002 6.3947594500000005 0.2913103000000004 -3.894025929994733e-27 0.0 8.142358315366138e-17 -1.570796314870016 -1.570796314870016 0.0 1.5707963705062866 0.0 0.0 0.0 0.0 0.0 0.0 0.0 -1.6018983942199055e-26 0.48703423142433167 0.6867076754570007 0.064094677567482 -8.567714098795418e-28 0.0 -1.6018983942199055e-26 0.48703423142433167 0.6867076754570007 0.064094677567482 -8.567714098795418e-28 0.0 0.2951499950589256 -0.11234999647001058 0.4809000069994156 -1.2091995794109558 1.2091995265551612 -1.2091995551462713 0.0 0.0 0.0 0.0 0.0 0.0 9.98197363699077e-07 -5.258967243140419e-07 1.144916897842466e-06 -1.8103060643113828e-15 1.8116749963477848e-08 4.307094529482934e-08 0.2951500000000001 -0.11235000004997343 0.4808999999601586 -1.2091995763071837 1.2091995763071837 -1.209199576059172 0.0 0.0 0.0 0.0 0.0 0.0
398.74399999999997 8.142358315366138e-17 -1.5707963267948966 -1.5707963267948966 0.0 1.5707963267948966 0.0 0.0 0.0 0.0 0.0 0.0 0.0 0.0 0.0 0.0 0.0 0.0 0.0 -1.6018983243994446e-26 0.4870342307692309 0.6867077006507593 0.06409467546754684 -8.567713817370151e-28 0.0 -2.1032924999364705e-25 6.394759450000002 6.3947594500000005 0.2913103000000004 -3.894025929994733e-27 0.0 8.142358315366138e-17 -1.570796314870016 -1.570796314870016 0.0 1.5707963705062866 0.0 0.0 0.0 0.0 0.0 0.0 0.0 -1.6018983942199055e-26 0.48703423142433167 0.6867076754570007 0.064094677567482 -8.567714098795418e-28 0.0 -1.6018983942199055e-26 0.48703423142433167 0.6867076754570007 0.064094677567482 -8.567714098795418e-28 0.0 0.2951499950589256 -0.11234999647001058 0.4809000069994156 -1.2091995794109558 1.2091995265551612 -1.2091995551462713 0.0 0.0 0.0 0.0 0.0 0.0 9.98197363699077e-07 -5.258967243140419e-07 1.144916897842466e-06 -1.8103060643113828e-15 1.8116749963477848e-08 4.307094529482934e-08 0.2951500000000001 -0.11235000004997343 0.4808999999601586 -1.2091995763071837 1.2091995763071837 -1.209199576059172 0.0 0.0 0.0 0.0 0.0 0.0
398.752 8.142358315366138e-17 -1.5707963267948966 -1.5707963267948966 0.0 1.5707963267948966 0.0 0.0 0.0 0.0 0.0 0.0 0.0 0.0 0.0 0.0 0.0 0.0 0.0 -1.6018983243994446e-26 0.4870342307692309 0.6867077006507593 0.06409467546754684 -8.567713817370151e-28 0.0 -2.1032924999364705e-25 6.394759450000002 6.3947594500000005 0.2913103000000004 -3.894025929994733e-27 0.0 8.142358315366138e-17 -1.570796314870016 -1.570796314870016 0.0 1.5707963705062866 0.0 0.0 0.0 0.0 0.0 0.0 0.0 -1.6018983942199055e-26 0.48703423142433167 0.6867076754570007 0.064094677567482 -8.567714098795418e-28 0.0 -1.6018983942199055e-26 0.48703423142433167 0.6867076754570007 0.064094677567482 -8.567714098795418e-28 0.0 0.2951499950589256 -0.11234999647001058 0.4809000069994156 -1.2091995794109558 1.2091995265551612 -1.2091995551462713 0.0 0.0 0.0 0.0 0.0 0.0 9.98197363699077e-07 -5.258967243140419e-07 1.144916897842466e-06 -1.8103060643113828e-15 1.8116749963477848e-08 4.307094529482934e-08 0.2951500000000001 -0.11235000004997343 0.4808999999601586 -1.2091995763071837 1.2091995763071837 -1.209199576059172 0.0 0.0 0.0 0.0 0.0 0.0
398.76 8.142358315366138e-17 -1.5707963267948966 -1.5707963267948966 0.0 1.5707963267948966 0.0 0.0 0.0 0.0 0.0 0.0 0.0 0.0 0.0 0.0 0.0 0.0 0.0 -1.6018983243994446e-26 0.4870342307692309 0.6867077006507593 0.06409467546754684 -8.567713817370151e-28 0.0 -2.1032924999364705e-25 6.394759450000002 6.3947594500000005 0.2913103000000004 -3.894025929994733e-27 0.0 8.142358315366138e-17 -1.570796314870016 -1.570796314870016 0.0 1.5707963705062866 0.0 0.0 0.0 0.0 0.0 0.0 0.0 -1.6018983942199055e-26 0.48703423142433167 0.6867076754570007 0.064094677567482 -8.567714098795418e-28 0.0 -1.6018983942199055e-26 0.48703423142433167 0.6867076754570007 0.064094677567482 -8.567714098795418e-28 0.0 0.2951499950589256 -0.11234999647001058 0.4809000069994156 -1.2091995794109558 1.2091995265551612 -1.2091995551462713 0.0 0.0 0.0 0.0 0.0 0.0 9.98197363699077e-07 -5.258967243140419e-07 1.144916897842466e-06 -1.8103060643113828e-15 1.8116749963477848e-08 4.307094529482934e-08 0.2951500000000001 -0.11235000004997343 0.4808999999601586 -1.2091995763071837 1.2091995763071837 -1.209199576059172 0.0 0.0 0.0 0.0 0.0 0.0
398.768 8.142358315366138e-17 -1.5707963267948966 -1.5707963267948966 0.0 1.5707963267948966 0.0 0.0 0.0 0.0 0.0 0.0 0.0 0.0 0.0 0.0 0.0 0.0 0.0 -1.6018983243994446e-26 0.4870342307692309 0.6867077006507593 0.06409467546754684 -8.567713817370151e-28 0.0 -2.1032924999364705e-25 6.394759450000002 6.3947594500000005 0.2913103000000004 -3.894025929994733e-27 0.0 8.142358315366138e-17 -1.570796314870016 -1.570796314870016 0.0 1.5707963705062866 0.0 0.0 0.0 0.0 0.0 0.0 0.0 -1.6018983942199055e-26 0.48703423142433167 0.6867076754570007 0.064094677567482 -8.567714098795418e-28 0.0 -1.6018983942199055e-26 0.48703423142433167 0.6867076754570007 0.064094677567482 -8.567714098795418e-28 0.0 0.2951499950589256 -0.11234999647001058 0.4809000069994156 -1.2091995794109558 1.2091995265551612 -1.2091995551462713 0.0 0.0 0.0 0.0 0.0 0.0 9.98197363699077e-07 -5.258967243140419e-07 1.144916897842466e-06 -1.8103060643113828e-15 1.8116749963477848e-08 4.307094529482934e-08 0.2951500000000001 -0.11235000004997343 0.4808999999601586 -1.2091995763071837 1.2091995763071837 -1.209199576059172 0.0 0.0 0.0 0.0 0.0 0.0
398.77599999999995 8.142358315366138e-17 -1.5707963267948966 -1.5707963267948966 0.0 1.5707963267948966 0.0 0.0 0.0 0.0 0.0 0.0 0.0 0.0 0.0 0.0 0.0 0.0 0.0 -1.6018983243994446e-26 0.4870342307692309 0.6867077006507593 0.06409467546754684 -8.567713817370151e-28 0.0 -2.1032924999364705e-25 6.394759450000002 6.3947594500000005 0.2913103000000004 -3.894025929994733e-27 0.0 8.142358315366138e-17 -1.570796314870016 -1.570796314870016 0.0 1.5707963705062866 0.0 0.0 0.0 0.0 0.0 0.0 0.0 -1.6018983942199055e-26 0.48703423142433167 0.6867076754570007 0.064094677567482 -8.567714098795418e-28 0.0 -1.6018983942199055e-26 0.48703423142433167 0.6867076754570007 0.064094677567482 -8.567714098795418e-28 0.0 0.2951499950589256 -0.11234999647001058 0.4809000069994156 -1.2091995794109558 1.2091995265551612 -1.2091995551462713 0.0 0.0 0.0 0.0 0.0 0.0 9.98197363699077e-07 -5.258967243140419e-07 1.144916897842466e-06 -1.8103060643113828e-15 1.8116749963477848e-08 4.307094529482934e-08 0.2951500000000001 -0.11235000004997343 0.4808999999601586 -1.2091995763071837 1.2091995763071837 -1.209199576059172 0.0 0.0 0.0 0.0 0.0 0.0
398.784 8.142358315366138e-17 -1.5707963267948966 -1.5707963267948966 0.0 1.5707963267948966 0.0 0.0 0.0 0.0 0.0 0.0 0.0 0.0 0.0 0.0 0.0 0.0 0.0 -1.6018983243994446e-26 0.4870342307692309 0.6867077006507593 0.06409467546754684 -8.567713817370151e-28 0.0 -2.1032924999364705e-25 6.394759450000002 6.3947594500000005 0.2913103000000004 -3.894025929994733e-27 0.0 8.142358315366138e-17 -1.570796314870016 -1.570796314870016 0.0 1.5707963705062866 0.0 0.0 0.0 0.0 0.0 0.0 0.0 -1.6018983942199055e-26 0.48703423142433167 0.6867076754570007 0.064094677567482 -8.567714098795418e-28 0.0 -1.6018983942199055e-26 0.48703423142433167 0.6867076754570007 0.064094677567482 -8.567714098795418e-28 0.0 0.2951499950589256 -0.11234999647001058 0.4809000069994156 -1.2091995794109558 1.2091995265551612 -1.2091995551462713 0.0 0.0 0.0 0.0 0.0 0.0 9.98197363699077e-07 -5.258967243140419e-07 1.144916897842466e-06 -1.8103060643113828e-15 1.8116749963477848e-08 4.307094529482934e-08 0.2951500000000001 -0.11235000004997343 0.4808999999601586 -1.2091995763071837 1.2091995763071837 -1.209199576059172 0.0 0.0 0.0 0.0 0.0 0.0
398.792 8.142358315366138e-17 -1.5707963267948966 -1.5707963267948966 0.0 1.5707963267948966 0.0 0.0 0.0 0.0 0.0 0.0 0.0 0.0 0.0 0.0 0.0 0.0 0.0 -1.6018983243994446e-26 0.4870342307692309 0.6867077006507593 0.06409467546754684 -8.567713817370151e-28 0.0 -2.1032924999364705e-25 6.394759450000002 6.3947594500000005 0.2913103000000004 -3.894025929994733e-27 0.0 8.142358315366138e-17 -1.570796314870016 -1.570796314870016 0.0 1.5707963705062866 0.0 0.0 0.0 0.0 0.0 0.0 0.0 -1.6018983942199055e-26 0.48703423142433167 0.6867076754570007 0.064094677567482 -8.567714098795418e-28 0.0 -1.6018983942199055e-26 0.48703423142433167 0.6867076754570007 0.064094677567482 -8.567714098795418e-28 0.0 0.2951499950589256 -0.11234999647001058 0.4809000069994156 -1.2091995794109558 1.2091995265551612 -1.2091995551462713 0.0 0.0 0.0 0.0 0.0 0.0 9.98197363699077e-07 -5.258967243140419e-07 1.144916897842466e-06 -1.8103060643113828e-15 1.8116749963477848e-08 4.307094529482934e-08 0.2951500000000001 -0.11235000004997343 0.4808999999601586 -1.2091995763071837 1.2091995763071837 -1.209199576059172 0.0 0.0 0.0 0.0 0.0 0.0
398.79999999999995 8.142358315366138e-17 -1.5707963267948966 -1.5707963267948966 0.0 1.5707963267948966 0.0 0.0 0.0 0.0 0.0 0.0 0.0 0.0 0.0 0.0 0.0 0.0 0.0 -1.6018983243994446e-26 0.4870342307692309 0.6867077006507593 0.06409467546754684 -8.567713817370151e-28 0.0 -2.1032924999364705e-25 6.394759450000002 6.3947594500000005 0.2913103000000004 -3.894025929994733e-27 0.0 8.142358315366138e-17 -1.570796314870016 -1.570796314870016 0.0 1.5707963705062866 0.0 0.0 0.0 0.0 0.0 0.0 0.0 -1.6018983942199055e-26 0.48703423142433167 0.6867076754570007 0.064094677567482 -8.567714098795418e-28 0.0 -1.6018983942199055e-26 0.48703423142433167 0.6867076754570007 0.064094677567482 -8.567714098795418e-28 0.0 0.2951499950589256 -0.11234999647001058 0.4809000069994156 -1.2091995794109558 1.2091995265551612 -1.2091995551462713 0.0 0.0 0.0 0.0 0.0 0.0 9.98197363699077e-07 -5.258967243140419e-07 1.144916897842466e-06 -1.8103060643113828e-15 1.8116749963477848e-08 4.307094529482934e-08 0.2951500000000001 -0.11235000004997343 0.4808999999601586 -1.2091995763071837 1.2091995763071837 -1.209199576059172 0.0 0.0 0.0 0.0 0.0 0.0
398.808 8.142358315366138e-17 -1.5707963267948966 -1.5707963267948966 0.0 1.5707963267948966 0.0 0.0 0.0 0.0 0.0 0.0 0.0 0.0 0.0 0.0 0.0 0.0 0.0 -1.6018983243994446e-26 0.4870342307692309 0.6867077006507593 0.06409467546754684 -8.567713817370151e-28 0.0 -2.1032924999364705e-25 6.394759450000002 6.3947594500000005 0.2913103000000004 -3.894025929994733e-27 0.0 8.142358315366138e-17 -1.570796314870016 -1.570796314870016 0.0 1.5707963705062866 0.0 0.0 0.0 0.0 0.0 0.0 0.0 -1.6018983942199055e-26 0.48703423142433167 0.6867076754570007 0.064094677567482 -8.567714098795418e-28 0.0 -1.6018983942199055e-26 0.48703423142433167 0.6867076754570007 0.064094677567482 -8.567714098795418e-28 0.0 0.2951499950589256 -0.11234999647001058 0.4809000069994156 -1.2091995794109558 1.2091995265551612 -1.2091995551462713 0.0 0.0 0.0 0.0 0.0 0.0 9.98197363699077e-07 -5.258967243140419e-07 1.144916897842466e-06 -1.8103060643113828e-15 1.8116749963477848e-08 4.307094529482934e-08 0.2951500000000001 -0.11235000004997343 0.4808999999601586 -1.2091995763071837 1.2091995763071837 -1.209199576059172 0.0 0.0 0.0 0.0 0.0 0.0
398.816 8.142358315366138e-17 -1.5707963267948966 -1.5707963267948966 0.0 1.5707963267948966 0.0 0.0 0.0 0.0 0.0 0.0 0.0 0.0 0.0 0.0 0.0 0.0 0.0 -1.6018983243994446e-26 0.4870342307692309 0.6867077006507593 0.06409467546754684 -8.567713817370151e-28 0.0 -2.1032924999364705e-25 6.394759450000002 6.3947594500000005 0.2913103000000004 -3.894025929994733e-27 0.0 8.142358315366138e-17 -1.570796314870016 -1.570796314870016 0.0 1.5707963705062866 0.0 0.0 0.0 0.0 0.0 0.0 0.0 -1.6018983942199055e-26 0.48703423142433167 0.6867076754570007 0.064094677567482 -8.567714098795418e-28 0.0 -1.6018983942199055e-26 0.48703423142433167 0.6867076754570007 0.064094677567482 -8.567714098795418e-28 0.0 0.2951499950589256 -0.11234999647001058 0.4809000069994156 -1.2091995794109558 1.2091995265551612 -1.2091995551462713 0.0 0.0 0.0 0.0 0.0 0.0 9.98197363699077e-07 -5.258967243140419e-07 1.144916897842466e-06 -1.8103060643113828e-15 1.8116749963477848e-08 4.307094529482934e-08 0.2951500000000001 -0.11235000004997343 0.4808999999601586 -1.2091995763071837 1.2091995763071837 -1.209199576059172 0.0 0.0 0.0 0.0 0.0 0.0
398.82399999999996 8.142358315366138e-17 -1.5707963267948966 -1.5707963267948966 0.0 1.5707963267948966 0.0 0.0 0.0 0.0 0.0 0.0 0.0 0.0 0.0 0.0 0.0 0.0 0.0 -1.6018983243994446e-26 0.4870342307692309 0.6867077006507593 0.06409467546754684 -8.567713817370151e-28 0.0 -2.1032924999364705e-25 6.394759450000002 6.3947594500000005 0.2913103000000004 -3.894025929994733e-27 0.0 8.142358315366138e-17 -1.570796314870016 -1.570796314870016 0.0 1.5707963705062866 0.0 0.0 0.0 0.0 0.0 0.0 0.0 -1.6018983942199055e-26 0.48703423142433167 0.6867076754570007 0.064094677567482 -8.567714098795418e-28 0.0 -1.6018983942199055e-26 0.48703423142433167 0.6867076754570007 0.064094677567482 -8.567714098795418e-28 0.0 0.2951499950589256 -0.11234999647001058 0.4809000069994156 -1.2091995794109558 1.2091995265551612 -1.2091995551462713 0.0 0.0 0.0 0.0 0.0 0.0 9.98197363699077e-07 -5.258967243140419e-07 1.144916897842466e-06 -1.8103060643113828e-15 1.8116749963477848e-08 4.307094529482934e-08 0.2951500000000001 -0.11235000004997343 0.4808999999601586 -1.2091995763071837 1.2091995763071837 -1.209199576059172 0.0 0.0 0.0 0.0 0.0 0.0
398.832 8.142358315366138e-17 -1.5707963267948966 -1.5707963267948966 0.0 1.5707963267948966 0.0 0.0 0.0 0.0 0.0 0.0 0.0 0.0 0.0 0.0 0.0 0.0 0.0 -1.6018983243994446e-26 0.4870342307692309 0.6867077006507593 0.06409467546754684 -8.567713817370151e-28 0.0 -2.1032924999364705e-25 6.394759450000002 6.3947594500000005 0.2913103000000004 -3.894025929994733e-27 0.0 8.142358315366138e-17 -1.570796314870016 -1.570796314870016 0.0 1.5707963705062866 0.0 0.0 0.0 0.0 0.0 0.0 0.0 -1.6018983942199055e-26 0.48703423142433167 0.6867076754570007 0.064094677567482 -8.567714098795418e-28 0.0 -1.6018983942199055e-26 0.48703423142433167 0.6867076754570007 0.064094677567482 -8.567714098795418e-28 0.0 0.2951499950589256 -0.11234999647001058 0.4809000069994156 -1.2091995794109558 1.2091995265551612 -1.2091995551462713 0.0 0.0 0.0 0.0 0.0 0.0 9.98197363699077e-07 -5.258967243140419e-07 1.144916897842466e-06 -1.8103060643113828e-15 1.8116749963477848e-08 4.307094529482934e-08 0.2951500000000001 -0.11235000004997343 0.4808999999601586 -1.2091995763071837 1.2091995763071837 -1.209199576059172 0.0 0.0 0.0 0.0 0.0 0.0
398.84 8.142358315366138e-17 -1.5707963267948966 -1.5707963267948966 0.0 1.5707963267948966 0.0 0.0 0.0 0.0 0.0 0.0 0.0 0.0 0.0 0.0 0.0 0.0 0.0 -1.6018983243994446e-26 0.4870342307692309 0.6867077006507593 0.06409467546754684 -8.567713817370151e-28 0.0 -2.1032924999364705e-25 6.394759450000002 6.3947594500000005 0.2913103000000004 -3.894025929994733e-27 0.0 8.142358315366138e-17 -1.570796314870016 -1.570796314870016 0.0 1.5707963705062866 0.0 0.0 0.0 0.0 0.0 0.0 0.0 -1.6018983942199055e-26 0.48703423142433167 0.6867076754570007 0.064094677567482 -8.567714098795418e-28 0.0 -1.6018983942199055e-26 0.48703423142433167 0.6867076754570007 0.064094677567482 -8.567714098795418e-28 0.0 0.2951499950589256 -0.11234999647001058 0.4809000069994156 -1.2091995794109558 1.2091995265551612 -1.2091995551462713 0.0 0.0 0.0 0.0 0.0 0.0 9.98197363699077e-07 -5.258967243140419e-07 1.144916897842466e-06 -1.8103060643113828e-15 1.8116749963477848e-08 4.307094529482934e-08 0.2951500000000001 -0.11235000004997343 0.4808999999601586 -1.2091995763071837 1.2091995763071837 -1.209199576059172 0.0 0.0 0.0 0.0 0.0 0.0
398.84799999999996 8.142358315366138e-17 -1.5707963267948966 -1.5707963267948966 0.0 1.5707963267948966 0.0 0.0 0.0 0.0 0.0 0.0 0.0 0.0 0.0 0.0 0.0 0.0 0.0 -1.6018983243994446e-26 0.4870342307692309 0.6867077006507593 0.06409467546754684 -8.567713817370151e-28 0.0 -2.1032924999364705e-25 6.394759450000002 6.3947594500000005 0.2913103000000004 -3.894025929994733e-27 0.0 8.142358315366138e-17 -1.570796314870016 -1.570796314870016 0.0 1.5707963705062866 0.0 0.0 0.0 0.0 0.0 0.0 0.0 -1.6018983942199055e-26 0.48703423142433167 0.6867076754570007 0.064094677567482 -8.567714098795418e-28 0.0 -1.6018983942199055e-26 0.48703423142433167 0.6867076754570007 0.064094677567482 -8.567714098795418e-28 0.0 0.2951499950589256 -0.11234999647001058 0.4809000069994156 -1.2091995794109558 1.2091995265551612 -1.2091995551462713 0.0 0.0 0.0 0.0 0.0 0.0 9.98197363699077e-07 -5.258967243140419e-07 1.144916897842466e-06 -1.8103060643113828e-15 1.8116749963477848e-08 4.307094529482934e-08 0.2951500000000001 -0.11235000004997343 0.4808999999601586 -1.2091995763071837 1.2091995763071837 -1.209199576059172 0.0 0.0 0.0 0.0 0.0 0.0
398.856 8.142358315366138e-17 -1.5707963267948966 -1.5707963267948966 0.0 1.5707963267948966 0.0 0.0 0.0 0.0 0.0 0.0 0.0 0.0 0.0 0.0 0.0 0.0 0.0 -1.6018983243994446e-26 0.4870342307692309 0.6867077006507593 0.06409467546754684 -8.567713817370151e-28 0.0 -2.1032924999364705e-25 6.394759450000002 6.3947594500000005 0.2913103000000004 -3.894025929994733e-27 0.0 8.142358315366138e-17 -1.570796314870016 -1.570796314870016 0.0 1.5707963705062866 0.0 0.0 0.0 0.0 0.0 0.0 0.0 -1.6018983942199055e-26 0.48703423142433167 0.6867076754570007 0.064094677567482 -8.567714098795418e-28 0.0 -1.6018983942199055e-26 0.48703423142433167 0.6867076754570007 0.064094677567482 -8.567714098795418e-28 0.0 0.2951499950589256 -0.11234999647001058 0.4809000069994156 -1.2091995794109558 1.2091995265551612 -1.2091995551462713 0.0 0.0 0.0 0.0 0.0 0.0 9.98197363699077e-07 -5.258967243140419e-07 1.144916897842466e-06 -1.8103060643113828e-15 1.8116749963477848e-08 4.307094529482934e-08 0.2951500000000001 -0.11235000004997343 0.4808999999601586 -1.2091995763071837 1.2091995763071837 -1.209199576059172 0.0 0.0 0.0 0.0 0.0 0.0
398.864 8.142358315366138e-17 -1.5707963267948966 -1.5707963267948966 0.0 1.5707963267948966 0.0 0.0 0.0 0.0 0.0 0.0 0.0 0.0 0.0 0.0 0.0 0.0 0.0 -1.6018983243994446e-26 0.4870342307692309 0.6867077006507593 0.06409467546754684 -8.567713817370151e-28 0.0 -2.1032924999364705e-25 6.394759450000002 6.3947594500000005 0.2913103000000004 -3.894025929994733e-27 0.0 8.142358315366138e-17 -1.570796314870016 -1.570796314870016 0.0 1.5707963705062866 0.0 0.0 0.0 0.0 0.0 0.0 0.0 -1.6018983942199055e-26 0.48703423142433167 0.6867076754570007 0.064094677567482 -8.567714098795418e-28 0.0 -1.6018983942199055e-26 0.48703423142433167 0.6867076754570007 0.064094677567482 -8.567714098795418e-28 0.0 0.2951499950589256 -0.11234999647001058 0.4809000069994156 -1.2091995794109558 1.2091995265551612 -1.2091995551462713 0.0 0.0 0.0 0.0 0.0 0.0 9.98197363699077e-07 -5.258967243140419e-07 1.144916897842466e-06 -1.8103060643113828e-15 1.8116749963477848e-08 4.307094529482934e-08 0.2951500000000001 -0.11235000004997343 0.4808999999601586 -1.2091995763071837 1.2091995763071837 -1.209199576059172 0.0 0.0 0.0 0.0 0.0 0.0
398.87199999999996 8.142358315366138e-17 -1.5707963267948966 -1.5707963267948966 0.0 1.5707963267948966 0.0 0.0 0.0 0.0 0.0 0.0 0.0 0.0 0.0 0.0 0.0 0.0 0.0 -1.6018983243994446e-26 0.4870342307692309 0.6867077006507593 0.06409467546754684 -8.567713817370151e-28 0.0 -2.1032924999364705e-25 6.394759450000002 6.3947594500000005 0.2913103000000004 -3.894025929994733e-27 0.0 8.142358315366138e-17 -1.570796314870016 -1.570796314870016 0.0 1.5707963705062866 0.0 0.0 0.0 0.0 0.0 0.0 0.0 -1.6018983942199055e-26 0.48703423142433167 0.6867076754570007 0.064094677567482 -8.567714098795418e-28 0.0 -1.6018983942199055e-26 0.48703423142433167 0.6867076754570007 0.064094677567482 -8.567714098795418e-28 0.0 0.2951499950589256 -0.11234999647001058 0.4809000069994156 -1.2091995794109558 1.2091995265551612 -1.2091995551462713 0.0 0.0 0.0 0.0 0.0 0.0 9.98197363699077e-07 -5.258967243140419e-07 1.144916897842466e-06 -1.8103060643113828e-15 1.8116749963477848e-08 4.307094529482934e-08 0.2951500000000001 -0.11235000004997343 0.4808999999601586 -1.2091995763071837 1.2091995763071837 -1.209199576059172 0.0 0.0 0.0 0.0 0.0 0.0
398.88 8.142358315366138e-17 -1.5707963267948966 -1.5707963267948966 0.0 1.5707963267948966 0.0 0.0 0.0 0.0 0.0 0.0 0.0 0.0 0.0 0.0 0.0 0.0 0.0 -1.6018983243994446e-26 0.4870342307692309 0.6867077006507593 0.06409467546754684 -8.567713817370151e-28 0.0 -2.1032924999364705e-25 6.394759450000002 6.3947594500000005 0.2913103000000004 -3.894025929994733e-27 0.0 8.142358315366138e-17 -1.570796314870016 -1.570796314870016 0.0 1.5707963705062866 0.0 0.0 0.0 0.0 0.0 0.0 0.0 -1.6018983942199055e-26 0.48703423142433167 0.6867076754570007 0.064094677567482 -8.567714098795418e-28 0.0 -1.6018983942199055e-26 0.48703423142433167 0.6867076754570007 0.064094677567482 -8.567714098795418e-28 0.0 0.2951499950589256 -0.11234999647001058 0.4809000069994156 -1.2091995794109558 1.2091995265551612 -1.2091995551462713 0.0 0.0 0.0 0.0 0.0 0.0 9.98197363699077e-07 -5.258967243140419e-07 1.144916897842466e-06 -1.8103060643113828e-15 1.8116749963477848e-08 4.307094529482934e-08 0.2951500000000001 -0.11235000004997343 0.4808999999601586 -1.2091995763071837 1.2091995763071837 -1.209199576059172 0.0 0.0 0.0 0.0 0.0 0.0
398.888 8.142358315366138e-17 -1.5707963267948966 -1.5707963267948966 0.0 1.5707963267948966 0.0 0.0 0.0 0.0 0.0 0.0 0.0 0.0 0.0 0.0 0.0 0.0 0.0 -1.6018983243994446e-26 0.4870342307692309 0.6867077006507593 0.06409467546754684 -8.567713817370151e-28 0.0 -2.1032924999364705e-25 6.394759450000002 6.3947594500000005 0.2913103000000004 -3.894025929994733e-27 0.0 8.142358315366138e-17 -1.570796314870016 -1.570796314870016 0.0 1.5707963705062866 0.0 0.0 0.0 0.0 0.0 0.0 0.0 -1.6018983942199055e-26 0.48703423142433167 0.6867076754570007 0.064094677567482 -8.567714098795418e-28 0.0 -1.6018983942199055e-26 0.48703423142433167 0.6867076754570007 0.064094677567482 -8.567714098795418e-28 0.0 0.2951499950589256 -0.11234999647001058 0.4809000069994156 -1.2091995794109558 1.2091995265551612 -1.2091995551462713 0.0 0.0 0.0 0.0 0.0 0.0 9.98197363699077e-07 -5.258967243140419e-07 1.144916897842466e-06 -1.8103060643113828e-15 1.8116749963477848e-08 4.307094529482934e-08 0.2951500000000001 -0.11235000004997343 0.4808999999601586 -1.2091995763071837 1.2091995763071837 -1.209199576059172 0.0 0.0 0.0 0.0 0.0 0.0
398.89599999999996 8.142358315366138e-17 -1.5707963267948966 -1.5707963267948966 0.0 1.5707963267948966 0.0 0.0 0.0 0.0 0.0 0.0 0.0 0.0 0.0 0.0 0.0 0.0 0.0 -1.6018983243994446e-26 0.4870342307692309 0.6867077006507593 0.06409467546754684 -8.567713817370151e-28 0.0 -2.1032924999364705e-25 6.394759450000002 6.3947594500000005 0.2913103000000004 -3.894025929994733e-27 0.0 8.142358315366138e-17 -1.570796314870016 -1.570796314870016 0.0 1.5707963705062866 0.0 0.0 0.0 0.0 0.0 0.0 0.0 -1.6018983942199055e-26 0.48703423142433167 0.6867076754570007 0.064094677567482 -8.567714098795418e-28 0.0 -1.6018983942199055e-26 0.48703423142433167 0.6867076754570007 0.064094677567482 -8.567714098795418e-28 0.0 0.2951499950589256 -0.11234999647001058 0.4809000069994156 -1.2091995794109558 1.2091995265551612 -1.2091995551462713 0.0 0.0 0.0 0.0 0.0 0.0 9.98197363699077e-07 -5.258967243140419e-07 1.144916897842466e-06 -1.8103060643113828e-15 1.8116749963477848e-08 4.307094529482934e-08 0.2951500000000001 -0.11235000004997343 0.4808999999601586 -1.2091995763071837 1.2091995763071837 -1.209199576059172 0.0 0.0 0.0 0.0 0.0 0.0
398.904 8.142358315366138e-17 -1.5707963267948966 -1.5707963267948966 0.0 1.5707963267948966 0.0 0.0 0.0 0.0 0.0 0.0 0.0 0.0 0.0 0.0 0.0 0.0 0.0 -1.6018983243994446e-26 0.4870342307692309 0.6867077006507593 0.06409467546754684 -8.567713817370151e-28 0.0 -2.1032924999364705e-25 6.394759450000002 6.3947594500000005 0.2913103000000004 -3.894025929994733e-27 0.0 8.142358315366138e-17 -1.570796314870016 -1.570796314870016 0.0 1.5707963705062866 0.0 0.0 0.0 0.0 0.0 0.0 0.0 -1.6018983942199055e-26 0.48703423142433167 0.6867076754570007 0.064094677567482 -8.567714098795418e-28 0.0 -1.6018983942199055e-26 0.48703423142433167 0.6867076754570007 0.064094677567482 -8.567714098795418e-28 0.0 0.2951499950589256 -0.11234999647001058 0.4809000069994156 -1.2091995794109558 1.2091995265551612 -1.2091995551462713 0.0 0.0 0.0 0.0 0.0 0.0 9.98197363699077e-07 -5.258967243140419e-07 1.144916897842466e-06 -1.8103060643113828e-15 1.8116749963477848e-08 4.307094529482934e-08 0.2951500000000001 -0.11235000004997343 0.4808999999601586 -1.2091995763071837 1.2091995763071837 -1.209199576059172 0.0 0.0 0.0 0.0 0.0 0.0
398.912 8.142358315366138e-17 -1.5707963267948966 -1.5707963267948966 0.0 1.5707963267948966 0.0 0.0 0.0 0.0 0.0 0.0 0.0 0.0 0.0 0.0 0.0 0.0 0.0 -1.6018983243994446e-26 0.4870342307692309 0.6867077006507593 0.06409467546754684 -8.567713817370151e-28 0.0 -2.1032924999364705e-25 6.394759450000002 6.3947594500000005 0.2913103000000004 -3.894025929994733e-27 0.0 8.142358315366138e-17 -1.570796314870016 -1.570796314870016 0.0 1.5707963705062866 0.0 0.0 0.0 0.0 0.0 0.0 0.0 -1.6018983942199055e-26 0.48703423142433167 0.6867076754570007 0.064094677567482 -8.567714098795418e-28 0.0 -1.6018983942199055e-26 0.48703423142433167 0.6867076754570007 0.064094677567482 -8.567714098795418e-28 0.0 0.2951499950589256 -0.11234999647001058 0.4809000069994156 -1.2091995794109558 1.2091995265551612 -1.2091995551462713 0.0 0.0 0.0 0.0 0.0 0.0 9.98197363699077e-07 -5.258967243140419e-07 1.144916897842466e-06 -1.8103060643113828e-15 1.8116749963477848e-08 4.307094529482934e-08 0.2951500000000001 -0.11235000004997343 0.4808999999601586 -1.2091995763071837 1.2091995763071837 -1.209199576059172 0.0 0.0 0.0 0.0 0.0 0.0
398.91999999999996 8.142358315366138e-17 -1.5707963267948966 -1.5707963267948966 0.0 1.5707963267948966 0.0 0.0 0.0 0.0 0.0 0.0 0.0 0.0 0.0 0.0 0.0 0.0 0.0 -1.6018983243994446e-26 0.4870342307692309 0.6867077006507593 0.06409467546754684 -8.567713817370151e-28 0.0 -2.1032924999364705e-25 6.394759450000002 6.3947594500000005 0.2913103000000004 -3.894025929994733e-27 0.0 8.142358315366138e-17 -1.570796314870016 -1.570796314870016 0.0 1.5707963705062866 0.0 0.0 0.0 0.0 0.0 0.0 0.0 -1.6018983942199055e-26 0.48703423142433167 0.6867076754570007 0.064094677567482 -8.567714098795418e-28 0.0 -1.6018983942199055e-26 0.48703423142433167 0.6867076754570007 0.064094677567482 -8.567714098795418e-28 0.0 0.2951499950589256 -0.11234999647001058 0.4809000069994156 -1.2091995794109558 1.2091995265551612 -1.2091995551462713 0.0 0.0 0.0 0.0 0.0 0.0 9.98197363699077e-07 -5.258967243140419e-07 1.144916897842466e-06 -1.8103060643113828e-15 1.8116749963477848e-08 4.307094529482934e-08 0.2951500000000001 -0.11235000004997343 0.4808999999601586 -1.2091995763071837 1.2091995763071837 -1.209199576059172 0.0 0.0 0.0 0.0 0.0 0.0
398.928 8.142358315366138e-17 -1.5707963267948966 -1.5707963267948966 0.0 1.5707963267948966 0.0 0.0 0.0 0.0 0.0 0.0 0.0 0.0 0.0 0.0 0.0 0.0 0.0 -1.6018983243994446e-26 0.4870342307692309 0.6867077006507593 0.06409467546754684 -8.567713817370151e-28 0.0 -2.1032924999364705e-25 6.394759450000002 6.3947594500000005 0.2913103000000004 -3.894025929994733e-27 0.0 8.142358315366138e-17 -1.570796314870016 -1.570796314870016 0.0 1.5707963705062866 0.0 0.0 0.0 0.0 0.0 0.0 0.0 -1.6018983942199055e-26 0.48703423142433167 0.6867076754570007 0.064094677567482 -8.567714098795418e-28 0.0 -1.6018983942199055e-26 0.48703423142433167 0.6867076754570007 0.064094677567482 -8.567714098795418e-28 0.0 0.2951499950589256 -0.11234999647001058 0.4809000069994156 -1.2091995794109558 1.2091995265551612 -1.2091995551462713 0.0 0.0 0.0 0.0 0.0 0.0 9.98197363699077e-07 -5.258967243140419e-07 1.144916897842466e-06 -1.8103060643113828e-15 1.8116749963477848e-08 4.307094529482934e-08 0.2951500000000001 -0.11235000004997343 0.4808999999601586 -1.2091995763071837 1.2091995763071837 -1.209199576059172 0.0 0.0 0.0 0.0 0.0 0.0
398.936 8.142358315366138e-17 -1.5707963267948966 -1.5707963267948966 0.0 1.5707963267948966 0.0 0.0 0.0 0.0 0.0 0.0 0.0 0.0 0.0 0.0 0.0 0.0 0.0 -1.6018983243994446e-26 0.4870342307692309 0.6867077006507593 0.06409467546754684 -8.567713817370151e-28 0.0 -2.1032924999364705e-25 6.394759450000002 6.3947594500000005 0.2913103000000004 -3.894025929994733e-27 0.0 8.142358315366138e-17 -1.570796314870016 -1.570796314870016 0.0 1.5707963705062866 0.0 0.0 0.0 0.0 0.0 0.0 0.0 -1.6018983942199055e-26 0.48703423142433167 0.6867076754570007 0.064094677567482 -8.567714098795418e-28 0.0 -1.6018983942199055e-26 0.48703423142433167 0.6867076754570007 0.064094677567482 -8.567714098795418e-28 0.0 0.2951499950589256 -0.11234999647001058 0.4809000069994156 -1.2091995794109558 1.2091995265551612 -1.2091995551462713 0.0 0.0 0.0 0.0 0.0 0.0 9.98197363699077e-07 -5.258967243140419e-07 1.144916897842466e-06 -1.8103060643113828e-15 1.8116749963477848e-08 4.307094529482934e-08 0.2951500000000001 -0.11235000004997343 0.4808999999601586 -1.2091995763071837 1.2091995763071837 -1.209199576059172 0.0 0.0 0.0 0.0 0.0 0.0
398.94399999999996 8.142358315366138e-17 -1.5707963267948966 -1.5707963267948966 0.0 1.5707963267948966 0.0 0.0 0.0 0.0 0.0 0.0 0.0 0.0 0.0 0.0 0.0 0.0 0.0 -1.6018983243994446e-26 0.4870342307692309 0.6867077006507593 0.06409467546754684 -8.567713817370151e-28 0.0 -2.1032924999364705e-25 6.394759450000002 6.3947594500000005 0.2913103000000004 -3.894025929994733e-27 0.0 8.142358315366138e-17 -1.570796314870016 -1.570796314870016 0.0 1.5707963705062866 0.0 0.0 0.0 0.0 0.0 0.0 0.0 -1.6018983942199055e-26 0.48703423142433167 0.6867076754570007 0.064094677567482 -8.567714098795418e-28 0.0 -1.6018983942199055e-26 0.48703423142433167 0.6867076754570007 0.064094677567482 -8.567714098795418e-28 0.0 0.2951499950589256 -0.11234999647001058 0.4809000069994156 -1.2091995794109558 1.2091995265551612 -1.2091995551462713 0.0 0.0 0.0 0.0 0.0 0.0 9.98197363699077e-07 -5.258967243140419e-07 1.144916897842466e-06 -1.8103060643113828e-15 1.8116749963477848e-08 4.307094529482934e-08 0.2951500000000001 -0.11235000004997343 0.4808999999601586 -1.2091995763071837 1.2091995763071837 -1.209199576059172 0.0 0.0 0.0 0.0 0.0 0.0
398.952 8.142358315366138e-17 -1.5707963267948966 -1.5707963267948966 0.0 1.5707963267948966 0.0 0.0 0.0 0.0 0.0 0.0 0.0 0.0 0.0 0.0 0.0 0.0 0.0 -1.6018983243994446e-26 0.4870342307692309 0.6867077006507593 0.06409467546754684 -8.567713817370151e-28 0.0 -2.1032924999364705e-25 6.394759450000002 6.3947594500000005 0.2913103000000004 -3.894025929994733e-27 0.0 8.142358315366138e-17 -1.570796314870016 -1.570796314870016 0.0 1.5707963705062866 0.0 0.0 0.0 0.0 0.0 0.0 0.0 -1.6018983942199055e-26 0.48703423142433167 0.6867076754570007 0.064094677567482 -8.567714098795418e-28 0.0 -1.6018983942199055e-26 0.48703423142433167 0.6867076754570007 0.064094677567482 -8.567714098795418e-28 0.0 0.2951499950589256 -0.11234999647001058 0.4809000069994156 -1.2091995794109558 1.2091995265551612 -1.2091995551462713 0.0 0.0 0.0 0.0 0.0 0.0 9.98197363699077e-07 -5.258967243140419e-07 1.144916897842466e-06 -1.8103060643113828e-15 1.8116749963477848e-08 4.307094529482934e-08 0.2951500000000001 -0.11235000004997343 0.4808999999601586 -1.2091995763071837 1.2091995763071837 -1.209199576059172 0.0 0.0 0.0 0.0 0.0 0.0
398.96 8.142358315366138e-17 -1.5707963267948966 -1.5707963267948966 0.0 1.5707963267948966 0.0 0.0 0.0 0.0 0.0 0.0 0.0 0.0 0.0 0.0 0.0 0.0 0.0 -1.6018983243994446e-26 0.4870342307692309 0.6867077006507593 0.06409467546754684 -8.567713817370151e-28 0.0 -2.1032924999364705e-25 6.394759450000002 6.3947594500000005 0.2913103000000004 -3.894025929994733e-27 0.0 8.142358315366138e-17 -1.570796314870016 -1.570796314870016 0.0 1.5707963705062866 0.0 0.0 0.0 0.0 0.0 0.0 0.0 -1.6018983942199055e-26 0.48703423142433167 0.6867076754570007 0.064094677567482 -8.567714098795418e-28 0.0 -1.6018983942199055e-26 0.48703423142433167 0.6867076754570007 0.064094677567482 -8.567714098795418e-28 0.0 0.2951499950589256 -0.11234999647001058 0.4809000069994156 -1.2091995794109558 1.2091995265551612 -1.2091995551462713 0.0 0.0 0.0 0.0 0.0 0.0 9.98197363699077e-07 -5.258967243140419e-07 1.144916897842466e-06 -1.8103060643113828e-15 1.8116749963477848e-08 4.307094529482934e-08 0.2951500000000001 -0.11235000004997343 0.4808999999601586 -1.2091995763071837 1.2091995763071837 -1.209199576059172 0.0 0.0 0.0 0.0 0.0 0.0
398.96799999999996 8.142358315366138e-17 -1.5707963267948966 -1.5707963267948966 0.0 1.5707963267948966 0.0 0.0 0.0 0.0 0.0 0.0 0.0 0.0 0.0 0.0 0.0 0.0 0.0 -1.6018983243994446e-26 0.4870342307692309 0.6867077006507593 0.06409467546754684 -8.567713817370151e-28 0.0 -2.1032924999364705e-25 6.394759450000002 6.3947594500000005 0.2913103000000004 -3.894025929994733e-27 0.0 8.142358315366138e-17 -1.570796314870016 -1.570796314870016 0.0 1.5707963705062866 0.0 0.0 0.0 0.0 0.0 0.0 0.0 -1.6018983942199055e-26 0.48703423142433167 0.6867076754570007 0.064094677567482 -8.567714098795418e-28 0.0 -1.6018983942199055e-26 0.48703423142433167 0.6867076754570007 0.064094677567482 -8.567714098795418e-28 0.0 0.2951499950589256 -0.11234999647001058 0.4809000069994156 -1.2091995794109558 1.2091995265551612 -1.2091995551462713 0.0 0.0 0.0 0.0 0.0 0.0 9.98197363699077e-07 -5.258967243140419e-07 1.144916897842466e-06 -1.8103060643113828e-15 1.8116749963477848e-08 4.307094529482934e-08 0.2951500000000001 -0.11235000004997343 0.4808999999601586 -1.2091995763071837 1.2091995763071837 -1.209199576059172 0.0 0.0 0.0 0.0 0.0 0.0
398.976 8.142358315366138e-17 -1.5707963267948966 -1.5707963267948966 0.0 1.5707963267948966 0.0 0.0 0.0 0.0 0.0 0.0 0.0 0.0 0.0 0.0 0.0 0.0 0.0 -1.6018983243994446e-26 0.4870342307692309 0.6867077006507593 0.06409467546754684 -8.567713817370151e-28 0.0 -2.1032924999364705e-25 6.394759450000002 6.3947594500000005 0.2913103000000004 -3.894025929994733e-27 0.0 8.142358315366138e-17 -1.570796314870016 -1.570796314870016 0.0 1.5707963705062866 0.0 0.0 0.0 0.0 0.0 0.0 0.0 -1.6018983942199055e-26 0.48703423142433167 0.6867076754570007 0.064094677567482 -8.567714098795418e-28 0.0 -1.6018983942199055e-26 0.48703423142433167 0.6867076754570007 0.064094677567482 -8.567714098795418e-28 0.0 0.2951499950589256 -0.11234999647001058 0.4809000069994156 -1.2091995794109558 1.2091995265551612 -1.2091995551462713 0.0 0.0 0.0 0.0 0.0 0.0 9.98197363699077e-07 -5.258967243140419e-07 1.144916897842466e-06 -1.8103060643113828e-15 1.8116749963477848e-08 4.307094529482934e-08 0.2951500000000001 -0.11235000004997343 0.4808999999601586 -1.2091995763071837 1.2091995763071837 -1.209199576059172 0.0 0.0 0.0 0.0 0.0 0.0
398.984 8.142358315366138e-17 -1.5707963267948966 -1.5707963267948966 0.0 1.5707963267948966 0.0 0.0 0.0 0.0 0.0 0.0 0.0 0.0 0.0 0.0 0.0 0.0 0.0 -1.6018983243994446e-26 0.4870342307692309 0.6867077006507593 0.06409467546754684 -8.567713817370151e-28 0.0 -2.1032924999364705e-25 6.394759450000002 6.3947594500000005 0.2913103000000004 -3.894025929994733e-27 0.0 8.142358315366138e-17 -1.570796314870016 -1.570796314870016 0.0 1.5707963705062866 0.0 0.0 0.0 0.0 0.0 0.0 0.0 -1.6018983942199055e-26 0.48703423142433167 0.6867076754570007 0.064094677567482 -8.567714098795418e-28 0.0 -1.6018983942199055e-26 0.48703423142433167 0.6867076754570007 0.064094677567482 -8.567714098795418e-28 0.0 0.2951499950589256 -0.11234999647001058 0.4809000069994156 -1.2091995794109558 1.2091995265551612 -1.2091995551462713 0.0 0.0 0.0 0.0 0.0 0.0 9.98197363699077e-07 -5.258967243140419e-07 1.144916897842466e-06 -1.8103060643113828e-15 1.8116749963477848e-08 4.307094529482934e-08 0.2951500000000001 -0.11235000004997343 0.4808999999601586 -1.2091995763071837 1.2091995763071837 -1.209199576059172 0.0 0.0 0.0 0.0 0.0 0.0
398.99199999999996 8.142358315366138e-17 -1.5707963267948966 -1.5707963267948966 0.0 1.5707963267948966 0.0 0.0 0.0 0.0 0.0 0.0 0.0 0.0 0.0 0.0 0.0 0.0 0.0 -1.6018983243994446e-26 0.4870342307692309 0.6867077006507593 0.06409467546754684 -8.567713817370151e-28 0.0 -2.1032924999364705e-25 6.394759450000002 6.3947594500000005 0.2913103000000004 -3.894025929994733e-27 0.0 8.142358315366138e-17 -1.570796314870016 -1.570796314870016 0.0 1.5707963705062866 0.0 0.0 0.0 0.0 0.0 0.0 0.0 -1.6018983942199055e-26 0.48703423142433167 0.6867076754570007 0.064094677567482 -8.567714098795418e-28 0.0 -1.6018983942199055e-26 0.48703423142433167 0.6867076754570007 0.064094677567482 -8.567714098795418e-28 0.0 0.2951499950589256 -0.11234999647001058 0.4809000069994156 -1.2091995794109558 1.2091995265551612 -1.2091995551462713 0.0 0.0 0.0 0.0 0.0 0.0 9.98197363699077e-07 -5.258967243140419e-07 1.144916897842466e-06 -1.8103060643113828e-15 1.8116749963477848e-08 4.307094529482934e-08 0.2951500000000001 -0.11235000004997343 0.4808999999601586 -1.2091995763071837 1.2091995763071837 -1.209199576059172 0.0 0.0 0.0 0.0 0.0 0.0
399.0 8.142358315366138e-17 -1.5707963267948966 -1.5707963267948966 0.0 1.5707963267948966 0.0 0.0 0.0 0.0 0.0 0.0 0.0 0.0 0.0 0.0 0.0 0.0 0.0 -1.6018983243994446e-26 0.4870342307692309 0.6867077006507593 0.06409467546754684 -8.567713817370151e-28 0.0 -2.1032924999364705e-25 6.394759450000002 6.3947594500000005 0.2913103000000004 -3.894025929994733e-27 0.0 8.142358315366138e-17 -1.570796314870016 -1.570796314870016 0.0 1.5707963705062866 0.0 0.0 0.0 0.0 0.0 0.0 0.0 -1.6018983942199055e-26 0.48703423142433167 0.6867076754570007 0.064094677567482 -8.567714098795418e-28 0.0 -1.6018983942199055e-26 0.48703423142433167 0.6867076754570007 0.064094677567482 -8.567714098795418e-28 0.0 0.2951499950589256 -0.11234999647001058 0.4809000069994156 -1.2091995794109558 1.2091995265551612 -1.2091995551462713 0.0 0.0 0.0 0.0 0.0 0.0 9.98197363699077e-07 -5.258967243140419e-07 1.144916897842466e-06 -1.8103060643113828e-15 1.8116749963477848e-08 4.307094529482934e-08 0.2951500000000001 -0.11235000004997343 0.4808999999601586 -1.2091995763071837 1.2091995763071837 -1.209199576059172 0.0 0.0 0.0 0.0 0.0 0.0
399.008 8.142358315366138e-17 -1.5707963267948966 -1.5707963267948966 0.0 1.5707963267948966 0.0 0.0 0.0 0.0 0.0 0.0 0.0 0.0 0.0 0.0 0.0 0.0 0.0 -1.6018983243994446e-26 0.4870342307692309 0.6867077006507593 0.06409467546754684 -8.567713817370151e-28 0.0 -2.1032924999364705e-25 6.394759450000002 6.3947594500000005 0.2913103000000004 -3.894025929994733e-27 0.0 8.142358315366138e-17 -1.570796314870016 -1.570796314870016 0.0 1.5707963705062866 0.0 0.0 0.0 0.0 0.0 0.0 0.0 -1.6018983942199055e-26 0.48703423142433167 0.6867076754570007 0.064094677567482 -8.567714098795418e-28 0.0 -1.6018983942199055e-26 0.48703423142433167 0.6867076754570007 0.064094677567482 -8.567714098795418e-28 0.0 0.2951499950589256 -0.11234999647001058 0.4809000069994156 -1.2091995794109558 1.2091995265551612 -1.2091995551462713 0.0 0.0 0.0 0.0 0.0 0.0 9.98197363699077e-07 -5.258967243140419e-07 1.144916897842466e-06 -1.8103060643113828e-15 1.8116749963477848e-08 4.307094529482934e-08 0.2951500000000001 -0.11235000004997343 0.4808999999601586 -1.2091995763071837 1.2091995763071837 -1.209199576059172 0.0 0.0 0.0 0.0 0.0 0.0
399.01599999999996 8.142358315366138e-17 -1.5707963267948966 -1.5707963267948966 0.0 1.5707963267948966 0.0 0.0 0.0 0.0 0.0 0.0 0.0 0.0 0.0 0.0 0.0 0.0 0.0 -1.6018983243994446e-26 0.4870342307692309 0.6867077006507593 0.06409467546754684 -8.567713817370151e-28 0.0 -2.1032924999364705e-25 6.394759450000002 6.3947594500000005 0.2913103000000004 -3.894025929994733e-27 0.0 8.142358315366138e-17 -1.570796314870016 -1.570796314870016 0.0 1.5707963705062866 0.0 0.0 0.0 0.0 0.0 0.0 0.0 -1.6018983942199055e-26 0.48703423142433167 0.6867076754570007 0.064094677567482 -8.567714098795418e-28 0.0 -1.6018983942199055e-26 0.48703423142433167 0.6867076754570007 0.064094677567482 -8.567714098795418e-28 0.0 0.2951499950589256 -0.11234999647001058 0.4809000069994156 -1.2091995794109558 1.2091995265551612 -1.2091995551462713 0.0 0.0 0.0 0.0 0.0 0.0 9.98197363699077e-07 -5.258967243140419e-07 1.144916897842466e-06 -1.8103060643113828e-15 1.8116749963477848e-08 4.307094529482934e-08 0.2951500000000001 -0.11235000004997343 0.4808999999601586 -1.2091995763071837 1.2091995763071837 -1.209199576059172 0.0 0.0 0.0 0.0 0.0 0.0
