Fleaurent/UniversalRobot/csv/robot_movel_x400_Singular.csv
timestamp target_q_0 target_q_1 target_q_2 target_q_3 target_q_4 target_q_5 target_qd_0 target_qd_1 target_qd_2 target_qd_3 target_qd_4 target_qd_5 target_qdd_0 target_qdd_1 target_qdd_2 target_qdd_3 target_qdd_4 target_qdd_5 target_current_0 target_current_1 target_current_2 target_current_3 target_current_4 target_current_5 target_moment_0 target_moment_1 target_moment_2 target_moment_3 target_moment_4 target_moment_5 actual_q_0 actual_q_1 actual_q_2 actual_q_3 actual_q_4 actual_q_5 actual_qd_0 actual_qd_1 actual_qd_2 actual_qd_3 actual_qd_4 actual_qd_5 actual_current_0 actual_current_1 actual_current_2 actual_current_3 actual_current_4 actual_current_5 joint_control_output_0 joint_control_output_1 joint_control_output_2 joint_control_output_3 joint_control_output_4 joint_control_output_5 actual_TCP_pose_0 actual_TCP_pose_1 actual_TCP_pose_2 actual_TCP_pose_3 actual_TCP_pose_4 actual_TCP_pose_5 actual_TCP_speed_0 actual_TCP_speed_1 actual_TCP_speed_2 actual_TCP_speed_3 actual_TCP_speed_4 actual_TCP_speed_5 actual_TCP_force_0 actual_TCP_force_1 actual_TCP_force_2 actual_TCP_force_3 actual_TCP_force_4 actual_TCP_force_5 target_TCP_pose_0 target_TCP_pose_1 target_TCP_pose_2 target_TCP_pose_3 target_TCP_pose_4 target_TCP_pose_5 target_TCP_speed_0 target_TCP_speed_1 target_TCP_speed_2 target_TCP_speed_3 target_TCP_speed_4 target_TCP_speed_5
886.496 -0.5317965226624626 -1.5935130245447802 -1.9404832154997003 0.3939278331850957 2.101684898305706 0.0012203700581085999 -0.0 0.0 -0.0 0.0 -0.0 0.0 0.0 0.0 0.0 0.0 0.0 0.0 7.004311267080232e-19 0.5339517876541976 0.6975046845426743 0.06047851980485384 -5.4153432507572516e-05 0.0 8.038147178250425e-18 6.150323238433266 5.889166123436275 0.24962443727032316 -0.00022481159480913665 0.0 -0.5318334738360804 -1.5934904257403772 -1.9404118696795862 0.3939054012298584 2.101688861846924 0.0011411228915676475 3.834952076431364e-05 -1.917476038215682e-05 2.3968450477696024e-05 -2.3968450477696024e-05 -4.793690095539205e-05 -2.3968450477696024e-05 0.0919647291302681 0.5136566758155823 0.6115415096282959 0.03916478529572487 -0.16337309777736664 0.01007094420492649 0.0964508131146431 0.5091705918312073 0.6328920722007751 0.0335698164999485 -0.16449210047721863 0.012308932840824127 0.19998914407216753 -0.20000511048556358 0.40002372080194615 -1.209122645719322 1.2089732201985215 -1.20918741841326 1.3439605636475882e-05 3.084318018124461e-07 -5.17627353358079e-07 -1.419499371154407e-05 1.6473017477590294e-05 -9.640400535046035e-06 -3.5217130635729252 -10.538995941207194 2.65231643811152 -0.04700490502383527 -0.09694476063372068 1.628732495084982 0.20000000000100024 -0.19999999999567625 0.3999999999978721 -1.2090987222147538 1.209048730542502 -1.2090487305427604 0.0 0.0 0.0 0.0 0.0 0.0
886.5039999999999 -0.5317965226624626 -1.5935130245447802 -1.9404832154997003 0.3939278331850957 2.101684898305706 0.0012203700581085999 -0.0 0.0 -0.0 0.0 -0.0 0.0 0.0 0.0 0.0 0.0 0.0 0.0 7.004311267080232e-19 0.5339517876541976 0.6975046845426743 0.06047851980485384 -5.4153432507572516e-05 0.0 8.038147178250425e-18 6.150323238433266 5.889166123436275 0.24962443727032316 -0.00022481159480913665 0.0 -0.5318453947650355 -1.593466583882467 -1.9404719511615198 0.3939054012298584 2.1016769409179688 0.0011051702313125134 3.834952076431364e-05 -1.917476038215682e-05 2.3968450477696024e-05 -2.3968450477696024e-05 -4.793690095539205e-05 -2.3968450477696024e-05 0.0874786451458931 0.5136566758155823 0.6344171166419983 0.031331829726696014 -0.16561108827590942 0.015665914863348007 0.0964508131146431 0.5069275498390198 0.6328920722007751 0.0335698164999485 -0.16449210047721863 0.012308932840824127 0.19998189741621064 -0.2000055568417685 0.40001414029197874 -1.2091474291878725 1.2090053241988667 -1.209203032170499 1.3439478289354965e-05 3.080917872540833e-07 -5.176711612216711e-07 -1.4196298117350958e-05 1.6474348337201726e-05 -9.639654134448014e-06 -3.92968046715904 -9.443213667778988 1.746466227822679 -0.07289909319473008 -0.10844024823520293 1.5488393995457097 0.20000000000100024 -0.19999999999567625 0.3999999999978721 -1.2090987222147538 1.209048730542502 -1.2090487305427604 0.0 0.0 0.0 0.0 0.0 0.0
886.512 -0.5317961833994422 -1.5935127044589361 -1.9404835447544393 0.3939278420751112 2.1016845582438592 0.0012203697673414291 0.0001696315602831196 0.0001600429309999231 -0.00016462734683972822 4.444976343737489e-06 -0.00017003097325859776 -1.4538353956242905e-07 0.02120394503538995 0.020005366374990386 -0.020578418354966026 0.0005556220429671861 -0.02125387165732472 -1.817294244530363e-05 0.005338994361069317 0.5390760949487488 0.6942977778753507 0.06055336509155233 -0.003807378987929875 -3.136269034671529e-07 0.014858479336496842 6.164574263229649 5.884329967883916 0.24993336038277256 -0.001594654363522998 -1.2976753011917962e-06 -0.5318453947650355 -1.5935142675982874 -1.9404237906085413 0.3939652442932129 2.1016769409179688 0.0011531071504577994 3.834952076431364e-05 -1.917476038215682e-05 2.3968450477696024e-05 -2.3968450477696024e-05 -4.793690095539205e-05 -2.3968450477696024e-05 0.0964508131146431 0.5114136338233948 0.6572927236557007 0.04587874934077263 -0.16561108827590942 0.006713963113725185 0.0964508131146431 0.5114136338233948 0.6328920722007751 0.0335698164999485 -0.16449210047721863 0.012308932840824127 0.19998749731802254 -0.2000088973965983 0.4000182440317169 -1.2090962055026677 1.2089753559544054 -1.2092149035334268 1.3439671511592108e-05 3.082680337475197e-07 -5.176750323195121e-07 -1.4193803308239843e-05 1.6472889641624702e-05 -9.640896887867477e-06 -4.819578581661274 -8.177631713228775 1.416117986892774 -0.03144414925573455 0.05724874586437551 1.4270442284691292 0.20000000000100537 -0.19999991999566238 0.39999999999787195 -1.2090987222147538 1.2090487305425024 -1.20904873054276 -1.0002826035140063e-16 4.000000000000004e-05 2.1278961570140125e-16 -3.843333157514254e-20 -7.179105142191008e-20 1.3113119253055377e-20
886.52 -0.5317934692880799 -1.5935101437708994 -1.940486178789107 0.39392791319071174 2.1016818377419013 0.0012203674412106626 0.0007633456200578662 0.0007201938311186187 -0.0007408214402963655 2.000013176212834e-05 -0.0007651429717149729 -6.542226283735214e-07 0.07421425747184332 0.07001886251483695 -0.07202426168207965 0.0019443944272988564 -0.0743889998070469 -6.360488610138653e-05 0.022735737355922176 0.5557767603574403 0.6836407854266885 0.06109916407744063 -0.01661505334729067 -1.097687043988518e-06 0.05200483913261011 6.2001817587382115 5.872239715568838 0.25070592808339665 -0.005019294900164415 -4.541834101841708e-06 -0.5318334738360804 -1.5934422651873987 -1.9404476324664515 0.3939054012298584 2.1016650199890137 0.0011531071504577994 3.834952076431364e-05 -1.917476038215682e-05 2.3968450477696024e-05 -2.3968450477696024e-05 -2.3968450477696024e-05 -2.3968450477696024e-05 0.1076660305261612 0.5203858017921448 0.6283169388771057 0.0335698164999485 -0.1712060570716858 0.01007094420492649 0.1031799390912056 0.5181427597999573 0.6252669095993042 0.0335698164999485 -0.1667300909757614 0.012308932840824127 0.1999789806526851 -0.20000107305608544 0.4000273165434482 -1.209099336361882 1.2089855398263432 -1.209205783767547 1.3441280207868175e-05 2.2820467906379624e-06 -5.195785126795319e-07 -1.4222097182756017e-05 1.6500112516818316e-05 1.4327763475578553e-05 -4.3558739559428545 -8.005768467019738 1.8659046537684798 -0.046992167132006435 0.0034095759385612528 1.3793642855057906 0.20000000000100487 -0.1999992799956584 0.39999999999787217 -1.2090987222147538 1.2090487305425015 -1.2090487305427609 -4.3012846349179446e-15 0.00017999999998961243 1.0826456934053255e-15 -1.4162340213279383e-19 -1.0017309254684024e-16 -1.0003853027440863e-16
886.5279999999999 -0.5317843090677616 -1.5935015014319323 -1.9404950686135765 0.3939281531464916 2.1016726559534997 0.0012203595906059362 0.0020356207101851166 0.0019205226579973728 -0.001975509256785938 5.3313328527409415e-05 -0.0020404135873436486 -1.7445639803715417e-06 0.1590343862659063 0.15004110335984425 -0.15433597706119653 0.004164149595660134 -0.15940882695358446 -0.00013629266899975253 0.05828389677371979 0.5899052036569624 0.6615524045372759 0.06199612676758758 -0.04361961669580014 -2.3521258526140583e-06 0.11144073631186366 6.257102038042117 5.852895758398954 0.25194259252604345 -0.010498987444327352 -9.732250615265329e-06 -0.5318334738360804 -1.5934422651873987 -1.9404595533954065 0.3939652442932129 2.1016530990600586 0.0011291387490928173 3.834952076431364e-05 0.0 2.3968450477696024e-05 -2.3968450477696024e-05 -2.3968450477696024e-05 -2.3968450477696024e-05 0.1323394924402237 0.5428162217140198 0.5749405026435852 0.03692679852247238 -0.17456303536891937 0.01007094420492649 0.1323394924402237 0.5450592637062073 0.5856158137321472 0.031331829726696014 -0.17568203806877136 0.011189938522875309 0.19997461707758457 -0.19999948364499387 0.4000283651036447 -1.209098760517696 1.2089410721106346 -1.209269605981652 9.33862942536282e-06 4.6884302964340905e-06 4.7282592208320066e-06 -2.3945303017715502e-05 -2.6250197633997597e-08 1.4303270005140205e-05 -3.367922486820309 -7.560410763558966 3.1691311413276515 -0.047026029407840515 0.06176128431636189 1.2325974633559516 0.2000000000010066 -0.19999711999567085 0.39999999999787217 -1.2090987222147536 1.209048730542501 -1.2090487305427606 -5.835077897703421e-15 0.00047999999998215356 2.4980334029975088e-15 1.3463390173260091e-18 1.3349772097213214e-16 1.3305891784332374e-16
886.536 -0.5317625953707017 -1.5934810157839028 -1.9405161405279454 0.39392872156465053 2.1016508911331826 0.0012203409822988827 0.004241036435806216 0.004001117391043668 -0.004115572265231969 0.00011096890852740856 -0.004251021297322223 -3.634361650778547e-06 0.2756769657026374 0.2600743416307869 -0.2675078760557539 0.007206947499999893 -0.2763259637473218 -0.00023622470880087565 0.11813187789989733 0.6473594718166392 0.6239924283487295 0.06344211463453481 -0.08997920687760431 -4.076743442435456e-06 0.19317290159523576 6.335269900025168 5.826299125101644 0.2536436730096831 -0.018034654133819505 -1.6868097781344126e-05 -0.5318096319781702 -1.5935023466693323 -1.9404476324664515 0.3939533233642578 2.1016650199890137 0.0011650914093479514 3.834952076431364e-05 0.0 2.3968450477696024e-05 -2.3968450477696024e-05 -2.3968450477696024e-05 -2.3968450477696024e-05 0.2018737941980362 0.6101074814796448 0.5169889330863953 0.025736859068274498 -0.21037083864212036 0.015665914863348007 0.2041168361902237 0.6145935654640198 0.5413896441459656 0.02349887043237686 -0.21596580743789673 0.012308932840824127 0.19999307215564263 -0.2000017748215172 0.4000142710046627 -1.209104927998384 1.208984252988418 -1.2091698516831038 9.339008279262467e-06 4.689062258616191e-06 4.728105266106521e-06 -2.394654679934077e-05 -2.6375601446588704e-08 1.4304509470195578e-05 -2.7950453913112017 -9.176134458262382 3.3063922896472153 -0.07292173794930708 -0.10947774483069216 1.3166676430374298 0.20000000000100798 -0.19999199999567197 0.3999999999978721 -1.2090987222147536 1.209048730542502 -1.2090487305427606 -1.0445096849006034e-14 0.0009999999999932695 5.251757144656763e-15 -8.317502953328702e-17 3.3334712394256303e-16 8.158890143572607e-17
886.544 -0.5317201834441825 -1.5934410043314493 -1.94055729554728 0.3939298302720122 2.101608379360971 0.0012203046401143786 0.007634427971299371 0.007202111581802648 -0.007407776883012065 0.00019939061232305457 -0.0076523996700088815 -6.541335455178266e-06 0.42417394193664437 0.40012427384487254 -0.411525577222512 0.01105271297445575 -0.4251722965858323 -0.00036337172554996486 0.2085314975737692 0.734126090749564 0.5668118762579324 0.06555227548601562 -0.16088251319261346 -6.271034502791963e-06 0.2972191841853218 6.434599118571292 5.792452227061195 0.25580885844295936 -0.027628613179167493 -2.594728480634634e-05 -0.5317252318011683 -1.5934785048114222 -1.9405196348773401 0.3940012454986572 2.10158109664917 0.0011650914093479514 0.01727645844221115 0.0016298546688631177 -0.0 -2.3968450477696024e-05 -0.00601608119904995 -2.3968450477696024e-05 0.0583190992474556 0.7267456650733948 0.4651375710964203 0.03021283447742462 -0.25960657000541687 0.014546919614076614 0.0560760572552681 0.7334747910499573 0.4529372453689575 0.031331829726696014 -0.26072555780410767 0.01342792622745037 0.2000015989100087 -0.19998683162090727 0.4000048997146425 -1.2091051783714843 1.208983936983498 -1.209169141426812 0.003107649339744203 0.003163310331575943 0.00044492281831216867 -0.0008313738390274747 -0.001390831621400163 0.011258397507710915 5.788697618100809 2.6823903865246583 2.5802606093417255 -0.06751967182261034 -0.2983226697151535 0.2386417152549456 0.2000000000010008 -0.1999819999956635 0.39999999999787217 -1.209098722214754 1.2090487305425015 -1.2090487305427602 -1.6157621902816634e-14 0.0017999999999935873 9.657822866459576e-15 -1.0136939546800713e-16 -1.4171943232910982e-18 9.829392401099675e-17
886.5519999999999 -0.5316468882705108 -1.593371863228377 -1.9406284081052654 0.3939317414903209 2.1015349116677173 0.0012202418475696429 0.012471153176227554 0.01176373200200786 -0.012098654294905038 0.00032467377306529514 -0.01250050398139421 -1.0682726363833297e-05 0.6045906506160229 0.5702025525256514 -0.5863596764866217 0.015660395092780072 -0.606013038923166 -0.0005176738635818789 0.27745218640144875 0.8139338864724422 0.518869962630726 0.06843558070541092 -0.21184657112987207 -0.00025207494768198136 0.42361707483999445 6.554983141497508 5.751359957631876 0.2584365116847493 -0.039285588712803354 -3.696553757679123e-05 -0.5316050688373011 -1.5934184233294886 -1.9405916372882288 0.3939412832260132 2.101437568664551 0.0011291387490928173 0.004908738657832146 0.014975488185882568 -0.018383800983428955 -2.3968450477696024e-05 -0.019102854654192924 -2.3968450477696024e-05 0.2153320610523224 0.7043152451515198 0.4117611050605774 0.02349887043237686 -0.1521831601858139 0.014546919614076614 0.2243042290210724 0.7043152451515198 0.42091137170791626 0.03021283447742462 -0.14546920359134674 0.012308932840824127 0.2000174678361264 -0.19996975744784345 0.39999780080874775 -1.2091393848150442 1.2090467928963935 -1.2091565382203435 -0.0021493918056594325 0.0012640313005915682 -0.0008299982548000183 0.0017239663846481549 0.0029453038862106012 -0.01414564291268333 1.8057563306894422 6.086056504413014 4.733074364834582 -0.06859735896624013 0.33933798759995387 -0.7791127742254826 0.20000000000101098 -0.19996471999566787 0.39999999999787267 -1.2090987222147538 1.209048730542501 -1.2090487305427613 -8.421353209495381e-15 0.0029399999999776554 1.573579695502836e-14 1.1383353284973938e-16 2.3016126547502477e-16 -1.1868239384947334e-16
886.56 -0.5315304790747559 -1.5932620662979673 -1.9407413235830644 0.3939347643858808 2.101418228553121 0.0012201421529038673 0.019007504146223417 0.017926372097614357 -0.01843431545865247 0.0004923269026313849 -0.01905222199678579 -1.627492017012049e-05 0.8170438712494829 0.7703300119508121 -0.791957645468429 0.020956641195761214 -0.8189647519239475 -0.0006990242257858991 0.29322708717419527 0.8292251558216929 0.5101047070716508 0.07218998777324516 -0.2171898718818757 -0.00038248428030167395 0.5724347239084159 6.696296002104071 5.703031146204757 0.2615227751774771 -0.05301400419172252 -4.99152228906937e-05 -0.5314853827105921 -1.5932868162738245 -1.9407838026629847 0.3939412832260132 2.101257801055908 0.0011531071504577994 0.023661654442548752 0.014937138184905052 -0.011408982798457146 -2.3968450477696024e-05 -0.02171541564166546 -2.3968450477696024e-05 0.0381317175924778 0.8411408066749573 0.4193863272666931 0.03692679852247238 -0.2372266948223114 0.011189938522875309 0.0314025916159153 0.8321686387062073 0.3995607793331146 0.034688808023929596 -0.24282166361808777 0.012308932840824127 0.20001398736673143 -0.19994434646800208 0.39998231497742454 -1.2091092921690134 1.2091548687896967 -1.209135466926323 0.0015800515840533685 0.004802852576984448 0.0010291223022056714 -0.0017855592697311527 -0.003038925957379246 0.0019694177043617558 10.421123764683362 9.398183633912465 1.8327162411092426 -0.05362012081804389 -0.4265176207789287 -0.6810932889876936 0.2000000000010054 -0.1999372799956669 0.3999999999978727 -1.209098722214754 1.209048730542501 -1.2090487305427604 -3.2851283210882534e-14 0.004479999999983235 2.304885496184769e-14 5.958944612744232e-18 5.458020146194164e-16 5.299527946613753e-16
886.568 -0.5313566699545138 -1.59309816336083 -1.9409098540962706 0.3939392491851633 2.101244010633 0.001219993377649895 0.027501295427177542 0.02593069707634609 -0.026660187123862436 0.0007069026702790481 -0.027565961086579154 -2.3532910962677187e-05 1.0617239101192657 1.0005406223414668 -1.0282339581512459 0.026821970955957907 -1.0642173862241704 -0.0009072488490695871 0.31180892781270975 0.8472269805370853 0.4995715921599891 0.07689556932651335 -0.22364936617270864 -0.0005512714888945304 0.7437844879332852 6.858393449685728 5.647480368539948 0.2650604766925846 -0.06882756312405859 -6.4783918565512e-05 -0.5313413778888147 -1.593118969594137 -1.9408796469317835 0.3939293622970581 2.1010661125183105 0.0011531071504577994 0.03146577998995781 0.02124563418328762 -0.025286715477705002 -2.3968450477696024e-05 -0.02888198383152485 -2.3968450477696024e-05 0.1794433742761612 0.7289887070655823 0.48038798570632935 0.04028377681970596 -0.12980328500270844 0.01678490824997425 0.1772003322839737 0.7289887070655823 0.49716341495513916 0.03916478529572487 -0.1197323426604271 0.01342792622745037 0.20000810369780664 -0.19991091243820652 0.4000017200520446 -1.2090708916368051 1.209137272356718 -1.2092173621137519 0.001843431605515506 0.006547321179366437 -0.0009653259316599331 0.002049610073164954 0.0034835105176325622 0.002649669738778965 2.193396981651534 14.468257092319218 2.340091777791583 -0.08022917743029329 0.5808239885890413 -1.6291011598582175 0.2000000000010135 -0.19989631999567475 0.3999999999978735 -1.2090987222147536 1.2090487305425013 -1.2090487305427606 -2.8190502678667174e-14 0.006479999999978956 3.384271317303955e-14 1.5911744697562934e-16 6.213044151253855e-16 6.400627236416082e-18
886.5759999999999 -0.5311091051056671 -1.5928647775966036 -1.941149771859525 0.3939455779023273 2.100995863892659 0.001219781630125965 0.038212661851112634 0.036017786671730626 -0.03702065470121162 0.0009714980672880099 -0.038302444574360946 -3.2669576316630725e-05 1.3389208029918864 1.2608861994230667 -1.2950584471686475 0.03307442462612022 -1.342060435972724 -0.0011420831692441923 0.33332697626903396 0.8680459800888157 0.4871514997503423 0.08260524180424111 -0.23131468921614592 -0.0007632772911955198 0.9378390640293336 7.041114311138491 5.584730114972723 0.26903783310689666 -0.08674712373716943 -8.155273286622004e-05 -0.5311139265643519 -1.5929158369647425 -1.9410832563983362 0.3939293622970581 2.100766897201538 0.0011291387490928173 0.03171505406498909 0.03190680220723152 -0.040770333260297775 -2.3968450477696024e-05 -0.041010018438100815 -2.3968450477696024e-05 0.1973877102136612 0.8388977646827698 0.3065332770347595 0.041402772068977356 -0.15665914118289948 0.01342792622745037 0.1951446682214737 0.8276825547218323 0.30043309926986694 0.04587874934077263 -0.1521831601858139 0.01342792622745037 0.2000108764894756 -0.19986484148655678 0.4000027348461638 -1.2090546567697398 1.2091787482017362 -1.209287108685381 -0.00033043260102684843 0.00691513317055867 -0.0022000399925888457 0.004493872809728434 0.007635155683261759 -0.0091858971341869 8.48991926800675 3.398733134035904 5.415233199626103 -0.06578122702780013 -0.2921193648612309 -0.6274854000925396 0.20000000000100432 -0.199837999995672 0.39999999999787517 -1.209098722214754 1.209048730542501 -1.2090487305427604 -5.6292831550297674e-14 0.008999999999996254 4.579899972255117e-14 -1.6142175874960404e-16 5.024096442563017e-16 1.7811988806888255e-16
886.584 -0.5307693368505264 -1.5925446016163356 -1.9414787993350107 0.39395415056182076 2.100655297756033 0.0012194913254481407 0.05140510013651238 0.048429321961040016 -0.04975859781985661 0.001287103214896196 -0.051525751399015204 -4.389473674508691e-05 1.6490547856749682 1.5514419111636737 -1.5922428898306238 0.03945064345102327 -1.6529133530817823 -0.0014031450535570234 0.35791996095752643 0.8917887823366455 0.4727253115313261 0.08933271850293066 -0.240280368004816 -0.0010232708579637209 1.1548503084648423 7.244282102202386 5.514813318716273 0.27343694876472957 -0.10680287830365713 -0.00010019437883934636 -0.5307419935809534 -1.5926044623004358 -1.9413588682757776 0.3939412832260132 2.100419759750366 0.0011890598107129335 0.045885201543569565 0.04153253138065338 -0.04115382954478264 -2.3968450477696024e-05 -0.04379035905003548 -2.3968450477696024e-05 0.1570129543542862 0.7402039170265198 0.46666261553764343 0.06937761604785919 -0.1197323426604271 0.01678490824997425 0.1570129543542862 0.7469330430030823 0.46666261553764343 0.0682586282491684 -0.1197323426604271 0.01678490824997425 0.20001872961111242 -0.1997798393163589 0.4000148921528307 -1.2090096933481471 1.2091465610090812 -1.2092614655707008 0.00043697852836090844 0.010723527521337017 0.00032782950261672674 -0.0001828242021265104 -0.0003377259955900068 0.0021934989086365465 3.398024072271138 20.979926340039754 3.0454212590515404 -0.08220102360580209 0.95127888225008 -2.2901585138493883 0.20000000000100676 -0.1997579999956535 0.3999999999978779 -1.2090987222147538 1.209048730542501 -1.2090487305427604 -4.262238171055657e-14 0.012099999999988321 5.842938745317569e-14 1.8629571835250647e-16 7.237627684408812e-16 2.6575994107914734e-18
886.592 -0.5303167943954614 -1.592118391869576 -1.9419165952578679 0.39396536563316276 2.1002016939015604 0.0012191052138804035 0.06734679019830335 0.0634078231403899 -0.06511480442951409 0.0016517777615113107 -0.06750463497339419 -5.741397291809332e-05 1.9927112577238713 1.872312647418735 -1.919525826207185 0.045584318326889334 -1.9973604467973736 -0.001689904521625801 0.3857388138524094 0.918562560939422 0.45617407020934325 0.09703730040218057 -0.250647246972603 -0.0013359223839746416 1.395170886175537 7.467706918666261 5.437776246295982 0.2782321032311013 -0.12903685339430826 -0.00012067101217573358 -0.5303576628314417 -1.5921734015094202 -1.9418500105487269 0.3939533233642578 2.1000726222991943 0.0011411228915676475 0.05712161213159561 0.05468641594052315 -0.06634467095136642 -2.3968450477696024e-05 -0.057859841734170914 -2.3968450477696024e-05 0.2467346489429474 0.7716065049171448 0.5657902956008911 0.0850435346364975 -0.1521831601858139 0.019022895023226738 0.2444916069507599 0.7648773789405823 0.5703654289245605 0.07944856584072113 -0.14546920359134674 0.019022895023226738 0.20000423232286355 -0.1996776492130623 0.40000196989557235 -1.2090755992282551 1.2091374910806956 -1.209231018290978 -4.3800256606713736e-05 0.013424653029190227 -0.0028334900726698273 0.00590230444401776 0.010041402760389707 -0.0005641934515589733 -1.364788849089254 21.425776464456167 -0.5430720290687763 -0.0941713058067772 1.1340796469431476 -2.224157438590295 0.20000000000101786 -0.19965151999562827 0.3999999999978831 -1.209098722214754 1.2090487305425015 -1.20904873054276 -6.100299771439655e-14 0.01583999999993172 7.077653584003888e-14 2.0626350761495684e-17 7.77567197731697e-16 4.4245897355108565e-18
886.5999999999999 -0.5297287409486744 -1.5915649609524891 -1.94248473551837 0.3939795932240365 2.099612263459741 0.0012186044195467462 0.08631223472990068 0.08119694589692505 -0.0833272493025911 0.0020596330715239282 -0.086514159737141 -7.342717551343759e-05 2.370680566449667 2.2236403445668946 -2.276555609134626 0.050981913751577186 -2.37619059546835 -0.002001650324418034 0.416949860505311 0.9484756598236749 0.43737920948100395 0.10560510291807165 -0.2625241595653887 -0.0017057695201596287 1.6592789649049289 7.711187649252904 5.353681753110058 0.2833878207952089 -0.15350575465685973 -0.00014293184471571855 -0.5297945181476038 -1.5916708151446741 -1.942413632069723 0.3939412832260132 2.0995335578918457 0.0011411228915676475 0.07679491490125656 0.0723080188035965 -0.07118629664182663 -2.3968450477696024e-05 -0.0721929743885994 -2.3968450477696024e-05 0.2198181450366974 0.7895508408546448 0.5993412137031555 0.09511447697877884 -0.19134794175624847 0.02349887043237686 0.2175751030445099 0.7895508408546448 0.6039162874221802 0.09175749868154526 -0.19246694445610046 0.02909383922815323 0.20001208682940938 -0.19954771962589465 0.3999874220858904 -1.2091065102802074 1.2091824268146854 -1.20915525120198 0.00011426481612424345 0.018371147781722257 0.0006788375051237106 -0.0005545587912524141 -0.0009938771645369622 0.00477194492174578 -1.3801947581669998 26.72877340065257 -1.8978855544477222 -0.1168054948408678 1.3083723986842206 -2.534163409274038 0.20000000000103327 -0.19951327999560875 0.39999999999789243 -1.2090987222147536 1.2090487305425015 -1.2090487305427602 -1.1077750807351533e-13 0.020279999999844114 7.814913358182758e-14 2.1065785498830804e-16 4.1261815883898955e-16 -4.224195905157647e-16
886.608 -0.528980216507712 -1.5908611673186002 -1.9432066877676002 0.39399713939987185 2.0988619899068492 0.0012179684917240621 0.10858425927489446 0.10204184505478536 -0.10463022279531474 0.002499597366615032 -0.10883769755327397 -9.212680447516013e-05 2.7840030681242216 2.6056123947325385 -2.662871686590455 0.054995536886387954 -2.790442227016621 -0.0023374536202153172 0.4517385090536171 0.981638315555934 0.4162228661849143 0.11482629770699167 -0.2760298780286651 -0.0021371771419883582 1.947806252589199 7.974514569746749 5.262612907322065 0.2888567110745369 -0.18028418903548868 -0.00016691055065871515 -0.5290740172015589 -1.5909884611712855 -1.9430602232562464 0.3939173221588135 2.0988869667053223 0.0011650914093479514 0.09516433626413345 0.08948860317468643 -0.0890907347202301 -2.3968450477696024e-05 -0.09299758821725845 -2.3968450477696024e-05 0.2220611870288849 0.8030090928077698 0.4483621120452881 0.10630441457033157 -0.23163172602653503 0.027974845841526985 0.2332763969898224 0.8074951767921448 0.44988715648651123 0.10630441457033157 -0.23051273822784424 0.02909383922815323 0.20001389056439692 -0.19937338019022718 0.39999883514934587 -1.2091209788158117 1.209127685368418 -1.2090913001203083 0.0001448341315953799 0.022445861745977486 0.0005604149073255362 -0.0001788862875641352 -0.00038438161728705593 0.0023806964860818352 1.723954940608683 23.965148290963803 2.6941276942408994 -0.1396671827944863 1.304561503000453 -2.181808367794241 0.20000000000104615 -0.19933751999553928 0.399999999997908 -1.2090987222147538 1.209048730542503 -1.2090487305427593 -1.8357936586777832e-13 0.02547999999976376 7.354418362239887e-14 -2.3711236814461965e-16 4.825959371464167e-16 -2.136150875858685e-16
886.616 -0.5280439632714389 -1.5899819018196082 -1.944107778500122 0.3940181998104931 2.097923554614928 0.0012171754711118436 0.13445641997783248 0.12618961554904706 -0.12925329569737665 0.002953939562264788 -0.1347693310657265 -0.00011369583696077197 3.2340200878672523 3.0184713117827124 -3.0778841127577383 0.05679277445621954 -3.241454189056567 -0.0026961290607014797 0.490313504700225 1.018163491269039 0.39258829017384206 0.12436792597167848 -0.2912953821230028 -0.0026342899873558886 2.261569785144507 8.25747239666475 5.164676986610512 0.2945770661653772 -0.2094683091648437 -0.00019252248783751055 -0.5281747023211878 -1.5901268164264124 -1.9438875357257288 0.3939533233642578 2.0979888439178467 0.0011411228915676475 0.1187109425663948 0.11253666877746582 -0.11020693928003311 -2.3968450477696024e-05 -0.11965050548315048 -2.3968450477696024e-05 0.2758941948413849 0.7738495469093323 0.34465929865837097 0.14435020089149475 -0.24170267581939697 0.02909383922815323 0.2781372368335724 0.8030090928077698 0.3355090618133545 0.14099322259426117 -0.23498870432376862 0.03245082125067711 0.20000895827911344 -0.19915936677789617 0.4000148974863942 -1.2091207315680252 1.209052280092025 -1.209161490811003 -5.613196220157254e-05 0.027792548652851166 0.0011728325065806884 -0.0011323488221499502 -0.0020766953250707194 -0.0006772205044281686 1.1205058186836307 23.52934087341411 7.320444383099745 -0.1470902852340505 1.8692626335804656 -2.170298577121628 0.20000000000108556 -0.1991179999954552 0.39999999999793384 -1.2090987222147538 1.2090487305425042 -1.209048730542758 -2.5717876770922293e-13 0.03149999999948633 4.6199545798797077e-14 1.482547209200421e-17 -1.3107619528524955e-15 -1.3116297238405153e-15
886.6239999999999 -0.5268903302307884 -1.588900070417008 -1.9452151512535947 0.3940428006038095 2.096767241618397 0.001216201973628765 0.16423587280956498 0.15388982258967415 -0.15742010593339487 0.0033965256530918363 -0.16461671773519423 -0.00013830538658621632 3.7224316039665624 3.462525880078386 -3.5208512795022773 0.05532326135338102 -3.730923333683467 -0.0030761937031805442 0.5329118342952913 1.0581678394242626 0.36636036997777083 0.13374181432391027 -0.30846649813954624 -0.003200977774609047 2.6016080066067984 8.559843903064305 5.060009853646715 0.3004701949939233 -0.2411799393236282 -0.00021966176376301313 -0.5270832220660608 -1.589085880910055 -1.944930378590719 0.3939772844314575 2.0968997478485107 0.0011890598107129335 0.14672526717185974 0.13863351941108704 -0.13913685083389282 -2.3968450477696024e-05 -0.15203188359737396 -2.3968450477696024e-05 0.2467346489429474 0.7716065049171448 0.35380956530570984 0.16113510727882385 -0.2540116012096405 0.03245082125067711 0.2422485649585724 0.7962799668312073 0.3431342542171478 0.1667300909757614 -0.2506546378135681 0.0335698164999485 0.20000522676623353 -0.19890126389909524 0.4000210398053585 -1.209080953885621 1.2090517274100645 -1.209139782375629 -1.6828296167453062e-05 0.033917149498702365 0.0005056814186222857 0.00031276430007496703 0.0003455992789575077 -0.004971298837755676 1.3662870675278505 31.161782046379717 7.302066156715865 -0.16520223170533094 2.2723812666604903 -2.822025191071349 0.20000000000115042 -0.19884799999530423 0.3999999999979749 -1.2090987222147547 1.2090487305425046 -1.209048730542756 -4.460755714932501e-13 0.03839999999911581 -2.3754381332857006e-14 -4.0768476609847725e-17 -2.6850599147102446e-15 -2.9352039324065765e-15
886.632 -0.5254871530323735 -1.5875865723024267 -1.9465577144507584 0.394070724388768 2.0953608176980234 0.0012150232944112488 0.19824676666465346 0.1853951351583416 -0.1893469527076772 0.00379077902838691 -0.19870447686488713 -0.00016611198067466185 4.25136173188606 3.9381640710834316 -3.990855846785293 0.049281671911884234 -4.260969891211611 -0.0034758242610556903 0.5798043882683817 1.1017728147543375 0.33742629550609676 0.1422670978771997 -0.32770697300064133 -0.0038407725060928422 2.969221848949747 8.881414223774877 4.948780719405795 0.3064374695232982 -0.2755712602458593 -0.0002481981830092037 -0.5257280508624476 -1.5878165403949183 -1.9462364355670374 0.3940012454986572 2.0955467224121094 0.0011411228915676475 0.17719395458698273 0.17055949568748474 -0.16765931248664856 -2.3968450477696024e-05 -0.17779797315597534 -2.3968450477696024e-05 0.2310333549976349 0.7917938828468323 0.42701151967048645 0.20813286304473877 -0.3424121141433716 0.03580780327320099 0.2669220268726349 0.7940369248390198 0.41328614950180054 0.2036568820476532 -0.32786521315574646 0.03692679852247238 0.20000542796188234 -0.19858433768595984 0.40001857480533276 -1.2091210131596468 1.2090358781065305 -1.209161248120698 -0.0007801586906521203 0.041781433823402436 0.0015131163200610815 -0.0013896044058369287 -0.00261324656784584 -0.0002044440702087822 -0.5028273045533225 38.435574051175806 5.479049769161335 -0.18380727446399212 2.8529312067297 -3.099822597006313 0.20000000000124013 -0.19852031999506103 0.3999999999980376 -1.2090987222147556 1.2090487305425068 -1.2090487305427513 -7.661887434581375e-13 0.046239999998418865 -1.6500813783383357e-13 1.081081345765795e-15 -3.3398278692081943e-15 -5.7573963054627015e-15
886.64 -0.5237996046711597 -1.586010272541298 -1.9481660772930818 0.39410141876971894 2.093669383345839 0.0012136135347770001 0.23683423382602983 0.22096207986785452 -0.22524118340484306 0.004087312907872022 -0.23737817301517905 -0.00019725448743755842 4.823433395172046 4.445868088689114 -4.486778837145732 0.03706673493563903 -4.8342120187864905 -0.0038928133453620716 0.6313025157424087 1.149105964014368 0.30567638262566466 0.14902683094407349 -0.34920206520335706 -0.0045567977837161835 3.366021726582872 9.221976010254282 4.831197306452165 0.3123570502288708 -0.31283015242707884 -0.00027797412255226944 -0.5241082350360315 -1.5862730185138147 -1.9477704207049769 0.3940012454986572 2.093966245651245 0.0011650914093479514 0.2133767306804657 0.19997356832027435 -0.20538565516471863 0.0011504855938255787 -0.21921545267105103 -2.3968450477696024e-05 0.2938385307788849 0.8321686387062073 0.28365767002105713 0.20813286304473877 -0.2842244505882263 0.03580780327320099 0.3072967827320099 0.8052521347999573 0.26078203320503235 0.21037083864212036 -0.2707965075969696 0.038045790046453476 0.2000011826105583 -0.19820089826937828 0.4000275073949162 -1.2091198416830697 1.2090067040463146 -1.2091193685892236 2.7325691050646865e-05 0.04919744765087238 -0.0005812561956701878 0.002208065604090052 0.003532896343541375 -0.005339222799897928 2.3698275638599196 35.50956185011496 9.018831510439659 -0.18718261014194382 2.7126109091774575 -3.2294972284825283 0.20000000000138718 -0.19812727999470042 0.39999999999813146 -1.2090987222147571 1.2090487305425102 -1.2090487305427464 -1.2338725301528006e-12 0.05507999999723156 -4.161843998736246e-13 2.323381595816494e-15 -6.608253375126624e-15 -1.2193386871840445e-14
886.6479999999999 -0.5217900119312411 -1.584137968206064 -1.950072471995954 0.39413388470563426 2.0916551895382605 0.0012119457549595242 0.2803690653821296 0.2608519357132493 -0.265299358016292 0.0042211990131162695 -0.2810089832826235 -0.00023185069119567567 5.441853944512468 4.986231980674352 -5.0072718264311185 0.016735763155530884 -5.453851283430559 -0.004324525469764656 0.6877656438022473 1.2003024246384515 0.2710050890523981 0.15281814818562303 -0.37316275557016515 -0.005351690105572194 3.793981610825798 9.581335623882635 4.707511431602023 0.31808024922517486 -0.35318632440508607 -0.0003088013902194848 -0.5221408049212855 -1.5844295660602015 -1.949639622365133 0.3940368890762329 2.0919783115386963 0.0011411228915676475 0.25663498044013977 0.2376519739627838 -0.24184167385101318 0.0011504855938255787 -0.2582840323448181 -2.3968450477696024e-05 0.2691650688648224 0.7648773789405823 0.3690599799156189 0.2394646853208542 -0.25960657000541687 0.027974845841526985 0.2736511528491974 0.7940369248390198 0.3629598021507263 0.24170267581939697 -0.2719154953956604 0.0335698164999485 0.19999889125455753 -0.1977438670575613 0.4000299954662465 -1.2091255162789623 1.208997887616462 -1.20915649600876 0.00046891298289098945 0.0591568763553734 -0.00021167443451240736 0.0016101990529746799 0.002448888957108942 -0.0010637978307881117 -0.9155334347638727 51.84715587304394 8.443081666274624 -0.15436016766662736 3.8668166198113134 -4.802186574286631 0.20000000000159296 -0.19766071999415763 0.3999999999982684 -1.2090987222147584 1.2090487305425146 -1.2090487305427389 -2.022779583457615e-12 0.06497999999536486 -8.390543808801901e-13 4.7700074251356644e-15 -1.1622199499279022e-14 -1.9863866537184718e-14
886.656 -0.5194176317306969 -1.5819343467858626 -1.952310660530519 0.3941665416424807 2.08927741448252 0.0012099921554084665 0.32925317699614864 0.30533179449527764 -0.30970517499683003 0.004108831431079934 -0.3299991537155866 -0.00026999352118978144 6.110513951752383 5.5599823477535395 -5.550727122567253 -0.014045947754541911 -6.123771304120382 -0.004767853749263221 0.7496101761702928 1.25550667117592 0.23331225627618796 0.15209543545927703 -0.39983070759821554 -0.006227512284593555 4.25550166308204 9.959320592072395 4.578025035843777 0.3234274785249407 -0.3969183858352596 -0.0003404581326736388 -0.5198620001422327 -1.5822508970843714 -1.9518445173846644 0.3940248489379883 2.0897512435913086 0.0011411228915676475 0.30167651176452637 0.27922284603118896 -0.282875657081604 0.003403519978746772 -0.30133137106895447 -2.3968450477696024e-05 0.3005676567554474 0.6527252793312073 0.29738304018974304 0.24729764461517334 -0.34912607073783875 0.04028377681970596 0.2915954887866974 0.6616974472999573 0.2958579957485199 0.24282166361808777 -0.32898420095443726 0.038045790046453476 0.1999892988084539 -0.19720620967117344 0.4000291197547906 -1.209161144777317 1.208988609410392 -1.2090848231268552 0.00018340811086793438 0.06966218977845186 8.939458298963803e-05 0.0002283057580886583 5.620391802537422e-06 0.0010263913714077945 -5.129426499886636 59.75943725556938 13.38151251951227 -0.21608507670721416 5.085025593589708 -5.161849801855562 0.20000000000189952 -0.19711199999339263 0.3999999999984629 -1.2090987222147618 1.2090487305425206 -1.2090487305427278 -3.182937264670078e-12 0.07599999999240692 -1.5151191339293345e-12 7.161183883689167e-15 -1.8893845812110508e-14 -3.239402862375581e-14
886.664 -0.5166383806049639 -1.5793619354436226 -1.9549158239037432 0.39419706601596244 2.0864918935810914 0.0012077242893761412 0.36564380263112684 0.337786492140965 -0.3415496581689875 0.003470798232301171 -0.3664651166202589 -0.00029690185530914184 4.548828204372274 4.056837205710921 -3.980560396519686 -0.07975414984734538 -4.558245363084038 -0.00336354176492005 0.6703279440761309 1.1763155971455481 0.2609151763233904 0.13469083395173623 -0.38769079270655754 -0.006815742093111513 3.160087347622443 8.858305262165917 4.947329773615458 0.2988827814813652 -0.2962533128610556 -0.000240180426807646 -0.5171869436847132 -1.5797494093524378 -1.954336945210592 0.3940727710723877 2.08708119392395 0.0011531071504577994 0.35212528705596924 0.32620102167129517 -0.32819998264312744 0.003403519978746772 -0.3610367774963379 -2.3968450477696024e-05 0.2691650688648224 0.7200165390968323 0.3919355869293213 0.24394066631793976 -0.3569590449333191 0.044759754091501236 0.2781372368335724 0.7334747910499573 0.37668517231941223 0.24394066631793976 -0.3345791697502136 0.03916478529572487 0.19998279818628578 -0.19658514187415482 0.4000416272114725 -1.2091395387602573 1.208935584637862 -1.2091121333749686 -0.00013986933849129412 0.08037115470507648 0.0004754224608619477 -0.0005410343232952063 -0.0014866811135698286 -0.008124121194729508 -3.985131515692114 51.79332134996027 8.38993143091979 -0.23933672714169793 4.258873560836027 -4.4125810920495345 0.20000000000231982 -0.19647199999228518 0.39999999999873237 -1.209098722214767 1.209048730542532 -1.2090487305427102 -4.742479316655226e-12 0.08399999998858194 -2.430270579044285e-12 1.2144564294838339e-14 -2.782408655002357e-14 -4.894796484951822e-14
886.6719999999999 -0.5135659087525042 -1.576529501238821 -1.9577748500317114 0.394221207652729 2.0834125530611876 0.0012052429169379234 0.40256778091730455 0.37033932863905505 -0.37316725182757615 0.002507714365449612 -0.4034634643665567 -0.0003233635072594943 4.615497285772214 4.069104562261256 -3.9521992073235785 -0.1203854833564449 -4.624793468287231 -0.003307706493794057 0.6904051154195485 1.1903798764600566 0.2454779433247296 0.11674366833310662 -0.40121046060853416 -0.007417079249174498 3.2015046456849223 8.830298051737053 4.952996808349717 0.2961692958966598 -0.3010166119154324 -0.0002361933976023522 -0.5141518751727503 -1.576984707509176 -1.9572013060199183 0.39410877227783203 2.0839803218841553 0.0011770756682381034 0.38221049308776855 0.3502269983291626 -0.35466116666793823 0.003403519978746772 -0.39253130555152893 -2.3968450477696024e-05 0.2669220268726349 0.7267456650733948 0.47733789682388306 0.2372266948223114 -0.3200322389602661 0.04923573136329651 0.2624359428882599 0.7469330430030823 0.4727627635002136 0.2361077070236206 -0.3189132511615753 0.04252176731824875 0.19998979614300108 -0.19589787114352455 0.40002300792084733 -1.2091090680582435 1.209044898493823 -1.2090885306738692 0.000298033203657405 0.08648138329477176 -0.0003591572221748089 0.0006537666808745429 0.0006208698132387836 -0.009467844573836263 -5.342452662305883 58.4675111179099 5.614424378731901 -0.2628142993236964 4.521194212992009 -5.197361085821803 0.20000000000277576 -0.1957679999911048 0.3999999999990139 -1.2090987222147729 1.2090487305425435 -1.2090487305426911 -6.871992285817376e-12 0.09199999998304469 -3.717962576213055e-12 2.0083711915210543e-14 -4.505169339140111e-14 -7.533251882027671e-14
886.68 -0.5101957208771637 -1.5734362148067795 -1.9608858370570026 0.39423623508620154 2.0800349057602694 0.0012025517692273785 0.4400825291814379 0.403001444712076 -0.40453626281871935 0.001186728751325187 -0.4410515162190928 -0.00034933919627721995 4.689343533016671 4.0827645091276175 -3.9211263738929 -0.16512320176555312 -4.698506481567007 -0.0032469611272157068 0.7112036192712934 1.2043396420148516 0.23015210880178627 0.09231411674174607 -0.4151402183573149 -0.008007272922872904 3.2474571568479647 8.799862802789805 4.959253279131147 0.29317502348509733 -0.30629188948731956 -0.00023185575321109196 -0.5109489599810999 -1.573968235646383 -1.960257355366842 0.3941206932067871 2.0806636810302734 0.0011770756682381034 0.4166867136955261 0.3856619596481323 -0.3888401687145233 0.0031638354994356632 -0.4303535223007202 -2.3968450477696024e-05 0.3117828667163849 0.7940369248390198 0.495638370513916 0.20813286304473877 -0.3424121141433716 0.05371170490980148 0.3185119926929474 0.8142243027687073 0.4880131781101227 0.204775869846344 -0.33010318875312805 0.044759754091501236 0.1999744565496435 -0.19516731006082214 0.40001717629830813 -1.2090638786185637 1.2091463367016086 -1.209145575826386 -0.0009147739545338557 0.09425710635914016 -0.00026367614865240653 0.00015745311331128757 -0.00028347844630529517 -0.012734347107814136 -5.419747995521896 55.60112400117316 3.2704639087683023 -0.2859653076302174 4.162892124047847 -4.921688267519887 0.20000000000325432 -0.19499999998986975 0.3999999999993036 -1.2090987222147784 1.209048730542557 -1.2090487305426714 -9.18042517368342e-12 0.09999999997714296 -5.064323409875108e-12 2.864312850149749e-14 -6.225182082132377e-14 -1.0384954461595808e-13
886.688 -0.5065228549179626 -1.5700811557498264 -1.964246709367309 0.39423915190717534 2.076353998542409 0.001199654888219627 0.4782473540944355 0.435784464490195 -0.43563494273514797 -0.0005255527111091008 -0.4792884790164748 -0.00037479050322514304 4.770603114124694 4.097877472264873 -3.887334989553577 -0.21403518280428596 -4.779620349672754 -0.0031814133684903863 0.7327667413915818 1.2182034153204333 0.21495187514511016 0.06095124219143311 -0.4295085393245903 -0.00858545036314637 3.2981009643424324 8.767023403693496 4.966107302279863 0.28989451300946956 -0.312096037845072 -0.00022717518440379302 -0.5073626677142542 -1.5707123915301722 -1.9634812513934534 0.3941446542739868 2.077059745788574 0.0011770756682381034 0.4607311487197876 0.4161689877510071 -0.41729071736335754 0.0031638354994356632 -0.46314236521720886 -2.3968450477696024e-05 0.3521576225757599 0.8187103867530823 0.4483621120452881 0.17456303536891937 -0.3233892321586609 0.04364075884222984 0.3701019585132599 0.8142243027687073 0.4514122009277344 0.17680102586746216 -0.3211512267589569 0.03916478529572487 0.19997792582661236 -0.19435674656252191 0.4000292723376799 -1.2090402644132927 1.2091037242519962 -1.2091961246444698 0.0006327025481543138 0.10370843006255705 -1.1292482584841086e-05 -0.0008075430558884499 -0.00211517661022817 -0.0014142933940529438 -4.668111592282292 53.58265422429624 4.008015002232574 -0.24162999414507333 4.002717807083363 -4.910760268088503 0.20000000000374957 -0.1941679999885648 0.39999999999959895 -1.209098722214786 1.209048730542571 -1.20904873054265 -1.1602932094283184e-11 0.10799999997096761 -6.449884417450232e-12 3.6964046020826046e-14 -8.254389744766919e-14 -1.3344506539861371e-13
886.6959999999999 -0.5025418661353953 -1.566463308612632 -1.9678552170809214 0.394226692187801 2.0723643963996357 0.0011965566195924753 0.5171236529370782 0.468700534724461 -0.4664414692452463 -0.002663125521036315 -0.5182356482111501 -0.0003996799312983131 4.859537355330339 4.114508779283252 -3.850815813762294 -0.2671966012409018 -4.8683961493344095 -0.0031111785091462577 0.7510935069200337 1.2319801903801118 0.19989182525787286 0.022310635646881703 -0.5389958397111161 -0.009150759932673173 3.353609102615867 8.731805239908656 4.973568067441911 0.28632171552887326 -0.31844774467559245 -0.00022215992380260682 -0.5035961310016077 -1.567193333302633 -1.9669445196734827 0.39413273334503174 2.073072910308838 0.0011171544902026653 0.4976809024810791 0.45212167501449585 -0.4514217972755432 0.0029241510201245546 -0.5076278448104858 -2.3968450477696024e-05 0.3723450005054474 0.7245026230812073 0.3050082325935364 0.13092228770256042 -0.4084327518939972 0.03692679852247238 0.3880462944507599 0.7357178330421448 0.2958579957485199 0.12756529450416565 -0.3759819269180298 0.041402772068977356 0.1999583575118542 -0.19351445691866218 0.4000424612947904 -1.20896793641873 1.2091920135060026 -1.209430194599686 -0.00046655392920402544 0.11133580297502 8.062589101647738e-05 -0.001523447697764527 -0.003547627322929489 -0.008871826821619506 -5.017137770451463 54.89599570577765 10.36814391235707 -0.21190823354270358 4.549737567719933 -5.132656196929049 0.20000000000427096 -0.193271999987192 0.39999999999989583 -1.2090987222147946 1.2090487305425863 -1.2090487305426258 -1.4109466045231405e-11 0.11599999996444284 -7.861952303099575e-12 4.846757779288558e-14 -1.0333382384837022e-13 -1.655069888842133e-13
886.704 -0.4982468095496886 -1.5625815585472917 -1.97170893536937 0.3941953154284196 2.0680601649071297 0.0011932616051212324 0.5567751244952904 0.5017623631138093 -0.49693392401341707 -0.005260647505664545 -0.5579566185204018 -0.00042397096173498854 4.956433944776531 4.132728548668537 -3.811556846021344 -0.32469024807852875 -4.965121288656463 -0.0030363788045844296 0.7649102953804835 1.2451731027288928 0.18498694053912637 -0.02456299294466225 -0.5446308693216948 -0.009702372366295274 3.4141724390971544 8.694235025280127 4.9816459284732995 0.2824499552205064 -0.3253675789596323 -0.00021681870129896036 -0.49948150316347295 -1.5634353796588343 -1.9708393255816858 0.3940967321395874 2.068810224533081 0.0011411228915676475 0.5395393967628479 0.4858117401599884 -0.4875422716140747 0.002157160546630621 -0.546768307685852 -2.3968450477696024e-05 0.3431854546070099 0.7469330430030823 0.2897578179836273 0.04699774086475372 -0.4252176582813263 0.034688808023929596 0.3588867485523224 0.7514191269874573 0.2729823589324951 0.04923573136329651 -0.43416962027549744 0.02909383922815323 0.19995249510330454 -0.1926013169600071 0.399998625688677 -1.208931873191234 1.2094549399954948 -1.209381922485822 -0.00022653215116096427 0.12000322625848141 -0.001101737854139084 -4.7577476246467496e-05 -0.0007289588535575403 -0.006065827106754214 -3.6283722115921897 56.84196111333853 9.332406757068881 -0.204323105537688 4.2092367600615095 -5.240516670561904 0.20000000000480364 -0.1923119999857587 0.4000000000001909 -1.2090987222148044 1.2090487305426043 -1.2090487305426003 -1.6747820618539214e-11 0.12399999995757874 -9.279915864860672e-12 6.125124821935265e-14 -1.2686072291429008e-13 -2.020850515425981e-13
886.712 -0.4936312206503439 -1.5584346866758567 -1.9758052635889527 0.3941412010064012 2.0634348509517317 0.0011897747746513914 0.5972679904980904 0.5349832555882251 -0.5270902669580483 -0.008353502403578733 -0.5985175050999975 -0.0004476281034532467 5.06160825035 4.15261155930198 -3.769542868078901 -0.38660686223927354 -5.070110822449458 -0.002957142714782272 0.7793670599096353 1.2492875206410068 0.17853464383489398 -0.0803168643066384 -0.5504920903494797 -0.01023948188889969 3.4800006446310032 8.65434060961183 4.990352500837153 0.27827189847536965 -0.33287808497629506 -0.00021116068983445768 -0.49500734010805303 -1.5594256559955042 -1.9749730269061487 0.3940727710723877 2.0641047954559326 0.0011531071504577994 0.5778697729110718 0.5196935534477234 -0.5167598128318787 -0.0004793690168298781 -0.5993551015853882 -2.3968450477696024e-05 0.4127197563648224 0.8142243027687073 0.38736045360565186 0.0055949692614376545 -0.3099612891674042 0.027974845841526985 0.4284210503101349 0.8276825547218323 0.3751601278781891 0.0033569815568625927 -0.29429537057876587 0.031331829726696014 0.19995495555432108 -0.19162624855254587 0.3999549898377734 -1.2088591595510558 1.2097511021903213 -1.2094230439462847 -0.0007603279005040608 0.12671520570609432 -0.0006011466001880746 -0.0010627945825833931 -0.0025104584682503523 -0.02025863516611553 -4.539498853250249 57.05972804226152 4.952138494688911 -0.17558176876868098 3.966605344523635 -5.821826537297045 0.20000000000535018 -0.19128799998426874 0.40000000000048 -1.2090987222148155 1.2090487305426236 -1.2090487305425734 -1.9443335573882124e-11 0.13199999995041242 -1.0687338390960497e-11 7.589226281993602e-14 -1.534735954966052e-13 -2.4032098438282206e-13
886.7199999999999 -0.48868809428892224 -1.554021365159393 -1.9801414241908404 0.39406024210547236 2.0584814616458917 0.001186101337702619 0.6386712285263934 0.5683771523592257 -0.5568883065972395 -0.011977866166606866 -0.6399871761670274 -0.0004706169353481982 5.175404753537865 4.174237096375072 -3.7247549548989065 -0.4530454703785165 -5.18370888337874 -0.0028736039868689327 0.7944986570378445 1.2532421196378374 0.1731665460903524 -0.11090533021618272 -0.5565923137806085 -0.010761307163551578 3.5513232555039465 8.612150759229964 4.999700765284395 0.27377952150893264 -0.34100388457091485 -0.00020519543989034987 -0.49016076723207647 -1.5550926367389124 -1.9792755285846155 0.3940368890762329 2.0590648651123047 0.0011531071504577994 0.624771237373352 0.5497403740882874 -0.5463368892669678 -0.0047457534819841385 -0.6368657350540161 -2.3968450477696024e-05 0.4261780083179474 0.8478699326515198 0.3660098910331726 -0.09175749868154526 -0.27751046419143677 0.0335698164999485 0.4800110459327698 0.886001706123352 0.3721100389957428 -0.09511447697877884 -0.2573685944080353 0.031331829726696014 0.19995266135080694 -0.19057110817003314 0.3999470124135965 -1.2087711951473643 1.2098889596492939 -1.2095544173238868 0.0011286948806002908 0.13575722439849316 -0.0014434186341053376 0.0007335833656209676 0.0008154845413711898 -0.010797555042767141 -2.8715975725248297 56.02333119687069 3.244065298635545 -0.20375918953624686 3.2688604977718603 -5.91557794524095 0.20000000000591409 -0.1901999999827466 0.40000000000075825 -1.2090987222148284 1.2090487305426456 -1.209048730542543 -2.2208518549604236e-11 0.13999999994296247 -1.2063005274861666e-11 9.250639469314111e-14 -1.8270149883936713e-13 -2.80698189880234e-13
886.728 -0.4834098616595135 -1.5493401519843069 -1.9847144613774663 0.39394803910365206 2.0531924413316833 0.0011822467747687844 0.6810568173407544 0.6019586625097553 -0.5863056662320677 -0.016170776006960444 -0.6824374980183257 -0.0004929041397098 5.298198601795131 4.197688768816196 -3.677169954353521 -0.5241137300441973 -5.306290231412284 -0.002785900545200227 0.8103424215271052 1.2570427873737327 0.16795888566304268 -0.11278807150140291 -0.5629451772302593 -0.011267092034221564 3.628390830809076 8.567694906396959 5.009705177744841 0.26896407672941647 -0.34977178785966434 -0.0001989328002311126 -0.4850266615497034 -1.5504849592791956 -1.983793083821432 0.3938814401626587 2.053713083267212 0.0011411228915676475 0.6645205020904541 0.5873996019363403 -0.5784785747528076 -0.014596786350011826 -0.665651798248291 -2.3968450477696024e-05 0.4396362900733948 0.7760925889015198 0.35990971326828003 -0.03580780327320099 -0.36702999472618103 0.03245082125067711 0.4396362900733948 0.7917938828468323 0.36448484659194946 -0.03916478529572487 -0.36143502593040466 0.031331829726696014 0.19994687685311827 -0.18946199924003532 0.3999405268745749 -1.2086992716415805 1.2100908601256615 -1.2096666233778666 0.0002435075779992806 0.1446403074697404 -0.0014728876281655862 0.002694483293427545 0.004665393529724302 0.00023856996236365616 -6.362682852990932 58.591896463178145 6.315064415131389 -0.1996642672322791 4.201881390271339 -5.739893322184678 0.20000000000647822 -0.18904799998117983 0.40000000000102115 -1.2090987222148426 1.20904873054267 -1.2090487305425122 -2.506194063822516e-11 0.14799999993535182 -1.3382465591091798e-11 1.1178512244124187e-13 -2.1571482561194973e-13 -3.2599376098385635e-13
886.736 -0.4777883652637467 -1.5443894854787157 -1.9895212394708803 0.3937998923978769 2.0475596465719366 0.0011782168283921634 0.724499995577169 0.6357430968453607 -0.6153197457134495 -0.020970202170307043 -0.7259435933918847 -0.0005144575249214952 5.43039727955183 4.2230542919506755 -3.626759935172724 -0.5999282704183249 -5.438261921694886 -0.002694173151461903 0.82693833144489 1.260695604486874 0.16291847431121628 -0.11485592233644232 -0.5695651994550015 -0.011756106020572386 3.711476207469875 8.521002862516172 5.020381785433355 0.2638160581727904 -0.35921091238190767 -0.00019238282222644012 -0.47946054140199834 -1.5455053488360804 -1.9885028044330042 0.39380955696105957 2.0481457710266113 0.0011770756682381034 0.7084882259368896 0.6228345632553101 -0.6003857254981995 -0.007597998715937138 -0.7091066241264343 0.0 0.4508515000343323 0.7895508408546448 0.2257061004638672 -0.12756529450416565 -0.39612382650375366 0.03245082125067711 0.4777680039405823 0.8119812607765198 0.2028304785490036 -0.12420831620693207 -0.409551739692688 0.03021283447742462 0.19992660671074639 -0.1882438518034931 0.39998128373210584 -1.2086123917382081 1.2099262395402135 -1.209784210498056 -0.0008951296251528137 0.15342853009911278 0.0017719708065521069 -0.006634404869728775 -0.013629544955185782 0.0007802232471936734 -3.2824423251239767 53.30233185224636 8.149532573914938 -0.20175838242154973 3.3511168039359625 -5.199534354038144 0.20000000000705678 -0.18783199997956596 0.4000000000012633 -1.2090987222148597 1.209048730542695 -1.2090487305424784 -2.7917026595025176e-11 0.1559999999275182 -1.4623628582564727e-11 1.3320583795896893e-13 -2.524249878417212e-13 -3.723279640661117e-13
886.7439999999999 -0.47181483174957606 -1.5391676785740032 -1.9945584409567738 0.3936107946437641 2.0415743190179203 0.0011740174941061692 0.7690795347669805 0.6697464986836531 -0.6439076785488775 -0.026415122360811432 -0.7705841141256607 -0.0005352460352348379 5.572442398726437 4.250425229786553 -3.573491604428505 -0.6806150238130486 -5.580065091722 -0.002598563789167835 0.8443291851097108 1.264206823179588 0.15805238457847554 -0.11711844171712461 -0.5764678383405878 -0.01222764451381892 3.800875856102051 8.472104490511384 5.031748348750322 0.25832516640149145 -0.36935281075093485 -0.0001855556444931076 -0.4735820929156702 -1.5403230826007288 -1.9935477415667933 0.39361774921417236 2.042267322540283 0.0011770756682381034 0.7536064386367798 0.6543195247650146 -0.6366499662399292 -0.02322542853653431 -0.75687575340271 0.0 0.4306641221046448 0.8142243027687073 0.25163179636001587 -0.16225410997867584 -0.409551739692688 0.024617865681648254 0.4710388779640198 0.8478699326515198 0.24400658905506134 -0.17568203806877136 -0.40059980750083923 0.03021283447742462 0.199920671531601 -0.18697717768087208 0.3999699815038562 -1.2086315810433441 1.209963009278035 -1.2097348167994741 0.0006284763841113344 0.16062072547638587 -0.0016787845450891307 0.0027101239276991515 0.004487374266145904 -0.0017730769518714 -2.400798594962752 55.72071153148034 5.934804997494005 -0.1682221060283855 2.978128422795544 -5.368186907094435 0.20000000000762677 -0.18655199997793181 0.4000000000014781 -1.2090987222148788 1.2090487305427227 -1.209048730542443 -3.084515893553309e-11 0.16399999991944866 -1.5759808176914867e-11 1.587944887314879e-13 -2.894973324410902e-13 -4.232848840982894e-13
886.752 -0.46547984250546914 -1.5336729128296396 -1.999822564165843 0.3933754223898077 2.0352270560354344 0.0011696550113601285 0.8148780276182354 0.7039856721791612 -0.6720462840915415 -0.03254559867855228 -0.8164415290493361 -0.0005552397449986535 5.724811606406852 4.279896686938511 -3.517325692833001 -0.7663095397176058 -5.732176865459418 -0.0024992137204769486 0.8625607902431851 1.2675828410061578 0.15336797534207308 -0.11958566606999661 -0.5836695524188008 -0.012681028613081013 3.896911339238743 8.4210293284795 5.043824469269544 0.2524802732901061 -0.3802316066376472 -0.00017846135413809747 -0.4673565069781702 -1.5349367300616663 -1.998796288167135 0.39349794387817383 2.035994052886963 0.0011531071504577994 0.8006804585456848 0.6937236785888672 -0.6614093780517578 -0.01979793980717659 -0.7932119369506836 0.0 0.4284210503101349 0.6863709092140198 0.3522845208644867 -0.1667300909757614 -0.3771009147167206 0.027974845841526985 0.4351502060890198 0.6931000351905823 0.3385591506958008 -0.16225410997867584 -0.34688809514045715 0.03245082125067711 0.19991865441544093 -0.18565498196963526 0.399955794428115 -1.2086226713801056 1.2099599797737 -1.209792773945294 -0.0009480052121672518 0.17065004996262054 0.001338551489818016 -0.005438838784389855 -0.011662601974383596 0.008999978309621322 -8.40831443240844 68.99327543011648 5.398388412952938 -0.1847145672504116 3.9779921452957057 -6.645908434003981 0.20000000000819618 -0.18520799997627807 0.4000000000016592 -1.2090987222149001 1.2090487305427533 -1.2090487305424062 -3.373072935926616e-11 0.17199999991127804 -1.6757165028888902e-11 1.8773085977462703e-13 -3.3081749330693004e-13 -4.756270497665109e-13
886.76 -0.4587733018842872 -1.5279032322427977 -2.005309920552177 0.39308812708671914 2.028507778963829 0.001165135854562797 0.8619821924613233 0.7384782077113271 -0.6997120145627486 -0.03940285685258763 -0.8636024280102732 -0.0005744098341754315 5.888020605385999 4.311566941520739 -3.458216308900877 -0.8571572717544191 -5.895112370117139 -0.0023962611470972556 0.881682165553374 1.2708301691793864 0.14887291915880488 -0.12226814438435092 -0.591187865927416 -0.013115604528944615 3.999930872267167 8.36780615792394 5.056631723423909 0.2462693872811637 -0.39188413877179484 -0.00017110981973077373 -0.4607589880572718 -1.5292990843402308 -2.0043204466449183 0.39325857162475586 2.0294928550720215 0.0011291387490928173 0.846316397190094 0.7261289954185486 -0.6928080916404724 -0.03564108535647392 -0.8408372402191162 0.0 0.4800110459327698 0.7379608750343323 0.2653571665287018 -0.23386971652507782 -0.4420025646686554 0.03580780327320099 0.4777680039405823 0.7671204209327698 0.2668822109699249 -0.23163172602653503 -0.4263366460800171 0.034688808023929596 0.19992792089098407 -0.18426174646568708 0.39991663644151343 -1.2087299731106549 1.2099754709434847 -1.2096361943940175 2.1448019641523297e-05 0.1777893210048901 -0.0008330231713587778 0.0011332598618052166 0.0016133100694169407 0.007088474227182993 -6.720679413781053 60.41250132805514 5.4712209876191755 -0.2248648279344715 3.114141660485621 -5.671467469780651 0.20000000000877377 -0.18379999997460808 0.4000000000017986 -1.209098722214925 1.2090487305427868 -1.2090487305423665 -3.661483027352502e-11 0.1799999999030093 -1.7584518388265457e-11 2.1948382056111818e-13 -3.767959349225943e-13 -5.312569599414126e-13
886.7679999999999 -0.4516844029240463 -1.521856536868487 -2.0110166315262994 0.39274292545471806 2.021405698875385 0.0011604667244088794 0.9104831947177662 0.7732425037630738 -0.7268808966516961 -0.04702936746006981 -0.9121578428908365 -0.0005927285413903266 6.062625282055353 4.345537006468336 -3.39611026111844 -0.9533138259352724 -6.069426860070406 -0.0022898384018618834 0.901745754969839 1.2739553944144533 0.14457523147364768 -0.12517697479983725 -0.5990414374018032 -0.013530742467488305 4.11031098748388 8.312462506768245 5.0701938019693396 0.2396796197479174 -0.4043501125576372 -0.0001635104907617515 -0.45375281969179326 -1.523494068776266 -2.010155979787008 0.392886757850647 2.0224897861480713 0.0011650914093479514 0.8933520913124084 0.7589753866195679 -0.7205395698547363 -0.04551608860492706 -0.894502580165863 0.0 0.3902893364429474 0.8411408066749573 0.1860550194978714 -0.18910996615886688 -0.46438243985176086 0.027974845841526985 0.4261780083179474 0.8613282442092896 0.19063015282154083 -0.19918090105056763 -0.4543114900588989 0.027974845841526985 0.1999731653691107 -0.182823333675284 0.39981892694461457 -1.2088447915263842 1.210327115591848 -1.2092976570291714 0.0004466750159030303 0.18486636836155645 -0.0015903745133740094 0.002885867932853734 0.0060247432043687215 0.00051880752746735 1.3320092435221471 59.2278318003603 6.858931046916846 -0.19282300466681762 2.675377724816167 -5.506574491150732 0.20000000000932824 -0.1823279999729237 0.4000000000018883 -1.2090987222149525 1.209048730542822 -1.2090487305423254 -3.954016129188498e-11 0.18799999989465943 -1.820130728630444e-11 2.5673892849020273e-13 -4.2725827577818324e-13 -5.907317339226063e-13
886.776 -0.4442015904262595 -1.5155305762809403 -2.0169386247984704 0.3923334891944889 2.013909279696023 0.001155654539685767 0.960476986155479 0.8082977846060324 -0.753528467437171 -0.05546892871071213 -0.962203586378889 -0.000610169089993602 6.249223929714109 4.381910105369827 -3.3309463481843578 -1.0549451563302896 -6.2557179360065716 -0.0021800685754094257 0.9228076543652362 1.276965133251138 0.14048330172546206 -0.12832384250861034 -0.6072501316680076 -0.013925834890247143 4.228458297486488 8.25502407674953 5.084536655048146 0.23269715329935498 -0.41767225844773304 -0.00015567215676426087 -0.44623119035829717 -1.5173185507403772 -2.016111675892965 0.39251554012298584 2.0149834156036377 0.0011411228915676475 0.9452581405639648 0.7949472069740295 -0.7460899353027344 -0.05673332139849663 -0.9409534335136414 0.0 0.4441223740577698 0.8299255967140198 0.3461843430995941 -0.20813286304473877 -0.409551739692688 0.0335698164999485 0.5024414658546448 0.8658143281936646 0.3385591506958008 -0.21372783184051514 -0.38157689571380615 0.027974845841526985 0.20001543591976373 -0.1812924153319347 0.39977604791288196 -1.2089279194853482 1.2104228128842058 -1.2091838335512088 0.000863072314042767 0.19361284601334838 -0.0012060871034976033 0.0030318113474584398 0.006807476204735234 0.006022571935048031 -3.6269578716057427 65.7704773502471 1.4401880331679338 -0.22180936864089096 2.803896840493327 -6.338313068586574 0.2000000000098828 -0.18079199997127063 0.4000000000019187 -1.2090987222149843 1.209048730542861 -1.2090487305422808 -4.2350708190638057e-11 0.19599999988623756 -1.856832494999682e-11 2.98369652611922e-13 -4.797607423986242e-13 -6.522975219339579e-13
886.784 -0.4363389804514721 -1.5089449994897546 -2.023051247709459 0.39185482727804255 2.0060327041771973 0.0011507228142632261 0.9921794698443382 0.827113849931835 -0.7643580794688859 -0.06347373806679811 -0.9939206632912996 -0.0006144444724498791 3.9628104611073995 2.352008165725325 -1.353701503964369 -1.0006011695107477 -3.9646346140513185 -0.0005344228070346417 0.7917561176244963 1.1516910692521707 0.19385375949598305 -0.13425732559772596 -0.574527798192896 -0.013994752149751395 2.64615864804757 6.762616542776521 5.555023389250306 0.21391556408852486 -0.26867544339308536 -3.816152938192266e-05 -0.4384821097003382 -1.5108187834369105 -2.022223774586813 0.3920844793319702 2.0070581436157227 0.0011411228915676475 0.9936743974685669 0.8345239162445068 -0.7683805823326111 -0.0637800469994545 -0.9960569143295288 0.0 0.4396362900733948 0.9286195039749146 0.3019581437110901 -0.19470493495464325 -0.48564332723617554 0.0335698164999485 0.4463654160499573 0.9420777559280396 0.2958579957485199 -0.1868719756603241 -0.4755723774433136 0.031331829726696014 0.20001520184038288 -0.17972871067423057 0.3997602820277545 -1.2088667637456125 1.210576542846684 -1.2092744569351186 -0.0007489393122653117 0.20128573711227984 0.0011342275579269393 -0.001428394182814009 -0.0024463449109923836 -0.0006350995548210938 1.2120555162995623 40.18261632164396 0.05979920605915486 -0.22172504471721854 1.3003018120688519 -3.7242390412751623 0.1999999999137894 -0.17919733336671398 0.39999999994305807 -1.2090987222157519 1.2090487305428907 -1.2090487305429056 -4.5153348048943825e-11 0.19999999987797198 -1.8657924456445953e-11 3.452743217652996e-13 -5.39247577630759e-13 -7.193156186757843e-13
886.7919999999999 -0.42835279253320024 -1.50231900633743 -2.029147480502056 0.3913193056056792 1.9980326709814737 0.001145840122866316 1.004443469271401 0.8294281096169726 -0.7597320764004946 -0.07041850305220478 -1.0061636394323767 -0.0006062667145871844 1.53299992838285 0.2892824606421929 0.5782503835489172 -0.8680956231758331 -1.5303720176346458 0.0010222197328368433 0.6483787736257169 1.0214966577313183 0.2493850398176947 -0.13845769355449042 -0.5374214454572602 -0.013781743012577093 0.970450014486649 5.2568917092941545 6.015397074044169 0.20154086259328655 -0.10955530878426487 7.299364446268047e-05 -0.4304564634906214 -1.5041163603412073 -2.0284064451800745 0.39158153533935547 1.99886953830719 0.0011411228915676475 1.0119287967681885 0.8432676196098328 -0.774876058101654 -0.06814230233430862 -1.0207204818725586 0.0 0.6549683213233948 0.8007660508155823 0.2226560115814209 -0.18910996615886688 -0.41850370168685913 0.034688808023929596 0.6437531113624573 0.8231964707374573 0.2363813817501068 -0.1879909634590149 -0.41290873289108276 0.027974845841526985 0.20000765591054562 -0.1781242527798714 0.39976152457695746 -1.2087907416078967 1.2106681107551287 -1.20940019940787 -0.0013114129951615119 0.20216572052906448 -7.81359232962314e-05 -0.0005279828138017681 -0.0005559199423984111 -0.0070351014968987385 -6.0369200257860065 13.120630251055058 4.612281224737694 -0.22446124923314473 1.2533396684863218 -1.633692537251725 0.19999999991667916 -0.1775974222547181 0.3999999999448254 -1.2090987222157417 1.209048730542889 -1.2090487305429032 4.3529445540647903e-10 0.1999866668551889 2.7568734587075154e-10 1.4969603869994975e-12 -5.827781716992955e-13 2.182500888670293e-13
886.8 -0.4202672657979756 -1.495673953400246 -2.0352070056732545 0.3907279783078038 1.9899334671625803 0.0011410223113043885 1.0169692178536753 0.8318407707501557 -0.7551458559825743 -0.07742240599586672 -1.0186682817531445 -0.0005981958338326598 1.565718572784286 0.30158264164789617 0.5732775522400285 -0.8754878679577432 -1.5630802900959695 0.0010088600943155808 0.6530019104219633 1.0162556997581822 0.25049658613863446 -0.13954494356112934 -0.5392202585900666 -0.013598261823883585 0.9925478974943021 5.190184585237029 6.016367475778625 0.20206668597094934 -0.11183686673022315 7.203967275479268e-05 -0.4223588148700159 -1.497401539479391 -2.0345657507525843 0.3909943103790283 1.990561842918396 0.0011051702313125134 1.0132135152816772 0.8382246494293213 -0.7585535049438477 -0.07233678549528122 -1.0099586248397827 0.0 0.6168366074562073 0.8231964707374573 0.12505337595939636 -0.17456303536891937 -0.39612382650375366 0.008951950818300247 0.6437531113624573 0.8344116806983948 0.11742816865444183 -0.18910996615886688 -0.39948081970214844 0.012308932840824127 0.19999879401386436 -0.17652886584287372 0.39975506214042483 -1.2087366021769381 1.2108193477478473 -1.2095515808117712 -0.0019087327113585083 0.2011506594495882 0.0013939640137741929 -0.00346541971590523 -0.007007890419984379 0.004956245449423346 -1.2882684432720877 11.551085297016744 7.6377114035755005 -0.10426329626528315 1.0503522549420663 -1.6174465375844669 0.19999999992012324 -0.1759975259571549 0.39999999994692415 -1.2090987222157306 1.209048730542889 -1.2090487305428979 4.208251677301102e-10 0.19998711129520952 2.668937159486248e-10 1.4818116452596297e-12 -5.805654791888721e-13 2.1420619570452538e-13
886.808 -0.4120807465443095 -1.4890094325992402 -2.041229787844985 0.39008039805948863 1.9817334405025036 0.0011362688154064524 1.0296918177863457 0.8342947990195385 -0.7505459789830607 -0.08448181325724013 -1.031369567316834 -0.0005901872507124593 1.5903249915837914 0.30675353367284885 0.5749846249391982 -0.8824259076716766 -1.5876606954611794 0.0010010728900250562 0.6571823945593015 1.0105878670000101 0.2518130594373056 -0.1406560926071078 -0.5409109940157467 -0.013416102729408158 1.0090793831941924 5.118451814102395 6.019043058875177 0.2025426491030565 -0.11358819970285441 7.148361185801919e-05 -0.4140690008746546 -1.4906509558307093 -2.040629212056295 0.3903834819793701 1.9824575185775757 0.0011531071504577994 1.0293011665344238 0.8432676196098328 -0.7533763647079468 -0.08046209067106247 -1.0221105813980103 0.0 0.8231964707374573 0.8074951767921448 0.20740559697151184 -0.2215607762336731 -0.515856146812439 0.011189938522875309 0.7783356308937073 0.8097382187843323 0.21045568585395813 -0.2014188915491104 -0.5259271264076233 0.012308932840824127 0.1999992674013543 -0.17488761006795314 0.3997710578234619 -1.2087675269393443 1.210625824298855 -1.2094293793127981 -0.0018594835318993213 0.20205879935583565 0.0021047867777526574 -0.004193923051818291 -0.008992825144271802 0.008865979307365811 -10.771186471921778 -1.1668223012307417 4.055135965636648 -0.11322398346116831 0.8509782010185979 -0.01899736904679137 0.19999999992342826 -0.17439762561026942 0.39999999994894087 -1.20909872221572 1.209048730542888 -1.2090487305428936 4.035848888938246e-10 0.19998762980739349 2.5644205443296004e-10 1.4651010450687596e-12 -5.806239001312966e-13 2.0637566482987344e-13
886.8159999999999 -0.40379165142024664 -1.4823251172717624 -2.047215711362144 0.3893761186572747 1.9734310093417757 0.001131579148824533 1.0426137212250328 0.8367893818281901 -0.7459310836967749 -0.09159728444139811 -1.0442699419105854 -0.0005822381138609722 1.6152379298358943 0.3118228510814447 0.5768619107857365 -0.8894338980197474 -1.6125468242189356 0.0009936421064358884 0.6614261676306673 1.00491511537558 0.2531517937472853 -0.14178204796931143 -0.542626949121784 -0.013235290837947044 1.0258445965227578 5.046555829863007 6.021879041070557 0.20300689884514098 -0.11536166176945709 7.095300189426748e-05 -0.40573150316347295 -1.483805004750387 -2.0465968290912073 0.3897247314453125 1.974305272102356 0.0011770756682381034 1.0467309951782227 0.8419445753097534 -0.7526812553405762 -0.08532768487930298 -1.0400630235671997 0.0 0.5114136338233948 0.8366547226905823 0.20740559697151184 -0.22715574502944946 -0.45319250226020813 0.01342792622745037 0.5248718857765198 0.8299255967140198 0.20740559697151184 -0.24505965411663055 -0.4420025646686554 0.01678490824997425 0.19997154915211737 -0.17324544206910053 0.39982264288825975 -1.208759180969526 1.2102979029993037 -1.2094286821895197 -0.0004054901688028572 0.20218838967941086 0.000207010577617905 -0.0017532211220213192 -0.004082027121577895 0.008339259267343805 0.3114705842806469 19.495345895033918 3.2618596363120687 -0.12388226165914036 0.5781356654847367 -2.022259664320161 0.19999999992660672 -0.17279772125026258 0.3999999999508752 -1.2090987222157095 1.2090487305428885 -1.2090487305428883 3.8704006078117345e-10 0.19998812807296626 2.464008699995223e-10 1.4490196094632257e-12 -5.792767661614714e-13 1.9996470634439672e-13
886.824 -0.39539837428905944 -1.4756206847635545 -2.0531646520782587 0.38861468932740856 1.9650245692816994 0.0011269528469195205 1.0557378561814288 0.8393240682462378 -0.7413001692709413 -0.09876938057985919 -1.0573723279867209 -0.000574345653708808 1.6405168695494965 0.3168358022559714 0.5788643032291901 -0.8965120173076349 -1.6377982595169316 0.0009865575190205267 0.6657375492858418 0.9992399878824734 0.2545117350947274 -0.14292297461267134 -0.5443693569009943 -0.013055763279505342 1.0428858732337014 4.974527108831548 6.024864687139902 0.20345937668565986 -0.11716115953687818 7.044711276069875e-05 -0.39732200304140264 -1.4770782629596155 -2.052755657826559 0.3889458179473877 1.9659736156463623 0.0011291387490928173 1.060287594795227 0.8435360789299011 -0.7473602890968323 -0.09913351386785507 -1.0493627786636353 0.0 0.7088013291358948 0.9555360078811646 0.11590313166379929 -0.2573685944080353 -0.5192131400108337 0.011189938522875309 0.6616974472999573 0.926376461982727 0.1128530502319336 -0.24617864191532135 -0.49683326482772827 0.006713963113725185 0.19997575874788875 -0.17163216891431726 0.39977172570353275 -1.2089198307924252 1.210386013548673 -1.2092474476996111 0.00038988051051006646 0.2022675408781603 -0.00036456367084553254 0.0007238117520686595 0.0023406418069708153 0.012576303108858761 0.9189885705623528 -5.059679536759253 2.8049405931851794 -0.1127684837763496 -0.5550276597996452 0.29998232228712074 0.1999999999296658 -0.17119781303791928 0.3999999999527318 -1.209098722215698 1.2090487305428868 -1.2090487305428852 3.711271656879628e-10 0.19998860627293186 2.3677195016915404e-10 1.433291336727632e-12 -5.804442579674448e-13 1.9164353217317395e-13
886.832 -0.3868992855713609 -1.4688958161373913 -2.0590764778608115 0.3877956549371249 1.9565124925253656 0.0011223894680622256 1.069067152483585 0.8418983778628297 -0.7366522384911428 -0.10599862986492369 -1.0706796498175417 -0.0005665068839049755 1.6661620377695363 0.3217887020739857 0.5809913474748157 -0.9036561606330616 -1.663415228852605 0.0009798462254790587 0.6701173115425483 0.9935620928961741 0.255893075857261 -0.1440790896711686 -0.5461385123963624 -0.01287745160590721 1.0602048319683057 4.9023624023382935 6.0279997917189245 0.2038997897651005 -0.11898670506895725 6.996787942278315e-05 -0.38885242143739873 -1.4702680746661585 -2.058758560811178 0.3880833387374878 1.9573191404342651 0.0011770756682381034 1.0702201128005981 0.846316397190094 -0.7386117577552795 -0.10924819856882095 -1.0720129013061523 0.0 0.5338440537452698 0.8568421006202698 0.2623070776462555 -0.20029990375041962 -0.5046662092208862 0.007832957431674004 0.5383301377296448 0.8590851426124573 0.253156840801239 -0.19246694445610046 -0.5057852268218994 0.01342792622745037 0.19995912857796397 -0.17004076614549377 0.399766883461695 -1.2088255575809486 1.2105785663350708 -1.2093030342030233 -3.93011170936909e-05 0.20072943238611582 0.0005636711593413758 0.00010382328900895113 0.0010435757281468275 -0.00017663742785422156 -0.9293989012407097 17.897031416096752 1.5273128687922213 -0.0964844102174553 0.5873855759458732 -1.6672070615065913 0.1999999999326066 -0.1695979011283979 0.39999999995451246 -1.209098722215688 1.209048730542886 -1.2090487305428796 3.558117718572222e-10 0.1999890652112153 2.2753152395493674e-10 1.416253354226302e-12 -5.768248260407591e-13 1.8686195176829343e-13
886.8399999999999 -0.37829273226870175 -1.4621501964353794 -2.0649510486035254 0.386918556266994 1.9478931279012421 0.0011178885954362216 1.0826045343917106 0.8445117959623767 -0.7319862952238608 -0.11328552538822681 -1.0841948261101233 -0.0005587185853407386 1.6921727385156848 0.32667726244337003 0.5832429084102475 -0.9108619404128906 -1.6893970365726985 0.0009735373205296149 0.6745661750755642 0.9878809978332627 0.25729600861942714 -0.14525060725578065 -0.5479346947829771 -0.012700282036807946 1.0778025159170954 4.8300580800625115 6.03128415317352 0.20432783688561834 -0.12083824686387737 6.951737944705821e-05 -0.38020259538759404 -1.4634936491595667 -2.0646899382220667 0.38720881938934326 1.9486762285232544 0.0011650914093479514 1.0858666896820068 0.8519154191017151 -0.7327155470848083 -0.11142932623624802 -1.0754404067993164 0.0 0.6886139512062073 0.8344116806983948 0.2623070776462555 -0.16337309777736664 -0.5091422200202942 0.007832957431674004 0.6729126572608948 0.8882447481155396 0.2562069296836853 -0.16561108827590942 -0.5169751644134521 0.007832957431674004 0.19996395796763758 -0.1684289522882069 0.3997606246980059 -1.208857291380613 1.2105811423674138 -1.2092791531450775 -0.0007971751450101196 0.20240944873318736 0.002017704269623317 -0.003403760812282345 -0.007598385446948933 0.012009652222365242 -5.933853829330737 8.492686149769915 2.860317346527452 -0.09485538659626593 0.978493362790818 -0.8795515042316122 0.19999999993543074 -0.16799798567060786 0.3999999999562212 -1.2090987222156766 1.2090487305428848 -1.209048730542877 3.410880238043604e-10 0.1999895056636085 2.1867085948175856e-10 1.4012873328456292e-12 -5.761381413936136e-13 1.787682096603833e-13
886.848 -0.3695770380256773 -1.4553835149622714 -2.070788216234641 0.38598293030018965 1.9391648009252436 0.0011134498389588252 1.0963529161614949 0.8471637712982399 -0.7273013443302816 -0.12063052300815723 -1.0979207655745336 -0.0005509772912536645 1.7185477212230404 0.33149691698290684 0.585618861697404 -0.9181247024913023 -1.7157424330512816 0.0009676617608842561 0.6790848304654596 0.982196248312709 0.2587207171661906 -0.14643773767841278 -0.5497581727040196 -0.012524175122987025 1.0956796476355342 4.757610356591335 6.034717497398113 0.20474320998979312 -0.12271569384386957 6.909782335946208e-05 -0.3714206854449671 -1.4566591421710413 -2.0706689993487757 0.386310338973999 1.939949870109558 0.0011531071504577994 1.0952239036560059 0.8538137078285217 -0.7270110249519348 -0.11727762967348099 -1.0947829484939575 0.0 0.6482391953468323 0.7536621689796448 0.1891051083803177 -0.23498870432376862 -0.5236891508102417 0.007832957431674004 0.6459961533546448 0.7491760849952698 0.18758006393909454 -0.2394646853208542 -0.5270460844039917 0.002237987704575062 0.19996112798375273 -0.16680604996837742 0.3997431826902701 -1.2089174933556026 1.2105575572000646 -1.2092116684224687 -0.0015119532066436296 0.20101678431436376 0.002201693363297686 -0.0040274235812983936 -0.009261572554636019 0.0019984480748002336 -5.8421099791516475 12.688153721020402 5.350206251390485 -0.09434432146929216 0.9567982827522241 -1.165746540518804 0.19999999993814235 -0.16639806680748143 0.39999999995786 -1.2090987222156664 1.2090487305428845 -1.2090487305428728 3.2694735157327305e-10 0.19998992837465834 2.1016985965073525e-10 1.3841898382329417e-12 -5.740111654260603e-13 1.7509962517440315e-13
886.856 -0.3607505032288092 -1.4485954655868527 -2.0765878247246885 0.3849883105292877 1.9303258138995278 0.0011090728373250583 1.1103151972705885 0.8498537137874969 -0.7225963916205419 -0.12803403909820174 -1.1118603621557623 -0.0005432792713938562 1.7452851386366985 0.3362428111571142 0.588119088717462 -0.925439511255564 -1.7424495726535982 0.000962252482476043 0.6836739347752177 0.9765073673163078 0.26016737600314493 -0.14764068695744942 -0.5516092030674344 -0.012349045383943328 1.1138366015550138 4.685015287806119 6.038299473680703 0.20514559436819851 -0.12461891233717673 6.87115630161668e-05 -0.3625906149493616 -1.4498608748065394 -2.076552693043844 0.38529205322265625 1.9311639070510864 0.0011650914093479514 1.1156834363937378 0.8560188412666321 -0.7249497771263123 -0.13098758459091187 -1.1161627769470215 0.0 0.6886139512062073 0.8433838486671448 0.16775453090667725 -0.24058367311954498 -0.3591970205307007 0.008951950818300247 0.7177734971046448 0.8545990586280823 0.163179412484169 -0.2383456975221634 -0.3424121141433716 0.007832957431674004 0.1999655432342056 -0.16519858718723646 0.3997225477871172 -1.2089811652628464 1.2106056293686884 -1.2090930267618238 0.0001863878748258799 0.20145635323979322 0.0008572570706930354 -0.0007276819614596184 -0.00043847695075080516 0.0010683174009636187 -1.002049659276539 8.480754559195844 3.847932555079569 -0.09979598011470796 0.25436566143337824 -1.5938848421616842 0.1999999999407607 -0.16479814467618495 0.3999999999594324 -1.2090987222156555 1.2090487305428823 -1.2090487305428688 3.133690489381346e-10 0.19999033405902594 2.0201835991170922e-10 1.3688883983696615e-12 -5.735346691302522e-13 1.6859656967008066e-13
886.8639999999999 -0.35181140514513576 -1.441785747062199 -2.0823497100939896 0.38393422728158283 1.921374446050959 0.0011047572601820075 1.1244942572600276 0.852580992099197 -0.7178704438298523 -0.1354964481672679 -1.1260164898810183 -0.0005356205152178466 1.772382498679892 0.34090978896252067 0.5907434738361972 -0.9328011336332716 -1.769515965656998 0.0009573445220012033 0.6883341076822314 0.9708138541358722 0.2616361499256175 -0.14885965628767814 -0.5534880297046947 -0.01217480092328589 1.1322733723430194 4.612268765092441 6.0420296510209335 0.20553466889699196 -0.1265477226470368 6.836110028253993e-05 -0.3535211722003382 -1.4429786841021937 -2.0823758284198206 0.3842262029647827 1.9222348928451538 0.0011411228915676475 1.1247531175613403 0.858492374420166 -0.7140920758247375 -0.13693176209926605 -1.1161627769470215 0.0 0.7267456650733948 0.8030090928077698 0.2760324478149414 -0.14211222529411316 -0.5259271264076233 0.0 0.7424469590187073 0.7940369248390198 0.2729823589324951 -0.13875523209571838 -0.5259271264076233 0.001118993852287531 0.19997514446034928 -0.1635625643666329 0.39972422239373473 -1.209076194014934 1.2104827170802863 -1.2089989912234895 -0.0007895580655382055 0.20160642342665708 0.0025748070461485 -0.0032996412641013136 -0.007377997361888878 0.010093176443164062 -7.772398573161454 7.692931997951321 3.4823695014327933 -0.05619762739511363 1.2456731821501206 -0.7613643920934744 0.1999999999432713 -0.16319821940836865 0.39999999996094093 -1.2090987222156448 1.209048730542881 -1.2090487305428654 3.002576609873168e-10 0.19999072340254373 1.9419863343100056e-10 1.3527436631978858e-12 -5.703815565896244e-13 1.6276829032275701e-13
886.872 -0.34275799810367236 -1.4349540633656588 -2.0880737004200576 0.382820208063972 1.9123089537123947 0.0011005028104420006 1.1388929501699963 0.855344931132968 -0.7131225086182768 -0.14301808034704008 -1.1403919973019117 -0.00052799671400813 1.7998366137460808 0.34549237922136544 0.5934919014469464 -0.9402040224715212 -1.7969384276116662 0.0009529751512145655 0.6930659273653846 0.965115183292768 0.26312719356701847 -0.1500948414737026 -0.5553948819445546 -0.0120013430194525 1.150989541455204 4.539366509519606 6.045907514316307 0.20591010630373446 -0.1285018954357576 6.804909662277848e-05 -0.344306770955221 -1.4361565748797815 -2.08805495897402 0.38312411308288574 1.9133055210113525 0.0011531071504577994 1.148261308670044 0.8610042333602905 -0.7114794850349426 -0.14234863221645355 -1.1418330669403076 0.0 0.4979553818702698 0.8142243027687073 0.20893064141273499 -0.14323121309280396 -0.500190258026123 0.006713963113725185 0.5001984238624573 0.8052521347999573 0.20893064141273499 -0.14546920359134674 -0.4934763014316559 0.002237987704575062 0.2000058208398525 -0.1619173354044205 0.39973680238732145 -1.2091917662851224 1.2102298722215548 -1.2088055740986572 0.0005462873108768853 0.20253028854437846 0.0020863791253940326 -0.0031025888381979957 -0.007167891340577834 0.007914722227471313 0.930575079139733 22.247412934831875 5.468109279099471 -0.0878711186759023 1.114165721534038 -2.089795156352527 0.19999999994568754 -0.16159829113035326 0.3999999999623884 -1.2090987222156337 1.2090487305428792 -1.2090487305428637 2.876842807559145e-10 0.1999910970634623 1.866987621674051e-10 1.3367218204894768e-12 -5.687235768823933e-13 1.5704663490805954e-13
886.88 -0.3335885137231207 -1.4281001240594655 -2.093759615845097 0.3816457779284919 1.9031275705501653 0.001096309226743134 1.1535140985397487 0.8581448093825315 -0.7083515945954282 -0.15059921873975649 -1.1549897015013086 -0.0005204032418780727 1.82764354621906 0.3499847811954393 0.5963642528560714 -0.9476422990895502 -1.8247130249246235 0.0009491840162571683 0.6978699260636299 0.9594108034182494 0.2646406509256468 -0.15134643231984216 -0.5573299730788461 -0.011828565690973297 1.169984240994758 4.4663040658710225 6.04993246041223 0.20627157348359088 -0.13048114784116754 6.777838304887562e-05 -0.3349974791156214 -1.4292386213885706 -2.093806568776266 0.3819260597229004 1.9043166637420654 0.0011291387490928173 1.162124752998352 0.8630751371383667 -0.705247700214386 -0.15550731122493744 -1.145476222038269 0.0 0.6639404892921448 0.8613282442092896 0.1296284943819046 -0.20701386034488678 -0.5404740571975708 -0.006713963113725185 0.7020722031593323 0.8299255967140198 0.12810346484184265 -0.19470493495464325 -0.5337600708007812 -0.015665914863348007 0.2000188796657282 -0.16026677003634288 0.3997339540863782 -1.209382980830684 1.2099956059657466 -1.208562289212662 0.0009844720068657613 0.2030448782173612 0.0018582336229197773 -0.0014982933387803659 -0.002602074887836611 0.018109884140898223 0.5160711791114887 3.673644599323057 5.449632141910169 -0.023993602013980295 0.2489841149177453 -0.38093627038309474 0.19999999994801437 -0.1599983599634006 0.3999999999637767 -1.2090987222156229 1.2090487305428779 -1.2090487305428608 2.7558333141836095e-10 0.19999145567338528 1.7950365784899648e-10 1.3199769841268512e-12 -5.657681716149654e-13 1.55282794324016e-13
886.8879999999999 -0.32430116118937846 -1.421223644672919 -2.0994072685837963 0.3804104598596532 1.8938285078412949 0.0010921762860665958 1.168360486950858 0.8609798561777227 -0.7035567113700384 -0.15824009662002692 -1.169812381644101 -0.0005128351355715085 1.8557985513886488 0.3543808493988998 0.5993604031737237 -0.9551097350338038 -1.8528350178490527 0.0009460132883205315 0.7027465853797717 0.9537001360758698 0.2661766548769359 -0.15261461197945117 -0.5592934987375248 -0.011656355234106599 1.1892561157764032 4.393076796326618 6.054103794074756 0.20661873184711374 -0.13248513940547066 6.75519708791042e-05 -0.3256638685809534 -1.4222129026996058 -2.099534336720602 0.38065648078918457 1.895076036453247 0.0011531071504577994 1.1719613075256348 0.8640722036361694 -0.7020598649978638 -0.15929432213306427 -1.178193211555481 0.0 0.5540314316749573 0.8299255967140198 0.2592569887638092 -0.16449210047721863 -0.5102611780166626 -0.01678490824997425 0.5405731797218323 0.8254395127296448 0.2562069296836853 -0.1533021628856659 -0.5113801956176758 -0.015665914863348007 0.19999750296555246 -0.15863973768972783 0.3997465432228879 -1.209403806722679 1.209900348723333 -1.2084929189011173 0.00028012428911348866 0.20048666745555582 0.001239135913638879 -0.001579010001260617 -0.003029930178568611 -0.004788298217251281 -0.6577313457580356 19.09565886078853 2.7800420966903485 0.02248495244723243 0.7675871156451782 -1.8012194750430173 0.19999999995024748 -0.15839842602387735 0.3999999999651087 -1.2090987222156118 1.2090487305428752 -1.209048730542859 2.639286934745172e-10 0.19999179983862164 1.726046131062187e-10 1.3037022410973146e-12 -5.639869343318342e-13 1.4977202805468837e-13
886.896 -0.31489412758665747 -1.414324347107156 -2.1050164629316166 0.37911377518476985 1.8844099548042692 0.001088103806520654 1.1834348550787266 0.8638492487961856 -0.6987368696233996 -0.16594089448294605 -1.184862772036786 -0.0005052870729768635 1.884296015983583 0.3586740773078717 0.6024802183298428 -0.9625997328648918 -1.8812987990856067 0.0009435078243306223 0.7076963312066911 0.9479825745181805 0.26773532667287436 -0.1538995562553748 -0.5612856351400534 -0.011484589731045443 1.208803282272853 4.319679873730745 6.058420723898847 0.20695123772600224 -0.1345134676944513 6.737306321197674e-05 -0.316078011189596 -1.4151747862445276 -2.1050341765033167 0.37932658195495605 1.8856920003890991 0.0011531071504577994 1.1901006698608398 0.8674469590187073 -0.7002862095832825 -0.16617326438426971 -1.1821479797363281 0.0 0.6190796494483948 0.868057370185852 0.24095650017261505 -0.1868719756603241 -0.5180941820144653 -0.025736859068274498 0.6145935654640198 0.8545990586280823 0.2501067519187927 -0.1846339851617813 -0.5315220952033997 -0.02014188840985298 0.1999977142054132 -0.1569892862462288 0.3998086529223601 -1.2094078918789655 1.2095617597032655 -1.2084835489355061 0.0005361676830694283 0.2020335079936277 0.0005583112900157857 -0.0007993506675977074 -0.001482520979113221 0.009381861844898172 0.023750464615254225 11.370492010212184 1.9281437073536491 0.06547000151322077 0.2910034809372609 -1.1375675116425799 0.19999999995240758 -0.15679848942345134 0.3999999999663863 -1.2090987222156016 1.209048730542875 -1.2090487305428557 2.5274361015214095e-10 0.19999213014100573 1.659875604722688e-10 1.2871040879183244e-12 -5.59986911363786e-13 1.479583183678637e-13
886.904 -0.3053655782862359 -1.407401960063547 -2.110586995273769 0.3777552440085401 1.8748700789873751 0.0010840916503019704 1.198739890226416 0.8667521094422684 -0.6938910812106955 -0.1737017369320156 -1.200143554670048 -0.0004977533502777207 1.913129393461166 0.3628575807603507 0.6057235515880138 -0.9701053061336936 -1.9100978291577697 0.0009417153373928529 0.7127195283385245 0.9422574824238049 0.26931677541107923 -0.1552014328511264 -0.5633065372390245 -0.011313138526922317 1.2286232852252648 4.246108274983 6.062882358011575 0.2072687428315491 -0.13656566368372608 6.724506709721145e-05 -0.30650407472719365 -1.4081133047686976 -2.1105693022357386 0.3779851198196411 1.8762009143829346 0.0011770756682381034 1.193437099456787 0.8694219589233398 -0.6895723342895508 -0.17106282711029053 -1.2111258506774902 0.0 0.7267456650733948 0.7491760849952698 0.2058805525302887 -0.19694292545318604 -0.512499213218689 -0.024617865681648254 0.6975861191749573 0.7693634629249573 0.21198073029518127 -0.19246694445610046 -0.508023202419281 -0.024617865681648254 0.1999727068276609 -0.15536366039140756 0.3998539897151423 -1.2093455922223084 1.2093426595593486 -1.2085262104199874 -0.0014175360150294701 0.19847834554658478 0.002162730180365617 -0.002921244873276736 -0.009022682469456906 -0.016304128840687868 -6.3690681504377515 8.889826245765995 5.520438029082911 0.06104984488236189 1.0156485485328386 -0.9686755931650964 0.19999999995448614 -0.15519855026932972 0.39999999996761226 -1.2090987222155907 1.2090487305428725 -1.2090487305428534 2.41922880955121e-10 0.19999244713887568 1.5964223771345255e-10 1.2716952627002989e-12 -5.59403705890719e-13 1.4281244794241294e-13
886.9119999999999 -0.2957136573971084 -1.4004562194968413 -2.1161186540951125 0.37633438567319205 1.865207026718856 0.0010801397268454063 1.2142782193109134 0.8696875020811595 -0.6890183592871518 -0.18152268939808683 -1.2156573512143791 -0.0004902278576417744 1.9422911355621852 0.366924079861386 0.6090902404429638 -0.9776190582589036 -1.939224568041381 0.0009406865794932788 0.7178164747374751 0.9365241925344745 0.27092109749986704 -0.15652040057094177 -0.5653563367448956 -0.011141861673337666 1.2487130516549958 4.172356773657066 6.06748769978707 0.2075708947645899 -0.13864118687828966 6.717160658187656e-05 -0.2967136541949671 -1.4011591116534632 -2.11600906053652 0.3765833377838135 1.8665423393249512 0.0011531071504577994 1.2144334316253662 0.8754236698150635 -0.6842273473739624 -0.1732439547777176 -1.2213363647460938 0.0 0.7446900010108948 0.7693634629249573 0.07930213958024979 -0.14994516968727112 -0.39948081970214844 -0.03245082125067711 0.7312317490577698 0.7805786728858948 0.09150247275829315 -0.14658819139003754 -0.41067075729370117 -0.02909383922815323 0.19999202746583822 -0.15373301126219824 0.39988396570041856 -1.2093734440099406 1.209126524610898 -1.2085180831672964 -0.0017985041785634364 0.20035948350769106 0.003462990477417649 -0.005386349107377553 -0.017871704474251297 -0.005550411574637496 -1.6253956617860652 5.748950200470759 10.563559343199119 0.09801765247286603 1.1595102723168773 -1.2456496951455545 0.19999999995648557 -0.15359860866435504 0.39999999996878843 -1.2090987222155796 1.2090487305428703 -1.2090487305428514 2.3151022952894988e-10 0.19999275136826772 1.5355454848192188e-10 1.2555900854494677e-12 -5.554097435566546e-13 1.401320193361361e-13
886.92 -0.2859364882830828 -1.3934868690942341 -2.12161121999116 0.3748507192455819 1.855418923623446 0.0010762479961746285 1.2300524002612643 0.8726544291232498 -0.6841177184619389 -0.18940375468135273 -1.2314067144283025 -0.00048270405333752096 1.97177261879386 0.37086588026127854 0.6125801031516137 -0.985133160408238 -1.9686704017404244 0.000940475538031683 0.7229873953518574 0.9307820052635095 0.2725483760959951 -0.15785660845935648 -0.5674351400058 -0.010970609335866776 1.2690688411789068 4.0984199326841875 6.072235643381633 0.20785733760722794 -0.14073942007403542 6.715653674422839e-05 -0.28686362901796514 -1.3941572348224085 -2.121664349232809 0.37515830993652344 1.8568954467773438 0.0011770756682381034 1.2308661937713623 0.873141884803772 -0.6813991069793701 -0.18043449521064758 -1.2350943088531494 0.0 0.7873077988624573 0.6459961533546448 0.22418105602264404 -0.26072555780410767 -0.5415930151939392 -0.03021283447742462 0.7783356308937073 0.6504822373390198 0.21198073029518127 -0.2506546378135681 -0.544950008392334 -0.0335698164999485 0.19999381308984318 -0.15210195623523326 0.39985208538627404 -1.2094933258629055 1.2090410111577372 -1.208294191072554 -0.0005120843058829874 0.200269789755053 0.0016952274297250367 -0.003434365894754347 -0.011540619796751226 -0.0028871434363470397 -12.138495654220655 9.683818217143054 5.54706390840562 0.08814697862215216 1.2138841988941906 -0.9180273323658131 0.1999999999584153 -0.15199866470723764 0.3999999999699168 -1.2090987222155687 1.2090487305428683 -1.20904873054285 2.2149338162980227e-10 0.19999304334339432 1.477167666770796e-10 1.2385366764135254e-12 -5.521134258843354e-13 1.3654598349705084e-13
886.928 -0.27603217415111114 -1.3864936607815759 -2.127064465680437 0.37330376403269033 1.8455038752100477 0.001072416472466258 1.2460649128039807 0.8756518279504122 -0.6791881749802828 -0.19734486930777273 -1.247394118954569 -0.000475174936198054 2.0015640678395505 0.37467485339530426 0.6161929352070106 -0.9926393283024998 -1.9984255657833072 0.0009411396424333689 0.7282324356139457 0.9250301872295107 0.2741986805263235 -0.1592101948845705 -0.5695430257722705 -0.01079922116377513 1.2896861941644187 4.024292096590539 6.07712496918485 0.20812771256980037 -0.1428596638953281 6.720395844723957e-05 -0.2769416014300745 -1.3870237509356897 -2.1271398703204554 0.3736250400543213 1.8469740152359009 0.0011411228915676475 1.2460910081863403 0.8736979365348816 -0.680440366268158 -0.1925145983695984 -1.245376706123352 0.0 0.5742188096046448 0.7985230088233948 0.28060758113861084 -0.2573685944080353 -0.5147371888160706 -0.04699774086475372 0.6145935654640198 0.7760925889015198 0.28365767002105713 -0.24617864191532135 -0.5192131400108337 -0.038045790046453476 0.19996395326015393 -0.15048790364014758 0.3998806652494059 -1.2094593401397005 1.2089062113652107 -1.2083983786255799 0.0003032258565972676 0.20026768411759197 -0.0003276503049230255 -0.00030548689599357273 -0.0014652305344301456 0.0020485071984802606 -1.421448957568642 20.83769621720778 0.210315769739214 0.16753863211815667 0.12259503757049679 -1.97117935219687 0.19999999996027945 -0.15039871849274897 0.39999999997099916 -1.209098722215558 1.2090487305428665 -1.2090487305428483 2.1182470290041584e-10 0.1999933235578072 1.4211698961609783e-10 1.2225702150220788e-12 -5.491648665084006e-13 1.3456746800837346e-13
886.9359999999999 -0.2659987987159331 -1.3794763552580402 -2.1324781560184096 0.3716930401270433 1.835459967535638 0.0010686452278414185 1.2623181485930497 0.8786785672757614 -0.6742287469353586 -0.20534589968991793 -1.2636219514617455 -0.00046763301629768826 2.031654473633626 0.378342415668656 0.6199285056155274 -1.0001287977681497 -2.028479063397065 0.0009427399875457185 0.733551654459234 0.9192679697320885 0.27587206568664596 -0.1605812865532635 -0.5716800428057437 -0.010627525618770724 1.310559876012103 3.9499673835044726 6.082154339132574 0.20838165873390696 -0.1450011309555317 6.731823429067712e-05 -0.2667797247516077 -1.38000995317568 -2.132627789174215 0.3720434904098511 1.8370521068572998 0.0011770756682381034 1.2633099555969238 0.8757113218307495 -0.6736093163490295 -0.20318055152893066 -1.267715334892273 0.0 0.5921631455421448 0.7536621689796448 0.22113096714019775 -0.3412931263446808 -0.5729248523712158 -0.04587874934077263 0.6033783555030823 0.7469330430030823 0.21808089315891266 -0.3222702145576477 -0.581876814365387 -0.04587874934077263 0.1999838932552647 -0.14885087701110625 0.3998622587888739 -1.2095764393281012 1.2087801836809517 -1.2081545902167463 0.0008701278394089904 0.1998353468188297 -0.00025161023547973476 0.0001177844478109485 0.0002823460759233324 -0.0031006819897212686 -2.223307945760997 18.227447234151636 1.1411467875326573 0.16343361784032254 -0.20418299051523914 -1.4950043934013153 0.1999999999620715 -0.14879877011178438 0.39999999997203767 -1.2090987222155476 1.2090487305428652 -1.2090487305428463 2.0248391357942623e-10 0.19999359248536377 1.367478806315728e-10 1.2065426526972237e-12 -5.469582388327266e-13 1.3193874287282446e-13
886.944 -0.25583442694645164 -1.372434722560639 -2.137852048013201 0.37001806898366524 1.8252852679508056 0.001064934396399406 1.2788144006440056 0.8817334433215348 -0.6692384545052261 -0.21340663808172122 -1.2800925000906462 -0.00046007028371944993 2.0620315063694936 0.38185950572167116 0.6237865537665616 -1.007592298975412 -2.058818578612592 0.0009453415722797908 0.7389450168831647 0.9134945471059109 0.2775685714448682 -0.16196999745854712 -0.5738462073310617 -0.010455339260044633 1.3316838178502761 3.8754396762400543 6.087322292102568 0.20861881387392295 -0.14716293965821214 6.750400565178302e-05 -0.25649720827211553 -1.373068634663717 -2.138043228779928 0.3703784942626953 1.8268314599990845 0.0010931860888376832 1.2742011547088623 0.8791819214820862 -0.6694388389587402 -0.21317540109157562 -1.2849006652832031 0.0 0.6572113633155823 0.8052521347999573 0.21045568585395813 -0.2394646853208542 -0.515856146812439 -0.041402772068977356 0.6459961533546448 0.7962799668312073 0.19368022680282593 -0.2573685944080353 -0.5057852268218994 -0.0503547228872776 0.20002645053245557 -0.1472361983470225 0.3998290762275757 -1.209741955909402 1.208797722777626 -1.2080772792280041 9.698242821142705e-05 0.19867625961545246 -0.0005179870573892222 0.0005281268000983678 0.002585170989804345 -0.00941749198114788 -0.6922102127221932 12.0963700858363 2.860669645473492 0.14298917971590192 0.15600016458831803 -1.2660062316882463 0.19999999996380866 -0.14719881965163595 0.399999999973035 -1.2090987222155354 1.2090487305428612 -1.2090487305428466 1.9350328891935018e-10 0.19999385058054112 1.3159816476633948e-10 1.1906311306038897e-12 -5.450227083414444e-13 1.2936013603417117e-13
886.952 -0.24553710589949418 -1.3653685426600157 -2.1431858908433696 0.3682783740302431 1.8149778259325757 0.0010612841785093128 1.29555585204134 0.8848151758175472 -0.6642163202262323 -0.2215267983182343 -1.2968079431749726 -0.0004524781752671144 2.092681424666787 0.3852165620015502 0.627766784874223 -1.0150200295641343 -2.0894303855407967 0.0009490135565419437 0.7444123860876045 0.9077090750983923 0.2792882219852645 -0.1633764277523125 -0.5760415003490742 -0.010282465982217607 1.3530510543174423 3.800702614124346 6.092627238879563 0.2088388153835141 -0.1493441077185686 6.776621103199058e-05 -0.24611932436098272 -1.36591083208193 -2.143327061329977 0.36860597133636475 1.8163719177246094 0.0011171544902026653 1.2882754802703857 0.8841481804847717 -0.6644054651260376 -0.2208932489156723 -1.3003603219985962 0.0 0.6931000351905823 0.7671204209327698 0.2623070776462555 -0.24394066631793976 -0.5639728903770447 -0.048116736114025116 0.7065582871437073 0.7940369248390198 0.26840725541114807 -0.2506546378135681 -0.5628539323806763 -0.04699774086475372 0.20001987134775565 -0.1456265030810423 0.39986229609950813 -1.2096336743048162 1.208772077723568 -1.2081820933317549 -0.0007943632154072957 0.19835183768074932 -6.109028100489245e-05 6.309995094715696e-05 0.00032525917159222366 -0.010831314445122203 -4.551311504211981 11.721911525199697 1.7508323902814782 0.1749432609699517 0.3548066528851016 -1.0215861179889318 0.19999999996548262 -0.14559886719604373 0.39999999997399094 -1.2090987222155245 1.2090487305428603 -1.2090487305428452 1.8479743438709721e-10 0.19999409827979878 1.2665409707499566e-10 1.1721717579162308e-12 -5.393264306615927e-13 1.290561677095137e-13
