Fleaurent/UniversalRobot/csv/robolib_movel_x400.csv
timestamp target_q_0 target_q_1 target_q_2 target_q_3 target_q_4 target_q_5 target_qd_0 target_qd_1 target_qd_2 target_qd_3 target_qd_4 target_qd_5 target_TCP_pose_0 target_TCP_pose_1 target_TCP_pose_2 target_TCP_pose_3 target_TCP_pose_4 target_TCP_pose_5 target_TCP_speed_0 target_TCP_speed_1 target_TCP_speed_2 target_TCP_speed_3 target_TCP_speed_4 target_TCP_speed_5 target_TCP_acc_0 target_TCP_acc_1 target_TCP_acc_2 target_TCP_acc_3 target_TCP_acc_4 target_TCP_acc_5
0.0 -0.3527446237002967 -1.8721358656143456 -1.603567670800731 0.33413797321956373 1.9237026852187453 -0.00012831772243472844 0.0 0.0 0.0 0.0 0.0 0.0 300.0 -200.0 400.0 2.4186 -2.4185 2.4185 0.0 0.0 0.0 0.0 0.0 0.0 0.0 1000.0 0.0 0.0 0.0 0.0 
0.008 -0.35263492756397374 -1.872045184858162 -1.6036908977386917 0.33417114799546876 1.9235929890833252 -0.00012831253888009457 0.027425764324840122 0.02267200151837115 -0.030808056049887525 0.008135774619761919 -0.027425764314303932 -8.101089989039166e-07 300.0 -199.968 400.0 2.4186 -2.4185 2.4185 0.0 8.0 0.0 0.0 0.0 0.0 0.0 1000.0 0.0 0.0 0.0 0.0 
0.016 -0.3523057563679708 -1.8717731871357173 -1.6040604632532043 0.3342686690050187 1.9232638178900314 -0.0001282969960839277 0.05487222409077334 0.04533286580736177 -0.06158728677227686 0.01625386244289844 -0.05487222406976411 -1.617897758711898e-06 300.0 -199.872 400.0 2.4186 -2.4185 2.4185 0.0 16.0 0.0 0.0 0.0 0.0 0.0 1000.0 0.0 0.0 0.0 0.0 
0.024 -0.35175686169764164 -1.8713200060883128 -1.6046760215441245 0.33443115916967403 1.922714923224219 -0.00012827111766959128 0.08236009300569219 0.06797145891454061 -0.09230889679946379 0.024336597579959405 -0.08236009297390064 -2.4377902488338624e-06 300.0 -199.712 400.0 2.4186 -2.4185 2.4185 0.0 24.0 0.0 0.0 0.0 0.0 0.0 1000.0 0.0 0.0 0.0 0.0 
0.032 -0.3509878293507156 -1.8706858644625575 -1.6055369966030129 0.3346583807608754 1.9219458908836187 -0.00012823494307663034 0.10991011533998198 0.09057664832094289 -0.1229441437548196 0.03236636107688809 -0.10991011529636226 -3.29776556380317e-06 300.0 -199.488 400.0 2.4186 -2.4185 2.4185 0.0 32.0 0.0 0.0 0.0 0.0 0.0 1000.0 0.0 0.0 0.0 0.0 
0.04 -0.3499980790726642 -1.8698710741310782 -1.6066425826958843 0.3349486008171352 1.9209561406137015 -0.00012818852766194433 0.1375430206717214 0.11313725340704335 -0.15346429666479353 0.040325656975190305 -0.13754302061934312 -4.041075451705034e-06 300.0 -199.2 400.0 2.4186 -2.4185 2.4185 0.0 40.0 0.0 0.0 0.0 0.0 0.0 1000.0 0.0 0.0 0.0 0.0 
0.048 -0.3487868641905747 -1.8688760361296404 -1.607991745029175 0.3353037255290845 1.9197449257415589 -0.00012813194284195818 0.1652797427139978 0.13564221284876293 -0.1838408888244185 0.048196956238440995 -0.16527974264641132 -5.029795596863335e-06 300.0 -198.848 400.0 2.4186 -2.4185 2.4185 0.0 48.0 0.0 0.0 0.0 0.0 0.0 1000.0 0.0 0.0 0.0 0.0 
0.056 -0.3473532711499465 -1.8677012407187414 -1.6095832205891871 0.3357203379370943 1.9183113327126935 -0.00012806527627632236 0.19314105425496486 0.1580802709115754 -0.21404531819792263 0.05596305135291746 -0.19314105417635902 -5.860697889581038e-06 300.0 -198.432 400.0 2.4186 -2.4185 2.4185 0.0 56.0 0.0 0.0 0.0 0.0 0.0 1000.0 0.0 0.0 0.0 0.0 
0.064 -0.3456962189602215 -1.8663472674800654 -1.6114155191426018 0.33619947661287686 1.9166542805365487 -0.000127988632093828 0.22114802821380258 0.1804403421657244 -0.24404936808496333 0.0636066875635675 -0.2211480281185933 -6.8977239305139815e-06 300.0 -197.952 400.0 2.4186 -2.4185 2.4185 0.0 64.0 0.0 0.0 0.0 0.0 0.0 1000.0 0.0 0.0 0.0 0.0 
0.072 -0.343814458556297 -1.8648147854604313 -1.6134869243831385 0.3367386705244195 1.9147725201480255 -0.0001279021311613794 0.24932162739139974 0.2027111600730949 -0.2738247574772978 0.07111095251727927 -0.24932162728207158 -7.842906121150549e-06 300.0 -197.408 400.0 2.4186 -2.4185 2.4185 0.0 72.00000000000001 0.0 0.0 0.0 0.0 0.0 1000.0 0.0 0.0 0.0 0.0 
0.08 -0.341706572084834 -1.863104553378095 -1.6157954952070566 0.33733769570288064 1.9126646336937914 -0.00012780591139702676 0.27768306502382256 0.22488155588824754 -0.30334354544829906 0.07845899552164746 -0.27768306489634753 -8.930820221105544e-06 300.0 -196.8 400.0 2.4186 -2.4185 2.4185 0.0 80.0 0.0 0.0 0.0 0.0 0.0 1000.0 0.0 0.0 0.0 0.0 
0.088 -0.33937097212584333 -1.861217419908498 -1.6183390670979445 0.33799534961897826 1.91032903375386 -0.00012770012812822465 0.3062536083769236 0.24694028075188357 -0.33257791762351935 0.08563422769455645 -0.3062536082248271 -1.0236339207163943e-05 300.0 -196.12800000000001 400.0 2.4186 -2.4185 2.4185 0.0 88.0 0.0 0.0 0.0 0.0 0.0 1000.0 0.0 0.0 0.0 0.0 
0.096 -0.33680590086186557 -1.859154324068738 -1.6211152535991724 0.3387086284035028 1.9077639625107787 -0.00012758495449664644 0.3350544591403273 0.26887589215629104 -0.3615000617236763 0.09262044813904162 -0.33505445897193487 -1.1255677041583778e-05 300.0 -195.392 400.0 2.4186 -2.4185 2.4185 0.0 96.0 0.0 0.0 0.0 0.0 0.0 1000.0 0.0 0.0 0.0 0.0 
0.104 -0.334009429209031 -1.856916295722187 -1.6241214478505086 0.33947777807653257 1.904967490880682 -0.000127460581911058 0.3641072602843345 0.2906771427167759 -0.39008271955733137 0.09940144456980987 -0.36410726008980826 -1.2598912813608102e-05 300.0 -194.59199999999998 400.0 2.4186 -2.4185 2.4185 0.0 104.00000000000001 0.0 0.0 0.0 0.0 0.0 1000.0 0.0 0.0 0.0 0.0 
0.112 -0.3309794559264798 -1.85450445622684 -1.627354824163697 0.340300123298507 1.9019375176227182 -0.00012732722054992578 0.3934334869833529 0.31233246883315025 -0.4182985281988495 0.10596152854204677 -0.3934334867626337 -1.393574606498531e-05 300.0 -193.728 400.0 2.4186 -2.4185 2.4185 0.0 112.0 0.0 0.0 0.0 0.0 0.0 1000.0 0.0 0.0 0.0 0.0 
0.12 -0.32771370672300026 -1.8519200192530865 -1.63081233961032 0.3411745095113963 1.8986717684456813 -0.00012718509991561437 0.42305490955065733 0.3338303400567569 -0.44612052024372134 0.11228517174229302 -0.4230549092944268 -1.5552612216169104e-05 300.0 -192.8 400.0 2.4186 -2.4185 2.4185 0.0 120.0 0.0 0.0 0.0 0.0 0.0 1000.0 0.0 0.0 0.0 0.0 
0.128 -0.32420973338239545 -1.8491642917986926 -1.6344907355939906 0.3420976861734595 1.895167795133383 -0.00012703446944221187 0.4529931470344128 0.3551588811541498 -0.47352164932980556 0.1183573894643868 -0.4529931467519798 -1.6876342279561467e-05 300.0 -191.808 400.0 2.4186 -2.4185 2.4185 0.0 128.0 0.0 0.0 0.0 0.0 0.0 1000.0 0.0 0.0 0.0 0.0 
0.136 -0.32046491293198187 -1.8462386754308844 -1.6383865393778743 0.34306918678378207 1.891422974713148 -0.00012687559915920959 0.4832703150940485 0.3763063585232068 -0.500475473233632 0.12416323678962925 -0.4832703147699112 -1.865051368667408e-05 300.0 -190.752 400.0 2.4186 -2.4185 2.4185 0.0 136.0 0.0 0.0 0.0 0.0 0.0 1000.0 0.0 0.0 0.0 0.0 
0.144 -0.31647644688184373 -1.843144667787479 -1.6424960655377037 0.3440856412644051 1.8874345086950695 -0.00012670878041345435 0.513908224714291 0.39726052375988097 -0.5269553124272051 0.12968846373888449 -0.5139082243517625 -2.0312986665800777e-05 300.0 -189.632 400.0 2.4186 -2.4185 2.4185 0.0 144.00000000000003 0.0 0.0 0.0 0.0 0.0 1000.0 0.0 0.0 0.0 0.0 
0.152 -0.3122413605660117 -1.8398838643711142 -1.646815417309834 0.3451455616460195 1.8831994224131885 -0.00012653432665199018 0.5449290623539436 0.418009119097782 -0.5529349604065278 0.13491898897319557 -0.544929061940936 -2.2295161857574946e-05 300.0 -188.448 400.0 2.4186 -2.4185 2.4185 0.0 152.0 0.0 0.0 0.0 0.0 0.0 1000.0 0.0 0.0 0.0 0.0 
0.16 -0.3077565026206428 -1.8364579606726814 -1.651340487803512 0.34624596461368307 1.8787145645036714 -0.0001263525742686062 0.5763548462571807 0.4385394261028642 -0.5783881226075456 0.13984133338398072 -0.5763548457921754 -2.4294679190623463e-05 300.0 -187.2 400.0 2.4186 -2.4185 2.4185 0.0 160.0 0.0 0.0 0.0 0.0 0.0 1000.0 0.0 0.0 0.0 0.0 
0.168 -0.30301854463861044 -1.8328687546621782 -1.6560669610463343 0.3473846265247662 1.8739766065594021 -0.00012616388351711165 0.6082077710192019 0.45883850278443944 -0.603288772362746 0.1444423614444605 -0.608207770493832 -2.6487857660516773e-05 300.0 -185.888 400.0 2.4186 -2.4185 2.4185 0.0 168.0 0.0 0.0 0.0 0.0 0.0 1000.0 0.0 0.0 0.0 0.0 
0.176 -0.2980239810446621 -1.8291181496872677 -1.6609903128319374 0.3485584974174347 1.8689820430051425 -0.00012596863949456745 0.6405098933720457 0.47889291320327654 -0.6276108378305417 0.14870952095540393 -0.6405098927884428 -2.860469329583153e-05 300.0 -184.512 400.0 2.4186 -2.4185 2.4185 0.0 176.0 0.0 0.0 0.0 0.0 0.0 1000.0 0.0 0.0 0.0 0.0 
0.184 -0.29276912924055476 -1.825208157821983 -1.6661058113391929 0.3497655340433592 1.8637271912426598 -0.00012576725319791098 0.6732834560003189 0.49868894049231094 -0.6513285290885532 0.1526306092703038 -0.6732834553420923 -3.109621221109945e-05 300.0 -183.072 400.0 2.4186 -2.4185 2.4185 0.0 184.0 0.0 0.0 0.0 0.0 0.0 1000.0 0.0 0.0 0.0 0.0 
0.192 -0.28725013007534494 -1.82114090371012 -1.6714085174926454 0.3510025264692396 1.858208192121027 -0.00012556016265761964 0.7065504032026055 0.5182121914831056 -0.6744158697973933 0.15619412140702257 -0.7065504024628924 -3.371385546121748e-05 300.0 -181.56799999999998 400.0 2.4186 -2.4185 2.4185 0.0 192.0 0.0 0.0 0.0 0.0 0.0 1000.0 0.0 0.0 0.0 0.0 
0.2 -0.2814629487023259 -1.8169186289500034 -1.6768932850345926 0.35226668338787626 1.8524210107935486 -0.00012534783415226545 0.7403326505688651 0.5374477676913306 -0.6968469764459463 0.15938905128397635 -0.7403326497363832 -3.654861632625416e-05 300.0 -180.0 400.0 2.4186 -2.4185 2.4185 0.0 200.0 0.0 0.0 0.0 0.0 0.0 0.0 0.0 0.0 0.0 0.0 
0.208 -0.27552254599838033 -1.8126292863554394 -1.6824442127317043 0.3535302400446505 1.8464806081361926 -0.00012513498099465617 0.7447688770968804 0.5350294124386956 -0.6910730082276311 0.15603318905843977 -0.744768876188329 -3.8231162402345234e-05 300.0 -178.4 400.0 2.4186 -2.4185 2.4185 0.0 200.0 0.0 0.0 0.0 0.0 0.0 0.0 0.0 0.0 0.0 0.0 
0.216 -0.26954663732997464 -1.8083593518444092 -1.6879489905482932 0.3547665587328164 1.8405046995144958 -0.00012492602420605722 0.7492090204365014 0.532596095084823 -0.6853093088551695 0.1527026778709743 -0.7492090194671186 -3.954169637864286e-05 300.0 -176.8 400.0 2.4186 -2.4185 2.4185 0.0 200.0 0.0 0.0 0.0 0.0 0.0 0.0 0.0 0.0 0.0 0.0 
0.224 -0.2635351940880277 -1.8041089484903732 -1.6934076978163553 0.35597633766155057 1.83449325631938 -0.00012472101404988222 0.7536522695088245 0.5301468733977559 -0.6795550472492248 0.1493975230130316 -0.7536522684763234 -4.0862377410166707e-05 300.0 -175.2 400.0 2.4186 -2.4185 2.4185 0.0 200.0 0.0 0.0 0.0 0.0 0.0 0.0 0.0 0.0 0.0 0.0 
0.232 -0.25748819523366295 -1.7998782075980744 -1.6988204063984917 0.35716014396890294 1.8284462575119709 -0.00012452000141223118 0.7580977557449371 0.5276807831907324 -0.6738093823725378 0.14611777526419253 -0.758097754632103 -4.247859290340712e-05 300.0 -173.6 400.0 2.4186 -2.4185 2.4185 0.0 200.0 0.0 0.0 0.0 0.0 0.0 0.0 0.0 0.0 0.0 0.0 
0.24 -0.251405627532332 -1.7956672686925625 -1.7041871808587763 0.35831756644431856 1.8223636898577213 -0.0001243230378047431 0.7625443339981449 0.5251966886332537 -0.6680712730123479 0.14286365430391731 -0.7625443328122562 -4.390958751231283e-05 300.0 -172.0 400.0 2.4186 -2.4185 2.4185 0.0 200.0 0.0 0.0 0.0 0.0 0.0 0.0 0.0 0.0 0.0 0.0 
0.248 -0.24528748579077142 -1.7914762795090888 -1.7095080786294286 0.35944920735384445 1.8162455481633688 -0.00012413017536718715 0.7669910849831686 0.522693633901352 -0.6623399272312533 0.13963524524192544 -0.7669910837151126 -4.5466859501205026e-05 300.0 -170.4 400.0 2.4186 -2.4185 2.4185 0.0 200.0 0.0 0.0 0.0 0.0 0.0 0.0 0.0 0.0 0.0 0.0 
0.256 -0.23913377309664785 -1.787305395983624 -1.7147831501735542 0.36055502974213915 1.8100918355165811 -0.0001239414668697774 0.7714368960042086 0.5201705512651006 -0.6566144291110655 0.13643274778167433 -0.7714368946552719 -4.6958676929734855e-05 300.0 -168.8 400.0 2.4186 -2.4185 2.4185 0.0 200.0 0.0 0.0 0.0 0.0 0.0 0.0 0.0 0.0 0.0 0.0 
0.264 -0.23294450106073405 -1.7831547822437537 -1.7200124391441671 0.3616353018013547 1.8039025635281352 -0.00012375696571519595 0.7758807016033167 0.5176264277365145 -0.6508939506537927 0.13325633502326162 -0.7758807001723527 -4.8432261917241394e-05 300.0 -167.2 400.0 2.4186 -2.4185 2.4185 0.0 200.0 0.0 0.0 0.0 0.0 0.0 0.0 0.0 0.0 0.0 0.0 
0.272 -0.2267196900614481 -1.779024610599702 -1.7251959825397276 0.36269044882703483 1.7976777525764478 -0.00012357672594030765 0.7803214477327275 0.5150602788157347 -0.645177717170593 0.1301061778054737 -0.7803214462082095 -5.006024246137798e-05 300.0 -165.6 400.0 2.4186 -2.4185 2.4185 0.0 200.0 0.0 0.0 0.0 0.0 0.0 0.0 0.0 0.0 0.0 0.0 
0.28 -0.22045936949157863 -1.774915061535237 -1.7303338108564024 0.3637204360983337 1.7914174320543115 -0.00012340080221755136 0.7847579273227447 0.512471039815329 -0.6394648705767626 0.12698252858303144 -0.7847579257046285 -5.164686372673026e-05 300.0 -164.0 400.0 2.4186 -2.4185 2.4185 0.0 200.0 0.0 0.0 0.0 0.0 0.0 0.0 0.0 0.0 0.0 0.0 
0.288 -0.2141635780069946 -1.7708263236982074 -1.7354259482372434 0.36472554422100667 1.7851216406175958 -0.00012322924985598902 0.7891889847668834 0.5098577025034936 -0.6337546407575879 0.12388561340515741 -0.7891889830518883 -5.324624253702929e-05 300.0 -162.4 400.0 2.4186 -2.4185 2.4185 0.0 200.0 0.0 0.0 0.0 0.0 0.0 0.0 0.0 0.0 0.0 0.0 
0.296 -0.20783236377713687 -1.766758593890459 -1.7404724126184978 0.3657060047676355 1.7787904264357435 -0.00012306212480199676 0.7936134197652724 0.5072192509628003 -0.6280462643512178 0.12081568243554554 -0.7936134179491787 -5.4872067139942415e-05 300.0 -160.8 400.0 2.4186 -2.4185 2.4185 0.0 200.0 0.0 0.0 0.0 0.0 0.0 0.0 0.0 0.0 0.0 0.0 
0.304 -0.2014657847370671 -1.7627120770568778 -1.7454732158732102 0.3666619548296952 1.772423847443818 -0.00012289948363957928 0.7980299738225264 0.5045546537564439 -0.6223389748223042 0.11777301423230237 -0.798029971905404 -5.645960002568499e-05 300.0 -159.2 400.0 2.4186 -2.4185 2.4185 0.0 200.0 0.0 0.0 0.0 0.0 0.0 0.0 0.0 0.0 0.0 0.0 
0.312 -0.1950639088408379 -1.7586869862733037 -1.750428363952314 0.3675936822512196 1.7660219715958752 -0.00012274138359028947 0.8024373974445026 0.5018629071259488 -0.6166320554475738 0.11475788450928771 -0.8024373954227788 -5.806451038474175e-05 300.0 -157.6 400.0 2.4186 -2.4185 2.4185 0.0 200.0 0.0 0.0 0.0 0.0 0.0 0.0 0.0 0.0 0.0 0.0 
0.32 -0.18862681431592776 -1.7546835427330623 -1.7553378570233777 0.3685014081430098 1.7595848771193927 -0.00012258788251273459 0.8068343904891312 0.4991429969508055 -0.6109247916190622 0.11177059332304015 -0.8068343883591839 -5.96866758615625e-05 300.0 -156.0 400.0 2.4186 -2.4185 2.4185 0.0 200.0 0.0 0.0 0.0 0.0 0.0 0.0 0.0 0.0 0.0 0.0 
0.328 -0.18215458991848532 -1.7507019757318532 -1.7602016896071584 0.3693854413199482 1.7531126527705225 -0.00012243903890164968 0.8112196452134185 0.49639392600992494 -0.60521650383862 0.10881144619057752 -0.8112196429664369 -6.139628972615917e-05 300.0 -154.4 400.0 2.4186 -2.4185 2.4185 0.0 200.0 0.0 0.0 0.0 0.0 0.0 0.0 0.0 0.0 0.0 0.0 
0.336 -0.17564733518908615 -1.7467425226507303 -1.7650198507121342 0.3702458710902581 1.7466053980898408 -0.00012229491188651858 0.8155917587931331 0.4936146604924735 -0.5995064818475705 0.1058807882287184 -0.8155917564283154 -6.308075436340665e-05 300.0 -152.8 400.0 2.4186 -2.4185 2.4185 0.0 200.0 0.0 0.0 0.0 0.0 0.0 0.0 0.0 0.0 0.0 0.0 
0.344 -0.16910516070871617 -1.7428054289369177 -1.7697923239671542 0.371083030133859 1.7400632236583378 -0.00012215556122972313 0.8199493649553264 0.4908042112091233 -0.5937940832225234 0.10297895147723556 -0.8199493624654629 -6.48257816639247e-05 300.0 -151.2 400.0 2.4186 -2.4185 2.4185 0.0 200.0 0.0 0.0 0.0 0.0 0.0 0.0 0.0 0.0 0.0 0.0 
0.352 -0.162528188354659 -1.7388909480821924 -1.7745190877523518 0.3718970150854104 1.7334862513532971 -0.00012202104732419914 0.8242909964269992 0.48796155016717496 -0.5880786312482089 0.10010630678510071 -0.8242909938134242 -6.651900645639573e-05 300.0 -149.6 400.0 2.4186 -2.4185 2.4185 0.0 200.0 0.0 0.0 0.0 0.0 0.0 0.0 0.0 0.0 0.0 0.0 
0.36 -0.15591655155596262 -1.7349993415985647 -1.7792001153284596 0.3726881690606092 1.726874614603769 -0.0001218914311905793 0.8286152247929637 0.4850856950542666 -0.5823595167012243 0.09726321242324155 -0.8286152220500896 -6.825049667107451e-05 300.0 -148.0 400.0 2.4186 -2.4185 2.4185 0.0 200.0 0.0 0.0 0.0 0.0 0.0 0.0 0.0 0.0 0.0 0.0 
0.368 -0.14927039554813581 -1.731130878990992 -1.7838353749646514 0.37345658760110734 1.7202284586452645 -0.00012176677447380148 0.8329205160484651 0.4821756235944864 -0.5766360937968203 0.09445006361364167 -0.8329205131803528 -6.99007602101793e-05 300.0 -146.4 400.0 2.4186 -2.4185 2.4185 0.0 200.0 0.0 0.0 0.0 0.0 0.0 0.0 0.0 0.0 0.0 0.0 
0.376 -0.14258987762671094 -1.727285837726845 -1.7884248300650438 0.37420280954811647 1.7135479407733163 -0.00012164713943916075 0.8372054360156681 0.47923039389452293 -0.5709078239067811 0.09166722651124794 -0.8372054330058097 -7.172064694417347e-05 300.0 -144.8 400.0 2.4186 -2.4185 2.4185 0.0 200.0 0.0 0.0 0.0 0.0 0.0 0.0 0.0 0.0 0.0 0.0 
0.384 -0.13587516739929573 -1.7234645032018665 -1.7929684392939695 0.3749268075580301 1.7068332305955367 -0.00012153258896778423 0.84146834880646 0.4762489698235751 -0.5651740658829181 0.08891513065511261 -0.841468345657064 -7.34815857754496e-05 300.0 -143.2 400.0 2.4186 -2.4185 2.4185 0.0 200.0 0.0 0.0 0.0 0.0 0.0 0.0 0.0 0.0 0.0 0.0 
0.392 -0.12912644703571097 -1.7196671687023342 -1.7974661567001384 0.3756289568692426 1.7000845102817466 -0.00012142318655150544 0.8457077072663712 0.47323038941024614 -0.5594342766871067 0.08619418004036003 -0.8457077039705423 -7.529174372503342e-05 300.0 -141.6 400.0 2.4186 -2.4185 2.4185 0.0 200.0 0.0 0.0 0.0 0.0 0.0 0.0 0.0 0.0 0.0 0.0 
0.4 -0.12234391151580848 -1.715894135363158 -1.8019179318397966 0.37630936589797837 1.6933019748117992 -0.00012131899628711729 0.8499218509476951 0.4701736495558895 -0.5536878733031965 0.0835048107589205 -0.8499218475091606 -7.702970659218808e-05 300.0 -140.0 400.0 2.4186 -2.4185 2.4185 0.0 200.0 0.0 0.0 0.0 0.0 0.0 0.0 0.0 0.0 0.0 0.0 
0.408 -0.11552776887453442 -1.7121457121216355 -1.806323709898984 0.37696855585211875 1.6864858322206462 -0.0001212200828699801 0.8541092156578343 0.46707782364233447 -0.5479343710028988 0.08084743702957745 -0.8541092120599286 -7.892405569470569e-05 300.0 -138.4 400.0 2.4186 -2.4185 2.4185 0.0 200.0 0.0 0.0 0.0 0.0 0.0 0.0 0.0 0.0 0.0 0.0 
0.416 -0.10867824044378738 -1.7084222156665767 -1.81068343181499 0.37760651476903684 1.679636303840184 -0.00012112651158696264 0.8582680404919918 0.46394189948098474 -0.5421731915850967 0.0782225212959045 -0.8582680367387192 -8.074375898514406e-05 300.0 -136.8 400.0 2.4186 -2.4185 2.4185 0.0 200.0 0.0 0.0 0.0 0.0 0.0 0.0 0.0 0.0 0.0 0.0 
0.424 -0.1017955610906176 -1.704723970382534 -1.8149970343970996 0.3782236079633403 1.672753624537467 -0.00012103834830869325 0.8623966512129769 0.46076493638291155 -0.5364038474904458 0.07563050626119797 -0.8623966473003466 -8.257796161442153e-05 300.0 -135.2 400.0 2.4186 -2.4185 2.4185 0.0 200.0 0.0 0.0 0.0 0.0 0.0 0.0 0.0 0.0 0.0 0.0 
0.432 -0.09487997945127713 -1.7010513082888439 -1.8192644504467184 0.3788201112102023 1.6658380429487492 -0.00012095565948109809 0.8664933157954959 0.45754598558321435 -0.5306258472313994 0.07307184876549323 -0.8664933117185682 -8.443617224077464e-05 300.0 -133.6 400.0 2.4186 -2.4185 2.4185 0.0 200.0 0.0 0.0 0.0 0.0 0.0 0.0 0.0 0.0 0.0 0.0 
0.44 -0.08793175816062915 -1.6974045689732047 -1.8234856088769604 0.3793963036910768 1.6588898217088957 -0.00012087851211620367 0.8705562738858943 0.4542841069044478 -0.5248387141311371 0.07054701214081097 -0.8705562696387219 -8.632780833693248e-05 300.0 -132.0 400.0 2.4186 -2.4185 2.4185 0.0 200.0 0.0 0.0 0.0 0.0 0.0 0.0 0.0 0.0 0.0 0.0 
0.448 -0.08095117407640551 -1.6937840995195135 -1.8276604348317802 0.37995240420310905 1.651909237675641 -0.00012080697378218096 0.8745837165686496 0.4509783587068894 -0.5190419738597551 0.06805646833623483 -0.8745837121498318 -8.820617358844768e-05 300.0 -130.4 400.0 2.4186 -2.4185 2.4185 0.0 200.0 0.0 0.0 0.0 0.0 0.0 0.0 0.0 0.0 0.0 0.0 
0.456 -0.07393851849778321 -1.6901902544296843 -1.8317888498047161 0.3804887536215549 1.6448965821481618 -0.00012074111259260798 0.8785738464624455 0.4476278295503796 -0.5132351900483112 0.06560068809679014 -0.878573841864913 -9.012804629860039e-05 300.0 -128.8 400.0 2.4186 -2.4185 2.4185 0.0 200.0 0.0 0.0 0.0 0.0 0.0 0.0 0.0 0.0 0.0 0.0 
0.464 -0.06689409737774099 -1.6866233955391658 -1.8358707717573215 0.38100554174675194 1.6378521610794416 -0.0001206809971949283 0.8825247891934956 0.4442315928327986 -0.5074179110830589 0.06318015278982103 -0.8825247844182276 -9.201411649582403e-05 300.0 -127.19999999999999 400.0 2.4186 -2.4185 2.4185 0.0 200.0 0.0 0.0 0.0 0.0 0.0 0.0 0.0 0.0 0.0 0.0 
0.472 -0.059818231528633525 -1.6830838919258864 -1.8399061152373488 0.38150321063945136 1.630776295281836 -0.000120626696758083 0.8864347275836 0.4407887754930653 -0.5015897478706607 0.06079533737539266 -0.8864347226170312 -9.400442360538995e-05 300.0 -125.6 400.0 2.4186 -2.4185 2.4185 0.0 200.0 0.0 0.0 0.0 0.0 0.0 0.0 0.0 0.0 0.0 0.0 
0.48 -0.05271125682042155 -1.6795721198123585 -1.843894791496742 0.38198181468422465 1.62366932062531 -0.00012057828095929395 0.8903016893182067 0.4372984515783923 -0.49575025127080763 0.05844673194921703 -0.8903016841684791 -9.58921519761237e-05 300.0 -124.0 400.0 2.4186 -2.4185 2.4185 0.0 200.0 0.0 0.0 0.0 0.0 0.0 0.0 0.0 0.0 0.0 0.0 
0.488 -0.04557352437096718 -1.676088462460667 -1.8478367086094996 0.38244184484396615 1.6165315882277251 -0.0001205358199699762 0.8941238239908815 0.43375978106594193 -0.48989906925099425 0.05613481434285214 -0.8941238186473861 -9.785452421585386e-05 300.0 -122.4 400.0 2.4186 -2.4185 2.4185 0.0 200.0 0.0 0.0 0.0 0.0 0.0 0.0 0.0 0.0 0.0 0.0 
0.496 -0.038405400727808514 -1.672633310060079 -1.8517317715894583 0.3828834853768681 1.6093634646366224 -0.00012049938444075824 0.8978991543319853 0.430171886656769 -0.48403580565170173 0.053860071238695136 -0.8978991487947632 -9.979247859411998e-05 300.0 -120.80000000000001 400.0 2.4186 -2.4185 2.4185 0.0 200.0 0.0 0.0 0.0 0.0 0.0 0.0 0.0 0.0 0.0 0.0 
0.504 -0.03120726804079954 -1.669207059607024 -1.855579882508042 0.383307129148978 1.6021653320018585 -0.00012046904548558905 0.901625751917586 0.42653394049954113 -0.4781601174120913 0.05162298438235062 -0.9016257461773826 -0.00010179008933377252 300.0 -119.2 400.0 2.4186 -2.4185 2.4185 0.0 200.0 0.0 0.0 0.0 0.0 0.0 0.0 0.0 0.0 0.0 0.0 
0.512 -0.02397952422500449 -1.6658101147771727 -1.859380940612026 0.3837129766133389 1.5949375882385002 -0.00012044487466491127 0.905301600974857 0.4228450988725172 -0.47227163979029174 0.04942403638460403 -0.9053015950327342 -0.0001037549950217176 300.0 -117.6 400.0 2.4186 -2.4185 2.4185 0.0 200.0 0.0 0.0 0.0 0.0 0.0 0.0 0.0 0.0 0.0 0.0 
0.52 -0.016722583113220724 -1.6624428857893825 -1.8631348424413496 0.3841014529240454 1.5876806471793456 -0.00012042694396788124 0.9089247440879754 0.4191045718329103 -0.4663700633988907 0.047263705388012014 -0.9089247379327804 -0.00010579418050999317 300.0 -116.0 400.0 2.4186 -2.4185 2.4185 0.0 200.0 0.0 0.0 0.0 0.0 0.0 0.0 0.0 0.0 0.0 0.0 
0.528 -0.009436874597498868 -1.6591057892612644 -1.8668414819470163 0.38447275136393966 1.5803949387164498 -0.00012041532579361603 0.9124931244206715 0.4153115495091485 -0.46045505057407465 0.04514246633896771 -0.9124931180534854 -0.00010780119624109661 300.0 -114.39999999999999 400.0 2.4186 -2.4185 2.4185 0.0 200.0 0.0 0.0 0.0 0.0 0.0 0.0 0.0 0.0 0.0 0.0 
0.536 -0.002122844759019582 -1.6557992480561325 -1.8705007506091111 0.3848272563813451 1.5730809089309943 -0.00012041009293144979 0.9160047354731474 0.4114652722683604 -0.4545263124841507 0.04306078927839672 -0.9160047288876592 -0.00010983961041674654 300.0 -112.8 400.0 2.4186 -2.4185 2.4185 0.0 200.0 0.0 0.0 0.0 0.0 0.0 0.0 0.0 0.0 0.0 0.0 
0.544 0.0052190440143145 -1.6525236911211254 -1.874112537554959 0.38516521069834986 1.5657390202108834 -0.00012041131854018212 0.919457505129299 0.4075649777643382 -0.44858354901717457 0.04101913686063727 -0.9194574983275099 -0.00011184020635161043 300.0 -111.19999999999999 400.0 2.4186 -2.4185 2.4185 0.0 200.0 0.0 0.0 0.0 0.0 0.0 0.0 0.0 0.0 0.0 0.0 
0.552 0.01258831292321716 -1.6492795533162725 -1.8776767296774506 0.3854870562787045 1.5583697513554062 -0.00012041907612630171 0.9228494192959479 0.40360995698133967 -0.44262650948096893 0.03901796801435208 -0.9228494122665147 -0.00011391321453548153 300.0 -109.6 400.0 2.4186 -2.4185 2.4185 0.0 200.0 0.0 0.0 0.0 0.0 0.0 0.0 0.0 0.0 0.0 0.0 
0.56 0.01998446666593945 -1.646067275234317 -1.8811932117535517 0.38579300584842446 1.5509735976663153 -0.00012043343952117059 0.9261783694053602 0.39959948675929774 -0.4366549169960202 0.03705772862671755 -0.926178362149613 -0.00011595479658300916 300.0 -107.99999999999999 400.0 2.4186 -2.4185 2.4185 0.0 200.0 0.0 0.0 0.0 0.0 0.0 0.0 0.0 0.0 0.0 0.0 
0.568 0.027406993361419385 -1.6428873030110906 -1.884661866563013 0.3860834634515373 1.5435510710246734 -0.0001204544828571548 0.929442306248098 0.3955328981763236 -0.4306685424138878 0.03513885971038901 -0.9294422987588101 -0.00011803415229431632 300.0 -106.39999999999999 400.0 2.4186 -2.4185 2.4185 0.0 200.0 0.0 0.0 0.0 0.0 0.0 0.0 0.0 0.0 0.0 0.0 
0.576 0.03485536448730375 -1.6397400881262822 -1.888082575007283 0.3863587453201103 1.5361026999528358 -0.00012048228054268894 0.9326391407192821 0.39140953329049966 -0.42466715550944073 0.033261789347421696 -0.9326391329910142 -0.00012013631714413336 300.0 -104.79999999999998 400.0 2.4186 -2.4185 2.4185 0.0 200.0 0.0 0.0 0.0 0.0 0.0 0.0 0.0 0.0 0.0 0.0 
0.584 0.04232903483348727 -1.6366260871944178 -1.8914552162286387 0.38661913127596415 1.5286290296609117 -0.00012051690723626353 0.9357667638515328 0.3872287548200163 -0.4186505344239135 0.03142693129292089 -0.9357667558856277 -0.00012220882953029838 300.0 -103.2 400.0 2.4186 -2.4185 2.4185 0.0 200.0 0.0 0.0 0.0 0.0 0.0 0.0 0.0 0.0 0.0 0.0 
0.592 0.04982744247180926 -1.633545761745921 -1.8947796677295305 0.38686500785153144 1.521130622077062 -0.00012055843781932564 0.9388231023012896 0.38298996963681914 -0.4126184897704291 0.02963469082913594 -0.9388230940934913 -0.00012429569154004654 300.0 -101.60000000000001 400.0 2.4186 -2.4185 2.4185 0.0 200.0 0.0 0.0 0.0 0.0 0.0 0.0 0.0 0.0 0.0 0.0 
0.6 0.057350008742523606 -1.6304995779981188 -1.8980558054921413 0.38709675554425194 1.5136080558610374 -0.00012060694736808494 0.9418060791131007 0.37869261226530276 -0.40657084528084064 0.027885459551543475 -0.9418060706543292 -0.00012643285858091158 300.0 -100.0 400.0 2.4186 -2.4185 2.4185 0.0 200.0 0.0 0.0 0.0 0.0 0.0 0.0 0.0 0.0 0.0 0.0 
0.608 0.06489613825817497 -1.6274880066160753 -1.901283504098146 0.3873146338248492 1.5060619264002937 -0.00012066251112421898 0.944713571959944 0.3743361288188242 -0.4005074193112781 0.02617960559808042 -0.9447135632518989 -0.0001285393219634281 300.0 -98.4 400.0 2.4186 -2.4185 2.4185 0.0 200.0 0.0 0.0 0.0 0.0 0.0 0.0 0.0 0.0 0.0 0.0 
0.616 0.07246521892547375 -1.6245115224631679 -1.9044626368486783 0.38751905218574834 1.498492845788124 -0.00012072520446447377 0.9475435180500801 0.3699200197382083 -0.3944280694103611 0.024517489531526753 -0.9475435090867781 -0.00013067267579147082 300.0 -96.8 400.0 2.4186 -2.4185 2.4185 0.0 200.0 0.0 0.0 0.0 0.0 0.0 0.0 0.0 0.0 0.0 0.0 
0.624 0.08005662198576591 -1.6215706043413283 -1.907593075884468 0.3877103151084116 1.4909014427831844 -0.00012079510286915757 0.9502938197755809 0.3654438022561089 -0.3883326506662272 0.02289944625332814 -0.9502938105571233 -0.00013278855613609118 300.0 -95.2 400.0 2.4186 -2.4185 2.4185 0.0 200.0 0.0 0.0 0.0 0.0 0.0 0.0 0.0 0.0 0.0 0.0 
0.632 0.08766970207466884 -1.6186657347209 -1.9106746923061455 0.3878888422868585 1.483288362749859 -0.00012087228188952772 0.9529624315508961 0.3609070448767154 -0.38222105115815086 0.02132580038739969 -0.9529624220687196 -0.00013494968214733453 300.0 -93.6 400.0 2.4186 -2.4185 2.4185 0.0 200.0 0.0 0.0 0.0 0.0 0.0 0.0 0.0 0.0 0.0 0.0 
0.64 0.09530379730141991 -1.6157973994600785 -1.9137073562946845 0.3880549118643062 1.4756542675789144 -0.0001209568171140729 0.9555472632291484 0.3563093304533354 -0.376093151326292 0.019796843410282327 -0.9555472534851412 -0.00013708138013849075 300.0 -92.0 400.0 2.4186 -2.4185 2.4185 0.0 200.0 0.0 0.0 0.0 0.0 0.0 0.0 0.0 0.0 0.0 0.0 
0.648 0.10295822934847632 -1.6129660875139322 -1.9166909372319627 0.38820895757567264 1.4679998355878938 -0.00012104878413369614 0.9580462980237396 0.3516503014765614 -0.36994887063318355 0.018312858945749837 -0.9580462880096492 -0.0001392556010764864 300.0 -90.39999999999999 400.0 2.4186 -2.4185 2.4185 0.0 200.0 0.0 0.0 0.0 0.0 0.0 0.0 0.0 0.0 0.0 0.0 
0.656 0.11063230359185638 -1.6101722906330198 -1.9196253038213982 0.38835126951344945 1.460325761400783 -0.00012114825850580475 0.9604574784810327 0.34692961747985146 -0.36378812115539294 0.016874092946342758 -0.9604574681983398 -0.00014140439912578917 300.0 -88.8 400.0 2.4186 -2.4185 2.4185 0.0 200.0 0.0 0.0 0.0 0.0 0.0 0.0 0.0 0.0 0.0 0.0 
0.664 0.11832530924270968 -1.6074165030516592 -1.9225103242086383 0.3884822613817376 1.4526327558064327 -0.00012125531571731811 0.9627788140163497 0.34214699527304426 -0.35761084865348913 0.015480779486607199 -0.9627788034594943 -0.00014357690025210246 300.0 -87.19999999999999 400.0 2.4186 -2.4185 2.4185 0.0 200.0 0.0 0.0 0.0 0.0 0.0 0.0 0.0 0.0 0.0 0.0 
0.672 0.1260365195105484 -1.604699221165904 -1.9253458661022596 0.38860226543387566 1.4449215455953366 -0.00012137003114660508 0.9650083029683624 0.33730218061410766 -0.3514170014254935 0.014133117642675384 -0.9650082921363589 -0.00014574196528104266 300.0 -85.6 400.0 2.4186 -2.4185 2.4185 0.0 200.0 0.0 0.0 0.0 0.0 0.0 0.0 0.0 0.0 0.0 0.0 
0.68 0.1337651917885614 -1.6020209432013413 -1.9281317968944327 0.38871167385113536 1.4371928733743045 -0.00012149248002436704 0.9671439914807403 0.3323949697230608 -0.34520655152771357 0.0128312863591063 -0.9671439803688731 -0.00014792504923302508 300.0 -83.99999999999999 400.0 2.4186 -2.4185 2.4185 0.0 200.0 0.0 0.0 0.0 0.0 0.0 0.0 0.0 0.0 0.0 0.0 
0.688 0.14151056786137017 -1.599382168870838 -1.9308679837815128 0.38881082334220274 1.4294474973587188 -0.00012162273739348463 0.9691839303318928 0.3274251943036475 -0.33897947782806065 0.011575428892024005 -0.9691839189399426 -0.000150096357014191 300.0 -82.39999999999999 400.0 2.4186 -2.4185 2.4185 0.0 200.0 0.0 0.0 0.0 0.0 0.0 0.0 0.0 0.0 0.0 0.0 
0.696 0.1492718741355734 -1.5967833990223912 -1.9335542938845003 0.38890011241435496 1.4216861911419834 -0.00012176087806784952 0.9711262250192125 0.322392739117225 -0.3327357829865563 0.010365667108517194 -0.9711262133425534 -0.00015228536014139722 300.0 -80.79999999999998 400.0 2.4186 -2.4185 2.4185 0.0 200.0 0.0 0.0 0.0 0.0 0.0 0.0 0.0 0.0 0.0 0.0 
0.704 0.15704832189336382 -1.5942251352772718 -1.9361905943693252 0.38897990432497576 1.4139097434419075 -0.00012190697659020583 0.9729689996966252 0.31729752975402375 -0.32647547947897676 0.00920208725982025 -0.9729689877314879 -0.0001544863634938197 300.0 -79.2 400.0 2.4186 -2.4185 2.4185 0.0 200.0 0.0 0.0 0.0 0.0 0.0 0.0 0.0 0.0 0.0 0.0 
0.712 0.16483910756946685 -1.591707879658696 -1.9387767525668926 0.38905052553950625 1.4061189578237678 -0.00012206110718902906 0.9747103991990332 0.3121395339384851 -0.3201985897825433 0.008084737211197053 -0.9747103869483267 -0.00015665667682885842 300.0 -77.6 400.0 2.4186 -2.4185 2.4185 0.0 200.0 0.0 0.0 0.0 0.0 0.0 0.0 0.0 0.0 0.0 0.0 
0.72 0.1726434130515988 -1.5892321342112625 -1.9413126360928343 0.38911241359943816 1.3983146523998502 -0.00012222334373447307 0.9763486528029658 0.30691878224422653 -0.3139051664303354 0.0070136494599407975 -0.9763486402592823 -0.0001588628740648261 300.0 -76.0 400.0 2.4186 -2.4185 2.4185 0.0 200.0 0.0 0.0 0.0 0.0 0.0 0.0 0.0 0.0 0.0 0.0 
0.728 0.18046040600459512 -1.5867984006114553 -1.9437981129668993 0.38916587381311984 1.3904976595053218 -0.00012239375969341957 0.9778819774381116 0.30163533707018564 -0.3075952589872116 0.005988800309487484 -0.9778819646041541 -0.00016104084171583214 300.0 -74.39999999999999 400.0 2.4186 -2.4185 2.4185 0.0 200.0 0.0 0.0 0.0 0.0 0.0 0.0 0.0 0.0 0.0 0.0 
0.736 0.18828924021830407 -1.584407179769533 -1.946233051731921 0.38921132144173676 1.3826688253503367 -0.00012257242808366847 0.9793086804402122 0.2962893255019764 -0.3012689465888241 0.00501014936326821 -0.9793086673116278 -0.0001632355632258401 300.0 -72.8 400.0 2.4186 -2.4185 2.4185 0.0 200.0 0.0 0.0 0.0 0.0 0.0 0.0 0.0 0.0 0.0 0.0 
0.744 0.1961290559792881 -1.582058971423151 -1.9486173215722893 0.3892491116519514 1.3748290096483347 -0.0001227594214273085 0.9806270925074089 0.290880918198548 -0.2949263152361842 0.004077609393428236 -0.9806270790821023 -0.0001654329914067517 300.0 -71.19999999999999 400.0 2.4186 -2.4185 2.4185 0.0 200.0 0.0 0.0 0.0 0.0 0.0 0.0 0.0 0.0 0.0 0.0 
0.752 0.2039789804663159 -1.5797542737231205 -1.950950792431855 0.3892796019763818 1.3669790852205488 -0.00012295481170331515 0.9818355965010402 0.2854103385901465 -0.28856746616293794 0.0031910558012419894 -0.9818355827787589 -0.00016762211281753716 300.0 -69.6 400.0 2.4186 -2.4185 2.4185 0.0 200.0 0.0 0.0 0.0 0.0 0.0 0.0 0.0 0.0 0.0 0.0 
0.76 0.21183812816957115 -1.5774935828117194 -1.953233335131193 0.3893031827501048 1.3591199375767982 -0.0001231586702994213 0.9829326434017196 0.2798778674482897 -0.28219251943880586 0.0023503322718836134 -0.9829326293785026 -0.00016982590620201268 300.0 -67.99999999999999 400.0 2.4186 -2.4185 2.4185 0.0 200.0 0.0 0.0 0.0 0.0 0.0 0.0 0.0 0.0 0.0 0.0 
0.768 0.21970560133344086 -1.575277392394018 -1.9554648214841448 0.3893201837197644 1.3512524644726982 -0.00012337106796331417 0.9839167161182228 0.2742838323907249 -0.27580160241863266 0.0015552306905816987 -0.9839167017961564 -0.0001720079716651012 300.0 -66.39999999999999 400.0 2.4186 -2.4185 2.4185 0.0 200.0 0.0 0.0 0.0 0.0 0.0 0.0 0.0 0.0 0.0 0.0 
0.776 0.22758049042268502 -1.573106193302714 -1.9576451244135622 0.3893310148123048 1.343377575443491 -0.00012359207475321293 0.9847863918701097 0.2686286256370934 -0.2693948667554392 0.0008055200933043621 -0.9847863772436887 -0.0001742143468552835 300.0 -64.79999999999998 400.0 2.4186 -2.4185 2.4185 0.0 200.0 0.0 0.0 0.0 0.0 0.0 0.0 0.0 0.0 0.0 0.0 
0.784 0.2354618746117203 -1.570980473057011 -1.9597741180661625 0.3893359907945011 1.3354961913147605 -0.00012382175998788461 0.9855402710707752 0.2629126839337878 -0.2629724673683949 0.0001009077774744597 -0.9855402561425315 -0.00017639722638198544 300.0 -63.19999999999999 400.0 2.4186 -2.4185 2.4185 0.0 200.0 0.0 0.0 0.0 0.0 0.0 0.0 0.0 0.0 0.0 0.0 
0.792 0.24334882229669064 -1.5689007154160877 -1.9618516779264221 0.38933548093644754 1.3276092436903661 -0.00012406019219616166 0.9861770436249438 0.2571365069361578 -0.25653458015786185 -0.000558928559479265 -0.9861770283959228 -0.00017856614594614404 300.0 -61.59999999999998 400.0 2.4186 -2.4185 2.4185 0.0 200.0 0.0 0.0 0.0 0.0 0.0 0.0 0.0 0.0 0.0 0.0 
0.8 0.25124039162992573 -1.56686739992778 -1.963877680929408 0.38932988647001965 1.3197176744179813 -0.00012430743906602552 0.9866954825790808 0.2513006547215333 -0.2500813987463351 -0.001174344826463249 -0.986695467042688 -0.00018076611505211753 300.0 -59.999999999999986 400.0 2.4186 -2.4185 2.4185 0.0 200.0 0.0 0.0 0.0 0.0 0.0 0.0 0.0 0.0 0.0 0.0 
0.808 0.25913563107632376 -1.5648810014730774 -1.9658520055724675 0.3893195007754684 1.3118224350327083 -0.0001245635673933248 0.9870943870411937 0.24540573294038753 -0.2436131190723597 -0.0017457661056127852 -0.9870943712014076 -0.00018293561899299508 300.0 -58.39999999999998 400.0 2.4186 -2.4185 2.4185 0.0 200.0 0.0 0.0 0.0 0.0 0.0 0.0 0.0 0.0 0.0 0.0 
0.816 0.26703357999111876 -1.5629419898071177 -1.9677745320256816 0.38930470503652903 1.3039244861793158 -0.00012482864303020008 0.9873726687202451 0.2394524149365478 -0.23712996087809293 -0.0022736387848770337 -0.9873726525757415 -0.00018510595392595344 300.0 -56.79999999999998 400.0 2.4186 -2.4185 2.4185 0.0 200.0 0.0 0.0 0.0 0.0 0.0 0.0 0.0 0.0 0.0 0.0 
0.824 0.27493326921843697 -1.5610508290973646 -1.9696451422409864 0.3892858283320566 1.2960247970136791 -0.00012510273083329035 0.9875292946769875 0.23344142671670176 -0.23063215226717484 -0.0027584659751696133 -0.987529278229631 -0.00018725915978726602 300.0 -55.199999999999974 400.0 2.4186 -2.4185 2.4185 0.0 200.0 0.0 0.0 0.0 0.0 0.0 0.0 0.0 0.0 0.0 0.0 
0.832 0.28283372170996324 -1.5592079774596854 -1.9714637200598744 0.3892632488064578 1.2881243445841155 -0.00012538589461179818 0.9875633335298655 0.22737355787734634 -0.22411994013643444 -0.0032007809199284818 -0.9875633167751441 -0.00018943185094563847 300.0 -53.59999999999998 400.0 2.4186 -2.4185 2.4185 0.0 200.0 0.0 0.0 0.0 0.0 0.0 0.0 0.0 0.0 0.0 0.0 
0.84 0.29073395316298023 -1.5574138864930918 -1.9732301513195787 0.3892372619013815 1.2802241131933456 -0.0001256781970754953 0.9874739010101272 0.22124964827545052 -0.2175935766971897 -0.00360118370181229 -0.9874738839512632 -0.00019158038728534055 300.0 -52.000000000000014 400.0 2.4186 -2.4185 2.4185 0.0 200.0 0.0 0.0 0.0 0.0 0.0 0.0 0.0 0.0 0.0 0.0 
0.848 0.298632972676971 -1.555669000813909 -1.9749443239576405 0.3892082203546905 1.2723250937418857 -0.00012597969978275138 0.9872602229524216 0.21507060233356 -0.21105333336663493 -0.003960302323486244 -0.9872602055891345 -0.00019372496941974602 300.0 -50.400000000000006 400.0 2.4186 -2.4185 2.4185 0.0 200.0 0.0 0.0 0.0 0.0 0.0 0.0 0.0 0.0 0.0 0.0 
0.856 0.30652978342790127 -1.553973757590192 -1.9766061281147673 0.38917645489153174 1.2644282830537743 -0.00012629046308867167 0.9869216033024122 0.20883738089293274 -0.20449949258434413 -0.004278814764436464 -0.9869215856339203 -0.00019586861878458144 300.0 -48.80000000000001 400.0 2.4186 -2.4185 2.4185 0.0 200.0 0.0 0.0 0.0 0.0 0.0 0.0 0.0 0.0 0.0 0.0 
0.864 0.31442338335925135 -1.5523285860771971 -1.978215456235882 0.389142270089049 1.256534683185532 -0.00012661054609343234 0.9864574244264367 0.2025510008978547 -0.1979323474725085 -0.004557450922646315 -0.9864574064553053 -0.00019799307495423898 300.0 -47.20000000000002 400.0 2.4186 -2.4185 2.4185 0.0 200.0 0.0 0.0 0.0 0.0 0.0 0.0 0.0 0.0 0.0 0.0 
0.872 0.32231276588877655 -1.550733907154777 -1.9797722031692646 0.3891059877451657 1.2486453007194043 -0.00012694000659090317 0.985867168070512 0.19621253918062323 -0.1913522055849961 -0.0047969791244268575 -0.9858671497983563 -0.00020010403700207785 300.0 -45.60000000000002 400.0 2.4186 -2.4185 2.4185 0.0 200.0 0.0 0.0 0.0 0.0 0.0 0.0 0.0 0.0 0.0 0.0 
0.88 0.33019692062993466 -1.549190132867546 -1.9812762662636938 0.3890679488553115 1.2407611460419374 -0.00012727890101764999 0.9851504182236422 0.18982313195317052 -0.1847593885253806 -0.004998204229542967 -0.9851503996462041 -0.00020223384458495356 300.0 -44.0 400.0 2.4186 -2.4185 2.4185 0.0 200.0 0.0 0.0 0.0 0.0 0.0 0.0 0.0 0.0 0.0 0.0 
0.888 0.33807483412684647 -1.547697665968716 -1.9827275454634807 0.3890283971618773 1.2328832326090098 -0.0001276272844024106 0.9843068119100221 0.18338396445591332 -0.17815422210907123 -0.005162006201631603 -0.9843067930344432 -0.00020432059727897072 300.0 -42.400000000000006 400.0 2.4186 -2.4185 2.4185 0.0 200.0 0.0 0.0 0.0 0.0 0.0 0.0 0.0 0.0 0.0 0.0 
0.896 0.3459454906016002 -1.5462568994684918 -1.9841259434013094 0.388987669415261 1.225012576198537 -0.00012798521031613918 0.983336124076414 0.17689628661853601 -0.17153705193646795 -0.005289276461600836 -0.9833361049021444 -0.00020640653109286022 300.0 -40.80000000000001 400.0 2.4186 -2.4185 2.4185 0.0 200.0 0.0 0.0 0.0 0.0 0.0 0.0 0.0 0.0 0.0 0.0 
0.904 0.3538078727126588 -1.5448682161879357 -1.9854713654887748 0.38894605920577163 1.2171501941520568 -0.00012835273082271545 0.98223820947934 0.1703614005982452 -0.16490823168557472 -0.005380962190104327 -0.9822381900048949 -0.00020849675983535595 300.0 -39.20000000000002 400.0 2.4186 -2.4185 2.4185 0.0 200.0 0.0 0.0 0.0 0.0 0.0 0.0 0.0 0.0 0.0 0.0 
0.912 0.3616609623230722 -1.5435319883192222 -1.986763720004533 0.3889038064617589 1.20929710460652 -0.00012872989643041537 0.9810129993012778 0.16378065966651686 -0.15826812258810805 -0.005438071001537979 -0.9810129795332497 -0.00021054828707400887 300.0 -37.599999999999994 400.0 2.4186 -2.4185 2.4185 0.0 200.0 0.0 0.0 0.0 0.0 0.0 0.0 0.0 0.0 0.0 0.0 
0.92 0.36950374127715047 -1.5422485769931997 -1.988002918179964 0.38886122433504267 1.2014543257176196 -0.0001291167560442408 0.9796605579751092 0.15715547686451178 -0.1516171024201182 -0.005461624259171153 -0.9796605379122596 -0.00021260328204655447 300.0 -36.0 400.0 2.4186 -2.4185 2.4185 0.0 200.0 0.0 0.0 0.0 0.0 0.0 0.0 0.0 0.0 0.0 0.0 
0.928 0.3773351921842161 -1.5410183318551933 -1.9891888742822488 0.38881854597002485 1.193622874876033 -0.0001295133569192062 0.9781810168692822 0.1504873124112429 -0.14495555405282806 -0.005452711807182972 -0.9781809965166043 -0.0002146288968322434 300.0 -34.400000000000006 400.0 2.4186 -2.4185 2.4185 0.0 200.0 0.0 0.0 0.0 0.0 0.0 0.0 0.0 0.0 0.0 0.0 
0.936 0.38515429920799793 -1.5398415906499636 -1.9903215056947772 0.38877604965147916 1.1858037679180344 -0.00012991974461467871 0.9765746299987202 0.14377768165411486 -0.13828387394902647 -0.005412444720836421 -0.9765746093567668 -0.0002166489119689863 300.0 -32.80000000000001 400.0 2.4186 -2.4185 2.4185 0.0 200.0 0.0 0.0 0.0 0.0 0.0 0.0 0.0 0.0 0.0 0.0 
0.944 0.3929600488602134 -1.5387186788167497 -1.9914007329947916 0.38873398572543394 1.1779980183319059 -0.00013033596294986994 0.9748417425013582 0.13702814846984687 -0.13160246671642684 -0.005341981321444334 -0.9748417215699277 -0.00021866738742530112 300.0 -31.19999999999999 400.0 2.4186 -2.4185 2.4185 0.0 200.0 0.0 0.0 0.0 0.0 0.0 0.0 0.0 0.0 0.0 0.0 
0.952 0.4007514307968336 -1.5376499090953069 -1.9924264800281748 0.3886925662304672 1.1702066364616797 -0.00013076205396057392 0.9729827864727756 0.13024032351449447 -0.12491174445153745 -0.005242530998742177 -0.9729827652567595 -0.0002206578928868263 300.0 -29.599999999999994 400.0 2.4186 -2.4185 2.4185 0.0 200.0 0.0 0.0 0.0 0.0 0.0 0.0 0.0 0.0 0.0 0.0 
0.96 0.40852743861552376 -1.5366355811438364 -1.993398673981304 0.3886520344322124 1.1624306287096897 -0.00013119805785724762 0.9709983116825341 0.12341586701079824 -0.11821213052115888 -0.005115325039196916 -0.9709982901836587 -0.0002226372111236188 300.0 -28.0 400.0 2.4186 -2.4185 2.4185 0.0 200.0 0.0 0.0 0.0 0.0 0.0 0.0 0.0 0.0 0.0 0.0 
0.968 0.4162870706527022 -1.5356759811697092 -1.9943172454498765 0.38861259631563105 1.1546709967395212 -0.00013164401298452588 0.9688889554903058 0.11655648287960409 -0.11150405513554755 -0.004961642731264455 -0.9688889337126502 -0.00022459336242033155 300.0 -26.400000000000006 400.0 2.4186 -2.4185 2.4185 0.0 200.0 0.0 0.0 0.0 0.0 0.0 0.0 0.0 0.0 0.0 0.0 
0.976 0.42402933077867644 -1.5347713815738349 -1.9951821285046372 0.38857446531545414 1.1469287366808663 -0.00013209995578226377 0.9666554622581633 0.10966391962915598 -0.1047879574943353 -0.0047827915656031795 -0.9666554402045325 -0.0002265331763716672 300.0 -24.799999999999983 400.0 2.4186 -2.4185 2.4185 0.0 200.0 0.0 0.0 0.0 0.0 0.0 0.0 0.0 0.0 0.0 0.0 
0.984 0.43175322918927406 -1.5339220406095433 -1.995993260753918 0.3885378429990505 1.1392048383378972 -0.0001325659207481936 0.9642986744535332 0.10273996732941923 -0.0980642842724254 -0.004580113466751448 -0.9642986521256869 -0.0002284621880372259 300.0 -23.19999999999999 400.0 2.4186 -2.4185 2.4185 0.0 200.0 0.0 0.0 0.0 0.0 0.0 0.0 0.0 0.0 0.0 0.0 
0.992 0.43945778319240825 -1.5331282020567938 -1.9967505834029224 0.3885029164323617 1.131500284402705 -0.0001330419404022846 0.9618195308825899 0.0957864555590899 -0.09133348912754706 -0.004354984354885124 -0.9618195082819728 -0.00023038211047460096 300.0 -21.599999999999994 400.0 2.4186 -2.4185 2.4185 0.0 200.0 0.0 0.0 0.0 0.0 0.0 0.0 0.0 0.0 0.0 0.0 
1.0 0.447142017988003 -1.5323900949125067 -1.997454041309683 0.38846982664239427 1.123816049675364 -0.00013352804525288846 0.9592190521482505 0.08880525013130139 -0.08459603113158065 -0.004108826969339106 -0.9592190292832949 -0.00023225753244160294 300.0 -20.0 400.0 2.4186 -2.4185 2.4185 0.0 200.0 0.0 0.0 0.0 0.0 0.0 0.0 0.0 0.0 0.0 0.0 
1.008 0.45480496743971144 -1.531707933097796 -1.9981035830376144 0.3884387770015687 1.1161531002922234 -0.0001340242637647501 0.9564983868843793 0.08179825553151471 -0.07785237871310702 -0.0038430599253234617 -0.956498363755116 -0.00023413141430851485 300.0 -18.399999999999977 400.0 2.4186 -2.4185 2.4185 0.0 200.0 0.0 0.0 0.0 0.0 0.0 0.0 0.0 0.0 0.0 0.0 
1.016 0.4624456748368815 -1.531081915182817 -1.9986991609046065 0.38840990504741524 1.1085123929639342 -0.00013453062232896172 0.9536587546317399 0.07476740714540879 -0.07110300396463165 -0.0035591535924816616 -0.9536587312411039 -0.0002359890781493086 300.0 -16.799999999999983 400.0 2.4186 -2.4185 2.4185 0.0 200.0 0.0 0.0 0.0 0.0 0.0 0.0 0.0 0.0 0.0 0.0 
1.024 0.47006319364523375 -1.5305122241299371 -1.9992407310285933 0.3883833334604525 1.1008948742247788 -0.00013504714523493132 0.9507014667225068 0.06771467136490532 -0.0643483845204439 -0.0032586056952086944 -0.9507014430770286 -0.00023781255446040387 300.0 -15.199999999999989 400.0 2.4186 -2.4185 2.4185 0.0 200.0 0.0 0.0 0.0 0.0 0.0 0.0 0.0 0.0 0.0 0.0 
1.032 0.4776565882447459 -1.5299990270558725 -1.9997282533695402 0.3883592101057032 1.0933014796947793 -0.00013557385464443527 0.947627941979689 0.06064204434308475 -0.05758900420819253 -0.0029429197880072324 -0.9476279180816285 -0.00023962351864286876 300.0 -13.599999999999994 400.0 2.4186 -2.4185 2.4185 0.0 200.0 0.0 0.0 0.0 0.0 0.0 0.0 0.0 0.0 0.0 0.0 
1.04 0.48522493465326333 -1.5295424750134092 -2.000161691767794 0.3883376426303715 1.0857331333560911 -0.0001361107705678176 0.9444396765665565 0.053551547316147925 -0.05082535051145014 -0.0026136341853455194 -0.9444396524198201 -0.00024141378184460422 300.0 -11.999999999999972 400.0 2.4186 -2.4185 2.4185 0.0 200.0 0.0 0.0 0.0 0.0 0.0 0.0 0.0 0.0 0.0 0.0 
1.048 0.4927673212343955 -1.5291427027932645 -2.000541013978754 0.38831873277303885 1.078190746845105 -0.00013665791084239575 0.9411382568863862 0.04644522523404369 -0.0440579152277349 -0.0022723035664443314 -0.9411382324951683 -0.00024318202444255276 300.0 -10.399999999999977 400.0 2.4186 -2.4185 2.4185 0.0 200.0 0.0 0.0 0.0 0.0 0.0 0.0 0.0 0.0 0.0 0.0 
1.056 0.5002828493882985 -1.5287998287466031 -2.0008661917038117 0.38830257483695085 1.0706752187616648 -0.00013721529111312644 0.9377253567292975 0.03932514401888871 -0.03728719387742897 -0.0019204972902481096 -0.9377253320969889 -0.00024493234224140666 300.0 -8.799999999999983 400.0 2.4186 -2.4185 2.4185 0.0 200.0 0.0 0.0 0.0 0.0 0.0 0.0 0.0 0.0 0.0 0.0 
1.064 0.5077706342239856 -1.5285139546286848 -2.001137200617528 0.38828924142903487 1.063187433996759 -0.00013778292481557978 0.934202728821905 0.0321933876058324 -0.03051368495551505 -0.0015598043443545459 -0.9342027039530348 -0.0002466591491357547 300.0 -7.199999999999989 400.0 2.4186 -2.4185 2.4185 0.0 200.0 0.0 0.0 0.0 0.0 0.0 0.0 0.0 0.0 0.0 0.0 
1.072 0.5152298052118696 -1.5282851654640326 -2.001354020391 0.388278783369834 1.055728263079974 -0.000138360823161265 0.9305722023518717 0.025052055374620987 -0.023737889594134448 -0.001191831427537416 -0.9305721772540718 -0.0002483471830229534 300.0 -5.599999999999966 400.0 2.4186 -2.4185 2.4185 0.0 200.0 0.0 0.0 0.0 0.0 0.0 0.0 0.0 0.0 0.0 0.0 
1.08 0.5226595068152802 -1.5281135294334955 -2.0015166347114097 0.3882712872485121 1.0482985615479814 -0.00013894899512534455 0.92683570473149 0.01790326001791739 -0.016960311667607357 -0.0008181702517872636 -0.9268356794049897 -0.00025003316320672205 300.0 -3.9999999999999716 400.0 2.4186 -2.4185 2.4185 0.0 200.0 0.0 0.0 0.0 0.0 0.0 0.0 0.0 0.0 0.0 0.0 
1.088 0.5300588990997834 -1.527999097783498 -2.0016250312976984 0.3882667649111218 1.0408991693352148 -0.0001395474474367681 0.9229952118151034 0.01074912340421067 -0.01018145604426657 -0.0004404531729982425 -0.9229951862660832 -0.0002516876936103325 300.0 -2.3999999999999773 400.0 2.4186 -2.4185 2.4185 0.0 200.0 0.0 0.0 0.0 0.0 0.0 0.0 0.0 0.0 0.0 0.0 
1.096 0.537427158319173 -1.5279419047577139 -2.0016792019123764 0.388265250571608 1.03353091018788 -0.00014015618457085177 0.9190527862087702 0.0035917749396070023 -0.0034018292071470017 -6.029986992483939e-05 -0.9190527604417232 -0.0002533191701948338 300.0 -0.799999999999983 400.0 2.4186 -2.4185 2.4185 0.0 200.0 0.0 0.0 0.0 0.0 0.0 0.0 0.0 0.0 0.0 0.0 
1.104 0.5447634774770844 -1.5279419675513535 -2.001679142369433 0.38826676179090436 1.026194591102342 -0.00014077520874432043 0.9150105575699632 -0.003566651785596725 0.003378061719944309 0.0003206646437366574 -0.9150105315884708 -0.0002549320950807573 300.0 0.8000000000000398 400.0 2.4186 -2.4185 2.4185 0.0 200.0 0.0 0.0 0.0 0.0 0.0 0.0 0.0 0.0 0.0 0.0 
1.112 0.5520670668632588 -1.5279992862881788 -2.0016248525383435 0.38827128780576725 1.0188910017888608 -0.00014140451991282785 0.9108707145637681 -0.010724021728988732 0.010157709350413092 0.0007008057097229784 -0.9108706883738342 -0.0002565146063676694 300.0 2.400000000000034 400.0 2.4186 -2.4185 2.4185 0.0 200.0 0.0 0.0 0.0 0.0 0.0 0.0 0.0 0.0 0.0 0.0 
1.12 0.5593371545635477 -1.5281138440203146 -2.0015163363441713 0.3882788327721365 1.0116209141615835 -0.00014204411577095895 0.9066355195734911 -0.017878201345433813 0.016936606621777824 0.001078505422853928 -0.9066354931774397 -0.00025808474236986367 300.0 4.000000000000028 400.0 2.4186 -2.4185 2.4185 0.0 200.0 0.0 0.0 0.0 0.0 0.0 0.0 0.0 0.0 0.0 0.0 
1.128 0.5665729869428395 -1.5282856067508523 -2.0013536017637534 0.38828934358799283 1.0043850818556217 -0.00014269399175471527 0.9023072752577854 -0.025027061073919964 0.023714246934286646 0.001452124458371583 -0.9023072486639319 -0.0002596132100782538 300.0 5.600000000000023 400.0 2.4186 -2.4185 2.4185 0.0 200.0 0.0 0.0 0.0 0.0 0.0 0.0 0.0 0.0 0.0 0.0 
1.136 0.5737738291001633 -1.528514523479187 -2.001136660817988 0.38830280677201445 0.9971842397719467 -0.00014335414104647734 0.8978883611616438 -0.03216847886291077 0.030490125302967512 0.001820059215372909 -0.8978883343727875 -0.00026112697438372435 300.0 7.2000000000000455 400.0 2.4186 -2.4185 2.4185 0.0 200.0 0.0 0.0 0.0 0.0 0.0 0.0 0.0 0.0 0.0 0.0 
1.144 0.5809389652953134 -1.5288005262689657 -2.0008655295602256 0.3883191537363522 0.9900191036507642 -0.00014402455458243117 0.8933811909390352 -0.039300342155052244 0.03726373804369977 0.002180690198463747 -0.8933811639616935 -0.0002626078804048155 300.0 8.80000000000004 400.0 2.4186 -2.4185 2.4185 0.0 200.0 0.0 0.0 0.0 0.0 0.0 0.0 0.0 0.0 0.0 0.0 
1.152 0.5880676993464218 -1.529143530338471 -2.0005402280607805 0.38833833838582144 0.9828903696739411 -0.00014470522106243918 0.8887882405619444 -0.04642055162445453 0.04403458416354032 0.0025324289827415324 -0.888788213398602 -0.0002640755475857695 300.0 10.400000000000034 400.0 2.4186 -2.4185 2.4185 0.0 200.0 0.0 0.0 0.0 0.0 0.0 0.0 0.0 0.0 0.0 0.0 
1.16 0.5951593549979891 -1.5295434341731942 -2.000160780387582 0.38836026281306246 0.9757987140969749 -0.00014539612696233193 0.8841120142294002 -0.053527022699651386 0.05080216466234287 0.0028736769877794554 -0.8841119868870843 -0.0002655078519234321 300.0 12.0 400.0 2.4186 -2.4185 2.4185 0.0 200.0 0.0 0.0 0.0 0.0 0.0 0.0 0.0 0.0 0.0 0.0 
1.168 0.6022132762589761 -1.5300001196603028 -1.9997272145829927 0.38838485877233 0.9687447929109075 -0.0001460972565485877 0.8793550736412926 -0.06061768988613512 0.057565984544199436 0.0032028757910516166 -0.8793550461222756 -0.00026692785329298155 300.0 13.599999999999994 400.0 2.4186 -2.4185 2.4185 0.0 200.0 0.0 0.0 0.0 0.0 0.0 0.0 0.0 0.0 0.0 0.0 
1.176 0.609228827710646 -1.5305134522446486 -1.9992395626368222 0.3884119873695424 0.9617292415344727 -0.00014680859189536468 0.8745199937215781 -0.0676905070322082 0.06432555099748358 0.0035184491794969667 -0.8745199660361627 -0.00026829655799694326 300.0 15.199999999999989 400.0 2.4186 -2.4185 2.4185 0.0 200.0 0.0 0.0 0.0 0.0 0.0 0.0 0.0 0.0 0.0 0.0 
1.184 0.6162053947839272 -1.5310832811059063 -1.9986978604555694 0.38844158534964235 0.9547526745367426 -0.00014753011290384094 0.8696094173099933 -0.07474345396346176 0.07108037770151687 0.0038188937945509704 -0.8696093894571504 -0.0002696688552759541 300.0 16.80000000000001 400.0 2.4186 -2.4185 2.4185 0.0 200.0 0.0 0.0 0.0 0.0 0.0 0.0 0.0 0.0 0.0 0.0 
1.192 0.6231423840061645 -1.5317094393563777 -1.9981021478279335 0.388473483903639 0.947815685390372 -0.00014826179732381535 0.864625978967451 -0.0817745337183016 0.07782998021463533 0.004102670787216419 -0.8646259509553593 -0.00027100007205614255 300.0 18.400000000000006 400.0 2.4186 -2.4185 2.4185 0.0 200.0 0.0 0.0 0.0 0.0 0.0 0.0 0.0 0.0 0.0 0.0 
1.2 0.6300392232172063 -1.5323917442589525 -1.9974524683866406 0.38850755922277336 0.9409188462555101 -0.00014900362077751453 0.8595723610257325 -0.08878177959702227 0.08457388078870223 0.004368299700528077 -0.8595723328592288 -0.000272306337840034 300.0 20.0 400.0 2.4186 -2.4185 2.4185 0.0 200.0 0.0 0.0 0.0 0.0 0.0 0.0 0.0 0.0 0.0 0.0 
1.208 0.6368953617548582 -1.5331299974646582 -1.9967488695666282 0.3885436572321854 0.9340627077943521 -0.00014975555678554785 0.8544512597758798 -0.09576325520519693 0.09131160655919499 0.004614314193060183 -0.8544512314605162 -0.0002735841282184618 300.0 21.599999999999994 400.0 2.4186 -2.4185 2.4185 0.0 200.0 0.0 0.0 0.0 0.0 0.0 0.0 0.0 0.0 0.0 0.0 
1.216 0.643710270609825 -1.533923985269193 -1.9959914025596466 0.38858162754079606 0.9272477990161911 -0.0001505175767949458 0.849265394892349 -0.10271705806326205 0.09804269121025455 0.004839284983932835 -0.8492653664310277 -0.000274846174615576 300.0 23.19999999999999 400.0 2.4186 -2.4185 2.4185 0.0 200.0 0.0 0.0 0.0 0.0 0.0 0.0 0.0 0.0 0.0 0.0 
1.224 0.6504834425503359 -1.5347734788877925 -1.995180122265328 0.3886212780636158 0.9204746271527982 -0.00015128965020921398 0.8440174880266154 -0.10964131983454187 0.1047666734779018 0.005041792684034961 -0.844017459426252 -0.00027607301187645896 300.0 24.80000000000001 400.0 2.4186 -2.4185 2.4185 0.0 200.0 0.0 0.0 0.0 0.0 0.0 0.0 0.0 0.0 0.0 0.0 
1.232 0.6572143922167311 -1.535678234747727 -1.9943150872387903 0.38866242935345374 0.9137436775638322 -0.00015207174442033014 0.8387102800077154 -0.11653421086161252 0.11148309985343742 0.005220463868801018 -0.8387102512740052 -0.0002772704577938357 300.0 26.400000000000006 400.0 2.4186 -2.4185 2.4185 0.0 200.0 0.0 0.0 0.0 0.0 0.0 0.0 0.0 0.0 0.0 0.0 
1.24 0.6639026561863665 -1.5366379947977133 -1.9933963596348336 0.3887049000766645 0.9070554136719348 -0.00015286382484260713 0.8333465212619977 -0.12339394177621543 0.11819152457098554 0.00537396366079458 -0.8333464923974423 -0.00027845383641093195 300.0 28.0 400.0 2.4186 -2.4185 2.4185 0.0 200.0 0.0 0.0 0.0 0.0 0.0 0.0 0.0 0.0 0.0 0.0 
1.248 0.670547793009258 -1.537652486833464 -1.9924240051488042 0.38874846360687054 0.9004102769270889 -0.00015366585494834222 0.8279289517457914 -0.1302187630426801 0.12489150769112148 0.00550096872115157 -0.8279289227573065 -0.0002796017627967499 300.0 29.600000000000023 400.0 2.4186 -2.4185 2.4185 0.0 200.0 0.0 0.0 0.0 0.0 0.0 0.0 0.0 0.0 0.0 0.0 
1.256 0.6771493832149672 -1.5387214248385839 -1.991398092954192 0.38879291584187126 0.8938086867997337 -0.00015447779630516908 0.8224603229089611 -0.13700697046344368 0.13158261899655996 0.005600212700749691 -0.8224602938006617 -0.0002807276536761859 300.0 31.200000000000017 400.0 2.4186 -2.4185 2.4185 0.0 200.0 0.0 0.0 0.0 0.0 0.0 0.0 0.0 0.0 0.0 0.0 
1.264 0.6837070292912935 -1.5398445093399866 -1.9903186956370407 0.3888380266740121 0.8872510408020667 -0.0001552996086150253 0.8169433757868497 -0.14375690428187077 0.13826443583208103 0.0056704557661872695 -0.8169433465635482 -0.00028182804926644127 300.0 32.80000000000001 400.0 2.4186 -2.4185 2.4185 0.0 200.0 0.0 0.0 0.0 0.0 0.0 0.0 0.0 0.0 0.0 0.0 
1.272 0.6902203556353936 -1.541021427776986 -1.989185889127248 0.3888835572613585 0.8807377145369306 -0.00015613124975464725 0.8113808440172652 -0.15046695174517 0.14493654435934017 0.005710496916131449 -0.8113808146842433 -0.0002829005865944702 300.0 34.400000000000006 400.0 2.4186 -2.4185 2.4185 0.0 200.0 0.0 0.0 0.0 0.0 0.0 0.0 0.0 0.0 0.0 0.0 
1.28 0.6966890084780228 -1.5422518548831845 -1.9879997526268365 0.38892927151707357 0.8742690617735696 -0.00015697267581750028 0.8057754545498234 -0.1571355494510952 0.15159854070554873 0.005719182739571942 -0.8057754251101714 -0.000283955737911583 300.0 36.0 400.0 2.4186 -2.4185 2.4185 0.0 200.0 0.0 0.0 0.0 0.0 0.0 0.0 0.0 0.0 0.0 0.0 
1.288 0.7031126557816324 -1.543535453080283 -1.9867603685352746 0.38897490438216886 0.8678454145495286 -0.00015782384115705145 0.8001299127605898 -0.16376118261063874 0.158250029230404 0.005695386932383525 -0.8001298832195346 -0.00028498309546125 300.0 37.60000000000002 400.0 2.4186 -2.4185 2.4185 0.0 200.0 0.0 0.0 0.0 0.0 0.0 0.0 0.0 0.0 0.0 0.0 
1.296 0.7094909871131196 -1.544871872882894 -1.9854678223719444 0.3890201882327806 0.8614670832979113 -0.000158684698431289 0.794446908902674 -0.1703423880661876 0.16489062451565747 0.005638028709492958 -0.7944468792662107 -0.0002859788488972104 300.0 39.20000000000002 400.0 2.4186 -2.4185 2.4185 0.0 200.0 0.0 0.0 0.0 0.0 0.0 0.0 0.0 0.0 0.0 0.0 
1.304 0.7158237134920695 -1.5462607533134616 -1.9841222026958345 0.389064849909758 0.8551343569991301 -0.00015955519864839388 0.7887291138383793 -0.17687775532590583 0.17151995154269267 0.005546071525983403 -0.7887290841126287 -0.00028694227978052936 300.0 40.80000000000001 400.0 2.4186 -2.4185 2.4185 0.0 200.0 0.0 0.0 0.0 0.0 0.0 0.0 0.0 0.0 0.0 0.0 
1.312 0.7221105672153669 -1.5477017223263536 -1.9827236010225522 0.38910862630851084 0.8488475033562985 -0.00016043529121346516 0.7829791814130546 -0.1833659289374332 0.1781376472734952 0.005418534442443958 -0.7829791516003326 -0.0002878916461487228 300.0 42.400000000000034 400.0 2.4186 -2.4185 2.4185 0.0 200.0 0.0 0.0 0.0 0.0 0.0 0.0 0.0 0.0 0.0 0.0 
1.32 0.7283513016591001 -1.5491943972402122 -1.9812721117387473 0.3891512200763416 0.8426067689933259 -0.00016132492397620275 0.7771997299602593 -0.1898056059473983 0.1847433575540926 0.005254462060338788 -0.7771997000648172 -0.00028881750594883884 300.0 44.00000000000003 400.0 2.4186 -2.4185 2.4185 0.0 200.0 0.0 0.0 0.0 0.0 0.0 0.0 0.0 0.0 0.0 0.0 
1.328 0.7345456910587096 -1.5507383851776289 -1.9797678320140424 0.38919232981945084 0.8364123796747726 -0.00016222404327944915 0.7713933502844139 -0.19619553899343772 0.191336739585258 0.005052945460654332 -0.7713933203116924 -0.00028971400513634035 300.0 45.60000000000002 400.0 2.4186 -2.4185 2.4185 0.0 200.0 0.0 0.0 0.0 0.0 0.0 0.0 0.0 0.0 0.0 0.0 
1.336 0.7406935302683624 -1.552333283511226 -1.9782108617105618 0.38923165631095413 0.8302645405464675 -0.00016313259400849376 0.765562605056968 -0.2025345376187464 0.19791746277750977 0.004813126826343055 -0.7655625750116036 -0.0002905849186722165 300.0 47.20000000000002 400.0 2.4186 -2.4185 2.4185 0.0 200.0 0.0 0.0 0.0 0.0 0.0 0.0 0.0 0.0 0.0 0.0 
1.344 0.7467946345005576 -1.5539786803152293 -1.9766013032901553 0.38926889954010324 0.824163436395911 -0.00016405051964104138 0.759710025148198 -0.20882146871757512 0.2044852088605746 0.004534197606107491 -0.759709995032762 -0.00029144012893544036 300.0 48.80000000000001 400.0 2.4186 -2.4185 2.4185 0.0 200.0 0.0 0.0 0.0 0.0 0.0 0.0 0.0 0.0 0.0 0.0 
1.352 0.752848839046995 -1.5556741548216109 -1.9749392617194181 0.38930372543556757 0.8181092319314005 -0.00016497776229775038 0.7538380960727216 -0.2150552539404701 0.2110396691012675 0.004215375035038456 -0.753838065893655 -0.0002922608108035606 300.0 50.400000000000034 400.0 2.4186 -2.4185 2.4185 0.0 200.0 0.0 0.0 0.0 0.0 0.0 0.0 0.0 0.0 0.0 0.0 
1.36 0.7588559989817398 -1.5574192778799198 -1.9732248443725984 0.38933583377196057 0.8121020720788698 -0.00016591426279324368 0.74794927852352 -0.2212348763101762 0.21758055065494247 0.0038559498729675533 -0.7479492482826161 -0.00029306935798351585 300.0 52.00000000000003 400.0 2.4186 -2.4185 2.4185 0.0 200.0 0.0 0.0 0.0 0.0 0.0 0.0 0.0 0.0 0.0 0.0 
1.368 0.7648159888477534 -1.5592136124199063 -1.9714581609324948 0.38936487688496113 0.8061420822953548 -0.0001668599606875006 0.7420459791066745 -0.22735937287938893 0.22410756930879078 0.003455228776328157 -0.7420459488100011 -0.0002938449637910139 300.0 53.60000000000002 400.0 2.4186 -2.4185 2.4185 0.0 200.0 0.0 0.0 0.0 0.0 0.0 0.0 0.0 0.0 0.0 0.0 
1.376 0.7707287023278351 -1.5610567139160736 -1.9696393232894378 0.3893905353666871 0.8002293688980548 -0.00016781479433753573 0.7361305734387565 -0.2334278420907746 0.23062045677053758 0.0030125876122991803 -0.7361305430895184 -0.00029460139852043634 300.0 55.200000000000045 400.0 2.4186 -2.4185 2.4185 0.0 200.0 0.0 0.0 0.0 0.0 0.0 0.0 0.0 0.0 0.0 0.0 
1.384 0.7765940519010566 -1.562948130853313 -1.9677684454384572 0.38941246371360316 0.7943640194078966 -0.0001687787009492756 0.7302053863868979 -0.2394394385520167 0.23711895566005198 0.0025274324557526587 -0.7302053559899393 -0.00029533060628007015 300.0 56.80000000000004 400.0 2.4186 -2.4185 2.4185 0.0 200.0 0.0 0.0 0.0 0.0 0.0 0.0 0.0 0.0 0.0 0.0 
1.392 0.7824119684857482 -1.5648874051927881 -1.965845643374731 0.38943032625109075 0.7885461029065476 -0.00016975161662954492 0.7242727020344053 -0.24539337656045157 0.243602823218225 0.0019992247231849997 -0.7242726715931719 -0.00029603927602737376 300.0 58.400000000000034 400.0 2.4186 -2.4185 2.4185 0.0 200.0 0.0 0.0 0.0 0.0 0.0 0.0 0.0 0.0 0.0 0.0 
1.4 0.7881824010701004 -1.5668740728372734 -1.9638710349874124 0.3894437734033167 0.7827756704058146 -0.0001707334764380757 0.7183347544357542 -0.25128892752476895 0.25007182906866693 0.0014274636152905192 -0.7183347239543476 -0.0002967241254825426 300.0 60.00000000000003 400.0 2.4186 -2.4185 2.4185 0.0 200.0 0.0 0.0 0.0 0.0 0.0 0.0 0.0 0.0 0.0 0.0 
1.408 0.7939053163314385 -1.5689076640951596 -1.9618447399519288 0.3894524600333842 0.7770527552283724 -0.00017172421443945688 0.7123937319853555 -0.2571254216408278 0.2565257572788331 0.000811698642178712 -0.7123937014668013 -0.00029739029606424346 300.0 61.599999999999994 400.0 2.4186 -2.4185 2.4185 0.0 200.0 0.0 0.0 0.0 0.0 0.0 0.0 0.0 0.0 0.0 0.0 
1.416 0.7995806982452182 -1.5709877041423774 -1.9597668796208556 0.3894560264715665 0.7713773733987607 -0.00017272376375494292 0.7064517701538076 -0.26290224548314933 0.26296440443780283 0.0001515151875559888 -0.7064517396023712 -0.00029803166085032583 300.0 63.19999999999999 400.0 2.4186 -2.4185 2.4185 0.0 200.0 0.0 0.0 0.0 0.0 0.0 0.0 0.0 0.0 0.0 0.0 
1.424 0.8052085476847692 -1.5731137134815187 -1.957637576913452 0.3894541164694689 0.7657495240436478 -0.00017373205661404406 0.7005109559023819 -0.2686188435252309 0.26938758172565347 -0.0005534533308940648 -0.7005109253221955 -0.0002986487656076824 300.0 64.79999999999998 400.0 2.4186 -2.4185 2.4185 0.0 200.0 0.0 0.0 0.0 0.0 0.0 0.0 0.0 0.0 0.0 0.0 
1.432 0.8107888820128093 -1.575285208397459 -1.9554569562039503 0.38944637442451113 0.7601691898003158 -0.00017474902440582288 0.6945733256748446 -0.2742747173640655 0.27579511477411633 -0.0013035283071459922 -0.6945732950692055 -0.0002992455981870388 300.0 66.4 400.0 2.4186 -2.4185 2.4185 0.0 200.0 0.0 0.0 0.0 0.0 0.0 0.0 0.0 0.0 0.0 0.0 
1.44 0.816321734665725 -1.5775017014088153 -1.9532251432087002 0.3894324466074144 0.7546363372323738 -0.00017577459772982586 0.6886408647600633 -0.27986942530134257 0.2821868439535448 -0.002098985971224991 -0.6886408341305605 -0.0002998304348532624 300.0 68.0 400.0 2.4186 -2.4185 2.4185 0.0 200.0 0.0 0.0 0.0 0.0 0.0 0.0 0.0 0.0 0.0 0.0 
1.448 0.8218071547315915 -1.5797627017146183 -1.950942264872243 0.3894119512248486 0.7491509172517465 -0.000176808706446581 0.682715497655237 -0.2854025780558551 0.28856262081159567 -0.0029400803068951927 -0.6827154670070913 -0.00030038542891121386 300.0 69.6 400.0 2.4186 -2.4185 2.4185 0.0 200.0 0.0 0.0 0.0 0.0 0.0 0.0 0.0 0.0 0.0 0.0 
1.456 0.8272452065228921 -1.5820677156355933 -1.948608449252415 0.38938453096961334 0.7437128655459473 -0.00017785127972759615 0.6767991029776643 -0.2908738442653355 0.29492231445406947 -0.0038270057234862423 -0.6767990723143191 -0.00030091918729012684 300.0 71.19999999999999 400.0 2.4186 -2.4185 2.4185 0.0 200.0 0.0 0.0 0.0 0.0 0.0 0.0 0.0 0.0 0.0 0.0 
1.464 0.8326359691448566 -1.584416247049485 -1.9462238254045618 0.38934982252747075 0.7383221030097432 -0.00017890224610479652 0.6708935037396202 -0.2962829460917387 0.30126580801169767 -0.004759920419088419 -0.6708934730636942 -0.00030143568299413446 300.0 72.80000000000001 400.0 2.4186 -2.4185 2.4185 0.0 200.0 0.0 0.0 0.0 0.0 0.0 0.0 0.0 0.0 0.0 0.0 
1.472 0.8379795360603225 -1.5868077978199064 -1.943788523264941 0.38930745801984235 0.7329785361802968 -0.00017996153351934195 0.6650004673641967 -0.30162965847617956 0.3075929988282245 -0.005738946520101351 -0.6650004366781883 -0.00030193544134956706 300.0 74.4 400.0 2.4186 -2.4185 2.4185 0.0 200.0 0.0 0.0 0.0 0.0 0.0 0.0 0.0 0.0 0.0 0.0 
1.48 0.8432760146519938 -1.5892418682182061 -1.9413026735334051 0.3892570587600328 0.7276820576749014 -0.0001810290693697707 0.6591217036443989 -0.3069138073541066 0.3139037976360697 -0.006764175914806679 -0.6591216729526955 -0.0003024090987807543 300.0 76.0 400.0 2.4186 -2.4185 2.4185 0.0 200.0 0.0 0.0 0.0 0.0 0.0 0.0 0.0 0.0 0.0 0.0 
1.488 0.8485255257829285 -1.591717957337897 -1.9387664075554316 0.38919826281799375 0.7224325466304939 -0.00018210478055941622 0.6532588722505405 -0.3121352721923198 0.32019813220279275 -0.007835651211126728 -0.6532588415559212 -0.000302864494778362 300.0 77.60000000000002 400.0 2.4186 -2.4185 2.4185 0.0 200.0 0.0 0.0 0.0 0.0 0.0 0.0 0.0 0.0 0.0 0.0 
1.496 0.8537282033560705 -1.5942355635012238 -1.9361798572035835 0.38913070687280205 0.7172298691441302 -0.00018318859354304903 0.6474135773557597 -0.31729398268092607 0.326475945061941 -0.008953380356383841 -0.6474135466596506 -0.00030330825379555653 300.0 79.19999999999999 400.0 2.4186 -2.4185 2.4185 0.0 200.0 0.0 0.0 0.0 0.0 0.0 0.0 0.0 0.0 0.0 0.0 
1.504 0.8588841938736018 -1.5967941846574725 -1.9335431547584694 0.3890540090377441 0.7120738787136272 -0.00018428043437270156 0.6415873629868699 -0.3223899153089711 0.3327371911213488 -0.010117350659543497 -0.6415873322930584 -0.00030372865898617424 300.0 80.80000000000001 400.0 2.4186 -2.4185 2.4185 0.0 200.0 0.0 0.0 0.0 0.0 0.0 0.0 0.0 0.0 0.0 0.0 
1.512 0.8639936559968534 -1.5993933187726728 -1.9308564327892712 0.3889677995213734 0.70696441667765 -0.00018538022874263092 0.6357817215170135 -0.3274230962604328 0.3389818418141235 -0.011327507518107897 -0.6357816908292756 -0.0003041256875444435 300.0 82.40000000000003 400.0 2.4186 -2.4185 2.4185 0.0 200.0 0.0 0.0 0.0 0.0 0.0 0.0 0.0 0.0 0.0 0.0 
1.52 0.8690567601074864 -1.6020324642103578 -1.9281198240339124 0.38887172458018404 0.7019013126545354 -0.0001864879020333855 0.629998094642173 -0.3323936008904754 0.3452098858005976 -0.012583752832832034 -0.6299980639612277 -0.00030451443347484725 300.0 84.0 400.0 2.4186 -2.4185 2.4185 0.0 200.0 0.0 0.0 0.0 0.0 0.0 0.0 0.0 0.0 0.0 0.0 
1.528 0.8740736878706172 -1.6047111201031141 -1.9253334612789208 0.3887654005460657 0.6968843849791642 -0.00018760337935493833 0.6242378614356043 -0.33730154621334246 0.3514213224202796 -0.013885980394001136 -0.6242378307651855 -0.0003048799015836965 300.0 85.60000000000002 400.0 2.4186 -2.4185 2.4185 0.0 200.0 0.0 0.0 0.0 0.0 0.0 0.0 0.0 0.0 0.0 0.0 
1.536 0.8790446318005212 -1.6074287867146402 -1.922497477239054 0.38864846521496377 0.6919134411372606 -0.00018872658558885828 0.6185023522958293 -0.3421470966912291 0.3576161689635931 -0.015234039294112017 -0.6185023216386543 -0.0003052270790057321 300.0 87.19999999999999 400.0 2.4186 -2.4185 2.4185 0.0 200.0 0.0 0.0 0.0 0.0 0.0 0.0 0.0 0.0 0.0 0.0 
1.544 0.883969794829526 -1.610184965792114 -1.9196120044367415 0.3885205567933194 0.6869882781964927 -0.00018985744542949026 0.6127928436724687 -0.3469304601266602 0.3637944577113497 -0.016627750907091093 -0.612792813030426 -0.00030556004413599816 300.0 88.80000000000001 400.0 2.4186 -2.4185 2.4185 0.0 200.0 0.0 0.0 0.0 0.0 0.0 0.0 0.0 0.0 0.0 0.0 
1.552 0.8888493898806535 -1.612979160908663 -1.916677175081392 0.3883813111574783 0.6821086832338359 -0.00019099588342411962 0.6071105578450442 -0.3516518859786131 0.3699562354868226 -0.018066912345961656 -0.607110527219951 -0.00030587912599817734 300.0 90.40000000000003 400.0 2.4186 -2.4185 2.4185 0.0 200.0 0.0 0.0 0.0 0.0 0.0 0.0 0.0 0.0 0.0 0.0 
1.56 0.89368363944455 -1.615810877795782 -1.913693120948625 0.3882303592852747 0.6772744337586444 -0.00019214182401210072 0.601456662867084 -0.3563116636624268 0.3761015631946786 -0.019551299793012684 -0.6014566322619573 -0.000306178296722283 300.0 92.0 400.0 2.4186 -2.4185 2.4185 0.0 200.0 0.0 0.0 0.0 0.0 0.0 0.0 0.0 0.0 0.0 0.0 
1.568 0.8984727751612036 -1.6186796246655715 -1.9106599732594616 0.3880673451169663 0.6724852981309246 -0.00019329519156293014 0.5958322775935718 -0.3609101238233119 0.38223051851358625 -0.021080656714630438 -0.5958322470104961 -0.0003064621729214626 300.0 93.60000000000002 400.0 2.4186 -2.4185 2.4185 0.0 200.0 0.0 0.0 0.0 0.0 0.0 0.0 0.0 0.0 0.0 0.0 
1.576 0.9032170374069053 -1.6215849125226875 -1.9075778625595268 0.3878919088259454 0.6677410359743843 -0.00019445591041324887 0.5902384681280065 -0.3654476346087053 0.3883431933278837 -0.0226547076691637 -0.5902384375692694 -0.00030672970452464777 300.0 95.20000000000005 400.0 2.4186 -2.4185 2.4185 0.0 200.0 0.0 0.0 0.0 0.0 0.0 0.0 0.0 0.0 0.0 0.0 
1.584 0.9079166748868936 -1.6245262554659394 -1.9044469185982944 0.3877036976258772 0.6630413985837825 -0.00019562390490276228 0.5846762511686315 -0.36992460192203874 0.39443969536159834 -0.02427315173970872 -0.5846762206358231 -0.00030698436609593585 300.0 96.80000000000001 400.0 2.4186 -2.4185 2.4185 0.0 200.0 0.0 0.0 0.0 0.0 0.0 0.0 0.0 0.0 0.0 0.0 
1.592 0.912571944234073 -1.6275031709794858 -1.901267270208411 0.38750235279582745 0.6583861293262143 -0.00019679909940906694 0.5791465916423181 -0.37434146616457015 0.40052014608381636 -0.025935673538697107 -0.5791465611379237 -0.00030722163324903377 300.0 98.40000000000003 400.0 2.4186 -2.4185 2.4185 0.0 200.0 0.0 0.0 0.0 0.0 0.0 0.0 0.0 0.0 0.0 0.0 
1.6 0.9171831096141703 -1.6305151802136009 -1.8980390451851343 0.3872875269398153 0.6537749640359487 -0.00019798141838137657 0.5736504076085739 -0.37869870348395845 0.40658468341329523 -0.02764193186293024 -0.5736503771343292 -0.00030744525295472937 300.0 100.0 400.0 2.4186 -2.4185 2.4185 0.0 200.0 0.0 0.0 0.0 0.0 0.0 0.0 0.0 0.0 0.0 0.0 
1.608 0.9217504423376665 -1.633561808255037 -1.894762370165905 0.3870588742347798 0.6492076314025012 -0.00019917078637314412 0.568188568735994 -0.382996823006567 0.41263346014153385 -0.02939156829823995 -0.5681885382931234 -0.00030765779019591063 300.0 101.60000000000002 400.0 2.4186 -2.4185 2.4185 0.0 200.0 0.0 0.0 0.0 0.0 0.0 0.0 0.0 0.0 0.0 0.0 
1.616 0.9262742204787959 -1.6366425843869863 -1.8914373705100807 0.3868160444303139 0.6446838533516367 -0.00020036712807357552 0.5627618958416001 -0.38723636458365324 0.41866664287160715 -0.03118421301087288 -0.5627618654321871 -0.00030785489689236526 300.0 103.20000000000005 400.0 2.4186 -2.4185 2.4185 0.0 200.0 0.0 0.0 0.0 0.0 0.0 0.0 0.0 0.0 0.0 0.0 
1.624 0.9307547285018928 -1.6397570423387147 -1.8880641701788474 0.38655869630056516 0.6402033454190201 -0.00020157036833803654 0.5573711648912253 -0.39141789953640116 0.42468441418220476 -0.03301947619059584 -0.5573711345170931 -0.0003080378683822826 300.0 104.80000000000001 400.0 2.4186 -2.4185 2.4185 0.0 200.0 0.0 0.0 0.0 0.0 0.0 0.0 0.0 0.0 0.0 0.0 
1.632 0.9351922568953221 -1.642904720524927 -1.8846428916153288 0.38628648817622513 0.6357658171162808 -0.00020278043221735498 0.5520171057722917 -0.395542027908421 0.4306869710175223 -0.03489695636605465 -0.5520170754356695 -0.0003082046277460932 300.0 106.40000000000003 400.0 2.4186 -2.4185 2.4185 0.0 200.0 0.0 0.0 0.0 0.0 0.0 0.0 0.0 0.0 0.0 0.0 
1.64 0.9395871018132054 -1.6460851622749653 -1.8811736556248946 0.3859990941197189 0.6313709722892986 -0.00020399724498601995 0.5467004068058919 -0.3996093797173739 0.4366745274036932 -0.03681622985129327 -0.5467003765071385 -0.0003083646695713721 300.0 108.00000000000006 400.0 2.4186 -2.4185 2.4185 0.0 200.0 0.0 0.0 0.0 0.0 0.0 0.0 0.0 0.0 0.0 0.0 
1.648 0.9439395647251333 -1.649297916051942 -1.877656581255685 0.3856961662155869 0.6270185094684759 -0.00020522073216928854 0.5414217075120109 -0.403620607762854 0.4426473079354425 -0.03877687970564989 -0.5414216772542444 -0.0003085039517070968 300.0 109.60000000000002 400.0 2.4186 -2.4185 2.4185 0.0 200.0 0.0 0.0 0.0 0.0 0.0 0.0 0.0 0.0 0.0 0.0 
1.656 0.9482499520740204 -1.6525425356619534 -1.8740917856793444 0.38537739461756737 0.6227081222109 -0.00020645081956920263 0.5361816126160147 -0.4075763958488603 0.44860555809032354 -0.04077845299189409 -0.5361815823988223 -0.00030864045877647736 300.0 111.20000000000005 400.0 2.4186 -2.4185 2.4185 0.0 200.0 0.0 0.0 0.0 0.0 0.0 0.0 0.0 0.0 0.0 0.0 
1.664 0.9525185749422383 -1.6558185804535017 -1.8704793840719742 0.3850424326786648 0.6184394994341955 -0.00020768743328952987 0.5309806770396469 -0.4114774456908354 0.4545495311717095 -0.04282051683361604 -0.5309806468663864 -0.00030875495156036756 300.0 112.80000000000001 400.0 2.4186 -2.4185 2.4185 0.0 200.0 0.0 0.0 0.0 0.0 0.0 0.0 0.0 0.0 0.0 0.0 
1.672 0.9567457487261383 -1.659125615507299 -1.8668194894952854 0.38469097789526563 0.6142123257420079 -0.00020893049975963753 0.5258194240864198 -0.4153244886061519 0.4604795024554207 -0.044902600453370516 -0.5258193939569199 -0.00030886546270465277 300.0 114.39999999999998 400.0 2.4186 -2.4185 2.4185 0.0 200.0 0.0 0.0 0.0 0.0 0.0 0.0 0.0 0.0 0.0 0.0 
1.68 0.9609317928190488 -1.6624632118166307 -1.8631122127779518 0.38432270397629376 0.6100262817410085 -0.00021017994575731172 0.5206983322034565 -0.41911827348019604 0.46639575719158366 -0.047024245988650126 -0.5206983021189586 -0.00030896478618987124 300.0 116.0 400.0 2.4186 -2.4185 2.4185 0.0 200.0 0.0 0.0 0.0 0.0 0.0 0.0 0.0 0.0 0.0 0.0 
1.688 0.965077030302818 -1.6658309464584575 -1.859357662397147 0.3839372920334272 0.6058810443493444 -0.00021143569843053777 0.515617842639156 -0.42285957058616286 0.472298596045001 -0.0491849868485153 -0.5156178126016355 -0.0003090491509351117 300.0 117.60000000000002 400.0 2.4186 -2.4185 2.4185 0.0 200.0 0.0 0.0 0.0 0.0 0.0 0.0 0.0 0.0 0.0 0.0 
1.696 0.9691817876479407 -1.6692284027554745 -1.8555559443602427 0.38353443939859333 0.601776287096523 -0.00021269768531825402 0.5105783621911578 -0.42654917192290626 0.47818833672198136 -0.05138434248859172 -0.5105783322011297 -0.00030912607126079355 300.0 119.19999999999999 400.0 2.4186 -2.4185 2.4185 0.0 200.0 0.0 0.0 0.0 0.0 0.0 0.0 0.0 0.0 0.0 0.0 
1.704 0.9732463944223052 -1.6726551704293173 -1.8517071620866559 0.3831138297661896 0.5977116804146473 -0.0002139658343700991 0.5055802583200963 -0.4301878852453177 0.4840653085003987 -0.05362184116290814 -0.505580228379684 -0.00030918726951096795 300.0 120.80000000000001 400.0 2.4186 -2.4185 2.4185 0.0 200.0 0.0 0.0 0.0 0.0 0.0 0.0 0.0 0.0 0.0 0.0 
1.712 0.9772711830085532 -1.676110845745163 -1.8478114162898032 0.38267517190319844 0.5936868919210776 -0.00021524007396516546 0.5006238678581089 -0.4337765393392132 0.48992985932407357 -0.05589699297331895 -0.5006238379673339 -0.00030924360402995307 300.0 122.39999999999998 400.0 2.4186 -2.4185 2.4185 0.0 200.0 0.0 0.0 0.0 0.0 0.0 0.0 0.0 0.0 0.0 0.0 
1.72 0.9812564883300591 -1.6795950316479422 -1.8438688048591487 0.38221815824567806 0.5897015866924373 -0.00021652033292978245 0.49570948999024056 -0.43731597617898654 0.4957823481391328 -0.05820932083325979 -0.4957094601505424 -0.00030928776882337985 300.0 124.0 400.0 2.4186 -2.4185 2.4185 0.0 200.0 0.0 0.0 0.0 0.0 0.0 0.0 0.0 0.0 0.0 0.0 
1.728 0.9852026475854894 -1.6831073378904045 -1.839879422742301 0.3817424944858743 0.5857554275300555 -0.00021780654055434276 0.4908373930922657 -0.44080705479049864 0.5016231503631189 -0.06055834009572483 -0.49083736330486366 -0.00030932091186365715 300.0 125.60000000000002 400.0 2.4186 -2.4185 2.4185 0.0 200.0 0.0 0.0 0.0 0.0 0.0 0.0 0.0 0.0 0.0 0.0 
1.736 0.9891099999919084 -1.6866473811532954 -1.835843361827114 0.3812478906044159 0.5818480752168697 -0.00021909862660919707 0.48600781402711074 -0.44425064880924003 0.5074526562373148 -0.06294356602011394 -0.48600778429293684 -0.00030934453626470194 300.0 127.19999999999999 400.0 2.4186 -2.4185 2.4185 0.0 200.0 0.0 0.0 0.0 0.0 0.0 0.0 0.0 0.0 0.0 0.0 
1.744 0.992978886536375 -1.6902147851578797 -1.831760710823768 0.3807340580026759 0.5779791887658133 -0.00022039652135963394 0.4812209586790335 -0.4476476450607945 0.5132712702838839 -0.06536451676385806 -0.4812209289991526 -0.0003093579712839762 300.0 128.8 400.0 2.4186 -2.4185 2.4185 0.0 200.0 0.0 0.0 0.0 0.0 0.0 0.0 0.0 0.0 0.0 0.0 
1.752 0.9968096497359535 -1.693809180771097 -1.8276315551467581 0.3802007207785052 0.5741484256598242 -0.0002217001555799662 0.4764770050465473 -0.4509989445516452 0.5190794134963335 -0.06782070625275681 -0.47647697542066625 -0.00030936831998191794 300.0 130.40000000000003 400.0 2.4186 -2.4185 2.4185 0.0 200.0 0.0 0.0 0.0 0.0 0.0 0.0 0.0 0.0 0.0 0.0 
1.76 1.0006026334060723 -1.697430206103586 -1.8234559767967626 0.379647587489496 0.5703554420834696 -0.00022300946056674854 0.4717760992047854 -0.4543054568442096 0.5248775178956757 -0.07031166516843786 -0.4717760696345218 -0.0003093656450708207 300.0 132.0 400.0 2.4186 -2.4185 2.4185 0.0 200.0 0.0 0.0 0.0 0.0 0.0 0.0 0.0 0.0 0.0 0.0 
1.768 1.004358182437125 -1.70107750660087 -1.8192340542423104 0.37907439048497715 0.5665998931463545 -0.00022432436815114347 0.467118363398633 -0.45756810584812474 0.5306660341846421 -0.07283691379450406 -0.46711833388415014 -0.00030935756693700934 300.0 133.60000000000002 400.0 2.4186 -2.4185 2.4185 0.0 200.0 0.0 0.0 0.0 0.0 0.0 0.0 0.0 0.0 0.0 0.0 
1.776 1.008076642579221 -1.70475073512796 -1.8149658623012113 0.3784808521595009 0.5628814330983691 -0.00022564481071046157 0.46250389104129885 -0.4607878233265884 0.5364454252268706 -0.07539598682431087 -0.46250386158360557 -0.0003093396880022385 300.0 135.2 400.0 2.4186 -2.4185 2.4185 0.0 200.0 0.0 0.0 0.0 0.0 0.0 0.0 0.0 0.0 0.0 0.0 
1.784 1.0117583602349696 -1.7084495520476581 -1.8106514720216618 0.3778667044323867 0.5591997155368992 -0.00022697072117889775 0.45793275117084 -0.4639655514248397 0.542216169898865 -0.0779884203145918 -0.4579327217708198 -0.0003093126864860487 300.0 136.8 400.0 2.4186 -2.4185 2.4185 0.0 200.0 0.0 0.0 0.0 0.0 0.0 0.0 0.0 0.0 0.0 0.0 
1.792 1.0154036822601797 -1.712173625292835 -1.8062909505629723 0.3772316802850697 0.5555543936061338 -0.00022830203305748426 0.4534049879618369 -0.46710224050760113 0.5479787614886612 -0.08061375843079013 -0.4534049586206782 -0.0003092749785039268 300.0 138.40000000000003 400.0 2.4186 -2.4185 2.4185 0.0 200.0 0.0 0.0 0.0 0.0 0.0 0.0 0.0 0.0 0.0 0.0 
1.8 1.0190129557723484 -1.7159226304329607 -1.801884361075835 0.37657552714625275 0.5519451201885779 -0.000229638680423286 0.4489206239258621 -0.4701988507594808 0.5537337104611321 -0.08327154479635666 -0.44892059464329576 -0.00030923427095155186 300.0 140.0 400.0 2.4186 -2.4185 2.4185 0.0 200.0 0.0 0.0 0.0 0.0 0.0 0.0 0.0 0.0 0.0 0.0 
1.808 1.022586527966802 -1.7196962507351699 -1.7974317625820504 0.375897982418385 0.548371548088898 -0.00023098059793785942 0.44447965678543544 -0.4732563473401051 0.5594815396264591 -0.08596134034804365 -0.4444796275619616 -0.00030918655179361235 300.0 141.60000000000002 400.0 2.4186 -2.4185 2.4185 0.0 200.0 0.0 0.0 0.0 0.0 0.0 0.0 0.0 0.0 0.0 0.0 
1.816 1.026124745940351 -1.7234941772201358 -1.7929332098536375 0.37519878442248533 0.5448333302102861 -0.0002323277208549983 0.44008206231659563 -0.4762757016239399 0.5652227863931374 -0.08868271625849757 -0.44008203315387917 -0.0003091256791009562 300.0 143.20000000000005 400.0 2.4186 -2.4185 2.4185 0.0 200.0 0.0 0.0 0.0 0.0 0.0 0.0 0.0 0.0 0.0 0.0 
1.824 1.0296279565223123 -1.7273161087130422 -1.7883887532912306 0.37447770365512545 0.5413301197234192 -0.000233679985027789 0.43572780021517665 -0.47925789601532237 0.5709580093052056 -0.09143523293130273 -0.43572777111144206 -0.00030906992092500426 300.0 144.8 400.0 2.4186 -2.4185 2.4185 0.0 200.0 0.0 0.0 0.0 0.0 0.0 0.0 0.0 0.0 0.0 0.0 
1.832 1.033096506112749 -1.7311617518899247 -1.7837984388016757 0.3737344689799802 0.5378615702282372 -0.00023503732691499893 0.4314168032363124 -0.48220391066930923 0.5766877730354978 -0.09421849181832422 -0.4314167741935484 -0.0003089993519549015 300.0 146.40000000000003 400.0 2.4186 -2.4185 2.4185 0.0 200.0 0.0 0.0 0.0 0.0 0.0 0.0 0.0 0.0 0.0 0.0 
1.84 1.036530740527774 -1.7350308213196617 -1.7791623076747254 0.3729688463071372 0.5344273359086172 -0.00023639968358681965 0.4271489906054932 -0.4851147365537904 0.582412664657436 -0.09703208144379458 -0.42714896162404914 -0.00030892270036630916 300.0 148.0 400.0 2.4186 -2.4185 2.4185 0.0 200.0 0.0 0.0 0.0 0.0 0.0 0.0 0.0 0.0 0.0 0.0 
1.848 1.0399310048517538 -1.738923039501901 -1.7744803964587268 0.3721805963073552 0.5310270716802006 -0.00023776699272998742 0.422924262140662 -0.48799136767943674 0.5881332851298664 -0.09987560730854461 -0.42292423322060485 -0.0003088415103252062 300.0 149.60000000000002 400.0 2.4186 -2.4185 2.4185 0.0 200.0 0.0 0.0 0.0 0.0 0.0 0.0 0.0 0.0 0.0 0.0 
1.856 1.0432976432962642 -1.7428381369011894 -1.7697527368352015 0.3713694796068714 0.5276604333314011 -0.00023913919265230497 0.4187424999628604 -0.49083480154908865 0.5938502505073647 -0.10274868878826546 -0.4187424711044703 -0.00030875468619571793 300.0 151.20000000000005 400.0 2.4186 -2.4185 2.4185 0.0 200.0 0.0 0.0 0.0 0.0 0.0 0.0 0.0 0.0 0.0 0.0 
1.864 1.0466309990656186 -1.7467758519775824 -1.7649793554921938 0.3705352642426665 0.5243270776579085 -0.0002405162222865832 0.41460357044859447 -0.49364604004727897 0.5995641936835489 -0.10565095454810752 -0.4146035416516789 -0.00030866480184536853 300.0 152.8 400.0 2.4186 -2.4185 2.4185 0.0 200.0 0.0 0.0 0.0 0.0 0.0 0.0 0.0 0.0 0.0 0.0 
1.872 1.04993141422882 -1.7507359312140145 -1.7601602739962798 0.36967770786860843 0.5210266625907151 -0.0002418980211940292 0.4105073224188249 -0.4964260859681913 0.6052757608212563 -0.10858205513783654 -0.41050729368477046 -0.0003085634306290955 300.0 154.40000000000003 400.0 2.4186 -2.4185 2.4185 0.0 200.0 0.0 0.0 0.0 0.0 0.0 0.0 0.0 0.0 0.0 0.0 
1.88 1.0531992295977575 -1.7547181291406933 -1.7552955086630966 0.36879659018069444 0.517758847317935 -0.0002432845295670971 0.40645359268042097 -0.49917594833255124 0.6109856184391771 -0.11154164143497897 -0.40645356400921706 -0.00030845809402229706 300.0 156.00000000000006 400.0 2.4186 -2.4185 2.4185 0.0 200.0 0.0 0.0 0.0 0.0 0.0 0.0 0.0 0.0 0.0 0.0 
1.888 1.0564347846114903 -1.7587222083567902 -1.750385070426282 0.36789168255463145 0.5145232924004992 -0.0002446756882318271 0.4024422023306213 -0.5018966367932126 0.6166944472131486 -0.11452938574108885 -0.4024421737225641 -0.0003083471848677832 300.0 157.60000000000002 400.0 2.4186 -2.4185 2.4185 0.0 200.0 0.0 0.0 0.0 0.0 0.0 0.0 0.0 0.0 0.0 0.0 
1.896 1.0596384172264446 -1.7627479395497 -1.7454289647046648 0.3669627652747014 0.5113196598819884 -0.00024607143864969 0.39847295999923016 -0.5045891643742408 0.6224029458943512 -0.1175449705506792 -0.39847293145396057 -0.0003082342820724121 300.0 159.20000000000005 400.0 2.4186 -2.4185 2.4185 0.0 200.0 0.0 0.0 0.0 0.0 0.0 0.0 0.0 0.0 0.0 0.0 
1.904 1.0628104638123617 -1.7667951015121293 -1.7404271912675813 0.3660096077533479 0.5081476133926525 -0.0002474717229189612 0.39454565980919215 -0.5072545437729915 0.6281118273118446 -0.12058810223803526 -0.3945456313277089 -0.0003081120950756654 300.0 160.8 400.0 2.4186 -2.4185 2.4185 0.0 200.0 0.0 0.0 0.0 0.0 0.0 0.0 0.0 0.0 0.0 0.0 
1.912 1.0659512590538256 -1.7708634811572734 -1.7353797440981593 0.3650319999778857 0.5050068182479096 -0.0002488764837756404 0.3906600864435274 -0.5098937926696469 0.6338218254632545 -0.12365849041060197 -0.3906600580254367 -0.00030798818619010736 300.0 162.40000000000003 400.0 2.4186 -2.4185 2.4185 0.0 200.0 0.0 0.0 0.0 0.0 0.0 0.0 0.0 0.0 0.0 0.0 
1.92 1.0690611358572077 -1.7749528735323588 -1.7302866112544162 0.3640297230410978 0.5018969415413834 -0.00025028566459393955 0.38681601174120606 -0.5125079283960301 0.639533689451661 -0.1267558680247961 -0.3868159833864004 -0.0003078610609877243 300.0 164.0 400.0 2.4186 -2.4185 2.4185 0.0 200.0 0.0 0.0 0.0 0.0 0.0 0.0 0.0 0.0 0.0 0.0 
1.928 1.0721404252628597 -1.7790630818307895 -1.7251477747280064 0.36300255643294577 0.49881765223272484 -0.00025169920938635654 0.38301319642035425 -0.5150979690746957 0.6452481853685531 -0.12987998681347035 -0.3830131681295471 -0.0003077263005967313 300.0 165.60000000000002 400.0 2.4186 -2.4185 2.4185 0.0 200.0 0.0 0.0 0.0 0.0 0.0 0.0 0.0 0.0 0.0 0.0 
1.936 1.0751894563623936 -1.7831939174031715 -1.7199632103004512 0.36195029665293 0.49576862123031906 -0.00025311706280335493 0.3792513931564207 -0.5176649367912023 0.6509661007548335 -0.13303060539392475 -0.3792513649289237 -0.0003075915703325289 300.0 167.2 400.0 2.4186 -2.4185 2.4185 0.0 200.0 0.0 0.0 0.0 0.0 0.0 0.0 0.0 0.0 0.0 0.0 
1.944 1.078208556220886 -1.7873451997674596 -1.7147328873966676 0.3608727215706422 0.4927495214690828 -0.0002545391701326658 0.3755303425316657 -0.5202098512569674 0.6566882371234484 -0.13620751309991144 -0.37553031436839385 -0.0003074481761779986 300.0 168.8 400.0 2.4186 -2.4185 2.4185 0.0 200.0 0.0 0.0 0.0 0.0 0.0 0.0 0.0 0.0 0.0 0.0 
1.952 1.0811980498038412 -1.7915167566184844 -1.7094567689356168 0.3597696301512263 0.48976002798351587 -0.00025596547729823135 0.3718497788073117 -0.5227337367614012 0.6624154191420196 -0.1394105042120792 -0.3718497507079391 -0.00030730292747976776 300.0 170.39999999999998 400.0 2.4186 -2.4185 2.4185 0.0 200.0 0.0 0.0 0.0 0.0 0.0 0.0 0.0 0.0 0.0 0.0 
1.96 1.0841582599087634 -1.7957084238371113 -1.704134811177874 0.3586408140171147 0.4867998179761065 -0.00025739593085880844 0.36820942681502455 -0.5252376171625366 0.6681484887729667 -0.14263939697451924 -0.3682093987792875 -0.00030715553476264246 300.0 172.0 400.0 2.4186 -2.4185 2.4185 0.0 200.0 0.0 0.0 0.0 0.0 0.0 0.0 0.0 0.0 0.0 0.0 
1.968 1.0870895071011706 -1.7999200454992788 -1.6987669635699143 0.35748606208505707 0.4838685708813413 -0.00025883047800624465 0.3646090031656103 -0.5277225167271159 0.6738883067316885 -0.1458940308110463 -0.3646089751938898 -0.0003070025091875733 300.0 173.60000000000002 400.0 2.4186 -2.4185 2.4185 0.0 200.0 0.0 0.0 0.0 0.0 0.0 0.0 0.0 0.0 0.0 0.0 
1.976 1.0899921096549063 -1.8041514738851667 -1.6933531685849108 0.3563051694829087 0.4809659684253754 -0.00026026906656344967 0.36104821790137753 -0.5301894617610351 0.6796357549705874 -0.14917426086580401 -0.3610481899939779 -0.00030684430761447476 300.0 175.2 400.0 2.4186 -2.4185 2.4185 0.0 200.0 0.0 0.0 0.0 0.0 0.0 0.0 0.0 0.0 0.0 0.0 
1.984 1.0928663834965904 -1.8084025694887444 -1.6878933615598142 0.35509793712936544 0.47809169468158164 -0.0002617116449820734 0.3575267749297361 -0.5326394806268472 0.6853917371209534 -0.15247995865899094 -0.3575267470862206 -0.0003066850417576156 300.0 176.8 400.0 2.4186 -2.4185 2.4185 0.0 200.0 0.0 0.0 0.0 0.0 0.0 0.0 0.0 0.0 0.0 0.0 
1.992 1.0957126421540602 -1.8126732010279372 -1.6823874705284894 0.3538641579583959 0.475245436122125 -0.00026315816233990675 0.354044370881419 -0.5350736014335413 0.6911571759136205 -0.15581102123470336 -0.3540443431018777 -0.0003065218608360286 300.0 178.40000000000003 400.0 2.4186 -2.4185 2.4185 0.0 200.0 0.0 0.0 0.0 0.0 0.0 0.0 0.0 0.0 0.0 0.0 
2.0 1.0985311967086604 -1.816963245455671 -1.676835416050658 0.35260363245929294 0.4724268816656584 -0.0002646085683380222 0.3506006974664973 -0.5374928549315569 0.6969330172757948 -0.15916736150389071 -0.3506006697505875 -0.0003063571973377406 300.0 180.0 400.0 2.4186 -2.4185 2.4185 0.0 200.0 0.0 0.0 0.0 0.0 -0.0 -1000.0 -0.0 0.0 0.0 0.0 
2.008 1.1012667990625937 -1.8211862127031664 -1.6713495309927964 0.3513421665656269 0.46969127940801014 -0.00026603369109499833 0.3333726438381703 -0.5182562805538695 0.6745001904399686 -0.1559817998629286 -0.3333726172913702 -0.0002939415203539705 300.0 181.56799999999998 400.0 2.4186 -2.4185 2.4185 0.0 192.0 0.0 0.0 0.0 0.0 -0.0 -1000.0 -0.0 0.0 0.0 0.0 
2.016 1.1038662895019788 -1.825254135430478 -1.6660457404890565 0.35010769628465055 0.46709178906108756 -0.0002674040670448294 0.31656855814330886 -0.49873193031670204 0.6514109249162657 -0.15242760797594562 -0.3165685327577734 -0.00028154530482268165 300.0 183.0719999999999 400.0 2.4186 -2.4185 2.4185 0.0 184.0 0.0 0.0 0.0 0.0 -0.0 -1000.0 -0.0 0.0 0.0 0.0 
2.024 1.1063329612162762 -1.8291647715194892 -1.66092919225705 0.34890312900113973 0.4646251174354139 -0.0002687192307621136 0.30016396282303764 -0.47893472460314024 0.6276911339296298 -0.14851577462152762 -0.3001639385910474 -0.0002691694653094784 300.0 184.51200000000017 400.0 2.4186 -2.4185 2.4185 0.0 176.0 0.0 0.0 0.0 0.0 -0.0 -1000.0 -0.0 0.0 0.0 0.0 
2.032 1.1086699153429957 -1.8329159958249899 -1.6560048267869767 0.3477312693878749 0.4622881633934647 -0.00026997874503919205 0.2841353125314567 -0.4588789978299562 0.6033667180475855 -0.144257869483265 -0.2841352894468971 -0.0002568066134019553 300.0 185.88799999999992 400.0 2.4186 -2.4185 2.4185 0.0 168.0 0.0 0.0 0.0 0.0 -0.0 -1000.0 -0.0 0.0 0.0 0.0 
2.04 1.1108800682202307 -1.8365057957896775 -1.651277377268274 0.3465948407717121 0.4600780105971367 -0.0002711821996707084 0.2684599432558778 -0.4385785732497683 0.5784636084281751 -0.13966599580366737 -0.2684599213125373 -0.0002444587144901113 300.0 187.2000000000001 400.0 2.4186 -2.4185 2.4185 0.0 160.0 0.0 0.0 0.0 0.0 -0.0 -1000.0 -0.0 0.0 0.0 0.0 
2.048 1.1129661582168322 -1.839932267600679 -1.6467513692278184 0.34549647010770657 0.45799192067756495 -0.00027232921031911984 0.25311601895046026 -0.4180468257625735 0.5530077985490044 -0.1347527667469754 -0.2531159981418432 -0.00023212872094417048 300.0 188.4480000000002 400.0 2.4186 -2.4185 2.4185 0.0 152.0 0.0 0.0 0.0 0.0 -0.0 -1000.0 -0.0 0.0 0.0 0.0 
2.056 1.1149307521511798 -1.843193612840915 -1.6424311199092416 0.3444386760966145 0.45602732681636043 -0.0002734194174573132 0.23808248014706862 -0.39729673984980246 0.5270253732386695 -0.1295312806701014 -0.23808246046704395 -0.00021981590801519526 300.0 189.6320000000002 400.0 2.4186 -2.4185 2.4185 0.0 144.0 0.0 0.0 0.0 0.0 -0.0 -1000.0 -0.0 0.0 0.0 0.0 
2.064 1.11677625130983 -1.8462881355907252 -1.6383207374236752 0.34342386228723143 0.454181827726952 -0.00027445248538467067 0.22333899456980225 -0.37634096297832426 0.5005425350753222 -0.12401509478090676 -0.22333897601338035 -0.0002075151424273834 300.0 190.75200000000018 400.0 2.4186 -2.4185 2.4185 0.0 136.0 0.0 0.0 0.0 0.0 -0.0 -1000.0 -0.0 0.0 0.0 0.0 
2.072 1.1185048970774805 -1.8492142399373195 -1.63442411970264 0.34245433789570145 0.4524531820246381 -0.0002754281013131449 0.2088659110911391 -0.355191857076488 0.47358563125195097 -0.118218188860612 -0.20886589365292585 -0.000195229862040834 300.0 191.8080000000001 400.0 2.4186 -2.4185 2.4185 0.0 128.0 0.0 0.0 0.0 0.0 -0.0 -1000.0 -0.0 0.0 0.0 0.0 
2.08 1.1201187761896612 -1.8519704278517342 -1.630744953284076 0.3415322905934959 0.4508393029738757 -0.00027634597452011483 0.19464421142045257 -0.3338615389539359 0.446181168397411 -0.112154951450015 -0.19464419509545894 -0.00018295893615050075 300.0 192.79999999999993 400.0 2.4186 -2.4185 2.4185 0.0 120.0 0.0 0.0 0.0 0.0 -0.0 -1000.0 -0.0 0.0 0.0 0.0 
2.088 1.1216198256193806 -1.8545552973950734 -1.6272867119625387 0.3406597893969392 0.44933825360164964 -0.00027720583556499576 0.18065546557768136 -0.3123619200464869 0.41835582879041255 -0.10584015292851567 -0.18065545036145436 -0.00017070043846641324 300.0 193.72800000000012 400.0 2.4186 -2.4185 2.4185 0.0 112.0 0.0 0.0 0.0 0.0 -0.0 -1000.0 -0.0 0.0 0.0 0.0 
2.096 1.1230098371086572 -1.856967541217904 -1.6240526553344203 0.3398387857292626 0.4479482421659342 -0.00027800743556678146 0.16688178842910262 -0.2907047413329378 0.3901364821606231 -0.09928892071646166 -0.16688177431752765 -0.00015845350648213577 300.0 194.59199999999984 400.0 2.4186 -2.4185 2.4185 0.0 104.0 0.0 0.0 0.0 0.0 -0.0 -1000.0 -0.0 0.0 0.0 0.0 
2.104 1.1242904613554954 -1.859205945318763 -1.6210458272686428 0.3390711168496303 0.4466676179687173 -0.00027875054553990776 0.15330579751005147 -0.26890160413931985 0.3615501937414374 -0.09251671480341797 -0.15330578449881768 -0.0001462202363178041 300.0 195.39199999999994 400.0 2.4186 -2.4185 2.4185 0.0 96.0 0.0 0.0 0.0 0.0 -0.0 -1000.0 -0.0 0.0 0.0 0.0 
2.112 1.125463211866356 -1.8612693880297708 -1.6182690543327223 0.33835847676028896 0.44549486750353107 -0.0002794349557860049 0.1399105704754339 -0.24696399427063023 0.33262422486151466 -0.08553931307584293 -0.13991055856125323 -0.0001339958392126459 300.0 196.12799999999996 400.0 2.4186 -2.4185 2.4185 0.0 88.0 0.0 0.0 0.0 0.0 -0.0 -1000.0 -0.0 0.0 0.0 0.0 
2.12 1.1265294684836797 -1.8631568391995001 -1.6157249442031731 0.33770245130273535 0.4444286109279298 -0.000280060475339321 0.12667960694000155 -0.22490330818284224 0.30338603756276006 -0.07837277729783487 -0.1266795961193683 -0.0001217824592146664 300.0 196.79999999999993 400.0 2.4186 -2.4185 2.4185 0.0 80.0 0.0 0.0 0.0 0.0 -0.0 -1000.0 -0.0 0.0 0.0 0.0 
2.128 1.1274904805974038 -1.864867359545252 -1.613415884088268 0.3371044836786872 0.44346759885197046 -0.0002806269314637708 0.11359678795286882 -0.2027308697828676 0.2738632876898342 -0.07103343969771823 -0.11359677822285297 -0.00010957774816086666 300.0 197.40799999999984 400.0 2.4186 -2.4185 2.4185 0.0 72.0 0.0 0.0 0.0 0.0 -0.0 -1000.0 -0.0 0.0 0.0 0.0 
2.136 1.1283473700487952 -1.866400100149065 -1.6113440391898208 0.3365658916434493 0.44261070943438097 -0.00028113416919975387 0.10064633891124737 -0.18045794842550375 0.24408382049004257 -0.06353787472028556 -0.10064633026913662 -9.738134388646956e-05 300.0 197.9520000000001 400.0 2.4186 -2.4185 2.4185 0.0 64.0 0.0 0.0 0.0 0.0 -0.0 -1000.0 -0.0 0.0 0.0 0.0 
2.144 1.1291011337342702 -1.8677543020738454 -1.6095113512292343 0.3360878583806972 0.44185694577873824 -0.0002815820509590635 0.08781279218150181 -0.15809577196848304 0.21407566029748062 -0.0559028778267579 -0.08781278462487246 -8.519245766750657e-05 300.0 198.4319999999999 400.0 2.4186 -2.4185 2.4185 0.0 56.0 0.0 0.0 0.0 0.0 -0.0 -1000.0 -0.0 0.0 0.0 0.0 
2.152 1.1297526459161862 -1.8689292960781958 -1.6079195370613049 0.3356714298666945 0.4412054336226885 -0.0002819704561663896 0.0750809508774048 -0.13565553785655193 0.18386699816510255 -0.04814544204256789 -0.07508094440419465 -7.300986885775892e-05 300.0 198.84800000000007 400.0 2.4186 -2.4185 2.4185 0.0 48.0 0.0 0.0 0.0 0.0 -0.0 -1000.0 -0.0 0.0 0.0 0.0 
2.16 1.130302660246876 -1.8699245024106337 -1.606570087397457 0.3353175186357509 0.44065541931388885 -0.00028229928094607236 0.06243585352230411 -0.11314842219155795 0.1534861772714643 -0.04028273331898449 -0.06243584813069521 -6.08329972342879e-05 300.0 199.20000000000016 400.0 2.4186 -2.4185 2.4185 0.0 40.0 0.0 0.0 0.0 0.0 -0.0 -1000.0 -0.0 0.0 0.0 0.0 
2.168 1.1307518115115012 -1.870739430666128 -1.6054642656579432 0.3350268977250881 0.44020626806717716 -0.00028256843785295064 0.049862739080604276 -0.0905855862981251 0.12296167533328706 -0.032332067302640086 -0.04986273476908863 -4.866087621754663e-05 300.0 199.4880000000001 400.0 2.4186 -2.4185 2.4185 0.0 32.0 0.0 0.0 0.0 0.0 -0.0 -1000.0 -0.0 0.0 0.0 0.0 
2.176 1.1311006170945523 -1.871373679690065 -1.604603106970342 0.33480019897906854 0.4398574624980625 -0.0002827778556462939 0.03734701271004907 -0.06797818185899834 0.0923220853918563 -0.02431088481916379 -0.03734700947746272 -3.6492332467125854e-05 300.0 199.71200000000005 400.0 2.4186 -2.4185 2.4185 0.0 24.0 0.0 0.0 0.0 0.0 -0.0 -1000.0 -0.0 0.0 0.0 0.0 
2.184 1.1313494781741071 -1.8718269375169982 -1.6039874173293045 0.33463791571307944 0.43960860142846414 -0.00028292747910598116 0.024874212026313746 -0.04533735469546012 0.06159609500295592 -0.016236726801262237 -0.024874209871778248 -2.4326512224662934e-05 300.0 199.87199999999996 400.0 2.4186 -2.4185 2.4185 0.0 16.0 0.0 0.0 0.0 0.0 -0.0 -1000.0 -0.0 0.0 0.0 0.0 
2.192 1.1314986806472014 -1.872098981333819 -1.6036177729299264 0.33454040768376303 0.4394593989613413 -0.00028301726889023326 0.012429973666197799 -0.02267424725663473 0.03081246385375431 -0.008127209445851154 -0.01242997258906896 -1.2162842763818424e-05 300.0 199.9679999999998 400.0 2.4186 -2.4185 2.4185 0.0 8.0 0.0 0.0 0.0 0.0 -0.0 -1000.0 -0.0 0.0 0.0 0.0 
2.2 1.131548395788938 -1.8721896774592426 -1.6034945196845334 0.33450787815528416 0.4394096838215963 -0.00028304720143437355 0.0 0.0 0.0 0.0 0.0 0.0 300.0 200.0 400.0 2.4186 -2.4185 2.4185 0.0 0.0 0.0 0.0 0.0 0.0 -0.0 -1000.0 -0.0 0.0 0.0 0.0 
