Fleaurent/UniversalRobot/csv/robolib_movej_Synchron.csv
timestamp target_q_0 target_q_1 target_q_2 target_q_3 target_q_4 target_q_5 target_qd_0 target_qd_1 target_qd_2 target_qd_3 target_qd_4 target_qd_5 target_qdd_0 target_qdd_1 target_qdd_2 target_qdd_3 target_qdd_4 target_qdd_5 target_TCP_pose_0 target_TCP_pose_1 target_TCP_pose_2 target_TCP_pose_3 target_TCP_pose_4 target_TCP_pose_5 target_TCP_speed_0 target_TCP_speed_1 target_TCP_speed_2 target_TCP_speed_3 target_TCP_speed_4 target_TCP_speed_5
0.0 0.0 -1.5707963267948966 -1.5707963267948966 0.0 1.5707963267948966 0.0 0.0 0.0 0.0 0.0 0.0 0.0 1.0 0.6666666666666664 0.3333333333333332 0.0 0.0 0.0 295.15 -112.34999999999998 480.9 -1.2091995761561454 1.2091995761561456 -1.2091995761561458 0.0 0.0 0.0 0.0 0.0 0.0 
0.008 3.2e-05 -1.5707749934615631 -1.57078566012823 0.0 1.5707963267948966 0.0 0.008 0.005333333333333331 0.0026666666666666657 0.0 0.0 0.0 1.0 0.6666666666666664 0.3333333333333332 0.0 0.0 0.0 295.14566583110394 -112.34055539621338 480.9094447008554 -1.2091911404039255 1.2091524469065253 -1.2091911404039257 -3.314932916626661 -0.0001060778533680067 4.153648049073297 5.119999999126185e-07 -0.015999999991807998 9.797174393178823e-19 
0.016 0.000128 -1.5707109934615633 -1.57075366012823 0.0 1.5707963267948966 0.0 0.016 0.010666666666666663 0.005333333333333331 0.0 0.0 0.0 1.0 0.6666666666666664 0.3333333333333332 0.0 0.0 0.0 295.13265969787136 -112.31222393972357 480.93777761360707 -1.209165826575134 1.2090110632539737 -1.2091658265751342 -6.6306632648444035 -0.0008487249025347446 8.306784341546589 4.0959999888151885e-06 -0.031999999737856 1.9594348786357646e-18 
0.024 0.000288 -1.5706043267948966 -1.5707003267948965 0.0 1.5707963267948966 0.0 0.024 0.015999999999999993 0.007999999999999997 0.0 0.0 0.0 1.0 0.6666666666666664 0.3333333333333332 0.0 0.0 0.0 295.1109707222185 -112.26501269746149 480.98499516823307 -1.2091236149552054 1.2087754374892468 -1.2091236149552056 -9.947988135301962 -0.0028650206621782933 12.458896865632322 1.3823999808897023e-05 -0.047999998009344 2.9391523179536474e-18 
0.032 0.000512 -1.5704549934615633 -1.5706256601282298 0.0 1.5707963267948966 0.0 0.032 0.021333333333333326 0.010666666666666663 0.0 0.0 0.0 1.0 0.6666666666666664 0.3333333333333332 0.0 0.0 0.0 295.08058077917786 -112.19893345538017 481.0510914127616 -1.2090644726926643 1.2084455901030688 -1.2090644726926645 -13.267703936306127 -0.006793065008974808 16.60947309922137 3.2767998568344244e-05 -0.06399999161139217 3.918869757271529e-18 
0.04 0.0008 -1.5702629934615633 -1.57052966012823 0.0 1.5707963267948966 0.0 0.04 0.026666666666666658 0.013333333333333329 0.0 0.0 0.0 1.0 0.6666666666666664 0.3333333333333332 0.0 0.0 0.0 295.0414645046626 -112.11400273005208 481.13605801037176 -1.2089883538083168 1.2080215497953124 -1.2089883538083168 -16.590606051508097 -0.013272487672669364 20.757999754856094 6.399999317333355e-05 -0.07999997440000135 4.898587196589412e-18 
0.048 0.001152 -1.5700283267948965 -1.5704123267948966 0.0 1.5707963267948966 0.0 0.048 0.03199999999999999 0.015999999999999993 0.0 0.0 0.0 1.0 0.6666666666666664 0.3333333333333332 0.0 0.0 0.0 294.9935893063514 -112.01024178489634 481.2398842353324 -1.2088951992081247 1.2075033534878448 -1.2088951992081247 -19.91748849621932 -0.022944956897758724 24.90396252486418 0.00011059197553882068 -0.09599993629901502 5.878304635907295e-18 
0.056 0.0015680000000000002 -1.5697509934615632 -1.5702736601282299 0.0 1.5707963267948966 0.0 0.056 0.03733333333333332 0.01866666666666666 0.0 0.0 0.0 1.0 0.6666666666666664 0.3333333333333332 0.0 0.0 0.0 294.93691537770894 -111.88767665102608 481.36255696778403 -1.208784936699754 1.2068910463410198 -1.2087849366997543 -23.249143571901506 -0.03645468699686747 29.04684582670726 0.00017561592803772344 -0.1119998623170842 6.858022075225177e-18 
0.064 0.002048 -1.5694309934615631 -1.57011366012823 0.0 1.5707963267948966 0.0 0.064 0.04266666666666665 0.021333333333333326 0.0 0.0 0.0 1.0 0.6666666666666664 0.3333333333333332 0.0 0.0 0.0 294.87139571515917 -111.74633815270423 481.50406068736163 -1.208657481012803 1.2061846817738038 -1.2086574810128035 -26.586361518376407 -0.05444894451479605 33.18613254859828 0.0002621438167481004 -0.12799973156463781 7.837739514543059e-18 
0.072 0.0025920000000000006 -1.5690683267948966 -1.5699323267948966 0.0 1.5707963267948966 0.0 0.07200000000000001 0.04799999999999999 0.023999999999999994 0.0 0.0 0.0 1.0 0.6666666666666664 0.3333333333333332 0.0 0.0 0.0 294.7969761384359 -111.58626193739266 481.66437746566294 -1.2085127338227057 1.205384321487513 -1.208512733822706 -29.92993016330275 -0.07757855271959414 37.32130379544243 0.00037324758205793185 -0.1439995162708628 8.817456953860942e-18 
0.08 0.0032 -1.5686629934615632 -1.5697296601282298 0.0 1.5707963267948966 0.0 0.08 0.053333333333333316 0.026666666666666658 0.0 0.0 0.0 1.0 0.6666666666666664 0.3333333333333332 0.0 0.0 0.0 294.7135953141356 -111.40748851037755 481.84348695756046 -1.208350583778309 1.2044900354931398 -1.2083505837783097 -33.280634568469154 -0.10649839413386555 41.45183863515615 0.000511999126187114 -0.15999918080069903 9.797174393178824e-18 
0.088 0.0038719999999999996 -1.5682149934615632 -1.5695056601282298 0.0 1.5707963267948966 0.0 0.088 0.05866666666666664 0.02933333333333332 0.0 0.0 0.0 1.0 0.6666666666666664 0.3333333333333332 0.0 0.0 0.0 294.62118478250574 -111.21006327395015 482.04136639136124 -1.208170906533132 1.2035019021422428 -1.2081709065331323 -36.63925667245421 -0.14186791081584724 45.577213845419934 0.0006814702971862914 -0.17599868067185626 1.0776891832496706e-17 
0.096 0.004608 -1.5677243267948966 -1.5692603267948966 0.0 1.5707963267948966 0.0 0.096 0.06399999999999997 0.03199999999999999 0.0 0.0 0.0 1.0 0.6666666666666664 0.3333333333333332 0.0 0.0 0.0 294.5196689875014 -110.99403657112056 482.2579905578156 -1.2079735647802876 1.2024200081613639 -1.2079735647802878 -40.00657492920726 -0.1843516020956233 49.69690366092051 0.0008847328689721652 -0.19199796157186294 1.175660927181459e-17 
0.104 0.005408000000000001 -1.5671909934615633 -1.56899366012823 0.0 1.5707963267948966 0.0 0.10400000000000001 0.06933333333333332 0.03466666666666666 0.0 0.0 0.0 1.0 0.6666666666666664 0.3333333333333332 0.0 0.0 0.0 294.4089653101512 -110.75946373383792 482.49333179797816 -1.207758408291092 1.2012444486899503 -1.207758408291092 -43.383363942106016 -0.23461951946714235 53.81037952113908 0.001124858516958938 -0.20799695837515705 1.2736326711132473e-17 
0.112 0.006272000000000001 -1.5666149934615632 -1.5687056601282299 0.0 1.5707963267948966 0.0 0.112 0.07466666666666665 0.03733333333333332 0.0 0.0 0.0 1.0 0.6666666666666664 0.3333333333333332 0.0 0.0 0.0 294.28898410527404 -110.50640513568857 482.7473599899205 -1.2075252739573312 1.1999753273217304 -1.2075252739573314 -46.770394093050285 -0.2933477583315035 57.917109818742645 0.0014049187888455865 -0.22399559416023507 1.3716044150450353e-17 
0.12 0.0072 -1.5659963267948966 -1.5683963267948966 0.0 1.5707963267948966 0.0 0.12 0.07999999999999996 0.03999999999999998 0.0 0.0 0.0 1.0 0.6666666666666664 0.3333333333333332 0.0 0.0 0.0 294.1596287415951 -110.23492624904016 483.02004253430255 -1.207273985837213 1.1986127561495161 -1.207273985837213 -50.16843116615445 -0.36121894628127194 62.0165596486362 0.0017279850701186978 -0.23999377922687373 1.4695761589768234e-17 
0.128 0.008192 -1.5653349934615632 -1.56806566012823 0.0 1.5707963267948966 0.0 0.128 0.0853333333333333 0.04266666666666665 0.0 0.0 0.0 1.0 0.6666666666666664 0.3333333333333332 0.0 0.0 0.0 294.02079564531124 -109.94509770659708 483.31134433880345 -1.207004355204973 1.1971568558133723 -1.2070043552049732 -53.578235965605444 -0.4389227276093747 66.10819055773473 0.0020971285438306465 -0.2559914101134462 1.5675479029086117e-17 
0.136 0.009248000000000001 -1.5646309934615632 -1.56771366012823 0.0 1.5707963267948966 0.0 0.136 0.09066666666666663 0.045333333333333316 0.0 0.0 0.0 1.0 0.6666666666666664 0.3333333333333332 0.0 0.0 0.0 293.87237434716087 -109.63699536732928 483.62122780141414 -1.206716180604162 1.195607755552125 -1.2067161806041622 -57.000563927255925 -0.5271562437194238 70.19146029551388 0.002515420144212965 -0.27198836861435466 1.6655196468403998e-17 
0.144 0.010368000000000002 -1.5638843267948965 -1.5673403267948967 0.0 1.5707963267948966 0.0 0.14400000000000002 0.09599999999999997 0.04799999999999999 0.0 0.0 0.0 1.0 0.6666666666666664 0.3333333333333332 0.0 0.0 0.0 293.7142475330576 -109.31070038673347 483.9496527925981 -1.2064092479045825 1.1939655932581346 -1.2064092479045831 -60.43616472352834 -0.6266246091071277 74.26582256540044 0.0029859305036848425 -0.28798452079760667 1.7634913907721884e-17 
0.152 0.011552 -1.5630949934615632 -1.56694566012823 0.0 1.5707963267948966 0.0 0.152 0.10133333333333329 0.050666666666666645 0.0 0.0 0.0 1.0 0.6666666666666664 0.3333333333333332 0.0 0.0 0.0 293.5462910983499 -108.9662992913826 484.2965766363214 -1.2060833303629055 1.192230515535306 -1.2060833303629057 -63.88578186120921 -0.7380413825747653 78.33072677706355 0.003511729892816783 -0.303979716022566 1.8614631347039765e-17 
0.16 0.0128 -1.5622629934615633 -1.56652966012823 0.0 1.5707963267948966 0.0 0.16 0.10666666666666663 0.053333333333333316 0.0 0.0 0.0 1.0 0.6666666666666664 0.3333333333333332 0.0 0.0 0.0 293.36837420577285 -108.60388405771616 484.66195408995765 -1.20573818868693 1.1904026777602537 -1.20573818868693 -67.35015227171833 -0.8621290333325515 82.38561779966898 0.0040958881528095886 -0.3199737859579119 1.9594348786357648e-17 
0.168 0.014112000000000001 -1.5613883267948965 -1.5660923267948965 0.0 1.5707963267948966 0.0 0.168 0.11199999999999996 0.05599999999999998 0.0 0.0 0.0 1.0 0.6666666666666664 0.3333333333333332 0.0 0.0 0.0 293.1803593471629 -108.2235521950205 485.045737323072 -1.20537357110351 1.1884822441465774 -1.2053735711035105 -70.83000589344401 -0.999619401632091 86.42993571616033 0.0047414746200489435 -0.3359665435998463 2.057406622567553e-17 
0.176 0.015487999999999998 -1.5604709934615633 -1.56563366012823 0.0 1.5707963267948966 0.0 0.176 0.11733333333333328 0.05866666666666664 0.0 0.0 0.0 1.0 0.6666666666666664 0.3333333333333332 0.0 0.0 0.0 292.98210240900914 -107.825406832545 485.44787589508815 -1.2049892134301303 1.1864693878121801 -1.2049892134301305 -74.32606524573987 -1.151254153568033 90.46311557863163 0.005451558042296115 -0.35195778229059155 2.1553783664993412e-17 
0.184 0.016928 -1.5595109934615632 -1.5651536601282299 0.0 1.5707963267948966 0.0 0.184 0.12266666666666662 0.06133333333333331 0.0 0.0 0.0 1.0 0.6666666666666664 0.3333333333333332 0.0 0.0 0.0 292.7734527419175 -107.40955681069649 485.86831673184514 -1.2045848391501284 1.1843642908495564 -1.2045848391501286 -77.83904499418726 -1.3177852296745047 94.48458716485712 0.006229206486075441 -0.3679472747372289 2.2533501104311295e-17 
0.192 0.018432 -1.5585083267948965 -1.5646523267948966 0.0 1.5707963267948966 0.0 0.192 0.12799999999999995 0.06399999999999997 0.0 0.0 0.0 1.0 0.6666666666666664 0.3333333333333332 0.0 0.0 0.0 292.5542532340711 -106.97611677625049 486.30700410104555 -1.2041601594915656 1.1821671443989943 -1.2041601594915663 -81.36965150673144 -1.499975286932879 98.49377473604596 0.007077487234819505 -0.3839347720309284 2.351321854362918e-17 
0.2 0.020000000000000004 -1.5574629934615631 -1.56412966012823 0.0 1.5707963267948966 0.0 0.2 0.13333333333333328 0.06666666666666664 0.0 0.0 0.0 1.0 0.6666666666666664 0.3333333333333332 0.0 0.0 0.0 292.3243403887683 -106.52520728151428 486.76387958660604 -1.2037148735097367 1.1798781487246035 -1.2037148735097374 -84.91858240031024 -1.6985981337970624 102.49009679588949 0.007999466677333231 -0.3999200026666311 2.449293598294706e-17 
0.208 0.021632000000000005 -1.5563749934615632 -1.5635856601282299 0.0 1.5707963267948966 0.0 0.20800000000000002 0.13866666666666663 0.06933333333333332 0.0 0.0 0.0 1.0 0.6666666666666664 0.3333333333333332 0.0 0.0 0.0 292.08354440612874 -106.0569548873734 487.23888206191043 -1.203248668173308 1.1774975132931034 -1.2032486681733086 -88.48652607759834 -1.9144391578315738 106.47296585097206 0.008998210186138403 -0.4159026715632469 2.5472653422264946e-17 
0.216 0.023327999999999998 -1.5552443267948965 -1.5630203267948966 0.0 1.5707963267948966 0.0 0.216 0.14399999999999993 0.07199999999999997 0.0 0.0 0.0 1.0 0.6666666666666664 0.3333333333333332 0.0 0.0 0.0 291.83168926905705 -105.57149227014833 487.73194766197554 -1.20276121845409 1.1750254568552914 -1.2027612184540901 -92.07416125350078 -2.14829574554646 110.44178817261613 0.010076781985260474 -0.43188245908443823 2.6452370861582823e-17 
0.224 0.025088000000000003 -1.5540709934615633 -1.5624336601282298 0.0 1.5707963267948966 0.0 0.224 0.1493333333333333 0.07466666666666665 0.0 0.0 0.0 1.0 0.6666666666666664 0.3333333333333332 0.0 0.0 0.0 291.568592833559 -105.06895833218537 488.24300975453457 -1.2022521874204275 1.1724622075301077 -1.2022521874204277 -95.6821564710378 -2.4009776940014076 114.395963560235 0.011238245007020026 -0.4478590200600655 2.7432088300900707e-17 
0.232 0.026912000000000002 -1.5528549934615632 -1.5618256601282299 0.0 1.5707963267948966 0.0 0.232 0.15466666666666662 0.07733333333333331 0.0 0.0 0.0 1.0 0.6666666666666664 0.3333333333333332 0.0 0.0 0.0 291.2940669235077 -104.54949831610064 488.77199891004506 -1.2017212263342034 1.1698080028912137 -1.2017212263342039 -99.31116960627035 -2.6733076137393077 118.33488510626736 0.0124856607373915 -0.4638319828083772 2.8411805740218593e-17 
0.24 0.0288 -1.5515963267948967 -1.5611963267948965 0.0 1.5707963267948966 0.0 0.24 0.15999999999999992 0.07999999999999996 0.0 0.0 0.0 1.0 0.6666666666666664 0.3333333333333332 0.0 0.0 0.0 291.0079174299609 -104.01326392259242 489.31884287062854 -1.2011679747514505 1.1670630900560046 -1.2011679747514508 -102.96184736192853 -2.966121322597157 122.2579389627706 0.013822089049492657 -0.47980094815903374 2.939152317953647e-17 
0.248 0.030751999999999998 -1.5502949934615633 -1.56054566012823 0.0 1.5707963267948966 0.0 0.248 0.16533333333333328 0.08266666666666664 0.0 0.0 0.0 1.0 0.6666666666666664 0.3333333333333332 0.0 0.0 0.0 290.7099444151317 -103.46041343173235 489.8834665179496 -1.2005920606265559 1.1642277257769518 -1.200592060626556 -106.63482474941215 -3.2802682299292782 126.16450410975008 0.015250588024768533 -0.49576548847706087 3.0371240618854354e-17 
0.256 0.032768 -1.5489509934615633 -1.55987366012823 0.0 1.5707963267948966 0.0 0.256 0.1706666666666666 0.0853333333333333 0.0 0.0 0.0 1.0 0.6666666666666664 0.3333333333333332 0.0 0.0 0.0 290.3999422211201 -102.89111182764246 490.46579184004247 -1.1999931004200586 1.1613021765352016 -1.1999931004200586 -110.3307245588462 -3.616611710764733 130.05395212530422 0.016774213761434405 -0.5117251466878344 3.1350958058172234e-17 
0.264 0.034848000000000004 -1.5475643267948966 -1.5591803267948965 0.0 1.5707963267948966 0.0 0.264 0.17599999999999993 0.08799999999999997 0.0 0.0 0.0 1.0 0.6666666666666664 0.3333333333333332 0.0 0.0 0.0 290.07769958351537 -102.30553092645903 491.06573789709194 -1.199370699210018 1.1582867186363235 -1.199370699210018 -114.05015681688364 -3.9760294694072726 133.92564695766788 0.018396020169743097 -0.5276794353032097 3.233067549749012e-17 
0.272 0.036992000000000004 -1.5461349934615631 -1.5584656601282298 0.0 1.5707963267948966 0.0 0.272 0.18133333333333326 0.09066666666666663 0.0 0.0 0.0 1.0 0.6666666666666664 0.3333333333333332 0.0 0.0 0.0 289.74299974997814 -101.70384950748083 491.68322078617973 -1.1987244508069534 1.1551816383081204 -1.198724450806954 -117.79371823196068 -4.3594138919723475 137.77894469923558 0.020119058753642623 -0.5436278354489101 3.3310392936807995e-17 
0.28 0.0391840016747206 -1.5446736590117496 -1.557734992903323 0.0 1.5707963267948966 0.0 0.2743434418098265 0.1828956278732176 0.0914478139366088 0.0 0.0 0.0 0.0 0.0 0.0 0.0 0.0 0.0 289.398147369169 -101.0907208175604 492.31355671667995 -1.1980588142801853 1.152010364956628 -1.1980588142801856 -119.10404435748535 -4.66936307643119 138.75387515132797 0.02149424645375693 -0.5482657144356481 3.359738178794721e-17 
0.288 0.04137874920919921 -1.5432104939887639 -1.5570034103918302 0.0 1.5707963267948966 0.0 0.2743434418098265 0.1828956278732176 0.0914478139366088 0.0 0.0 0.0 0.0 0.0 0.0 0.0 0.0 0.0 289.05017868904474 -100.47888574036509 492.9436949255341 -1.197387370517708 1.1488384973147914 -1.197387370517708 -119.39885694940367 -4.943397042608545 138.54081970190884 0.022697498544740426 -0.548217219554492 3.359738178794721e-17 
0.296 0.04357349674367781 -1.5417473289657782 -1.5562718278803374 0.0 1.5707963267948966 0.0 0.2743434418098265 0.1828956278732176 0.0914478139366088 0.0 0.0 0.0 0.0 0.0 0.0 0.0 0.0 0.0 288.69953332917623 -99.86912540947341 493.5728421307165 -1.1967109600796229 1.145670019101077 -1.1967109600796229 -119.69264247467734 -5.21873023197267 138.32709197928602 0.023900641303807108 -0.5481660839576936 3.359738178794721e-17 
0.304 0.04576824427815643 -1.5402841639427922 -1.5555402453688445 0.0 1.5707963267948966 0.0 0.2743434418098265 0.1828956278732176 0.0914478139366088 0.0 0.0 0.0 0.0 0.0 0.0 0.0 0.0 0.0 288.34622065810555 -99.2614515841547 494.20099527466726 -1.1960295928159124 1.142504939312167 -1.1960295928159126 -119.98539521535787 -5.495358515430071 138.11269275134444 0.025103668935520816 -0.5481123078915691 3.359738178794721e-17 
0.312 0.04796299181263504 -1.5388209989198065 -1.5548086628573516 0.0 1.5707963267948966 0.0 0.2743434418098265 0.1828956278732176 0.0914478139366088 0.0 0.0 0.0 0.0 0.0 0.0 0.0 0.0 0.0 287.99025009610574 -98.65587598401322 494.8281513032191 -1.195343278573598 1.139343266900195 -1.1953432785735987 -120.27710947043516 -5.773277738737939 137.89762278921478 0.026306575644999927 -0.5480558916151531 3.359738178794721e-17 
0.32 0.05015773934711366 -1.5373578338968208 -1.5540770803458588 0.0 1.5707963267948966 0.0 0.2743434418098265 0.1828956278732176 0.0914478139366088 0.0 0.0 0.0 0.0 0.0 0.0 0.0 0.0 0.0 287.6316311150155 -98.05241028876085 495.45430716561265 -1.1946520271966505 1.136185010772895 -1.1946520271966508 -120.56777955594802 -6.052483722574367 137.68188286727002 0.027509355637945317 -0.547996835400198 3.359738178794721e-17 
0.328 0.05235248688159227 -1.535894668873835 -1.553345497834366 0.0 1.5707963267948966 0.0 0.2743434418098265 0.1828956278732176 0.0914478139366088 0.0 0.0 0.0 0.0 0.0 0.0 0.0 0.0 0.0 287.2703732380745 -97.45106613798968 496.0794598145111 -1.193955848525899 1.133030179793751 -1.1939558485258992 -120.85739980509464 -6.33297226260902 137.4654737631228 0.028712003120668197 -0.5479351395311723 3.359738178794721e-17 
0.336 0.054547234416070886 -1.5344315038508494 -1.5526139153228729 0.0 1.5707963267948966 0.0 0.2743434418098265 0.1828956278732176 0.0914478139366088 0.0 0.0 0.0 0.0 0.0 0.0 0.0 0.0 0.0 286.9064860397563 -96.8518551309462 496.7036062060149 -1.1932547523989454 1.1298787827821506 -1.1932547523989456 -121.14596456834238 -6.614739129574302 137.24839625762172 0.029914512300118132 -0.54787080430526 3.359738178794721e-17 
0.344 0.0567419819505495 -1.5329683388278637 -1.55188233281138 0.0 1.5707963267948966 0.0 0.2743434418098265 0.1828956278732176 0.0914478139366088 0.0 0.0 0.0 0.0 0.0 0.0 0.0 0.0 0.0 286.5399791456013 -96.25478882630537 497.32674329967654 -1.192548748650076 1.1267308285135338 -1.1925487486500768 -121.43346821353752 -6.897780069336999 137.0306511348486 0.031116877383910835 -0.5478038300323586 3.359738178794721e-17 
0.352 0.058936729485028094 -1.531505173804878 -1.5511507502998871 0.0 1.5707963267948966 0.0 0.2743434418098265 0.1828956278732176 0.0914478139366088 0.0 0.0 0.0 0.0 0.0 0.0 0.0 0.0 0.0 286.17086223204757 -95.65987874194583 497.9488680585153 -1.191837847110179 1.123586325719545 -1.191837847110179 -121.71990512601464 -7.1820908029704125 136.81223918211487 0.032319092580356125 -0.5477342170350771 3.359738178794721e-17 
0.36 0.061131477019506705 -1.5300420087818922 -1.5504191677883943 0.0 1.5707963267948966 0.0 0.2743434418098265 0.1828956278732176 0.0914478139366088 0.0 0.0 0.0 0.0 0.0 0.0 0.0 0.0 0.0 285.7991450262619 -95.06713635472573 498.5699774490317 -1.191122057606652 1.120445283088184 -1.1911220576066521 -122.00526970870571 -7.46766702682697 136.59316118995864 0.03352115209848584 -0.5476619656487354 3.359738178794721e-17 
0.368 0.06332622455398532 -1.5285788437589063 -1.5496875852769014 0.0 1.5707963267948966 0.0 0.2743434418098265 0.1828956278732176 0.0914478139366088 0.0 0.0 0.0 0.0 0.0 0.0 0.0 0.0 0.0 285.4248373059688 -94.47657310025923 499.1900684412226 -1.190401389963323 1.117307709263953 -1.1904013899633235 -122.28955638224888 -7.754504412611314 136.3734179521411 0.03472305014808168 -0.5475870762213626 3.359738178794721e-17 
0.376 0.06552097208846394 -1.5271156787359206 -1.5489560027654086 0.0 1.5707963267948966 0.0 0.2743434418098265 0.1828956278732176 0.0914478139366088 0.0 0.0 0.0 0.0 0.0 0.0 0.0 0.0 0.0 285.04794889927996 -93.8882003726936 499.80913800859577 -1.1896758540003636 1.1141736128480129 -1.1896758540003638 -122.57275958509682 -8.042598607453874 136.15301026564381 0.03592478093970313 -0.5475095491136943 3.359738178794721e-17 
0.384 0.06771571962294255 -1.5256525137129349 -1.5482244202539157 0.0 1.5707963267948966 0.0 0.2743434418098265 0.1828956278732176 0.0914478139366088 0.0 0.0 0.0 0.0 0.0 0.0 0.0 0.0 0.0 284.66848968452024 -93.30202952448732 500.4271831281841 -1.1889454595342053 1.1110430023983289 -1.188945459534206 -122.85487377362512 -8.3319452339849 135.93193893066478 0.037126338684715356 -0.5474293846991722 3.359738178794721e-17 
0.392 0.06991046715742116 -1.5241893486899492 -1.5474928377424229 0.0 1.5707963267948966 0.0 0.2743434418098265 0.1828956278732176 0.0914478139366088 0.0 0.0 0.0 0.0 0.0 0.0 0.0 0.0 0.0 284.2864695900555 -92.71807186618848 501.04420078056097 -1.1882102163774586 1.1079158864298215 -1.1882102163774586 -123.13589342223982 -8.622539890409003 135.71020475061562 0.03832771759531706 -0.5473465833639415 3.359738178794721e-17 
0.4 0.07210521469189979 -1.5227261836669634 -1.54676125523093 0.0 1.5707963267948966 0.0 0.2743434418098265 0.1828956278732176 0.0914478139366088 0.0 0.0 0.0 0.0 0.0 0.0 0.0 0.0 0.0 283.9018985941178 -92.13633866621434 501.6601879498543 -1.1874701343388276 1.1047922734145195 -1.1874701343388279 -123.41581302348533 -8.914378150580138 135.487808532118 0.03952891188456838 -0.547261145506849 3.359738178794721e-17 
0.408 0.07429996222637839 -1.5212630186439777 -1.5460296727194371 0.0 1.5707963267948966 0.0 0.2743434418098265 0.1828956278732176 0.0914478139366088 0.0 0.0 0.0 0.0 0.0 0.0 0.0 0.0 0.0 283.5147867246298 -91.55684115063123 502.27514162376144 -1.1867252232230312 1.101672171781706 -1.1867252232230314 -123.69462708815128 -9.20745556407707 135.2647510850006 0.04072991576641873 -0.5471730715394417 3.359738178794721e-17 
0.416 0.07649470976085701 -1.519799853620992 -1.5452980902079443 0.0 1.5707963267948966 0.0 0.2743434418098265 0.1828956278732176 0.0914478139366088 0.0 0.0 0.0 0.0 0.0 0.0 0.0 0.0 0.0 283.12514405902874 -90.97959050293547 502.88905879356366 -1.1859754928307218 1.0985555899180708 -1.1859754928307218 -123.9723301453796 -9.50176765627933 135.04103322229543 0.041930723455734786 -0.5470823618859643 3.359738178794721e-17 
0.424 0.07868945729533561 -1.5183366885980063 -1.5445665076964514 0.0 1.5707963267948966 0.0 0.2743434418098265 0.1828956278732176 0.0914478139366088 0.0 0.0 0.0 0.0 0.0 0.0 0.0 0.0 0.0 282.7329807240886 -90.40459786383481 503.50193645414106 -1.185220952958403 1.0954425361678581 -1.185220952958403 -124.24891674277124 -9.797309928443614 134.81665576023465 0.04313132916832815 -0.5469890169833576 3.359738178794721e-17 
0.432 0.08088420482981422 -1.5168735235750204 -1.5438349251849586 0.0 1.5707963267948966 0.0 0.2743434418098265 0.1828956278732176 0.0914478139366088 0.0 0.0 0.0 0.0 0.0 0.0 0.0 0.0 0.0 282.33830689574205 -89.83187433103072 504.1137716039867 -1.1844616133983525 1.092333018833018 -1.1844616133983528 -124.52438144649224 -10.094077857780666 134.59161951824706 0.04433172712098343 -0.5468930372812559 3.359738178794721e-17 
0.44 0.08307895236429283 -1.5154103585520347 -1.5431033426734657 0.0 1.5707963267948966 0.0 0.2743434418098265 0.1828956278732176 0.0914478139366088 0.0 0.0 0.0 0.0 0.0 0.0 0.0 0.0 0.0 281.94113279890183 -89.26143095900139 504.7245612452213 -1.1836974839385448 1.0892270461733566 -1.1836974839385448 -124.79871884137962 -10.392066897532628 134.36592531895516 0.04553191153148596 -0.5467944232419855 3.359738178794721e-17 
0.448 0.08527369989877145 -1.513947193529049 -1.5423717601619729 0.0 1.5707963267948966 0.0 0.2743434418098265 0.1828956278732176 0.0914478139366088 0.0 0.0 0.0 0.0 0.0 0.0 0.0 0.0 0.0 281.5414687072793 -88.6932787587855 505.33430238360796 -1.182928574362568 1.0861246264066813 -1.1829285743625682 -125.07192353104728 -10.691272477050855 134.13957398817107 0.04673187661864966 -0.5466931753405615 3.359738178794721e-17 
0.456 0.08746844743325007 -1.5124840285060632 -1.5416401776504798 0.0 1.5707963267948966 0.0 0.2743434418098265 0.1828956278732176 0.0914478139366088 0.0 0.0 0.0 0.0 0.0 0.0 0.0 0.0 0.0 281.13932494320426 -88.12742869776663 505.9429920285666 -1.1821548944495506 1.0830257677089539 -1.1821548944495508 -125.34399013799104 -10.99169000187419 133.91256635489367 0.04793161660234492 -0.5465892940646864 3.359738178794721e-17 
0.464 0.08966319496772868 -1.5110208634830775 -1.540908595138987 0.0 1.5707963267948966 0.0 0.2743434418098265 0.1828956278732176 0.0914478139366088 0.0 0.0 0.0 0.0 0.0 0.0 0.0 0.0 0.0 280.7347118774423 -87.56389169945867 506.5506271931884 -1.181376453974083 1.0799304782144377 -1.1813764539740836 -125.61491330369377 -11.293314853807715 133.68490325130477 0.049131125703526485 -0.5464827799147479 3.359738178794721e-17 
0.472 0.09185794250220729 -1.5095576984600918 -1.540177012627494 0.0 1.5707963267948966 0.0 0.2743434418098265 0.1828956278732176 0.0914478139366088 0.0 0.0 0.0 0.0 0.0 0.0 0.0 0.0 0.0 280.327639929012 -87.00267864329157 507.1572048942504 -1.180593262706143 1.0768387660158474 -1.1805932627061435 -125.88468768872987 -11.596142391001953 133.45658551276605 0.050330398144261164 -0.5463736334038153 3.359738178794721e-17 
0.48 0.0940526900366859 -1.508094533437106 -1.5394454301160012 0.0 1.5707963267948966 0.0 0.2743434418098265 0.1828956278732176 0.0914478139366088 0.0 0.0 0.0 0.0 0.0 0.0 0.0 0.0 0.0 279.9181195650008 -86.44380036439836 507.76272215223 -1.1798053304110172 1.0737506391644962 -1.1798053304110174 -126.15330797286967 -11.90016794803253 133.22761397781528 0.051529428147755824 -0.5462618550576379 3.359738178794721e-17 
0.488 0.0962474375711645 -1.5066313684141204 -1.5387138476045084 0.0 1.5707963267948966 0.0 0.2743434418098265 0.1828956278732176 0.0914478139366088 0.0 0.0 0.0 0.0 0.0 0.0 0.0 0.0 0.0 279.50616130038 -85.8872676534025 508.3671759913193 -1.1790126668492291 1.0706661056704463 -1.1790126668492291 -126.42076885518341 -12.205386835980311 132.9979894881629 0.05272820993838505 -0.5461474454146427 3.359738178794721e-17 
0.496 0.09844218510564312 -1.5051682033911344 -1.5379822650930155 0.0 1.5707963267948966 0.0 0.2743434418098265 0.1828956278732176 0.0914478139366088 0.0 0.0 0.0 0.0 0.0 0.0 0.0 0.0 0.0 279.0917756978187 -85.33309125620623 508.9705634394399 -1.1782152817764624 1.0675851735026545 -1.1782152817764626 -126.68706505414488 -12.51179434251199 132.76771288868858 0.05392673774171911 -0.546030405025931 3.359738178794721e-17 
0.504 0.10063693264012173 -1.5037050383681487 -1.5372506825815226 0.0 1.5707963267948966 0.0 0.2743434418098265 0.1828956278732176 0.0914478139366088 0.0 0.0 0.0 0.0 0.0 0.0 0.0 0.0 0.0 278.67497336749796 -84.78128187377963 509.5728815282566 -1.1774131849434917 1.0645078505891248 -1.1774131849434921 -126.95219130773452 -12.819385731961086 132.53678502743793 0.05512500578455167 -0.5459107344552767 3.359738178794721e-17 
0.512 0.10283168017460034 -1.502241873345163 -1.5365191000700298 0.0 1.5707963267948966 0.0 0.2743434418098265 0.1828956278732176 0.0914478139366088 0.0 0.0 0.0 0.0 0.0 0.0 0.0 0.0 0.0 278.25576496692133 -84.23185016195056 510.1741272931928 -1.176606386096105 1.0614341448170521 -1.1766063860961051 -127.21614237354271 -13.128156245409508 132.30520675561843 0.05632300829492766 -0.5457884342791225 3.359738178794721e-17 
0.52 0.10502642770907895 -1.5007787083221773 -1.535787517558537 0.0 1.5707963267948966 0.0 0.2743434418098265 0.1828956278732176 0.0914478139366088 0.0 0.0 0.0 0.0 0.0 0.0 0.0 0.0 0.0 277.8341612007275 -83.68480673119507 510.7742977734444 -1.1757948949750328 1.0583640640329712 -1.175794894975033 -127.47891302887207 -13.438101100769458 132.0729789275963 0.057520739502171035 -0.545663505086578 3.359738178794721e-17 
0.528 0.10722117524355758 -1.4993155432991916 -1.535055935047044 0.0 1.5707963267948966 0.0 0.2743434418098265 0.1828956278732176 0.0914478139366088 0.0 0.0 0.0 0.0 0.0 0.0 0.0 0.0 0.0 277.4101728205004 -83.14016214642899 511.37339001199405 -1.1749787213158787 1.0552976160429064 -1.1749787213158789 -127.74049807083989 -13.749215492865842 131.84010240089304 0.058718193636912636 -0.5455359474794164 3.359738178794721e-17 
0.536 0.10941592277803619 -1.4978523782762059 -1.5343243525355512 0.0 1.5707963267948966 0.0 0.2743434418098265 0.1828956278732176 0.0914478139366088 0.0 0.0 0.0 0.0 0.0 0.0 0.0 0.0 0.0 276.98381062457804 -82.59792692680017 511.9714010556258 -1.174157874849046 1.052234808612518 -1.1741578748490462 -128.00089231647993 -14.06149459351912 131.60657803618133 0.05991536493111789 -0.5454057620720718 3.359738178794721e-17 
0.544 0.1116106703125148 -1.4963892132532202 -1.5335927700240584 0.0 1.5707963267948966 0.0 0.2743434418098265 0.1828956278732176 0.0914478139366088 0.0 0.0 0.0 0.0 0.0 0.0 0.0 0.0 0.0 276.55508545786216 -82.05811154548122 512.5683279549396 -1.173332365299668 1.0491756494672477 -1.173332365299668 -128.26009060284423 -14.374933551628638 131.37240669728217 0.06111224761811466 -0.5452729494916364 3.359738178794721e-17 
0.552 0.11380541784699341 -1.4949260482302342 -1.5328611875125655 0.0 1.5707963267948966 0.0 0.2743434418098265 0.1828956278732176 0.0914478139366088 0.0 0.0 0.0 0.0 0.0 0.0 0.0 0.0 0.0 276.1240082116245 -81.52072642946364 513.1641677643652 -1.172502202387538 1.0461201462924683 -1.1725022023875382 -128.5180877871039 -14.689527493256328 131.1375892511605 0.062308835932621015 -0.5451375103778571 3.359738178794721e-17 
0.56 0.11600016538147202 -1.4934628832072485 -1.5321296050010726 0.0 1.5707963267948966 0.0 0.2743434418098265 0.1828956278732176 0.0914478139366088 0.0 0.0 0.0 0.0 0.0 0.0 0.0 0.0 0.0 275.69058982331507 -80.98578195935207 513.7589175421768 -1.1716673958270423 1.0430683067336306 -1.1716673958270425 -128.77487874665047 -15.005271521710943 130.90212656792235 0.06350512411077298 -0.5449994453831324 3.359738178794721e-17 
0.568 0.11819491291595065 -1.4919997181842628 -1.5313980224895798 0.0 1.5707963267948966 0.0 0.2743434418098265 0.1828956278732176 0.0914478139366088 0.0 0.0 0.0 0.0 0.0 0.0 0.0 0.0 0.0 275.2548412763663 -80.45328846915996 514.3525743505074 -1.1708279553270882 1.0400201383964076 -1.1708279553270884 -129.03045837919586 -15.32216071763269 130.66601952081052 0.06470110639015235 -0.5448587551725095 3.359738178794721e-17 
0.576 0.12038966045042926 -1.490536553161277 -1.530666439978087 0.0 1.5707963267948966 0.0 0.2743434418098265 0.1828956278732176 0.0914478139366088 0.0 0.0 0.0 0.0 0.0 0.0 0.0 0.0 0.0 274.8167735999991 -79.92325624610568 514.9451352553631 -1.1699838905910398 1.0369756488468445 -1.16998389059104 -129.2848216028732 -15.640190139078305 130.42926898620135 0.06589677700981435 -0.5447154404236815 3.359738178794721e-17 
0.584 0.12258440798490784 -1.4890733881382914 -1.529934857466594 0.0 1.5707963267948966 0.0 0.2743434418098265 0.1828956278732176 0.0914478139366088 0.0 0.0 0.0 0.0 0.0 0.0 0.0 0.0 0.0 274.37639786902656 -79.39569553040951 515.5365973266371 -1.1691352113166482 1.0339348456115027 -1.1691352113166482 -129.53796335633604 -15.959354821606588 130.19187584360105 0.06709213021031543 -0.5445695018269832 3.359738178794721e-17 
0.592 0.12477915551938645 -1.4876102231153057 -1.529203274955101 0.0 1.5707963267948966 0.0 0.2743434418098265 0.1828956278732176 0.0914478139366088 0.0 0.0 0.0 0.0 0.0 0.0 0.0 0.0 0.0 273.93372520365676 -78.87061651509153 516.1269576381243 -1.1682819271959861 1.0308977361776077 -1.1682819271959863 -129.78987859885797 -16.27964977836438 129.9538409756417 0.06828716023374112 -0.5444209400853882 3.359738178794721e-17 
0.6 0.12697390305386508 -1.48614705809232 -1.5284716924436081 0.0 1.5707963267948966 0.0 0.2743434418098265 0.1828956278732176 0.0914478139366088 0.0 0.0 0.0 0.0 0.0 0.0 0.0 0.0 0.0 273.48876676929535 -78.34802934577019 516.7162132675355 -1.1674240479153815 1.027864327993193 -1.1674240479153817 -130.04056231043185 -16.601070000172946 129.715165268078 0.06948186132373359 -0.5442697559145061 3.359738178794721e-17 
0.608 0.1291686505883437 -1.4846838930693342 -1.5277401099321153 0.0 1.5707963267948966 0.0 0.2743434418098265 0.1828956278732176 0.0914478139366088 0.0 0.0 0.0 0.0 0.0 0.0 0.0 0.0 0.0 273.04153377634657 -77.82794412046194 517.3043612965116 -1.1665615831553533 1.0248346284672483 -1.1665615831553533 -130.29000949186826 -16.923610455614835 129.47584960978324 0.07067622772551947 -0.5441159500425778 3.359738178794721e-17 
0.616 0.1313633981228223 -1.4832207280463483 -1.5270085274206224 0.0 1.5707963267948966 0.0 0.2743434418098265 0.1828956278732176 0.0914478139366088 0.0 0.0 0.0 0.0 0.0 0.0 0.0 0.0 0.0 272.5920374800138 -77.31037088938147 517.8913988106378 -1.1656945425905434 1.0218086449698633 -1.1656945425905436 -130.53821516489404 -17.24726609112115 129.23589489274568 0.07187025368593752 -0.5439595232104734 3.359738178794721e-17 
0.624 0.1335581456573009 -1.4817575630233626 -1.5262769449091296 0.0 1.5707963267948966 0.0 0.2743434418098265 0.1828956278732176 0.0914478139366088 0.0 0.0 0.0 0.0 0.0 0.0 0.0 0.0 0.0 272.14028918009905 -76.79531965474287 518.4773228994579 -1.1648229358896576 1.0187863848323753 -1.164822935889658 -130.78517437225017 -17.572031831059284 128.99530201206474 0.07306393345346646 -0.5438004761716874 3.359738178794721e-17 
0.632 0.13575289319177952 -1.4802943980003769 -1.5255453623976367 0.0 1.5707963267948966 0.0 0.2743434418098265 0.1828956278732176 0.0914478139366088 0.0 0.0 0.0 0.0 0.0 0.0 0.0 0.0 0.0 271.68630022080185 -76.28280037056152 519.0621306564883 -1.1639467727153976 1.0157678553475114 -1.1639467727153978 -131.03088217778932 -17.897902577821032 128.7540718659475 0.07425726127825252 -0.5436388096923359 3.359738178794721e-17 
0.64 0.13794764072625815 -1.4788312329773912 -1.5248137798861439 0.0 1.5707963267948966 0.0 0.2743434418098265 0.1828956278732176 0.0914478139366088 0.0 0.0 0.0 0.0 0.0 0.0 0.0 0.0 0.0 271.23008199051634 -75.77282294245714 519.6458191792323 -1.1630660627244 1.0127530637695357 -1.1630660627244003 -131.2753336665731 -18.224873211911177 128.51220535570454 0.07545023141213723 -0.5434745245511526 3.359738178794721e-17 
0.648 0.14014238826073677 -1.4773680679544055 -1.524082197374651 0.0 1.5707963267948966 0.0 0.2743434418098265 0.1828956278732176 0.0914478139366088 0.0 0.0 0.0 0.0 0.0 0.0 0.0 0.0 0.0 270.771645921629 -75.26539722745729 520.2283855691948 -1.1621808155671742 1.0097420173143936 -1.1621808155671745 -131.51852394496927 -18.55293859203655 128.26970338574654 0.07664283810868512 -0.5433076215394852 3.359738178794721e-17 
0.656 0.14233713579521537 -1.4759049029314197 -1.5233506148631581 0.0 1.5707963267948966 0.0 0.2743434418098265 0.1828956278732176 0.0914478139366088 0.0 0.0 0.0 0.0 0.0 0.0 0.0 0.0 0.0 270.3110034903141 -74.76053303380188 520.8098269318949 -1.1612910408880397 1.0067347231598573 -1.1612910408880397 -131.7604481407474 -18.882093555195343 128.0265668635801 0.07783507562321128 -0.5431381014612909 3.359738178794721e-17 
0.664 0.14453188332969397 -1.474441737908434 -1.5226190323516653 0.0 1.5707963267948966 0.0 0.2743434418098265 0.1828956278732176 0.0914478139366088 0.0 0.0 0.0 0.0 0.0 0.0 0.0 0.0 0.0 269.8481662163291 -74.25824012074867 521.3901403768823 -1.1603967483250648 1.0037311884456668 -1.1603967483250648 -132.00110140317588 -19.212332916767128 127.78279669980432 0.07902693821280919 -0.5429659651331337 3.359738178794721e-17 
0.672 0.1467266308641726 -1.4729785728854483 -1.5218874498401724 0.0 1.5707963267948966 0.0 0.2743434418098265 0.1828956278732176 0.0914478139366088 0.0 0.0 0.0 0.0 0.0 0.0 0.0 0.0 0.0 269.3831456628089 -73.75852819837941 521.9693230177493 -1.159497947510007 1.0007314202736788 -1.159497947510007 -132.24047890311707 -19.543651470603017 127.53839380810669 0.08021842013637835 -0.5427912133841797 3.359738178794721e-17 
0.68 0.14892137839865122 -1.4715154078624624 -1.5211558673286796 0.0 1.5707963267948966 0.0 0.2743434418098265 0.1828956278732176 0.0914478139366088 0.0 0.0 0.0 0.0 0.0 0.0 0.0 0.0 0.0 268.91595343605917 -73.26140692740697 522.5473719721462 -1.1585946480682534 0.9977354257080072 -1.1585946480682536 -132.47857583312282 -19.876043989116422 127.29335910525931 0.08140951565465178 -0.542613847056193 3.359738178794721e-17 
0.688 0.15111612593312984 -1.4700522428394767 -1.5204242848171867 0.0 1.5707963267948966 0.0 0.2743434418098265 0.1828956278732176 0.0914478139366088 0.0 0.0 0.0 0.0 0.0 0.0 0.0 0.0 0.0 268.4466011853493 -72.7668859189833 523.1242843617944 -1.157686859618759 0.9947432117751682 -1.1576868596187593 -132.71538740752922 -20.209505223374148 127.04769351111526 0.08260021903022385 -0.542433867003532 3.359738178794721e-17 
0.696 0.15331087346760844 -1.468589077816491 -1.5196927023056939 0.0 1.5707963267948966 0.0 0.2743434418098265 0.1828956278732176 0.0914478139366088 0.0 0.0 0.0 0.0 0.0 0.0 0.0 0.0 0.0 267.9751006027035 -72.27497473450825 523.7000573125018 -1.1567745917739907 0.9917547854642236 -1.1567745917739907 -132.95090886255164 -20.544029903188036 126.80139794860419 0.08379052452757785 -0.5422512740931458 3.359738178794721e-17 
0.704 0.15550562100208704 -1.4671259127935052 -1.518961119794201 0.0 1.5707963267948966 0.0 0.2743434418098265 0.1828956278732176 0.0914478139366088 0.0 0.0 0.0 0.0 0.0 0.0 0.0 0.0 0.0 267.5014634226921 -71.78568288543924 524.2746879541758 -1.1558578541398665 0.9887701537269236 -1.1558578541398667 -133.18513545637853 -20.87961273720682 126.55447334372911 0.0849804264131136 -0.5420660692045683 3.359738178794721e-17 
0.712 0.15770036853656563 -1.4656627477705195 -1.5182295372827082 0.0 1.5707963267948966 0.0 0.2743434418098265 0.1828956278732176 0.0914478139366088 0.0 0.0 0.0 0.0 0.0 0.0 0.0 0.0 0.0 267.0257014222217 -71.29901983310184 524.848173420837 -1.1549366563156989 0.9857893234778504 -1.154936656315699 -133.41806246926512 -21.21624841300856 126.30692062556193 0.08616991895517509 -0.5418782532299161 3.359738178794721e-17 
0.72 0.15989511607104423 -1.4641995827475338 -1.517497954771215 0.0 1.5707963267948966 0.0 0.2743434418098265 0.1828956278732176 0.0914478139366088 0.0 0.0 0.0 0.0 0.0 0.0 0.0 0.0 0.0 266.5478264203236 -70.81499498850131 525.4205108506351 -1.154011007894139 0.9828123015945609 -1.1540110078941392 -133.64968520362737 -21.5539315971935 126.0587407262397 0.0873589964240781 -0.5416878270738825 3.359738178794721e-17 
0.728 0.16208986360552285 -1.462736417724548 -1.5167663722597222 0.0 1.5707963267948966 0.0 0.2743434418098265 0.1828956278732176 0.0914478139366088 0.0 0.0 0.0 0.0 0.0 0.0 0.0 0.0 0.0 266.0678502779433 -70.33361771213478 525.9916973858603 -1.153080918461117 0.9798390949177287 -1.1530809184611173 -133.87999898413432 -21.892656935477145 125.80993458096107 0.08854765309213776 -0.5414947916537342 3.359738178794721e-17 
0.736 0.16428461114000148 -1.4612732527015624 -1.5160347897482294 0.0 1.5707963267948966 0.0 0.2743434418098265 0.1828956278732176 0.0914478139366088 0.0 0.0 0.0 0.0 0.0 0.0 0.0 0.0 0.0 265.58578489772697 -69.85489731380471 526.5617301729591 -1.15214639759579 0.9768697102512877 -1.1521463975957904 -134.10899915780084 -22.232419052783982 125.5605031279816 0.08973588323369616 -0.5412991478993062 3.359738178794721e-17 
0.744 0.1664793586744801 -1.4598100876785765 -1.5153032072367365 0.0 1.5707963267948966 0.0 0.2743434418098265 0.1828956278732176 0.0914478139366088 0.0 0.0 0.0 0.0 0.0 0.0 0.0 0.0 0.0 265.1016422238086 -69.3788430524327 527.1306063625481 -1.1512074548704827 0.9739041543625724 -1.1512074548704831 -134.33668109408055 -22.573212553341527 125.31044730861045 0.09092368112514992 -0.541100896752998 3.359738178794721e-17 
0.752 0.16867410620895873 -1.4583469226555907 -1.5145716247252436 0.0 1.5707963267948966 0.0 0.2743434418098265 0.1828956278732176 0.0914478139366088 0.0 0.0 0.0 0.0 0.0 0.0 0.0 0.0 0.0 264.6154342415962 -68.90546413587472 527.6983231094274 -1.1502640998506357 0.9709424339824625 -1.150264099850636 -134.56304018495683 -22.91503202077474 125.05976806720619 0.0921110410449778 -0.5409000391697684 3.359738178794721e-17 
0.76 0.1708688537434373 -1.456883757632605 -1.5138400422137508 0.0 1.5707963267948966 0.0 0.2743434418098265 0.1828956278732176 0.0914478139366088 0.0 0.0 0.0 0.0 0.0 0.0 0.0 0.0 0.0 264.1271729775557 -68.434769720737 528.2648775725943 -1.1493163420947479 0.96798455580552 -1.1493163420947483 -134.7880718450342 -23.25787201820079 124.8084663511726 0.0932979572737682 -0.5406965761171312 3.359738178794721e-17 
0.768 0.17306360127791592 -1.4554205926096193 -1.513108459702258 0.0 1.5707963267948966 0.0 0.2743434418098265 0.1828956278732176 0.0914478139366088 0.0 0.0 0.0 0.0 0.0 0.0 0.0 0.0 0.0 263.63687049899653 -67.9667689121927 528.8302669152581 -1.1483641911543272 0.965030526490136 -1.1483641911543274 -135.0117715116301 -23.601727088324477 124.55654311095498 0.09448442409424684 -0.5404905085751507 3.359738178794721e-17 
0.776 0.17525834881239455 -1.4539574275866336 -1.512376877190765 0.0 1.5707963267948966 0.0 0.2743434418098265 0.1828956278732176 0.0914478139366088 0.0 0.0 0.0 0.0 0.0 0.0 0.0 0.0 0.0 263.1445389138539 -67.50147076379983 529.3944883048538 -1.1474076565738327 0.9620803526586673 -1.147407656573833 -135.23413464486487 -23.946591753533774 124.30399930003588 0.09567043579130405 -0.5402818375364367 3.359738178794721e-17 
0.784 0.17745309634687317 -1.4524942625636479 -1.5116452946792722 0.0 1.5707963267948966 0.0 0.2743434418098265 0.1828956278732176 0.0914478139366088 0.0 0.0 0.0 0.0 0.0 0.0 0.0 0.0 0.0 262.6501903704721 -67.0388842773197 529.9575389130551 -1.146446747890625 0.9591340408975801 -1.146446747890625 -135.4551567277522 -24.292460515995906 124.05083587493124 0.09685598665202255 -0.5400705640061396 3.359738178794721e-17 
0.792 0.1796478438813518 -1.4510310975406622 -1.5109137121677794 0.0 1.5707963267948966 0.0 0.2743434418098265 0.1828956278732176 0.0914478139366088 0.0 0.0 0.0 0.0 0.0 0.0 0.0 0.0 0.0 262.15383705738594 -66.57901840253648 530.5194159157893 -1.1454814746349133 0.9561915977575898 -1.1454814746349133 -135.67483326628872 -24.63932785775379 123.79705379518629 0.09804107096570486 -0.5398566890019463 3.359738178794721e-17 
0.8 0.18184259141583037 -1.4495679325176765 -1.5101821296562865 0.0 1.5707963267948966 0.0 0.2743434418098265 0.1828956278732176 0.0914478139366088 0.0 0.0 0.0 0.0 0.0 0.0 0.0 0.0 0.0 261.6554912031017 -66.1218820370778 531.0801164932507 -1.1445118463297024 0.9532530297538001 -1.1445118463297024 -135.89315978954374 -24.987188240822963 123.5426540233714 0.09922568302390074 -0.5396402135540743 3.359738178794721e-17 
0.808 0.184037338950309 -1.4481047674946905 -1.5094505471447937 0.0 1.5707963267948966 0.0 0.2743434418098265 0.1828956278732176 0.0914478139366088 0.0 0.0 0.0 0.0 0.0 0.0 0.0 0.0 0.0 261.1551650758774 -65.66748402623597 531.6396378299141 -1.1435378724907441 0.9503183433658452 -1.1435378724907441 -136.11013184974797 -25.33603610728875 123.28763752507814 0.1004098171204349 -0.5394211387052674 3.359738178794721e-17 
0.816 0.18623208648478762 -1.4466416024717048 -1.5087189646333008 0.0 1.5707963267948966 0.0 0.2743434418098265 0.1828956278732176 0.0914478139366088 0.0 0.0 0.0 0.0 0.0 0.0 0.0 0.0 0.0 260.6528709835022 -65.21583316279023 532.1979771145496 -1.1425595626264853 0.9473875450380287 -1.1425595626264853 -136.3257450223821 -25.685865879403966 123.03200526891499 0.10159346755143425 -0.5391994655107906 3.359738178794721e-17 
0.824 0.18842683401926624 -1.445178437448719 -1.507987382121808 0.0 1.5707963267948966 0.0 0.2743434418098265 0.1828956278732176 0.0914478139366088 0.0 0.0 0.0 0.0 0.0 0.0 0.0 0.0 0.0 260.1486212730749 -64.7669381868302 532.7551315402352 -1.1415769262380173 0.9444606411794625 -1.1415769262380173 -136.53999490626504 -26.036671959686906 122.7757582265035 0.1027766286153555 -0.5389751950384246 3.359738178794721e-17 
0.832 0.19062158155374487 -1.4437152724257334 -1.507255799610315 0.0 1.5707963267948966 0.0 0.2743434418098265 0.1828956278732176 0.0914478139366088 0.0 0.0 0.0 0.0 0.0 0.0 0.0 0.0 0.0 259.6424283307818 -64.32080778557982 533.3110983043712 -1.1405899728190285 0.9415376381642075 -1.1405899728190285 -136.75287712364167 -26.388448731019825 122.51889737247394 0.10395929461301262 -0.5387483283684612 3.359738178794721e-17 
0.84 0.19281632908822344 -1.4422521074027477 -1.5065242170988222 0.0 1.5707963267948966 0.0 0.2743434418098265 0.1828956278732176 0.0914478139366088 0.0 0.0 0.0 0.0 0.0 0.0 0.0 0.0 0.0 259.13430458167335 -63.87745059322255 533.8658746086941 -1.139598711855754 0.9386185423314124 -1.139598711855754 -136.96438732027013 -26.741190556747732 122.26142368446126 0.10514145984760422 -0.5385188665936981 3.359738178794721e-17 
0.848 0.19501107662270206 -1.440788942379762 -1.5057926345873291 0.0 1.5707963267948966 0.0 0.2743434418098265 0.1828956278732176 0.0914478139366088 0.0 0.0 0.0 0.0 0.0 0.0 0.0 0.0 0.0 258.62426248944075 -63.4368751907273 534.4194576592902 -1.1386031528269256 0.9357033599854506 -1.1386031528269258 -137.17452116550882 -27.094891780777626 122.00333814310076 0.1063231186247411 -0.5382868108194327 3.359738178794721e-17 
0.856 0.19720582415718063 -1.4393257773567762 -1.5050610520758363 0.0 1.5707963267948966 0.0 0.2743434418098265 0.1828956278732176 0.0914478139366088 0.0 0.0 0.0 0.0 0.0 0.0 0.0 0.0 0.0 258.11231455619173 -62.99909010567558 534.9718446666086 -1.1376033052037289 0.9327920973960624 -1.1376033052037289 -137.38327435240242 -27.449546727677987 121.74464173202442 0.10750426525247359 -0.5380521621634582 3.359738178794721e-17 
0.864 0.19940057169165926 -1.4378626123337905 -1.5043294695643434 0.0 1.5707963267948966 0.0 0.2743434418098265 0.1828956278732176 0.0914478139366088 0.0 0.0 0.0 0.0 0.0 0.0 0.0 0.0 0.0 257.5984733222241 -62.56410381208908 535.5230328454763 -1.1365991784497496 0.9298847607984897 -1.1365991784497498 -137.59064259776878 -27.805149702778913 121.485335437856 0.10868489404131904 -0.537814921756057 3.359738178794721e-17 
0.872 0.20159531922613788 -1.4363994473108046 -1.5035978870528506 0.0 1.5707963267948966 0.0 0.2743434418098265 0.1828956278732176 0.0914478139366088 0.0 0.0 0.0 0.0 0.0 0.0 0.0 0.0 0.0 257.08275136580073 -62.13192473025896 536.0730194151108 -1.135590782020932 0.9269813563936162 -1.1355907820209323 -137.79662164228384 -28.161694992272352 121.22542025020743 0.10986499930428914 -0.5375750907399961 3.359738178794721e-17 
0.88 0.2037900667606165 -1.4349362822878189 -1.5028663045413577 0.0 1.5707963267948966 0.0 0.2743434418098265 0.1828956278732176 0.0914478139366088 0.0 0.0 0.0 0.0 0.0 0.0 0.0 0.0 0.0 256.5651613029222 -61.70256122657525 536.621801599134 -1.1345781253655303 0.924081890348105 -1.1345781253655305 -138.001207250567 -28.519176863312847 120.96489716167434 0.11104457535691736 -0.537332670270521 3.359738178794721e-17 
0.888 0.20598481429509513 -1.4334731172648332 -1.5021347220298649 0.0 1.5707963267948966 0.0 0.2743434418098265 0.1828956278732176 0.0914478139366088 0.0 0.0 0.0 0.0 0.0 0.0 0.0 0.0 0.0 256.04571578709937 -61.276021613357905 537.169376625586 -1.1335612179240613 0.9211863687945343 -1.1335612179240615 -138.2043952112663 -28.877589564118757 120.70376716783196 0.11222361651728635 -0.5370876615153504 3.359738178794721e-17 
0.896 0.2081795618295737 -1.4320099522418475 -1.501403139518372 0.0 1.5707963267948966 0.0 0.2743434418098265 0.1828956278732176 0.0914478139366088 0.0 0.0 0.0 0.0 0.0 0.0 0.0 0.0 0.0 255.52442750912448 -60.85231414868839 537.7157417269386 -1.1325400691292622 0.9182947978315368 -1.1325400691292624 -138.4061813371421 -29.236927324073612 120.44203126723058 0.11340211710605529 -0.5368400656546706 3.359738178794721e-17 
0.904 0.21037430936405233 -1.4305467872188617 -1.5006715570068792 0.0 1.5707963267948966 0.0 0.2743434418098265 0.1828956278732176 0.0914478139366088 0.0 0.0 0.0 0.0 0.0 0.0 0.0 0.0 0.0 255.00130919684284 -60.431447036242396 538.2608941401091 -1.1315146884060447 0.915407183523936 -1.131514688406045 -138.6065614651516 -29.597184353828073 120.17969046139179 0.11458007144648727 -0.5365898838811298 3.359738178794721e-17 
0.912 0.21256905689853095 -1.429083622195876 -1.4999399744953863 0.0 1.5707963267948966 0.0 0.2743434418098265 0.1828956278732176 0.0914478139366088 0.0 0.0 0.0 0.0 0.0 0.0 0.0 0.0 0.0 254.47637361492218 -60.013428425123465 538.8048311064737 -1.1304850851714496 0.9125235319028825 -1.1304850851714496 -138.80553145653198 -29.958354845402123 119.91674575480366 0.11575747386447655 -0.5363371173998324 3.359738178794721e-17 
0.92 0.21476380443300958 -1.4276204571728903 -1.4992083919838934 0.0 1.5707963267948966 0.0 0.2743434418098265 0.1828956278732176 0.0914478139366088 0.0 0.0 0.0 0.0 0.0 0.0 0.0 0.0 0.0 253.9496335646225 -59.59826640969761 539.3475498718809 -1.1294512688346032 0.90964384896599 -1.1294512688346032 -139.0030871968836 -30.320432972287733 119.65319815491694 0.11693431868857604 -0.5360817674283327 3.359738178794721e-17 
0.928 0.2169585519674882 -1.4261572921499046 -1.4984768094724006 0.0 1.5707963267948966 0.0 0.2743434418098265 0.1828956278732176 0.0914478139366088 0.0 0.0 0.0 0.0 0.0 0.0 0.0 0.0 0.0 253.4211018835644 -59.18596902942899 539.8890476866658 -1.128413248796676 0.9067681406774724 -1.1284132487966758 -139.1992245962526 -30.683412889551786 119.38904867214045 0.1181106002500244 -0.5358238351966301 3.359738178794721e-17 
0.936 0.21915329950196677 -1.4246941271269187 -1.4977452269609077 0.0 1.5707963267948966 0.0 0.2743434418098265 0.1828956278732176 0.0914478139366088 0.0 0.0 0.0 0.0 0.0 0.0 0.0 0.0 0.0 252.8907914454971 -58.77654426871641 540.4293218056625 -1.127371034450837 0.903896412968279 -1.1273710344508372 -139.39393958921303 -31.04728873393944 119.1242983198369 0.11928631288277361 -0.535563321947162 3.359738178794721e-17 
0.944 0.2213480470364454 -1.423230962103933 -1.4970136444494149 0.0 1.5707963267948966 0.0 0.2743434418098265 0.1828956278732176 0.0914478139366088 0.0 0.0 0.0 0.0 0.0 0.0 0.0 0.0 0.0 252.35871516006586 -58.37000005673069 540.9683694882189 -1.1263246351822143 0.9010286717362312 -1.1263246351822143 -139.58722813494862 -31.412054623977866 118.8589481143186 0.1204614509235161 -0.5353002289347987 3.359738178794721e-17 
0.952 0.22354279457092402 -1.4217677970809472 -1.496282061937922 0.0 1.5707963267948966 0.0 0.2743434418098265 0.1828956278732176 0.0914478139366088 0.0 0.0 0.0 0.0 0.0 0.0 0.0 0.0 0.0 251.82488597257776 -57.96634426725355 541.5061879982086 -1.1252740603678504 0.8981649228461556 -1.1252740603678506 -139.77908621733388 -31.77770466008026 118.59299907484292 0.12163600871171198 -0.5350345574268366 3.359738178794721e-17 
0.96 0.2257375421054026 -1.4203046320579615 -1.4955504794264292 0.0 1.5707963267948966 0.0 0.2743434418098265 0.1828956278732176 0.0914478139366088 0.0 0.0 0.0 0.0 0.0 0.0 0.0 0.0 0.0 251.2893168637679 -57.565584718516845 542.042774604046 -1.124219319376663 0.8953051721300205 -1.124219319376663 -139.9695098450154 -32.14423292465035 118.32645222360816 0.12280998058961651 -0.5347663087029927 3.359738178794721e-17 
0.968 0.2279322896398812 -1.4188414670349758 -1.494818896914936 0.0 1.5707963267948966 0.0 0.2743434418098265 0.1828956278732176 0.0914478139366088 0.0 0.0 0.0 0.0 0.0 0.0 0.0 0.0 0.0 250.7520208495643 -57.16772917304313 542.5781265786995 -1.1231604215694029 0.8924494253870704 -1.1231604215694029 -140.15849505149217 -32.51163348218726 118.05930858574908 0.12398336090230715 -0.5344954840553984 3.359738178794721e-17 
0.976 0.23012703717435984 -1.41737830201199 -1.4940873144034432 0.0 1.5707963267948966 0.0 0.2743434418098265 0.1828956278732176 0.0914478139366088 0.0 0.0 0.0 0.0 0.0 0.0 0.0 0.0 0.0 250.213010980852 -56.77278533748714 543.1122411997032 -1.122097376298615 0.8895976883839611 -1.122097376298615 -140.3460378951948 -32.87990037939039 117.7915691893325 0.1251561439977109 -0.5342220847885931 3.359738178794721e-17 
0.984 0.23232178470883846 -1.4159151369890044 -1.4933557318919504 0.0 1.5707963267948966 0.0 0.2743434418098265 0.1828956278732176 0.0914478139366088 0.0 0.0 0.0 0.0 0.0 0.0 0.0 0.0 0.0 249.67230034323677 -56.380760862478375 543.6451157491728 -1.1210301929085966 0.886749966854892 -1.1210301929085968 -140.53213445956612 -33.249027645265244 117.52323506535294 0.1263283242266315 -0.5339461122195175 3.359738178794721e-17 
0.992 0.2345165322433171 -1.4144519719660187 -1.4926241493804575 0.0 1.5707963267948966 0.0 0.2743434418098265 0.1828956278732176 0.0914478139366088 0.0 0.0 0.0 0.0 0.0 0.0 0.0 0.0 0.0 249.12990205680796 -55.99166334246435 544.1767475138171 -1.1199588807353587 0.8839062665017416 -1.1199588807353589 -140.71678085313954 -33.619009291229126 117.25430724772815 0.12749989594277664 -0.5336675676775081 3.359738178794721e-17 
1.0 0.23671127977779566 -1.4129888069430327 -1.4918925668689647 0.0 1.5707963267948966 0.0 0.2743434418098265 0.1828956278732176 0.0914478139366088 0.0 0.0 0.0 0.0 0.0 0.0 0.0 0.0 0.0 248.58582927590032 -55.60550031555536 544.7071337849526 -1.118883449106588 0.8810665929942 -1.1188834491065882 -140.899973209618 -33.989839311217395 116.98478677329476 0.12867085350278518 -0.5333864525042901 3.359738178794721e-17 
1.008 0.23890602731227428 -1.411525641920047 -1.4911609843574718 0.0 1.5707963267948966 0.0 0.2743434418098265 0.1828956278732176 0.0914478139366088 0.0 0.0 0.0 0.0 0.0 0.0 0.0 0.0 0.0 248.04009518885613 -55.222279263369664 545.236271858516 -1.1178039073416073 0.8782309519699029 -1.1178039073416075 -141.0817076879519 -34.36151168179002 116.7146746818039 0.1298411912662543 -0.5331027680539714 3.359738178794721e-17 
1.016 0.2411007748467529 -1.4100624768970613 -1.490429401845979 0.0 1.5707963267948966 0.0 0.2743434418098265 0.1828956278732176 0.0914478139366088 0.0 0.0 0.0 0.0 0.0 0.0 0.0 0.0 0.0 247.4927130177851 -54.84200761088027 545.7641590350783 -1.116720264751338 0.8753993490345648 -1.1167202647513381 -141.26198047241692 -34.734020362238525 116.44397201591646 0.13101090359576673 -0.532816515693036 3.359738178794721e-17 
1.024 0.24329552238123153 -1.4085993118740756 -1.489697819334486 0.0 1.5707963267948966 0.0 0.2743434418098265 0.1828956278732176 0.0914478139366088 0.0 0.0 0.0 0.0 0.0 0.0 0.0 0.0 0.0 246.9436960183251 -54.46469272626219 546.2907926198574 -1.1156325306382613 0.87257178976211 -1.1156325306382615 -141.44078777269146 -35.107359294693225 116.17267982119904 0.13217998485691781 -0.5325276968003368 3.359738178794721e-17 
1.032 0.24549026991571016 -1.40713614685109 -1.4889662368229932 0.0 1.5707963267948966 0.0 0.2743434418098265 0.1828956278732176 0.0914478139366088 0.0 0.0 0.0 0.0 0.0 0.0 0.0 0.0 0.0 246.393057479401 -54.09034192074114 546.8161699227319 -1.114540714296384 0.8697482796948077 -1.1145407142963841 -141.61812582393304 -35.481522404230816 115.90079914611894 0.1333484294183427 -0.5322363127670902 3.359738178794721e-17 
1.04 0.24768501745018873 -1.4056729818281042 -1.4882346543115004 0.0 1.5707963267948966 0.0 0.2743434418098265 0.1828956278732176 0.0914478139366088 0.0 0.0 0.0 0.0 0.0 0.0 0.0 0.0 0.0 245.84081072298386 -53.71896244844295 547.3402882582542 -1.1134448250111981 0.8669288243434009 -1.1134448250111983 -141.793990886855 -35.856503598982364 115.62833104204032 0.13451623165174348 -0.5319423649968679 3.359738178794721e-17 
1.048 0.24987976498466735 -1.4042098168051185 -1.4875030718000075 0.0 1.5707963267948966 0.0 0.2743434418098265 0.1828956278732176 0.0914478139366088 0.0 0.0 0.0 0.0 0.0 0.0 0.0 0.0 0.0 245.28696910384838 -53.35056150624412 547.863144945664 -1.1123448720596485 0.8641134291872405 -1.1123448720596485 -141.9683792478022 -36.23229677024161 115.35527656321892 0.1356833859319163 -0.5316458549055915 3.359738178794721e-17 
1.056 0.252074512519146 -1.4027466517821328 -1.4867714892885147 0.0 1.5707963267948966 0.0 0.2743434418098265 0.1828956278732176 0.0914478139366088 0.0 0.0 0.0 0.0 0.0 0.0 0.0 0.0 0.0 244.731546009331 -52.98514623362348 548.3847373089012 -1.111240864710093 0.8613020996744162 -1.1112408647100933 -142.14128721882662 -36.60889579257354 115.08163676679838 0.13684988663677847 -0.5313467839215247 3.359738178794721e-17 
1.064 0.2542692600536246 -1.401283486759147 -1.4860399067770218 0.0 1.5707963267948966 0.0 0.2743434418098265 0.1828956278732176 0.0914478139366088 0.0 0.0 0.0 0.0 0.0 0.0 0.0 0.0 0.0 244.1745548590856 -52.6227237125147 548.9050626766192 -1.1101328122222724 0.8584948412218879 -1.1101328122222724 -142.312711137762 -36.98629452392334 114.80741271280498 0.13801572814739538 -0.531045153485267 3.359738178794721e-17 
1.072 0.2564640075881032 -1.399820321736161 -1.485308324265529 0.0 1.5707963267948966 0.0 0.2743434418098265 0.1828956278732176 0.0914478139366088 0.0 0.0 0.0 0.0 0.0 0.0 0.0 0.0 0.0 243.6160091048401 -52.26330096715995 549.4241183821982 -1.1090207238472698 0.8556916592156152 -1.1090207238472698 -142.48264736829853 -37.36448680572576 114.53260546414333 0.13918090484800785 -0.5307409650497465 3.359738178794721e-17 
1.08 0.2586587551225818 -1.3983571567131754 -1.484576741754036 0.0 1.5707963267948966 0.0 0.2743434418098265 0.1828956278732176 0.0914478139366088 0.0 0.0 0.0 0.0 0.0 0.0 0.0 0.0 0.0 243.05592223015196 -51.9068849639646 549.9419017637586 -1.107904608827481 0.8528925590106905 -1.1079046088274813 -142.651092300057 -37.74346646301469 114.25721608659211 0.14034541112605892 -0.5304342200802131 3.359738178794721e-17 
1.088 0.2608535026570604 -1.3968939916901897 -1.4838451592425432 0.0 1.5707963267948966 0.0 0.2743434418098265 0.1828956278732176 0.0914478139366088 0.0 0.0 0.0 0.0 0.0 0.0 0.0 0.0 0.0 242.49430775016253 -51.5534826113527 550.4584101641736 -1.106784476396578 0.8500975459314665 -1.106784476396578 -142.81804234866223 -38.12322730453321 113.9812456487991 0.1415092413722212 -0.5301249200542312 3.359738178794721e-17 
1.096 0.26304825019153905 -1.395430826667204 -1.4831135767310504 0.0 1.5707963267948966 0.0 0.2743434418098265 0.1828956278732176 0.0914478139366088 0.0 0.0 0.0 0.0 0.0 0.0 0.0 0.0 0.0 241.93117921135075 -51.20310075962412 550.973640931083 -1.1056603357794756 0.847306625271688 -1.1056603357794756 -142.98349395581596 -38.50376312284371 113.70469522227653 0.14267238998042336 -0.5298130664616724 3.359738178794721e-17 
1.104 0.26524299772601767 -1.3939676616442183 -1.4823819942195573 0.0 1.5707963267948966 0.0 0.2743434418098265 0.1828956278732176 0.0914478139366088 0.0 0.0 0.0 0.0 0.0 0.0 0.0 0.0 0.0 241.3665501912872 -50.85574620081195 551.4875914169062 -1.1045321961923 0.8445198022946213 -1.1045321961923005 -143.1474435893701 -38.88506769443875 113.42756588139689 0.14383485134787782 -0.5294986608047091 3.359738178794721e-17 
1.112 0.2674377452604963 -1.3925044966212325 -1.4816504117080644 0.0 1.5707963267948966 0.0 0.2743434418098265 0.1828956278732176 0.0914478139366088 0.0 0.0 0.0 0.0 0.0 0.0 0.0 0.0 0.0 240.8004342983865 -50.51142566854139 552.0002589788542 -1.1034000668423556 0.8417370822331831 -1.1034000668423556 -143.30988774339784 -39.267134779851666 113.14985870338793 0.1449966198751071 -0.5291817045978066 3.359738178794721e-17 
1.12 0.26963249279497487 -1.3910413315982466 -1.4809188291965716 0.0 1.5707963267948966 0.0 0.2743434418098265 0.1828956278732176 0.0914478139366088 0.0 0.0 0.0 0.0 0.0 0.0 0.0 0.0 0.0 240.23284517165942 -50.17014583788978 552.5116409789448 -1.10226395692809 0.8389584702900698 -1.1022639569280905 -143.4708229382665 -39.649958123768236 112.87157476832823 0.1461576899659712 -0.5288621993677158 3.359738178794721e-17 
1.128 0.2718272403294535 -1.389578166575261 -1.4801872466850787 0.0 1.5707963267948966 0.0 0.2743434418098265 0.1828956278732176 0.0914478139366088 0.0 0.0 0.0 0.0 0.0 0.0 0.0 0.0 0.0 239.66379648046444 -49.831913325247214 553.0217347840137 -1.101123875639068 0.8361839716378863 -1.1011238756390682 -143.63024572070782 -40.03353145513791 112.5927151591424 0.1473180560276944 -0.5285401466534663 3.359738178794721e-17 
1.136 0.2740219878639321 -1.3881150015522752 -1.4794556641735859 0.0 1.5707963267948966 0.0 0.2743434418098265 0.1828956278732176 0.0914478139366088 0.0 0.0 0.0 0.0 0.0 0.0 0.0 0.0 0.0 239.0933019242584 -49.49673468817886 553.5305377657286 -1.0999798321559342 0.8334135914192743 -1.0999798321559344 -143.7881526638892 -40.417848487285916 112.31328096159658 0.14847771247089225 -0.5282155480063584 3.359738178794721e-17 
1.144 0.27621673539841074 -1.3866518365292895 -1.478724081662093 0.0 1.5707963267948966 0.0 0.2743434418098265 0.1828956278732176 0.0914478139366088 0.0 0.0 0.0 0.0 0.0 0.0 0.0 0.0 0.0 238.52137523234686 -49.16461642528763 554.038047300602 -1.0988318356503861 0.8306473347470406 -1.0988318356503861 -143.94454036748374 -40.80290291802543 112.03327326429356 0.14963665370959847 -0.5278884049899564 3.359738178794721e-17 
1.152 0.27841148293288936 -1.3851886715063038 -1.4779924991506002 0.0 1.5707963267948966 0.0 0.2743434418098265 0.1828956278732176 0.0914478139366088 0.0 0.0 0.0 0.0 0.0 0.0 0.0 0.0 0.0 237.94803016363372 -48.83556497607852 554.544260770004 -1.0976798952851423 0.8278852067042853 -1.0976798952851423 -144.09940545774012 -41.188688429770075 111.75269315866835 0.15079487416129184 -0.5275587191800801 3.359738178794721e-17 
1.16 0.2806062304673679 -1.383725506483318 -1.4772609166391073 0.0 1.5707963267948966 0.0 0.2743434418098265 0.1828956278732176 0.0914478139366088 0.0 0.0 0.0 0.0 0.0 0.0 0.0 0.0 0.0 237.3732805063699 -48.509586720823606 555.0491755601756 -1.0965240202139126 0.825127212344528 -1.0965240202139126 -144.25274458755166 -41.57519868964678 111.47154173898315 0.15195236824692304 -0.5272264921647982 3.359738178794721e-17 
1.168 0.2828009780018465 -1.3822623414603323 -1.4765293341276144 0.0 1.5707963267948966 0.0 0.2743434418098265 0.1828956278732176 0.0914478139366088 0.0 0.0 0.0 0.0 0.0 0.0 0.0 0.0 0.0 236.79714007790204 -48.186687980428204 555.5527890622415 -1.0953642195813682 0.8223733566918363 -1.0953642195813684 -144.40455443652553 -41.962427349609 111.18982010232293 0.15310913039094182 -0.5268917255444197 3.359738178794721e-17 
1.176 0.28499572553632513 -1.3807991764373466 -1.4757977516161216 0.0 1.5707963267948966 0.0 0.2743434418098265 0.1828956278732176 0.0914478139366088 0.0 0.0 0.0 0.0 0.0 0.0 0.0 0.0 0.0 236.21962272442025 -47.86687501629822 556.0550986722232 -1.094200502523113 0.8196236447409525 -1.094200502523113 -144.55483171105072 -42.35036804655013 110.90752934859054 0.1542651550213234 -0.526554420931487 3.359738178794721e-17 
1.184 0.28719047307080375 -1.379336011414361 -1.4750661691046287 0.0 1.5707963267948966 0.0 0.2743434418098265 0.1828956278732176 0.0914478139366088 0.0 0.0 0.0 0.0 0.0 0.0 0.0 0.0 0.0 235.64074232070482 -47.5501540302085 556.5561017910513 -1.0930328781656544 0.8168780814574197 -1.0930328781656544 -144.70357314436592 -42.73901440241717 110.62467058050197 0.1554204365695956 -0.5262145799507676 3.359738178794721e-17 
1.192 0.2893852206052824 -1.3778728463913752 -1.4743345865931359 0.0 1.5707963267948966 0.0 0.2743434418098265 0.1828956278732176 0.0914478139366088 0.0 0.0 0.0 0.0 0.0 0.0 0.0 0.0 0.0 235.06051276987313 -47.23653116417213 557.0557958245793 -1.0918613556263743 0.8141366717777077 -1.091861355626374 -144.85077549662694 -43.12836002432496 110.34124490358153 0.1565749694708657 -0.5258722042392466 3.359738178794721e-17 
1.2 0.291579968139761 -1.3764096813683893 -1.473603004081643 0.0 1.5707963267948966 0.0 0.2743434418098265 0.1828956278732176 0.0914478139366088 0.0 0.0 0.0 0.0 0.0 0.0 0.0 0.0 0.0 234.47894800312574 -46.92601250031102 557.5541781835962 -1.090685944013503 0.8113994206093409 -1.0906859440135033 -144.9964355549739 -43.518398504670564 110.05725342615735 0.15772874816384697 -0.5255272954461189 3.359738178794721e-17 
1.208 0.2937747156742396 -1.3749465163454035 -1.4728714215701502 0.0 1.5707963267948966 0.0 0.2743434418098265 0.1828956278732176 0.0914478139366088 0.0 0.0 0.0 0.0 0.0 0.0 0.0 0.0 0.0 233.89606197949144 -46.618604060727264 558.0512462838387 -1.08950665242609 0.8086663328310211 -1.08950665242609 -145.1405501335969 -43.90912342124774 109.77269725935628 0.15888176709088578 -0.5251798552327802 3.359738178794721e-17 
1.216 0.2959694632087182 -1.3734833513224178 -1.4721398390586573 0.0 1.5707963267948966 0.0 0.2743434418098265 0.1828956278732176 0.0914478139366088 0.0 0.0 0.0 0.0 0.0 0.0 0.0 0.0 0.0 233.31186868557205 -46.31431180737607 558.5469975460053 -1.0883234899539778 0.8059374132927557 -1.0883234899539778 -145.28311607380257 -44.30052833736218 109.48757751709917 0.16003402069798822 -0.5248298852728208 3.359738178794721e-17 
1.224 0.2981642107431968 -1.3720201862994321 -1.4714082565471642 0.0 1.5707963267948966 0.0 0.2743434418098265 0.1828956278732176 0.0914478139366088 0.0 0.0 0.0 0.0 0.0 0.0 0.0 0.0 0.0 232.7263821352867 -46.013141641939264 559.0414293957676 -1.0871364656777736 0.8032126668159798 -1.087136465677774 -145.4241302440791 -44.69260680194654 109.20189531609611 0.16118550343484683 -0.5244773872520163 3.359738178794721e-17 
1.232 0.30035895827767545 -1.3705570212764464 -1.4706766740356714 0.0 1.5707963267948966 0.0 0.2743434418098265 0.1828956278732176 0.0914478139366088 0.0 0.0 0.0 0.0 0.0 0.0 0.0 0.0 0.0 232.13961636961568 -45.715099405700066 559.5345392637847 -1.085945588668826 0.8004920981936835 -1.085945588668826 -145.56358954016127 -45.085352349676214 108.91565177584165 0.16233620975486734 -0.5241223628683194 3.359738178794721e-17 
1.24 0.3025537058121541 -1.3690938562534607 -1.4699450915241785 0.0 1.5707963267948966 0.0 0.2743434418098265 0.1828956278732176 0.0914478139366088 0.0 0.0 0.0 0.0 0.0 0.0 0.0 0.0 0.0 231.55158545634293 -45.42019087941918 560.0263245857144 -1.084750867989195 0.7977757121905346 -1.084750867989195 -145.70149088509484 -45.47875850108496 108.6288480186098 0.16348613411519541 -0.5237648138318522 3.359738178794721e-17 
1.248 0.30474845334663264 -1.367630691230475 -1.4692135090126857 0.0 1.5707963267948966 0.0 0.2743434418098265 0.1828956278732176 0.0914478139366088 0.0 0.0 0.0 0.0 0.0 0.0 0.0 0.0 0.0 230.96230348979915 -45.12842178321149 560.5167828022273 -1.08355231269163 0.7950635135430034 -1.0835523126916302 -145.83783122930052 -45.87281876268128 108.34148516944934 0.1646352709767434 -0.5234047418648983 3.359738178794721e-17 
1.256 0.30694320088111127 -1.366167526207489 -1.4684819265011928 0.0 1.5707963267948966 0.0 0.2743434418098265 0.1828956278732176 0.0914478139366088 0.0 0.0 0.0 0.0 0.0 0.0 0.0 0.0 0.0 230.37178459060306 -44.8397977764244 561.0059113590188 -1.082349931819543 0.7923555069594852 -1.0823499318195433 -145.9726075506372 -46.267526627064676 108.05356435617867 0.16578361480421694 -0.5230421487018933 3.359738178794721e-17 
1.264 0.3091379484155899 -1.3647043611845033 -1.4677503439897 0.0 1.5707963267948966 0.0 0.2743434418098265 0.1828956278732176 0.0914478139366088 0.0 0.0 0.0 0.0 0.0 0.0 0.0 0.0 0.0 229.78004290540377 -44.554324457516785 561.493707706822 -1.081143734406984 0.7896516971204267 -1.0811437344069843 -146.1058168544653 -46.662875573042456 107.76508670938145 0.16693116006614173 -0.522677036089418 3.359738178794721e-17 
1.272 0.3113326959500685 -1.3632411961615176 -1.467018761478207 0.0 1.5707963267948966 0.0 0.2743434418098265 0.1828956278732176 0.0914478139366088 0.0 0.0 0.0 0.0 0.0 0.0 0.0 0.0 0.0 229.1870926066203 -44.27200736393936 561.9801693014201 -1.0799337294786169 0.786952088678445 -1.079933729478617 -146.23745617370855 -47.058859065746645 107.4760533624011 0.16807790123488983 -0.5223094057861883 3.359738178794721e-17 
1.28 0.31352744348454714 -1.361778031138532 -1.4662871789667142 0.0 1.5707963267948966 0.0 0.2743434418098265 0.1828956278732176 0.0914478139366088 0.0 0.0 0.0 0.0 0.0 0.0 0.0 0.0 0.0 228.59294789218274 -43.99285197201607 562.4652936036597 -1.0787199260496942 0.7842566862584531 -1.0787199260496945 -146.3675225689165 -47.45547055675139 107.18646545133623 0.16922383278670688 -0.5219392595630483 3.359738178794721e-17 
1.288 0.3157221910190257 -1.3603148661155462 -1.4655555964552214 0.0 1.5707963267948966 0.0 0.2743434418098265 0.1828956278732176 0.0914478139366088 0.0 0.0 0.0 0.0 0.0 0.0 0.0 0.0 0.0 227.99762298527196 -43.71686369682645 562.9490780794632 -1.0775023331260367 0.7815654944577823 -1.0775023331260367 -146.49601312832579 -47.85270348419044 106.89632411503581 0.1703689492017381 -0.521566599202961 3.359738178794721e-17 
1.296 0.31791693855350434 -1.3588517010925605 -1.4648240139437285 0.0 1.5707963267948966 0.0 0.2743434418098265 0.1828956278732176 0.0914478139366088 0.0 0.0 0.0 0.0 0.0 0.0 0.0 0.0 0.0 227.40113213405823 -43.44404789208928 563.4315201998409 -1.0762809597040062 0.7788785178463029 -1.0762809597040062 -146.62292496792065 -48.250551272874915 106.60563049509386 0.17151324496405534 -0.5211914265009993 3.359738178794721e-17 
1.304 0.32011168608798296 -1.3573885360695748 -1.4640924314322357 0.0 1.5707963267948966 0.0 0.2743434418098265 0.1828956278732176 0.0914478139366088 0.0 0.0 0.0 0.0 0.0 0.0 0.0 0.0 0.0 226.80348961144034 -43.174409850047184 563.9126174409042 -1.0750558147704845 0.7761957609665463 -1.0750558147704845 -146.74825523149403 -48.64900733441158 106.31438573584481 0.17265671456168347 -0.520813743264338 3.359738178794721e-17 
1.312 0.3223064336224616 -1.355925371046589 -1.4633608489207428 0.0 1.5707963267948966 0.0 0.2743434418098265 0.1828956278732176 0.0914478139366088 0.0 0.0 0.0 0.0 0.0 0.0 0.0 0.0 0.0 226.2047097147837 -42.907954801352545 564.3923672838782 -1.0738269073028528 0.7735172283338283 -1.0738269073028526 -146.8720010907069 -49.04806506732105 106.02259098435846 0.1737993524866267 -0.5204335513122456 3.359738178794721e-17 
1.32 0.3245011811569402 -1.3544622060236033 -1.46262926640925 0.0 1.5707963267948966 0.0 0.2743434418098265 0.1828956278732176 0.0914478139366088 0.0 0.0 0.0 0.0 0.0 0.0 0.0 0.0 0.0 225.6048067656575 -42.64468791495426 564.8707672151139 -1.0725942462689655 0.7708429244363674 -1.0725942462689653 -146.99415974514804 -49.447717857156576 105.7302473904349 0.17494115323489562 -0.5200508524760741 3.359738178794721e-17 
1.328 0.3266959286914188 -1.3529990410006174 -1.461897683897757 0.0 1.5707963267948966 0.0 0.2743434418098265 0.1828956278732176 0.0914478139366088 0.0 0.0 0.0 0.0 0.0 0.0 0.0 0.0 0.0 225.00379510957234 -42.38461429798579 565.347814726101 -1.0713578406271327 0.7681728537354081 -1.0713578406271327 -147.11472842239266 -49.84795907662287 105.43735610659968 0.1760821113065332 -0.5196656485992509 3.359738178794721e-17 
1.336 0.3288906762258974 -1.3515358759776317 -1.4611661013862642 0.0 1.5707963267948966 0.0 0.2743434418098265 0.1828956278732176 0.0914478139366088 0.0 0.0 0.0 0.0 0.0 0.0 0.0 0.0 0.0 224.40168911571675 -42.12773899565434 565.8235073134804 -1.070117699326096 0.7655070206653396 -1.0701176993260957 -147.2337043780611 -50.24878208569541 105.14391828809877 0.1772222212056417 -0.5192779415372706 3.359738178794721e-17 
1.344 0.33108542376037603 -1.350072710954646 -1.4604345188747714 0.0 1.5707963267948966 0.0 0.2743434418098265 0.1828956278732176 0.0914478139366088 0.0 0.0 0.0 0.0 0.0 0.0 0.0 0.0 0.0 223.79850317669258 -41.874066991131116 566.2978424790563 -1.068873831305008 0.7628454296338171 -1.0688738313050077 -147.35108489587626 -50.65018023173968 104.8499350928933 0.1783614774404088 -0.5188877331576851 3.359738178794721e-17 
1.352 0.33328017129485465 -1.3486095459316603 -1.4597029363632783 0.0 1.5707963267948966 0.0 0.2743434418098265 0.1828956278732176 0.0914478139366088 0.0 0.0 0.0 0.0 0.0 0.0 0.0 0.0 0.0 223.1942517082513 -41.623603205442606 566.7708177298096 -1.0676262454934125 0.7601880850218812 -1.0676262454934125 -147.4668672877215 -51.0521468496311 104.55540768165497 0.17949987452313435 -0.5184950253400948 3.359738178794721e-17 
1.36 0.3354749188293333 -1.3471463809086746 -1.4589713538517854 0.0 1.5707963267948966 0.0 0.2743434418098265 0.1828956278732176 0.0914478139366088 0.0 0.0 0.0 0.0 0.0 0.0 0.0 0.0 0.0 222.58894914902874 -41.37635249736316 567.242430577909 -1.0663749508112244 0.7575349911840771 -1.0663749508112244 -147.58104889369693 -51.45467526187476 104.26033721776062 0.1806374069702565 -0.5180998199761397 3.359738178794721e-17 
1.368 0.33766966636381185 -1.3456832158856888 -1.4582397713402926 0.0 1.5707963267948966 0.0 0.2743434418098265 0.1828956278732176 0.0914478139366088 0.0 0.0 0.0 0.0 0.0 0.0 0.0 0.0 0.0 221.9826099602796 -41.13231966330859 567.7126785407252 -1.065119956168709 0.7548861524485747 -1.065119956168709 -147.69362708217642 -51.857758778726016 103.9647248672874 0.18177406930237838 -0.5177021189694906 3.359738178794721e-17 
1.376 0.3398644138982905 -1.344220050862703 -1.4575081888287997 0.0 1.5707963267948966 0.0 0.2743434418098265 0.1828956278732176 0.0914478139366088 0.0 0.0 0.0 0.0 0.0 0.0 0.0 0.0 0.0 221.37524862561133 -40.89150943723094 568.1815591408416 -1.0638612704664618 0.7522415731172862 -1.0638612704664623 -147.80459924986286 -52.261390698310535 103.6685717990074 0.1829098560442944 -0.5173019242358392 3.359738178794721e-17 
1.384 0.3420591614327691 -1.3427568858397172 -1.4567766063173069 0.0 1.5707963267948966 0.0 0.2743434418098265 0.1828956278732176 0.0914478139366088 0.0 0.0 0.0 0.0 0.0 0.0 0.0 0.0 0.0 220.7668796507185 -40.653926490514195 568.6490699060674 -1.0625989025953917 0.7496012574659858 -1.062598902595392 -147.91396282184343 -52.66556430674527 103.37187918438312 0.1840447617250166 -0.5168992377028896 3.359738178794721e-17 
1.392 0.3442539089672477 -1.3412937208167315 -1.456045023805814 0.0 1.5707963267948966 0.0 0.2743434418098265 0.1828956278732176 0.0914478139366088 0.0 0.0 0.0 0.0 0.0 0.0 0.0 0.0 0.0 220.1575175631147 -40.4195754318716 569.1152083694503 -1.0613328614366997 0.7469652097444274 -1.0613328614366997 -148.02171525164505 -53.0702728782594 103.07464819756177 0.18517878087780099 -0.5164940613103484 3.359738178794721e-17 
1.4 0.34644865650172635 -1.3398305557937458 -1.4553134412943212 0.0 1.5707963267948966 0.0 0.2743434418098265 0.1828956278732176 0.0914478139366088 0.0 0.0 0.0 0.0 0.0 0.0 0.0 0.0 0.0 219.54717691186625 -40.18846080724364 569.5799720692885 -1.0600631558618616 0.7443334341764622 -1.0600631558618618 -148.127854021288 -53.47550967531558 102.77688001537061 0.18631190804017386 -0.5160863970099157 3.359738178794721e-17 
1.408 0.34864340403620486 -1.33836739077076 -1.4545818587828283 0.0 1.5707963267948966 0.0 0.2743434418098265 0.1828956278732176 0.0914478139366088 0.0 0.0 0.0 0.0 0.0 0.0 0.0 0.0 0.0 218.93587226732348 -39.96058709969731 570.0433585491428 -1.05878979473261 0.7417059349601564 -1.05878979473261 -148.23237664133993 -53.88126794873136 102.47857581731148 0.18744413775395824 -0.5156762467652758 3.359738178794721e-17 
1.416 0.3508381515706835 -1.3369042257477743 -1.4538502762713355 0.0 1.5707963267948966 0.0 0.2743434418098265 0.1828956278732176 0.0914478139366088 0.0 0.0 0.0 0.0 0.0 0.0 0.0 0.0 0.0 218.323618220853 -39.735958729326455 570.5053653578492 -1.057512786900916 0.7390827162679089 -1.057512786900916 -148.33528065096905 -54.28754093780096 102.17973678555595 0.18857546456530017 -0.5152636125520875 3.359738178794721e-17 
1.424 0.3530328991051621 -1.3354410607247886 -1.4531186937598426 0.0 1.5707963267948966 0.0 0.2743434418098265 0.1828956278732176 0.0914478139366088 0.0 0.0 0.0 0.0 0.0 0.0 0.0 0.0 0.0 217.7104293845686 -39.514580053153665 570.9659900495311 -1.0562321412089724 0.7364637822465677 -1.0562321412089724 -148.43656361799688 -54.69432187041714 101.88036410493993 0.18970588302469463 -0.5148484963579747 3.359738178794721e-17 
1.432 0.35522764663964074 -1.333977895701803 -1.4523871112483497 0.0 1.5707963267948966 0.0 0.2743434418098265 0.1828956278732176 0.0914478139366088 0.0 0.0 0.0 0.0 0.0 0.0 0.0 0.0 0.0 217.0963203910622 -39.29645536503263 571.4252301836118 -1.0549478664891758 0.7338491370175463 -1.0549478664891756 -148.5362231389505 -55.101603963193554 101.58045896295874 0.19083538768701225 -0.5144309001825165 3.359738178794721e-17 
1.44 0.35742239417411936 -1.3325147306788172 -1.4516555287368569 0.0 1.5707963267948966 0.0 0.2743434418098265 0.1828956278732176 0.0914478139366088 0.0 0.0 0.0 0.0 0.0 0.0 0.0 0.0 0.0 216.48130589313382 -39.08158889555223 571.8830833248262 -1.0536599715641097 0.7312387846769399 -1.0536599715641097 -148.63425683911407 -55.509380421587004 101.28002254976175 0.19196397311152533 -0.5140108260372382 3.359738178794721e-17 
1.448 0.35961714170859793 -1.3310515656558315 -1.450923946225364 0.0 1.5707963267948966 0.0 0.2743434418098265 0.1828956278732176 0.0914478139366088 0.0 0.0 0.0 0.0 0.0 0.0 0.0 0.0 0.0 215.865400563522 -38.86998481194134 572.3395470432333 -1.0523684652465313 0.7286327292956432 -1.0523684652465308 -148.73066237258004 -55.91764444002025 100.97905605814736 0.193091633861934 -0.5135882759456015 3.359738178794721e-17 
1.456 0.36181188924307656 -1.3295884006328456 -1.4501923637138712 0.0 1.5707963267948966 0.0 0.2743434418098265 0.1828956278732176 0.0914478139366088 0.0 0.0 0.0 0.0 0.0 0.0 0.0 0.0 0.0 215.2486190946325 -38.661647217975315 572.794618914229 -1.051073356339349 0.7260309749194618 -1.051073356339349 -148.82543742230004 -56.3263892020049 100.67756068355749 0.1942183645063925 -0.5131632519429938 3.359738178794721e-17 
1.464 0.3640066367775552 -1.3281252356098598 -1.4494607812023783 0.0 1.5707963267948966 0.0 0.2743434418098265 0.1828956278732176 0.0914478139366088 0.0 0.0 0.0 0.0 0.0 0.0 0.0 0.0 0.0 214.63097619826812 -38.45658015388283 573.2482965185566 -1.0497746536356136 0.7234335255692321 -1.0497746536356136 -148.91857970013422 -56.73560788026441 100.37553762407293 0.1953441596175353 -0.5127357560767197 3.359738178794721e-17 
1.472 0.3662013843120338 -1.3266620705868741 -1.4487291986908855 0.0 1.5707963267948966 0.0 0.2743434418098265 0.1828956278732176 0.0914478139366088 0.0 0.0 0.0 0.0 0.0 0.0 0.0 0.0 0.0 214.0124866053562 -38.254787596254815 573.7005774423205 -1.0484723659184985 0.7208403852409332 -1.0484723659184985 -149.01008694690157 -57.14529363685754 100.07298808040736 0.19646901377250328 -0.5123057904059903 3.359738178794721e-17 
1.48 0.36839613184651243 -1.3251989055638884 -1.4479976161793924 0.0 1.5707963267948966 0.0 0.2743434418098265 0.1828956278732176 0.0914478139366088 0.0 0.0 0.0 0.0 0.0 0.0 0.0 0.0 0.0 213.39316506567778 -38.056273457953736 574.1514592769985 -1.0471665019612861 0.7182515579058018 -1.0471665019612864 -149.09995693242888 -57.55543962330209 99.7699132559028 0.19759292155296976 -0.5118733570019136 3.359738178794721e-17 
1.488 0.370590879380991 -1.3237357405409027 -1.4472660336678995 0.0 1.5707963267948966 0.0 0.2743434418098265 0.1828956278732176 0.0914478139366088 0.0 0.0 0.0 0.0 0.0 0.0 0.0 0.0 0.0 212.77302634759445 -37.861041588024534 574.6009396194519 -1.0458570705273524 0.7156670475104475 -1.0458570705273524 -149.18818745559872 -57.966038980698364 99.46631435652392 0.19871587754516679 -0.5114384579474844 3.359738178794721e-17 
1.496 0.3727856269154696 -1.322272575517917 -1.4465344511564067 0.0 1.5707963267948966 0.0 0.2743434418098265 0.1828956278732176 0.0914478139366088 0.0 0.0 0.0 0.0 0.0 0.0 0.0 0.0 0.0 212.15208523777625 -37.66909577160668 575.0490160719398 -1.0445440803701544 0.7130868579769665 -1.0445440803701544 -149.274776344398 -58.37708483985353 99.16219259085301 0.19983787633991096 -0.5110010953375745 3.359738178794721e-17 
1.504 0.37498037444994825 -1.3208094104949313 -1.4458028686449138 0.0 1.5707963267948966 0.0 0.2743434418098265 0.1828956278732176 0.0914478139366088 0.0 0.0 0.0 0.0 0.0 0.0 0.0 0.0 0.0 211.53035654092818 -37.480439729846836 575.49568624213 -1.0432275402332134 0.7105109932030542 -1.0432275402332134 -149.35972145596494 -58.78857032140564 98.85754917008458 0.2009589125326297 -0.5105612712789224 3.359738178794721e-17 
1.512 0.3771751219844269 -1.3193462454719453 -1.445071286133421 0.0 1.5707963267948966 0.0 0.2743434418098265 0.1828956278732176 0.0914478139366088 0.0 0.0 0.0 0.0 0.0 0.0 0.0 0.0 0.0 210.90785507951654 -37.295077119813705 575.940947743111 -1.041907458850102 0.7079394570621188 -1.0419074588501023 -149.44302067663642 -59.200488535948246 98.55238530802006 0.20207898072338712 -0.510118987890123 3.359738178794721e-17 
1.52 0.3793698695189055 -1.3178830804489596 -1.444339703621928 0.0 1.5707963267948966 0.0 0.2743434418098265 0.1828956278732176 0.0914478139366088 0.0 0.0 0.0 0.0 0.0 0.0 0.0 0.0 0.0 210.28459569349553 -37.113011534412905 576.3847981934047 -1.040583844944434 0.7053722534033957 -1.040583844944434 -149.52467192199398 -59.61283258415502 98.24670222106263 0.20319807551691021 -0.5096742473016176 3.359738178794721e-17 
1.528 0.38156461705338407 -1.316419915425974 -1.4436081211104352 0.0 1.5707963267948966 0.0 0.2743434418098265 0.1828956278732176 0.0914478139366088 0.0 0.0 0.0 0.0 0.0 0.0 0.0 0.0 0.0 209.66059324003226 -36.93424650230405 576.8272352169773 -1.039256707229845 0.7028093860520577 -1.039256707229845 -149.60467313690987 -60.02559555690456 97.94050112821176 0.20431619152261465 -0.509227051655684 3.359738178794721e-17 
1.536 0.3837593645878627 -1.3149567504029882 -1.4428765385989424 0.0 1.5707963267948966 0.0 0.2743434418098265 0.1828956278732176 0.0914478139366088 0.0 0.0 0.0 0.0 0.0 0.0 0.0 0.0 0.0 209.0358625932323 -36.75878548781819 577.2682564432524 -1.0379260544099853 0.7002508588093284 -1.0379260544099853 -149.6830222955923 -60.438770535405695 97.63378325105793 0.20543332335463102 -0.5087774031064255 3.359738178794721e-17 
1.544 0.3859541121223413 -1.3134935853800025 -1.4421449560874495 0.0 1.5707963267948966 0.0 0.2743434418098265 0.1828956278732176 0.0914478139366088 0.0 0.0 0.0 0.0 0.0 0.0 0.0 0.0 0.0 208.41041864386463 -36.58663189087683 577.7078595071224 -1.0365918951785038 0.6976966754525945 -1.0365918951785038 -149.7597174016302 -60.852350591322576 97.32654981377726 0.2065494656318303 -0.5083253038197606 3.359738178794721e-17 
1.552 0.38814885965681994 -1.3120304203570168 -1.4414133735759567 0.0 1.5707963267948966 0.0 0.2743434418098265 0.1828956278732176 0.0914478139366088 0.0 0.0 0.0 0.0 0.0 0.0 0.0 0.0 0.0 207.78427629908606 -36.41778904691219 578.1460420489601 -1.0352542382190382 0.6951468397355169 -1.0352542382190382 -149.83475648803758 -61.266328786900345 97.01880204312633 0.20766461297785027 -0.5078707559734131 3.359738178794721e-17 
1.56 0.39034360719129857 -1.310567255334031 -1.4406817910644638 0.0 1.5707963267948966 0.0 0.2743434418098265 0.1828956278732176 0.0914478139366088 0.0 0.0 0.0 0.0 0.0 0.0 0.0 0.0 0.0 207.15745048216507 -36.252260226788245 578.582801714631 -1.0339130922052013 0.6926013553881417 -1.0339130922052011 -149.90813761729686 -61.68069817509073 96.71054116843646 0.20877876002112125 -0.5074137617569014 3.359738178794721e-17 
1.568 0.39253835472577714 -1.3091040903110454 -1.439950208552971 0.0 1.5707963267948966 0.0 0.2743434418098265 0.1828956278732176 0.0914478139366088 0.0 0.0 0.0 0.0 0.0 0.0 0.0 0.0 0.0 206.52995613220608 -36.09004863672346 579.0181361555054 -1.0325684658005705 0.6900602261170117 -1.0325684658005705 -149.97985888140258 -62.0954517996781 96.40176842160875 0.20989190139489178 -0.5069543233715278 3.359738178794721e-17 
1.576 0.39473310226025576 -1.3076409252880596 -1.439218626041478 0.0 1.5707963267948966 0.0 0.2743434418098265 0.1828956278732176 0.0914478139366088 0.0 0.0 0.0 0.0 0.0 0.0 0.0 0.0 0.0 205.90180820387238 -35.9311574182141 579.4520430284693 -1.0312203676586766 0.6875234556052767 -1.0312203676586762 -150.04991840190343 -62.5105826954054 96.09248503710837 0.21100403173725468 -0.5064924430303676 3.359738178794721e-17 
1.584 0.3969278497947344 -1.3061777602650737 -1.4384870435299852 0.0 1.5707963267948966 0.0 0.2743434418098265 0.1828956278732176 0.0914478139366088 0.0 0.0 0.0 0.0 0.0 0.0 0.0 0.0 0.0 205.27302166710894 -35.77558964795954 579.8845199959375 -1.0298688064229908 0.684991047512803 -1.029868806422991 -150.11831432994478 -62.92608388810063 95.78269225195916 0.21211514569117285 -0.5060281229582592 3.359738178794721e-17 
1.592 0.399122597329213 -1.304714595242088 -1.4377554610184924 0.0 1.5707963267948966 0.0 0.2743434418098265 0.1828956278732176 0.0914478139366088 0.0 0.0 0.0 0.0 0.0 0.0 0.0 0.0 0.0 204.64361150686608 -35.623348337787604 580.315564725864 -1.0285137907269186 0.6824630054762851 -1.0285137907269184 -150.18504484630984 -63.34194839480321 95.47239130573857 0.2132252379045051 -0.5055613653917926 3.359738178794721e-17 
1.6 0.40131734486369164 -1.3032514302191023 -1.4370238785069995 0.0 1.5707963267948966 0.0 0.2743434418098265 0.1828956278732176 0.0914478139366088 0.0 0.0 0.0 0.0 0.0 0.0 0.0 0.0 0.0 204.01359272282045 -35.474436434582444 580.745174891755 -1.027155329193784 0.6799393331093536 -1.027155329193784 -150.25010816146113 -63.7581692238908 95.1615834405718 0.21433430303003176 -0.5050921725792996 3.359738178794721e-17 
1.608 0.4035120923981702 -1.3017882651961166 -1.4362922959955065 0.0 1.5707963267948966 0.0 0.2743434418098265 0.1828956278732176 0.0914478139366088 0.0 0.0 0.0 0.0 0.0 0.0 0.0 0.0 0.0 203.38298032909785 -35.328856820212444 581.1733481726801 -1.025793430436823 0.6774200340026846 -1.025793430436823 -150.31350251558035 -64.17473937520609 94.85026990112657 0.21544233572548055 -0.5046205467808419 3.359738178794721e-17 
1.616 0.40570683993264883 -1.3003251001731309 -1.4355607134840136 0.0 1.5707963267948966 0.0 0.2743434418098265 0.1828956278732176 0.0914478139366088 0.0 0.0 0.0 0.0 0.0 0.0 0.0 0.0 0.0 202.7517893539944 -35.186612311460046 581.6000822532833 -1.0244281030591729 0.6749051117241098 -1.024428103059173 -150.37522617860847 -64.5916518401838 94.53845193460762 0.21654933065355247 -0.5041464902682006 3.359738178794721e-17 
1.624 0.40790158746712746 -1.2988619351501451 -1.4348291309725207 0.0 1.5707963267948966 0.0 0.2743434418098265 0.1828956278732176 0.0914478139366088 0.0 0.0 0.0 0.0 0.0 0.0 0.0 0.0 0.0 202.12003483969812 -35.047705659952264 582.0253748237966 -1.0230593556538625 0.6723945698187243 -1.0230593556538625 -150.43527745028564 -65.0088996019782 94.22613079075123 0.2176552824819472 -0.5036700053248657 3.359738178794721e-17 
1.632 0.4100963350016061 -1.2973987701271592 -1.4340975484610279 0.0 1.5707963267948966 0.0 0.2743434418098265 0.1828956278732176 0.0914478139366088 0.0 0.0 0.0 0.0 0.0 0.0 0.0 0.0 0.0 201.48773184200957 -34.91213955209287 582.4492235800495 -1.0216871968038035 0.6698884118089938 -1.0216871968038035 -150.49365466018904 -65.42647563559022 93.91330772181985 0.21876018588338908 -0.5031910942460246 3.359738178794721e-17 
1.64 0.4122910825360847 -1.2959356051041735 -1.433365965949535 0.0 1.5707963267948966 0.0 0.2743434418098265 0.1828956278732176 0.0914478139366088 0.0 0.0 0.0 0.0 0.0 0.0 0.0 0.0 0.0 200.85489543006278 -34.779916608995315 582.8716262234822 -1.0203116350817807 0.667386641194865 -1.0203116350817807 -150.5503561677718 -65.84437290799526 93.59998398259646 0.21986403553565242 -0.502709759338551 3.359738178794721e-17 
1.648 0.4144858300705633 -1.2944724400811878 -1.4326343834380422 0.0 1.5707963267948966 0.0 0.2743434418098265 0.1828956278732176 0.0914478139366088 0.0 0.0 0.0 0.0 0.0 0.0 0.0 0.0 0.0 200.22154068604507 -34.65103938641727 583.2925804611564 -1.018932679050445 0.664889261453871 -1.018932679050445 -150.60538036240064 -66.26258437827094 93.28616083037909 0.22096682612158752 -0.5022260029209944 3.359738178794721e-17 
1.656 0.4166805776050419 -1.293009275058202 -1.4319028009265493 0.0 1.5707963267948966 0.0 0.2743434418098265 0.1828956278732176 0.0914478139366088 0.0 0.0 0.0 0.0 0.0 0.0 0.0 0.0 0.0 199.58768270491748 -34.52551037469594 583.7120840057671 -1.0175503372623027 0.6623962760412389 -1.017550337262303 -150.65872566339266 -66.68110299772502 92.97183952497545 0.22206855232914624 -0.5017398273235679 3.359738178794721e-17 
1.664 0.4188753251395205 -1.2915461100352164 -1.4311712184150565 0.0 1.5707963267948966 0.0 0.2743434418098265 0.1828956278732176 0.0914478139366088 0.0 0.0 0.0 0.0 0.0 0.0 0.0 0.0 0.0 198.95333659413407 -34.40333199868488 584.1301345756547 -1.0161646182597102 0.6599076883899976 -1.0161646182597102 -150.7103905200525 -67.09992171002358 92.65702132869713 0.22316920885140712 -0.5012512348881383 3.359738178794721e-17 
1.672 0.4210700726739991 -1.2900829450122306 -1.4304396359035636 0.0 1.5707963267948966 0.0 0.2743434418098265 0.1828956278732176 0.0914478139366088 0.0 0.0 0.0 0.0 0.0 0.0 0.0 0.0 0.0 198.31851747336145 -34.2845066176919 584.5467298948156 -1.0147755305748645 0.657423501911084 -1.0147755305748645 -150.76037341170797 -67.51903345131933 92.34170750635434 0.22426879038660147 -0.5007602279682135 3.359738178794721e-17 
1.68 0.4232648202084777 -1.288619779989245 -1.4297080533920707 0.0 1.5707963267948966 0.0 0.2743434418098265 0.1828956278732176 0.0914478139366088 0.0 0.0 0.0 0.0 0.0 0.0 0.0 0.0 0.0 197.68324047419776 -34.16903652541828 584.9618676929142 -1.013383082729796 0.6549437199934488 -1.013383082729796 -150.80867284774564 -67.93843115038003 92.0258993252502 0.22536729163813884 -0.500266808928932 3.359738178794721e-17 
1.688 0.4254595677429563 -1.2871566149662592 -1.4289764708805779 0.0 1.5707963267948966 0.0 0.2743434418098265 0.1828956278732176 0.0914478139366088 0.0 0.0 0.0 0.0 0.0 0.0 0.0 0.0 0.0 197.04752073989144 -34.056923949898895 585.3755457052948 -1.0119872832363612 0.6524683460041624 -1.011987283236361 -150.85528736764604 -68.35810772871712 91.70959805517512 0.22646470731463217 -0.49977098014705146 3.359738178794721e-17 
1.696 0.4276543152774349 -1.2856934499432735 -1.428244888369085 0.0 1.5707963267948966 0.0 0.2743434418098265 0.1828956278732176 0.0914478139366088 0.0 0.0 0.0 0.0 0.0 0.0 0.0 0.0 0.0 196.41137342505976 -33.94817105344376 585.7877616729925 -1.0105881405962365 0.6499973832885212 -1.0105881405962363 -150.90021554101776 -68.77805610071466 91.39280496840155 0.22756103212992368 -0.4992727440109367 3.359738178794721e-17 
1.704 0.42984906281191354 -1.2842302849202878 -1.4275133058575922 0.0 1.5707963267948966 0.0 0.2743434418098265 0.1828956278732176 0.0914478139366088 0.0 0.0 0.0 0.0 0.0 0.0 0.0 0.0 0.0 195.7748136954067 -33.84277993258101 586.1985133427445 -1.009185663300911 0.6475308351701526 -1.0091856633009109 -150.94345596763145 -69.19826917375809 91.07552133967783 0.2286562608031102 -0.4987721029205488 3.359738178794721e-17 
1.712 0.43204381034639217 -1.282767119897302 -1.4267817233460993 0.0 1.5707963267948966 0.0 0.2743434418098265 0.1828956278732176 0.0914478139366088 0.0 0.0 0.0 0.0 0.0 0.0 0.0 0.0 0.0 195.1378567274412 -33.740752618000414 586.6077984670026 -1.0077798598316807 0.6450687049511195 -1.0077798598316803 -150.98500727745332 -69.61873984836357 90.75774844622323 0.2297503880585684 -0.49826905928743337 3.359738178794721e-17 
1.72 0.4342385578808708 -1.2813039548743161 -1.4260501408346065 0.0 1.5707963267948966 0.0 0.2743434418098265 0.1828956278732176 0.0914478139366088 0.0 0.0 0.0 0.0 0.0 0.0 0.0 0.0 0.0 194.5005177081943 -33.64209107449894 587.0156148039429 -1.0063707386596403 0.6426109959120243 -1.00637073865964 -151.0248681306772 -70.03946101830692 90.43948756772167 0.23084340862598052 -0.4977636155347085 3.359738178794721e-17 
1.728 0.43643330541534936 -1.2798407898513304 -1.4253185583231136 0.0 1.5707963267948966 0.0 0.2743434418098265 0.1828956278732176 0.0914478139366088 0.0 0.0 0.0 0.0 0.0 0.0 0.0 0.0 0.0 193.86281183493725 -33.54679720092669 587.421960117479 -1.0049583082456819 0.6401577113121157 -1.0049583082456819 -151.06303721775765 -70.46042557075347 90.12073998631675 0.23193531724035962 -0.4972557740970539 3.359738178794721e-17 
1.736 0.438628052949828 -1.2783776248283447 -1.4245869758116205 0.0 1.5707963267948966 0.0 0.2743434418098265 0.1828956278732176 0.0914478139366088 0.0 0.0 0.0 0.0 0.0 0.0 0.0 0.0 0.0 193.2247543148976 -33.45487283013476 587.8268321772721 -1.0035425770404842 0.6377088543893891 -1.0035425770404842 -151.09951325944087 -70.88162638638731 89.80150698660557 0.23302610864207496 -0.4967455374206984 3.359738178794721e-17 
1.744 0.4408228004843066 -1.276914459805359 -1.4238553933001277 0.0 1.5707963267948966 0.0 0.2743434418098265 0.1828956278732176 0.0914478139366088 0.0 0.0 0.0 0.0 0.0 0.0 0.0 0.0 0.0 192.58636036497683 -33.36631972892387 588.2302287587428 -1.0021235534845105 0.6352644283606931 -1.0021235534845105 -151.1342950067962 -71.30305633954117 89.48178985563345 0.23411577757687735 -0.49623290796340846 3.359738178794721e-17 
1.752 0.44301754801878523 -1.2754512947823733 -1.4231238107886348 0.0 1.5707963267948966 0.0 0.2743434418098265 0.1828956278732176 0.0914478139366088 0.0 0.0 0.0 0.0 0.0 0.0 0.0 0.0 0.0 191.9476452114664 -33.28113959799424 588.6321476430822 -1.0007012460080036 0.632824436421831 -1.0007012460080036 -151.16738124124635 -71.72470829832618 89.16158988288807 0.23520431879592424 -0.4957178881944767 3.359738178794721e-17 
1.76 0.44521229555326386 -1.2739881297593876 -1.422392228277142 0.0 1.5707963267948966 0.0 0.2743434418098265 0.1828956278732176 0.0914478139366088 0.0 0.0 0.0 0.0 0.0 0.0 0.0 0.0 0.0 191.3086240897643 -33.199334071897056 589.0325866172635 -0.9992756630309784 0.6303888817476648 -0.9992756630309781 -151.1987707745975 -72.14657512476202 88.84090836029382 0.2362917270558053 -0.49520048059470956 3.359738178794721e-17 
1.768 0.44740704308774243 -1.2725249647364016 -1.421660645765649 0.0 1.5707963267948966 0.0 0.2743434418098265 0.1828956278732176 0.0914478139366088 0.0 0.0 0.0 0.0 0.0 0.0 0.0 0.0 0.0 190.66931224409078 -33.12090471898665 589.4315434740529 -0.9978468129632202 0.6279577674922161 -0.9978468129632202 -151.22846244906873 -72.56864967490696 88.51974658220612 0.23737799711856766 -0.4946806876564151 3.359738178794721e-17 
1.776 0.44960179062222105 -1.271061799713416 -1.4209290632541562 0.0 1.5707963267948966 0.0 0.2743434418098265 0.1828956278732176 0.0914478139366088 0.0 0.0 0.0 0.0 0.0 0.0 0.0 0.0 0.0 190.029724927205 -33.04585304137394 589.8290160120212 -0.9964147042042806 0.6255310967887713 -0.9964147042042807 -151.25645513732087 -72.99092479898827 88.19810584540592 0.23846312375174103 -0.49415851188339194 3.359738178794721e-17 
1.784 0.4517965381566997 -1.2695986346904302 -1.4201974807426634 0.0 1.5707963267948966 0.0 0.2743434418098265 0.1828956278732176 0.0914478139366088 0.0 0.0 0.0 0.0 0.0 0.0 0.0 0.0 0.0 189.38987740011936 -32.97418047488174 590.2250020355544 -0.9949793451434706 0.6231088727499802 -0.9949793451434706 -151.28274774248453 -73.41339334153251 87.87598744909354 0.23954710172836272 -0.4936339557909159 3.359738178794721e-17 
1.792 0.4539912856911783 -1.2681354696674445 -1.4194658982311705 0.0 1.5707963267948966 0.0 0.2743434418098265 0.1828956278732176 0.0914478139366088 0.0 0.0 0.0 0.0 0.0 0.0 0.0 0.0 0.0 188.7497849318159 -32.90588838900039 590.6194993548656 -0.9935407441598599 0.6206910984679601 -0.9935407441598599 -151.30733919818817 -73.83604814149618 87.55339269488343 0.24062992582700327 -0.4931070219057293 3.359738178794721e-17 
1.8 0.45618603322565693 -1.2666723046444588 -1.4187343157196777 0.0 1.5707963267948966 0.0 0.2743434418098265 0.1828956278732176 0.0914478139366088 0.0 0.0 0.0 0.0 0.0 0.0 0.0 0.0 0.0 188.10946279896098 -32.84097808684533 591.0125057860057 -0.992098909622272 0.6182777770143961 -0.992098909622272 -151.33022846858498 -74.25888203239639 87.23032288679812 0.2417115908317912 -0.4925777127660277 3.359738178794721e-17 
1.808 0.4583807807601355 -1.265209139621473 -1.4180027332081848 0.0 1.5707963267948966 0.0 0.2743434418098265 0.1828956278732176 0.0914478139366088 0.0 0.0 0.0 0.0 0.0 0.0 0.0 0.0 0.0 187.46892628562017 -32.779450805115154 591.404019150875 -0.9906538498892805 0.6158689114406409 -0.9906538498892805 -151.3514145483798 -74.68188784244181 86.90677933126261 0.24279209153243825 -0.49204603092144805 3.359738178794721e-17 
1.816 0.4605755282946141 -1.2637459745984874 -1.417271150696692 0.0 1.5707963267948966 0.0 0.2743434418098265 0.1828956278732176 0.0914478139366088 0.0 0.0 0.0 0.0 0.0 0.0 0.0 0.0 0.0 186.82819068297306 -32.72130771405187 591.7940372772331 -0.989205573309208 0.6134645047778179 -0.9892055733092078 -151.3708964628546 -75.1050583946633 86.58276333709857 0.2438714227242648 -0.4915119789330566 3.359738178794721e-17 
1.824 0.46277027582909275 -1.2622828095755017 -1.416539568185199 0.0 1.5707963267948966 0.0 0.2743434418098265 0.1828956278732176 0.0914478139366088 0.0 0.0 0.0 0.0 0.0 0.0 0.0 0.0 0.0 186.1872712890277 -32.666549917401376 592.1825579987117 -0.987754088220121 0.6110645600369192 -0.9877540882201209 -151.3886732678946 -75.52838650704535 86.25827621551858 0.2449495792082243 -0.49097555937333615 3.359738178794721e-17 
1.832 0.4649650233635714 -1.260819644552516 -1.4158079856737062 0.0 1.5707963267948966 0.0 0.2743434418098265 0.1828956278732176 0.0914478139366088 0.0 0.0 0.0 0.0 0.0 0.0 0.0 0.0 0.0 185.54618340833488 -32.6151784523759 592.569579154824 -0.9862994029498297 0.6086690802089069 -0.9862994029498294 -151.40474405001257 -75.95186499265705 85.93331928012033 0.24602655579092886 -0.4904367748261742 3.359738178794721e-17 
1.84 0.46715977089805 -1.25935647952953 -1.4150764031622134 0.0 1.5707963267948966 0.0 0.2743434418098265 0.1828956278732176 0.0914478139366088 0.0 0.0 0.0 0.0 0.0 0.0 0.0 0.0 0.0 184.90494235170226 -32.567194289617156 592.9550985909774 -0.984841525815884 0.606278068264812 -0.984841525815884 -151.41910792637373 -76.37548665978345 85.60789384688088 0.24710234728467403 -0.4898956278868498 3.359738178794721e-17 
1.848 0.46935451843252857 -1.2578933145065443 -1.4143448206507205 0.0 1.5707963267948966 0.0 0.2743434418098265 0.1828956278732176 0.0914478139366088 0.0 0.0 0.0 0.0 0.0 0.0 0.0 0.0 0.0 184.26356343590825 -32.52259833316107 593.3391141584829 -0.9833804651255723 0.6038915271558339 -0.9833804651255723 -151.43176404481915 -76.79924431205708 85.28200123415084 0.2481769485074638 -0.489352121162022 3.359738178794721e-17 
1.856 0.4715492659670072 -1.2564301494835586 -1.4136132381392277 0.0 1.5707963267948966 0.0 0.2743434418098265 0.1828956278732176 0.0914478139366088 0.0 0.0 0.0 0.0 0.0 0.0 0.0 0.0 0.0 183.6220619834156 -32.48139142040354 593.7216237145669 -0.9819162291759209 0.60150945981344 -0.9819162291759206 -151.44271158388892 -77.22313074858943 84.95564276264844 0.2492503542830357 -0.4888062572697158 3.359738178794721e-17 
1.864 0.4737440135014858 -1.2549669844605729 -1.4128816556277348 0.0 1.5707963267948966 0.0 0.2743434418098265 0.1828956278732176 0.0914478139366088 0.0 0.0 0.0 0.0 0.0 0.0 0.0 0.0 0.0 182.980453322085 -32.44357432206764 594.102625122382 -0.9804488262536886 0.5991318691494621 -0.9804488262536885 -151.45194975284505 -77.64713876410242 84.62881975545389 0.2503225594408855 -0.48825803883931174 3.359738178794721e-17 
1.872 0.47593876103596444 -1.2535038194375872 -1.4121500731162417 0.0 1.5707963267948966 0.0 0.2743434418098265 0.1828956278732176 0.0914478139366088 0.0 0.0 0.0 0.0 0.0 0.0 0.0 0.0 0.0 182.3387527848884 -32.409147742171726 594.4821162510186 -0.9789782646353707 0.5967587580561983 -0.9789782646353707 -151.4594777916936 -78.07126114906072 84.30153353800335 0.2513935588162923 -0.4877074685115309 3.359738178794721e-17 
1.88 0.47813350857044307 -1.2520406544146014 -1.4114184906047489 0.0 1.5707963267948966 0.0 0.2743434418098265 0.1828956278732176 0.0914478139366088 0.0 0.0 0.0 0.0 0.0 0.0 0.0 0.0 0.0 181.69697570962228 -32.37811231799898 594.8600949755139 -0.9775045525871934 0.5943901294065068 -0.9775045525871936 -151.4652949712055 -78.49549068980285 83.97378543808325 0.2524633472503434 -0.4871545489384237 3.359738178794721e-17 
