Fleaurent/UniversalRobot/csv/robot_movej_Dreieck_Zeit.csv
timestamp target_q_0 target_q_1 target_q_2 target_q_3 target_q_4 target_q_5 target_qd_0 target_qd_1 target_qd_2 target_qd_3 target_qd_4 target_qd_5 target_qdd_0 target_qdd_1 target_qdd_2 target_qdd_3 target_qdd_4 target_qdd_5 target_current_0 target_current_1 target_current_2 target_current_3 target_current_4 target_current_5 target_moment_0 target_moment_1 target_moment_2 target_moment_3 target_moment_4 target_moment_5 actual_q_0 actual_q_1 actual_q_2 actual_q_3 actual_q_4 actual_q_5 actual_qd_0 actual_qd_1 actual_qd_2 actual_qd_3 actual_qd_4 actual_qd_5 actual_current_0 actual_current_1 actual_current_2 actual_current_3 actual_current_4 actual_current_5 joint_control_output_0 joint_control_output_1 joint_control_output_2 joint_control_output_3 joint_control_output_4 joint_control_output_5 actual_TCP_pose_0 actual_TCP_pose_1 actual_TCP_pose_2 actual_TCP_pose_3 actual_TCP_pose_4 actual_TCP_pose_5 actual_TCP_speed_0 actual_TCP_speed_1 actual_TCP_speed_2 actual_TCP_speed_3 actual_TCP_speed_4 actual_TCP_speed_5 actual_TCP_force_0 actual_TCP_force_1 actual_TCP_force_2 actual_TCP_force_3 actual_TCP_force_4 actual_TCP_force_5 target_TCP_pose_0 target_TCP_pose_1 target_TCP_pose_2 target_TCP_pose_3 target_TCP_pose_4 target_TCP_pose_5 target_TCP_speed_0 target_TCP_speed_1 target_TCP_speed_2 target_TCP_speed_3 target_TCP_speed_4 target_TCP_speed_5
2368.504 1.7214759154467055e-16 -1.5707963267948966 -1.5707963267948966 0.0 1.5707963267948966 0.0 0.0 0.0 0.0 0.0 0.0 0.0 0.0 0.0 0.0 0.0 0.0 0.0 -1.8327750199862536e-26 0.555172973447796 0.7573864583558305 0.07057808899065858 -9.380070923910231e-28 0.0 -2.1032924999364705e-25 6.394759450000002 6.3947594500000005 0.2913103000000004 -3.894025929994733e-27 0.0 -2.366701234990387e-05 -1.5707600752459925 -1.5707834402667444 -2.8912221090138246e-05 1.5707556009292603 -3.5587941304981996e-05 0.0 0.0 -0.0 0.0 0.0 0.0 0.0336456336081028 0.5473023056983948 0.6755932569503784 -0.007832957431674004 -0.022379877045750618 -0.12532731890678406 0.0291595496237278 0.5585175156593323 0.6755932569503784 -0.008951950818300247 -0.02349887043237686 -0.12644630670547485 0.2957962292564198 -0.11304506960617865 0.4815647259206341 -1.2101205593781692 1.2098528466895795 -1.2090586710299576 0.0 0.0 0.0 0.0 0.0 0.0 2.7473784151521246 -3.970922810622038 1.9165714179537954 0.5817927940669189 -0.43974591580791694 0.43108704593348346 0.29580949455060795 -0.11303468883756387 0.4815525763646191 -1.2101397425155387 1.2098370768821618 -1.2089754610298096 0.0 0.0 0.0 0.0 0.0 0.0
2368.5119999999997 1.7214759154467055e-16 -1.5707963267948966 -1.5707963267948966 0.0 1.5707963267948966 0.0 0.0 0.0 0.0 0.0 0.0 0.0 0.0 0.0 0.0 0.0 0.0 0.0 -1.8327750199862536e-26 0.555172973447796 0.7573864583558305 0.07057808899065858 -9.380070923910231e-28 0.0 -2.1032924999364705e-25 6.394759450000002 6.3947594500000005 0.2913103000000004 -3.894025929994733e-27 0.0 4.793690095539205e-05 -1.5707481543170374 -1.5707834402667444 -5.2754079000294496e-05 1.5707556009292603 -3.5587941304981996e-05 0.0 0.0 -0.0 0.0 0.0 0.0 0.0314025916159153 0.5652466416358948 0.6801683902740479 -0.01007094420492649 -0.038045790046453476 -0.11637535691261292 0.0314025916159153 0.5585175156593323 0.6725431680679321 -0.008951950818300247 -0.027974845841526985 -0.12644630670547485 0.2958024283470508 -0.11302389220124741 0.4815662879071831 -1.2101632095386181 1.2098088546745676 -1.2090003234601923 0.0 0.0 0.0 0.0 0.0 0.0 3.5193503178573358 -4.5855417444030575 1.6648717937334296 0.5404194986082285 -0.5367015095017346 0.5545856361297047 0.29580949455060795 -0.11303468883756387 0.4815525763646191 -1.2101397425155387 1.2098370768821618 -1.2089754610298096 0.0 0.0 0.0 0.0 0.0 0.0
2368.52 1.7214759154467055e-16 -1.5707963267948966 -1.5707963267948966 0.0 1.5707963267948966 0.0 0.0 0.0 0.0 0.0 0.0 0.0 0.0 0.0 0.0 0.0 0.0 0.0 -1.8327750199862536e-26 0.555172973447796 0.7573864583558305 0.07057808899065858 -9.380070923910231e-28 0.0 -2.1032924999364705e-25 6.394759450000002 6.3947594500000005 0.2913103000000004 -3.894025929994733e-27 0.0 1.1984225238848012e-05 -1.5707724730121058 -1.570735279713766 -4.0356312887013246e-05 1.5707316398620605 -2.366701234990387e-05 0.0 0.0 -0.0 0.0 0.0 0.0 0.0358886756002903 0.5899201035499573 0.6786433458328247 -0.002237987704575062 -0.027974845841526985 -0.13204127550125122 0.0314025916159153 0.5585175156593323 0.6755932569503784 -0.008951950818300247 -0.02685585245490074 -0.12644630670547485 0.29580119389440573 -0.1130365472823898 0.4815743545351397 -1.210099289310295 1.2098320944733971 -1.2090528837200722 0.0 0.0 0.0 0.0 0.0 0.0 4.882102785684872 -5.357784731638968 1.9007494186652594 0.6130540426964008 -0.5973781774375743 0.5712024262011534 0.29580949455060795 -0.11303468883756387 0.4815525763646191 -1.2101397425155387 1.2098370768821618 -1.2089754610298096 0.0 0.0 0.0 0.0 0.0 0.0
2368.528 1.7214759154467055e-16 -1.5707963267948966 -1.5707963267948966 0.0 1.5707963267948966 0.0 0.0 0.0 0.0 0.0 0.0 0.0 0.0 0.0 0.0 0.0 0.0 0.0 -1.8327750199862536e-26 0.555172973447796 0.7573864583558305 0.07057808899065858 -9.380070923910231e-28 0.0 -2.1032924999364705e-25 6.394759450000002 6.3947594500000005 0.2913103000000004 -3.894025929994733e-27 0.0 1.1984225238848012e-05 -1.5707362333880823 -1.5707595984088343 -1.6514454976856996e-05 1.5707556009292603 -5.990663637334137e-05 0.0 0.0 -0.0 0.0 0.0 0.0 0.0358886756002903 0.5562744736671448 0.6847434639930725 -0.0033569815568625927 -0.024617865681648254 -0.134279265999794 0.0314025916159153 0.5585175156593323 0.6771183013916016 -0.008951950818300247 -0.02685585245490074 -0.12980328500270844 0.29578929850588187 -0.11303456042707033 0.48157984429969103 -1.2101110185233173 1.2097709345998664 -1.209078838568408 0.0 0.0 0.0 0.0 0.0 0.0 2.8666232478093017 -4.218242899265545 1.6068353113979108 0.6233396247937664 -0.45471430007287134 0.46190295769970335 0.29580949455060795 -0.11303468883756387 0.4815525763646191 -1.2101397425155387 1.2098370768821618 -1.2089754610298096 0.0 0.0 0.0 0.0 0.0 0.0
2368.536 1.7214759154467055e-16 -1.5707963267948966 -1.5707963267948966 0.0 1.5707963267948966 0.0 0.0 0.0 0.0 0.0 0.0 0.0 0.0 0.0 0.0 0.0 0.0 0.0 -1.8327750199862536e-26 0.555172973447796 0.7573864583558305 0.07057808899065858 -9.380070923910231e-28 0.0 -2.1032924999364705e-25 6.394759450000002 6.3947594500000005 0.2913103000000004 -3.894025929994733e-27 0.0 -1.1746083394825746e-05 -1.5707243124591272 -1.5707953611956995 -5.2754079000294496e-05 1.5707675218582153 -9.614626039677887e-05 0.0 0.0 -0.0 0.0 0.0 0.0 0.0381317175924778 0.5719757676124573 0.6786433458328247 -0.002237987704575062 -0.02349887043237686 -0.10854240506887436 0.0381317175924778 0.5585175156593323 0.6755932569503784 -0.008951950818300247 -0.02685585245490074 -0.12868429720401764 0.2957888454627793 -0.11304055936921316 0.4815698137292503 -1.2101764735359564 1.2098066060443633 -1.2090856881567114 0.0 0.0 0.0 0.0 0.0 0.0 3.9332451265410455 -4.893538206338717 1.9012373572142818 0.5040086719957384 -0.5163297705713356 0.5121958476312342 0.29580949455060795 -0.11303468883756387 0.4815525763646191 -1.2101397425155387 1.2098370768821618 -1.2089754610298096 0.0 0.0 0.0 0.0 0.0 0.0
2368.544 1.7214759154467055e-16 -1.5707963267948966 -1.5707963267948966 0.0 1.5707963267948966 0.0 0.0 0.0 0.0 0.0 0.0 0.0 0.0 0.0 0.0 0.0 0.0 0.0 -1.8327750199862536e-26 0.555172973447796 0.7573864583558305 0.07057808899065858 -9.380070923910231e-28 0.0 -2.1032924999364705e-25 6.394759450000002 6.3947594500000005 0.2913103000000004 -3.894025929994733e-27 0.0 0.0 -1.5707362333880823 -1.5707834402667444 -5.2754079000294496e-05 1.5707316398620605 -2.366701234990387e-05 0.0 0.0 -0.0 0.0 0.0 0.0 0.0358886756002903 0.5697327256202698 0.6649179458618164 -0.001118993852287531 -0.02909383922815323 -0.1521831601858139 0.0336456336081028 0.5585175156593323 0.671018123626709 -0.008951950818300247 -0.02685585245490074 -0.12980328500270844 0.2957930779912545 -0.11304004955014745 0.4815698134475597 -1.2101116257769333 1.2098587085115031 -1.2090501245544365 0.0 0.0 0.0 0.0 0.0 0.0 4.346482626172444 -5.098868659541281 2.5340872688462768 0.7064981888431064 -0.494343603607955 0.5551027919721455 0.29580949455060795 -0.11303468883756387 0.4815525763646191 -1.2101397425155387 1.2098370768821618 -1.2089754610298096 0.0 0.0 0.0 0.0 0.0 0.0
2368.5519999999997 1.7214759154467055e-16 -1.5707963267948966 -1.5707963267948966 0.0 1.5707963267948966 0.0 0.0 0.0 0.0 0.0 0.0 0.0 0.0 0.0 0.0 0.0 0.0 0.0 -1.8327750199862536e-26 0.555172973447796 0.7573864583558305 0.07057808899065858 -9.380070923910231e-28 0.0 -2.1032924999364705e-25 6.394759450000002 6.3947594500000005 0.2913103000000004 -3.894025929994733e-27 0.0 -1.1746083394825746e-05 -1.5707600752459925 -1.5707953611956995 -4.0356312887013246e-05 1.5707556009292603 -7.230440248662262e-05 0.0 0.0 -0.0 0.0 0.0 0.0 0.02467346377670765 0.5517883896827698 0.6847434639930725 -0.015665914863348007 -0.022379877045750618 -0.12197033315896988 0.0336456336081028 0.5585175156593323 0.6771183013916016 -0.008951950818300247 -0.02685585245490074 -0.12868429720401764 0.2957995750497962 -0.11304152927079232 0.4815602597734829 -1.2101704909282933 1.209843846688479 -1.2090658332974442 0.0 0.0 0.0 0.0 0.0 0.0 2.6311266806979536 -3.368409071260295 1.3426928909984504 0.5661769312069723 -0.5132980922081536 0.38147319914212824 0.29580949455060795 -0.11303468883756387 0.4815525763646191 -1.2101397425155387 1.2098370768821618 -1.2089754610298096 0.0 0.0 0.0 0.0 0.0 0.0
2368.56 1.7214759154467055e-16 -1.5707963267948966 -1.5707963267948966 0.0 1.5707963267948966 0.0 0.0 0.0 0.0 0.0 0.0 0.0 0.0 0.0 0.0 0.0 0.0 0.0 -1.8327750199862536e-26 0.555172973447796 0.7573864583558305 0.07057808899065858 -9.380070923910231e-28 0.0 -2.1032924999364705e-25 6.394759450000002 6.3947594500000005 0.2913103000000004 -3.894025929994733e-27 0.0 -3.5587941304981996e-05 -1.5707243124591272 -1.5708072821246546 -1.6514454976856996e-05 1.5707675218582153 -8.422533144170075e-05 0.0 0.0 -0.0 0.0 0.0 0.0 0.0403747595846653 0.5585175156593323 0.6801683902740479 -0.0055949692614376545 -0.02349887043237686 -0.11637535691261292 0.0358886756002903 0.5585175156593323 0.6755932569503784 -0.008951950818300247 -0.02685585245490074 -0.12532731890678406 0.2957840784629191 -0.11304759976000954 0.48156927365107377 -1.210138519135506 1.2098118953033616 -1.2091059679709688 0.0 0.0 0.0 0.0 0.0 0.0 3.161987178032951 -4.6207931707891765 1.7603889687026282 0.5403050311902469 -0.47766405413509005 0.489798761698024 0.29580949455060795 -0.11303468883756387 0.4815525763646191 -1.2101397425155387 1.2098370768821618 -1.2089754610298096 0.0 0.0 0.0 0.0 0.0 0.0
2368.5679999999998 1.7214759154467055e-16 -1.5707963267948966 -1.5707963267948966 0.0 1.5707963267948966 0.0 0.0 0.0 0.0 0.0 0.0 0.0 0.0 0.0 0.0 0.0 0.0 0.0 -1.8327750199862536e-26 0.555172973447796 0.7573864583558305 0.07057808899065858 -9.380070923910231e-28 0.0 -2.1032924999364705e-25 6.394759450000002 6.3947594500000005 0.2913103000000004 -3.894025929994733e-27 0.0 -2.366701234990387e-05 -1.5707600752459925 -1.5707595984088343 -1.6514454976856996e-05 1.57077956199646 -9.614626039677887e-05 0.0 0.0 -0.0 0.0 0.0 0.0 0.0358886756002903 0.5630035996437073 0.6755932569503784 -0.006713963113725185 -0.03021283447742462 -0.12308932095766068 0.0336456336081028 0.5585175156593323 0.6755932569503784 -0.008951950818300247 -0.02349887043237686 -0.12756529450416565 0.2957931303778739 -0.11304312394434009 0.48157279383567947 -1.2101497684401687 1.2097799364620283 -1.2091028105643857 0.0 0.0 0.0 0.0 0.0 0.0 3.5771620333230345 -4.716321490002302 1.9397863554053714 0.5714928245656301 -0.5035319342653255 0.5289012746189737 0.29580949455060795 -0.11303468883756387 0.4815525763646191 -1.2101397425155387 1.2098370768821618 -1.2089754610298096 0.0 0.0 0.0 0.0 0.0 0.0
2368.576 1.7214759154467055e-16 -1.5707963267948966 -1.5707963267948966 0.0 1.5707963267948966 0.0 0.0 0.0 0.0 0.0 0.0 0.0 0.0 0.0 0.0 0.0 0.0 0.0 -1.8327750199862536e-26 0.555172973447796 0.7573864583558305 0.07057808899065858 -9.380070923910231e-28 0.0 -2.1032924999364705e-25 6.394759450000002 6.3947594500000005 0.2913103000000004 -3.894025929994733e-27 0.0 -2.366701234990387e-05 -1.5707839171039026 -1.5707715193377894 -1.6514454976856996e-05 1.5707435607910156 -8.422533144170075e-05 0.0 0.0 -0.0 0.0 0.0 0.0 0.0336456336081028 0.5450592637062073 0.6771183013916016 -0.004475975409150124 -0.02014188840985298 -0.10966140031814575 0.0336456336081028 0.5585175156593323 0.6755932569503784 -0.008951950818300247 -0.02349887043237686 -0.12756529450416565 0.29580200769714243 -0.11304606713940309 0.48156222067760057 -1.2101503300991128 1.209838371909179 -1.2091035693126577 0.0 0.0 0.0 0.0 0.0 0.0 2.570004141689597 -3.828122394166415 1.9221533358891416 0.5090922767201662 -0.4085946240601417 0.4089180652133692 0.29580949455060795 -0.11303468883756387 0.4815525763646191 -1.2101397425155387 1.2098370768821618 -1.2089754610298096 0.0 0.0 0.0 0.0 0.0 0.0
2368.584 1.7214759154467055e-16 -1.5707963267948966 -1.5707963267948966 0.0 1.5707963267948966 0.0 0.0 0.0 0.0 0.0 0.0 0.0 0.0 0.0 0.0 0.0 0.0 0.0 -1.8327750199862536e-26 0.555172973447796 0.7573864583558305 0.07057808899065858 -9.380070923910231e-28 0.0 -2.1032924999364705e-25 6.394759450000002 6.3947594500000005 0.2913103000000004 -3.894025929994733e-27 0.0 -2.366701234990387e-05 -1.5707724730121058 -1.5707715193377894 -1.6514454976856996e-05 1.5707675218582153 -3.5587941304981996e-05 0.0 0.0 -0.0 0.0 0.0 0.0 0.0336456336081028 0.5562744736671448 0.6786433458328247 -0.004475975409150124 -0.03021283447742462 -0.12644630670547485 0.0336456336081028 0.5585175156593323 0.6755932569503784 -0.008951950818300247 -0.024617865681648254 -0.12756529450416565 0.2957982375874239 -0.11304409770325356 0.4815656042247381 -1.2101173967532386 1.209835319513705 -1.209055556554848 0.0 0.0 0.0 0.0 0.0 0.0 3.1034529426803434 -4.330180512847345 1.8536155356928308 0.5870465927925461 -0.45982239782156553 0.497113362524435 0.29580949455060795 -0.11303468883756387 0.4815525763646191 -1.2101397425155387 1.2098370768821618 -1.2089754610298096 0.0 0.0 0.0 0.0 0.0 0.0
2368.592 1.7214759154467055e-16 -1.5707963267948966 -1.5707963267948966 0.0 1.5707963267948966 0.0 0.0 0.0 0.0 0.0 0.0 0.0 0.0 0.0 0.0 0.0 0.0 0.0 -1.8327750199862536e-26 0.555172973447796 0.7573864583558305 0.07057808899065858 -9.380070923910231e-28 0.0 -2.1032924999364705e-25 6.394759450000002 6.3947594500000005 0.2913103000000004 -3.894025929994733e-27 0.0 3.5952674807049334e-05 -1.5707724730121058 -1.5707715193377894 -5.2754079000294496e-05 1.570719599723816 -9.614626039677887e-05 0.0 0.0 -0.0 0.0 0.0 0.0 0.0381317175924778 0.5652466416358948 0.6740682125091553 -0.011189938522875309 -0.034688808023929596 -0.12085133790969849 0.0358886756002903 0.5585175156593323 0.6755932569503784 -0.008951950818300247 -0.024617865681648254 -0.12868429720401764 0.2958080654736816 -0.11303040687833284 0.48156262147380086 -1.2101942431482062 1.2098246930719398 -1.2090743567670905 0.0 0.0 0.0 0.0 0.0 0.0 3.754840438550796 -5.042492156534595 1.9095680944646753 0.5611872956506639 -0.5418294503692996 0.5765567680488902 0.29580949455060795 -0.11303468883756387 0.4815525763646191 -1.2101397425155387 1.2098370768821618 -1.2089754610298096 0.0 0.0 0.0 0.0 0.0 0.0
2368.6 1.7214759154467055e-16 -1.5707963267948966 -1.5707963267948966 0.0 1.5707963267948966 0.0 0.0 0.0 0.0 0.0 0.0 0.0 0.0 0.0 0.0 0.0 0.0 0.0 -1.8327750199862536e-26 0.555172973447796 0.7573864583558305 0.07057808899065858 -9.380070923910231e-28 0.0 -2.1032924999364705e-25 6.394759450000002 6.3947594500000005 0.2913103000000004 -3.894025929994733e-27 0.0 -2.366701234990387e-05 -1.5707839171039026 -1.5707595984088343 -4.0356312887013246e-05 1.5707675218582153 -5.990663637334137e-05 0.0 0.0 -0.0 0.0 0.0 0.0 0.0358886756002903 0.5652466416358948 0.6740682125091553 -0.004475975409150124 -0.02014188840985298 -0.12532731890678406 0.0336456336081028 0.5585175156593323 0.6755932569503784 -0.008951950818300247 -0.02685585245490074 -0.12756529450416565 0.29580302366343064 -0.1130441060767067 0.4815637809624815 -1.210152508934561 1.2098410279628782 -1.2090623989381524 0.0 0.0 0.0 0.0 0.0 0.0 3.754989271974003 -4.590462231105974 2.056053240296365 0.58183763721633 -0.4987242447881051 0.47161255072067226 0.29580949455060795 -0.11303468883756387 0.4815525763646191 -1.2101397425155387 1.2098370768821618 -1.2089754610298096 0.0 0.0 0.0 0.0 0.0 0.0
2368.6079999999997 1.7214759154467055e-16 -1.5707963267948966 -1.5707963267948966 0.0 1.5707963267948966 0.0 0.0 0.0 0.0 0.0 0.0 0.0 0.0 0.0 0.0 0.0 0.0 0.0 -1.8327750199862536e-26 0.555172973447796 0.7573864583558305 0.07057808899065858 -9.380070923910231e-28 0.0 -2.1032924999364705e-25 6.394759450000002 6.3947594500000005 0.2913103000000004 -3.894025929994733e-27 0.0 -3.5587941304981996e-05 -1.5707839171039026 -1.5707715193377894 -4.0356312887013246e-05 1.5707075595855713 -7.230440248662262e-05 0.0 0.0 -0.0 0.0 0.0 0.0 0.0314025916159153 0.5473023056983948 0.6771183013916016 -0.004475975409150124 -0.024617865681648254 -0.12085133790969849 0.0358886756002903 0.5585175156593323 0.6755932569503784 -0.008951950818300247 -0.024617865681648254 -0.12756529450416565 0.2958026914448552 -0.11305255718814435 0.48156025843184797 -1.2101364382471056 1.2098968615562253 -1.2091187763601976 0.0 0.0 0.0 0.0 0.0 0.0 2.6886628432953015 -3.853266132815844 1.9222960832789555 0.5610159639249892 -0.41873338342763305 0.4317882068813633 0.29580949455060795 -0.11303468883756387 0.4815525763646191 -1.2101397425155387 1.2098370768821618 -1.2089754610298096 0.0 0.0 0.0 0.0 0.0 0.0
2368.616 1.7214759154467055e-16 -1.5707963267948966 -1.5707963267948966 0.0 1.5707963267948966 0.0 0.0 0.0 0.0 0.0 0.0 0.0 0.0 0.0 0.0 0.0 0.0 0.0 -1.8327750199862536e-26 0.555172973447796 0.7573864583558305 0.07057808899065858 -9.380070923910231e-28 0.0 -2.1032924999364705e-25 6.394759450000002 6.3947594500000005 0.2913103000000004 -3.894025929994733e-27 0.0 2.3968450477696024e-05 -1.5707839171039026 -1.5708192030536097 -5.2754079000294496e-05 1.5707435607910156 -5.990663637334137e-05 0.0 0.0 -0.0 0.0 0.0 0.0 0.0403747595846653 0.5473023056983948 0.671018123626709 -0.007832957431674004 -0.02014188840985298 -0.1376362442970276 0.0336456336081028 0.5585175156593323 0.6755932569503784 -0.008951950818300247 -0.024617865681648254 -0.12644630670547485 0.2958145706922354 -0.1130319199385072 0.4815451410988645 -1.2102168756961178 1.2098763951728166 -1.209010775239244 0.0 0.0 0.0 0.0 0.0 0.0 2.92385979134499 -4.420414101113416 2.1175782537375487 0.638976398616277 -0.4381783440709554 0.4576301866129336 0.29580949455060795 -0.11303468883756387 0.4815525763646191 -1.2101397425155387 1.2098370768821618 -1.2089754610298096 0.0 0.0 0.0 0.0 0.0 0.0
2368.624 1.7214759154467055e-16 -1.5707963267948966 -1.5707963267948966 0.0 1.5707963267948966 0.0 0.0 0.0 0.0 0.0 0.0 0.0 0.0 0.0 0.0 0.0 0.0 0.0 -1.8327750199862536e-26 0.555172973447796 0.7573864583558305 0.07057808899065858 -9.380070923910231e-28 0.0 -2.1032924999364705e-25 6.394759450000002 6.3947594500000005 0.2913103000000004 -3.894025929994733e-27 0.0 -1.1746083394825746e-05 -1.5707839171039026 -1.5708072821246546 -2.8912221090138246e-05 1.5707435607910156 -7.230440248662262e-05 0.0 0.0 -0.0 0.0 0.0 0.0 0.0291595496237278 0.5562744736671448 0.6725431680679321 -0.015665914863348007 -0.02685585245490074 -0.12308932095766068 0.0314025916159153 0.5585175156593323 0.6755932569503784 -0.008951950818300247 -0.024617865681648254 -0.12644630670547485 0.29580747747744407 -0.1130424995520493 0.4815506282013955 -1.2101827424263087 1.2098705683987783 -1.2090631493657358 0.0 0.0 0.0 0.0 0.0 0.0 3.3406817044851116 -4.111785378905049 1.8825089771862766 0.5714544825017327 -0.5294252069099313 0.4634610623060073 0.29580949455060795 -0.11303468883756387 0.4815525763646191 -1.2101397425155387 1.2098370768821618 -1.2089754610298096 0.0 0.0 0.0 0.0 0.0 0.0
2368.632 1.7214759154467055e-16 -1.5707963267948966 -1.5707963267948966 0.0 1.5707963267948966 0.0 0.0 0.0 0.0 0.0 0.0 0.0 0.0 0.0 0.0 0.0 0.0 0.0 -1.8327750199862536e-26 0.555172973447796 0.7573864583558305 0.07057808899065858 -9.380070923910231e-28 0.0 -2.1032924999364705e-25 6.394759450000002 6.3947594500000005 0.2913103000000004 -3.894025929994733e-27 0.0 0.0 -1.5707481543170374 -1.5707834402667444 7.152557373046875e-06 1.5707675218582153 -5.990663637334137e-05 0.0 0.0 -0.0 0.0 0.0 0.0 0.0269165076315403 0.5495453476905823 0.6786433458328247 -0.0033569815568625927 -0.02014188840985298 -0.11189938336610794 0.0291595496237278 0.5585175156593323 0.6755932569503784 -0.008951950818300247 -0.024617865681648254 -0.12644630670547485 0.29579189764883934 -0.11303709330405884 0.48157121999905744 -1.2101199549600954 1.2097798167642555 -1.2090731143926523 0.0 0.0 0.0 0.0 0.0 0.0 2.749028271092672 -3.517432285932302 1.880271160442993 0.519449574482486 -0.4221426067546681 0.38335030479236093 0.29580949455060795 -0.11303468883756387 0.4815525763646191 -1.2101397425155387 1.2098370768821618 -1.2089754610298096 0.0 0.0 0.0 0.0 0.0 0.0
2368.64 1.7214759154467055e-16 -1.5707963267948966 -1.5707963267948966 0.0 1.5707963267948966 0.0 0.0 0.0 0.0 0.0 0.0 0.0 0.0 0.0 0.0 0.0 0.0 0.0 -1.8327750199862536e-26 0.555172973447796 0.7573864583558305 0.07057808899065858 -9.380070923910231e-28 0.0 -2.1032924999364705e-25 6.394759450000002 6.3947594500000005 0.2913103000000004 -3.894025929994733e-27 0.0 3.5952674807049334e-05 -1.5707724730121058 -1.5707715193377894 -7.659593691045075e-05 1.5707435607910156 -3.5587941304981996e-05 0.0 0.0 -0.0 0.0 0.0 0.0 0.0358886756002903 0.5540314316749573 0.6771183013916016 -0.007832957431674004 -0.024617865681648254 -0.1186133474111557 0.0336456336081028 0.5585175156593323 0.6755932569503784 -0.008951950818300247 -0.024617865681648254 -0.12644630670547485 0.29581010271691727 -0.11302843213959334 0.4815606578236285 -1.2101785274596661 1.209853238729407 -1.2090008476060974 0.0 0.0 0.0 0.0 0.0 0.0 3.0440601299259824 -4.311399319315628 1.8482490314820292 0.5507251079961899 -0.47062776749404966 0.4695094800008918 0.29580949455060795 -0.11303468883756387 0.4815525763646191 -1.2101397425155387 1.2098370768821618 -1.2089754610298096 0.0 0.0 0.0 0.0 0.0 0.0
2368.6479999999997 1.7214759154467055e-16 -1.5707963267948966 -1.5707963267948966 0.0 1.5707963267948966 0.0 0.0 0.0 0.0 0.0 0.0 0.0 0.0 0.0 0.0 0.0 0.0 0.0 -1.8327750199862536e-26 0.555172973447796 0.7573864583558305 0.07057808899065858 -9.380070923910231e-28 0.0 -2.1032924999364705e-25 6.394759450000002 6.3947594500000005 0.2913103000000004 -3.894025929994733e-27 0.0 4.793690095539205e-05 -1.5707362333880823 -1.5707834402667444 -4.0356312887013246e-05 1.5707075595855713 -8.422533144170075e-05 0.0 0.0 -0.0 0.0 0.0 0.0 0.0336456336081028 0.5540314316749573 0.671018123626709 -0.01007094420492649 -0.025736859068274498 -0.12868429720401764 0.0314025916159153 0.5585175156593323 0.6755932569503784 -0.008951950818300247 -0.027974845841526985 -0.12644630670547485 0.2957974359306032 -0.11302785394476261 0.48157083476305834 -1.2101583912112246 1.2098033452339572 -1.2090830158839347 0.0 0.0 0.0 0.0 0.0 0.0 3.280695585647715 -4.326198047976048 2.070720214303535 0.5974114294871747 -0.4828852788385163 0.4759489444860466 0.29580949455060795 -0.11303468883756387 0.4815525763646191 -1.2101397425155387 1.2098370768821618 -1.2089754610298096 0.0 0.0 0.0 0.0 0.0 0.0
2368.656 1.7214759154467055e-16 -1.5707963267948966 -1.5707963267948966 0.0 1.5707963267948966 0.0 0.0 0.0 0.0 0.0 0.0 0.0 0.0 0.0 0.0 0.0 0.0 0.0 -1.8327750199862536e-26 0.555172973447796 0.7573864583558305 0.07057808899065858 -9.380070923910231e-28 0.0 -2.1032924999364705e-25 6.394759450000002 6.3947594500000005 0.2913103000000004 -3.894025929994733e-27 0.0 1.1984225238848012e-05 -1.5707362333880823 -1.5707953611956995 -5.2754079000294496e-05 1.5707435607910156 -7.230440248662262e-05 0.0 0.0 -0.0 0.0 0.0 0.0 0.02467346377670765 0.5697327256202698 0.6771183013916016 -0.01007094420492649 -0.02909383922815323 -0.12980328500270844 0.0314025916159153 0.5585175156593323 0.6755932569503784 -0.008951950818300247 -0.025736859068274498 -0.12756529450416565 0.29579545528163287 -0.11303550930783941 0.4815662893055941 -1.2101675799587124 1.2098268188970165 -1.2090626610724886 0.0 0.0 0.0 0.0 0.0 0.0 3.8754224090362612 -4.173372380923729 1.801624257777417 0.6026108247141847 -0.5558392939993796 0.47893004864741767 0.29580949455060795 -0.11303468883756387 0.4815525763646191 -1.2101397425155387 1.2098370768821618 -1.2089754610298096 0.0 0.0 0.0 0.0 0.0 0.0
2368.6639999999998 1.7214759154467055e-16 -1.5707963267948966 -1.5707963267948966 0.0 1.5707963267948966 0.0 0.0 0.0 0.0 0.0 0.0 0.0 0.0 0.0 0.0 0.0 0.0 0.0 -1.8327750199862536e-26 0.555172973447796 0.7573864583558305 0.07057808899065858 -9.380070923910231e-28 0.0 -2.1032924999364705e-25 6.394759450000002 6.3947594500000005 0.2913103000000004 -3.894025929994733e-27 0.0 1.1984225238848012e-05 -1.5707481543170374 -1.5707715193377894 -4.0356312887013246e-05 1.5707675218582153 -2.366701234990387e-05 0.0 0.0 -0.0 0.0 0.0 0.0 0.0336456336081028 0.5405731797218323 0.681693434715271 -0.031331829726696014 -0.025736859068274498 -0.12868429720401764 0.0336456336081028 0.5585175156593323 0.6755932569503784 -0.008951950818300247 -0.02685585245490074 -0.12868429720401764 0.295796286070558 -0.11303355948504779 0.4815708322827278 -1.2101251190868845 1.209814347179547 -1.209020775078885 0.0 0.0 0.0 0.0 0.0 0.0 2.154930659801656 -3.730647337010545 1.1361284319451266 0.597370131742132 -0.5621648625189518 0.4270127800644479 0.29580949455060795 -0.11303468883756387 0.4815525763646191 -1.2101397425155387 1.2098370768821618 -1.2089754610298096 0.0 0.0 0.0 0.0 0.0 0.0
2368.672 1.7214759154467055e-16 -1.5707963267948966 -1.5707963267948966 0.0 1.5707963267948966 0.0 0.0 0.0 0.0 0.0 0.0 0.0 0.0 0.0 0.0 0.0 0.0 0.0 -1.8327750199862536e-26 0.555172973447796 0.7573864583558305 0.07057808899065858 -9.380070923910231e-28 0.0 -2.1032924999364705e-25 6.394759450000002 6.3947594500000005 0.2913103000000004 -3.894025929994733e-27 0.0 -1.1746083394825746e-05 -1.5707123915301722 -1.5707476774798792 -6.467500795537262e-05 1.5707556009292603 -5.990663637334137e-05 0.0 0.0 -0.0 0.0 0.0 0.0 0.0336456336081028 0.5764618515968323 0.6679680347442627 -0.0033569815568625927 -0.021260883659124374 -0.12980328500270844 0.0291595496237278 0.5585175156593323 0.6755932569503784 -0.008951950818300247 -0.025736859068274498 -0.12868429720401764 0.2957818457059591 -0.11304159898728797 0.48158645277398504 -1.2101088980396186 1.2097975829006686 -1.2090904565363094 0.0 0.0 0.0 0.0 0.0 0.0 4.5846067093261835 -4.919333586024762 2.3514431310832857 0.602600708696353 -0.5400674183222643 0.503878930626171 0.29580949455060795 -0.11303468883756387 0.4815525763646191 -1.2101397425155387 1.2098370768821618 -1.2089754610298096 0.0 0.0 0.0 0.0 0.0 0.0
2368.68 1.7214759154467055e-16 -1.5707963267948966 -1.5707963267948966 0.0 1.5707963267948966 0.0 0.0 0.0 0.0 0.0 0.0 0.0 0.0 0.0 0.0 0.0 0.0 0.0 -1.8327750199862536e-26 0.555172973447796 0.7573864583558305 0.07057808899065858 -9.380070923910231e-28 0.0 -2.1032924999364705e-25 6.394759450000002 6.3947594500000005 0.2913103000000004 -3.894025929994733e-27 0.0 0.0 -1.5707362333880823 -1.5708192030536097 -4.0356312887013246e-05 1.5707316398620605 -4.7985707418263246e-05 0.0 0.0 -0.0 0.0 0.0 0.0 0.0336456336081028 0.5540314316749573 0.6740682125091553 -0.0055949692614376545 -0.024617865681648254 -0.11637535691261292 0.0314025916159153 0.5585175156593323 0.6740682125091553 -0.008951950818300247 -0.025736859068274498 -0.12644630670547485 0.29579508407515637 -0.11304000947064666 0.4815602626023492 -1.2101468320726103 1.2098642993300408 -1.2090569016888637 0.0 0.0 0.0 0.0 0.0 0.0 3.1624738980165694 -4.239316056427149 2.0326777955199637 0.5403042387289432 -0.45523418304984753 0.46356340600808965 0.29580949455060795 -0.11303468883756387 0.4815525763646191 -1.2101397425155387 1.2098370768821618 -1.2089754610298096 0.0 0.0 0.0 0.0 0.0 0.0
2368.688 1.7214759154467055e-16 -1.5707963267948966 -1.5707963267948966 0.0 1.5707963267948966 0.0 0.0 0.0 0.0 0.0 0.0 0.0 0.0 0.0 0.0 0.0 0.0 0.0 -1.8327750199862536e-26 0.555172973447796 0.7573864583558305 0.07057808899065858 -9.380070923910231e-28 0.0 -2.1032924999364705e-25 6.394759450000002 6.3947594500000005 0.2913103000000004 -3.894025929994733e-27 0.0 -3.5587941304981996e-05 -1.5707362333880823 -1.5707953611956995 -1.6514454976856996e-05 1.5706956386566162 -5.990663637334137e-05 0.0 0.0 -0.0 0.0 0.0 0.0 0.0291595496237278 0.5652466416358948 0.6694930791854858 -0.0033569815568625927 -0.02909383922815323 -0.12197033315896988 0.0314025916159153 0.5585175156593323 0.6755932569503784 -0.008951950818300247 -0.024617865681648254 -0.12756529450416565 0.2957869794474128 -0.11305352942502044 0.4815692741821511 -1.2100865631997169 1.2098763863578608 -1.2091410005586196 0.0 0.0 0.0 0.0 0.0 0.0 3.933202198069371 -4.474824440817574 2.284828669578328 0.5662379409048717 -0.48997800974593114 0.5037356259991738 0.29580949455060795 -0.11303468883756387 0.4815525763646191 -1.2101397425155387 1.2098370768821618 -1.2089754610298096 0.0 0.0 0.0 0.0 0.0 0.0
2368.696 1.7214759154467055e-16 -1.5707963267948966 -1.5707963267948966 0.0 1.5707963267948966 0.0 0.0 0.0 0.0 0.0 0.0 0.0 0.0 0.0 0.0 0.0 0.0 0.0 -1.8327750199862536e-26 0.555172973447796 0.7573864583558305 0.07057808899065858 -9.380070923910231e-28 0.0 -2.1032924999364705e-25 6.394759450000002 6.3947594500000005 0.2913103000000004 -3.894025929994733e-27 0.0 -2.366701234990387e-05 -1.570796314870016 -1.5707595984088343 -6.467500795537262e-05 1.5707675218582153 -3.5587941304981996e-05 0.0 0.0 -0.0 0.0 0.0 0.0 0.0403747595846653 0.5338440537452698 0.6771183013916016 -0.01678490824997425 -0.02349887043237686 -0.09959045052528381 0.0358886756002903 0.5585175156593323 0.6755932569503784 -0.008951950818300247 -0.025736859068274498 -0.12756529450416565 0.29580918613321683 -0.1130441005406587 0.48155811243485674 -1.2101616454587865 1.2098795440612873 -1.209027098375193 0.0 0.0 0.0 0.0 0.0 0.0 1.97611557520126 -3.9924891881881126 1.6539068523624754 0.4624285650580152 -0.4369452746081722 0.4381235424975665 0.29580949455060795 -0.11303468883756387 0.4815525763646191 -1.2101397425155387 1.2098370768821618 -1.2089754610298096 0.0 0.0 0.0 0.0 0.0 0.0
2368.7039999999997 1.7214759154467055e-16 -1.5707963267948966 -1.5707963267948966 0.0 1.5707963267948966 0.0 0.0 0.0 0.0 0.0 0.0 0.0 0.0 0.0 0.0 0.0 0.0 0.0 -1.8327750199862536e-26 0.555172973447796 0.7573864583558305 0.07057808899065858 -9.380070923910231e-28 0.0 -2.1032924999364705e-25 6.394759450000002 6.3947594500000005 0.2913103000000004 -3.894025929994733e-27 0.0 0.0 -1.5707243124591272 -1.5707834402667444 -4.0356312887013246e-05 1.5707675218582153 -3.5587941304981996e-05 0.0 0.0 -0.0 0.0 0.0 0.0 0.0358886756002903 0.5674896836280823 0.6740682125091553 -0.0055949692614376545 -0.02349887043237686 -0.12308932095766068 0.0336456336081028 0.5585175156593323 0.6755932569503784 -0.008951950818300247 -0.02685585245490074 -0.12756529450416565 0.29578809347474266 -0.11303709923644209 0.4815743583491744 -1.210119468112678 1.2098087459885165 -1.209044008892987 0.0 0.0 0.0 0.0 0.0 0.0 3.873568484397132 -4.7267723859314605 2.0318057213281056 0.5714747155316919 -0.5160265404841858 0.4984853954784537 0.29580949455060795 -0.11303468883756387 0.4815525763646191 -1.2101397425155387 1.2098370768821618 -1.2089754610298096 0.0 0.0 0.0 0.0 0.0 0.0
2368.712 1.7214759154467055e-16 -1.5707963267948966 -1.5707963267948966 0.0 1.5707963267948966 0.0 0.0 0.0 0.0 0.0 0.0 0.0 0.0 0.0 0.0 0.0 0.0 0.0 -1.8327750199862536e-26 0.555172973447796 0.7573864583558305 0.07057808899065858 -9.380070923910231e-28 0.0 -2.1032924999364705e-25 6.394759450000002 6.3947594500000005 0.2913103000000004 -3.894025929994733e-27 0.0 -1.1746083394825746e-05 -1.5707481543170374 -1.5707715193377894 7.152557373046875e-06 1.5707556009292603 -5.990663637334137e-05 0.0 0.0 -0.0 0.0 0.0 0.0 0.0358886756002903 0.5562744736671448 0.6740682125091553 -0.011189938522875309 -0.02685585245490074 -0.1186133474111557 0.0336456336081028 0.5585175156593323 0.6755932569503784 -0.008951950818300247 -0.02685585245490074 -0.12756529450416565 0.2957895472122158 -0.11304156305148565 0.4815747440800385 -1.210099950499685 1.209788515179629 -1.209096201427322 0.0 0.0 0.0 0.0 0.0 0.0 3.280612176101775 -4.48627167866766 1.9106840888968741 0.5506775340543085 -0.5013121776482177 0.4943660886765003 0.29580949455060795 -0.11303468883756387 0.4815525763646191 -1.2101397425155387 1.2098370768821618 -1.2089754610298096 0.0 0.0 0.0 0.0 0.0 0.0
2368.72 1.7214759154467055e-16 -1.5707963267948966 -1.5707963267948966 0.0 1.5707963267948966 0.0 0.0 0.0 0.0 0.0 0.0 0.0 0.0 0.0 0.0 0.0 0.0 0.0 -1.8327750199862536e-26 0.555172973447796 0.7573864583558305 0.07057808899065858 -9.380070923910231e-28 0.0 -2.1032924999364705e-25 6.394759450000002 6.3947594500000005 0.2913103000000004 -3.894025929994733e-27 0.0 0.0 -1.5707724730121058 -1.5707953611956995 -4.0356312887013246e-05 1.570719599723816 0.0 0.0 0.0 -0.0 0.0 0.0 0.0 0.0336456336081028 0.5473023056983948 0.6923686861991882 -0.01007094420492649 -0.021260883659124374 -0.12085133790969849 0.0336456336081028 0.5585175156593323 0.6755932569503784 -0.008951950818300247 -0.02349887043237686 -0.12644630670547485 0.29580498607857975 -0.11304101539565051 0.4815565944892011 -1.2101148732901692 1.2099050440814167 -1.2090245957327719 0.0 0.0 0.0 0.0 0.0 0.0 2.0971202901361354 -3.6020682202532925 1.123809999082142 0.5609990374230791 -0.4598324974545207 0.39552976880087043 0.29580949455060795 -0.11303468883756387 0.4815525763646191 -1.2101397425155387 1.2098370768821618 -1.2089754610298096 0.0 0.0 0.0 0.0 0.0 0.0
2368.728 1.7214759154467055e-16 -1.5707963267948966 -1.5707963267948966 0.0 1.5707963267948966 0.0 0.0 0.0 0.0 0.0 0.0 0.0 0.0 0.0 0.0 0.0 0.0 0.0 -1.8327750199862536e-26 0.555172973447796 0.7573864583558305 0.07057808899065858 -9.380070923910231e-28 0.0 -2.1032924999364705e-25 6.394759450000002 6.3947594500000005 0.2913103000000004 -3.894025929994733e-27 0.0 -1.1746083394825746e-05 -1.5707362333880823 -1.5707953611956995 -7.659593691045075e-05 1.5707675218582153 -4.7985707418263246e-05 0.0 0.0 -0.0 0.0 0.0 0.0 0.0336456336081028 0.5158997178077698 0.671018123626709 -0.008951950818300247 -0.024617865681648254 -0.12085133790969849 0.0336456336081028 0.5585175156593323 0.6755932569503784 -0.008951950818300247 -0.024617865681648254 -0.12644630670547485 0.2957948101451818 -0.11304055395180085 0.48156432568059104 -1.210167341036413 1.2098557030026564 -1.2090332911719215 0.0 0.0 0.0 0.0 0.0 0.0 1.2645481285156566 -3.2347996879121235 2.096263734098337 0.561014441097863 -0.30353952634877623 0.3809723746560977 0.29580949455060795 -0.11303468883756387 0.4815525763646191 -1.2101397425155387 1.2098370768821618 -1.2089754610298096 0.0 0.0 0.0 0.0 0.0 0.0
2368.736 1.7214759154467055e-16 -1.5707963267948966 -1.5707963267948966 0.0 1.5707963267948966 0.0 0.0 0.0 0.0 0.0 0.0 0.0 0.0 0.0 0.0 0.0 0.0 0.0 -1.8327750199862536e-26 0.555172973447796 0.7573864583558305 0.07057808899065858 -9.380070923910231e-28 0.0 -2.1032924999364705e-25 6.394759450000002 6.3947594500000005 0.2913103000000004 -3.894025929994733e-27 0.0 2.3968450477696024e-05 -1.5707481543170374 -1.5707834402667444 -6.467500795537262e-05 1.5707556009292603 -9.614626039677887e-05 0.0 0.0 -0.0 0.0 0.0 0.0 0.0403747595846653 0.5742188096046448 0.681693434715271 -0.0033569815568625927 -0.02349887043237686 -0.14211222529411316 0.0336456336081028 0.5585175156593323 0.6755932569503784 -0.008951950818300247 -0.024617865681648254 -0.12644630670547485 0.29580073675944696 -0.1130309814387687 0.48156530637128664 -1.2102052751866874 1.2098066299382526 -1.2090568899249494 0.0 0.0 0.0 0.0 0.0 0.0 3.932926140380324 -5.0280857692146625 1.7403234750528753 0.659779482907627 -0.534695462827643 0.5232657463069655 0.29580949455060795 -0.11303468883756387 0.4815525763646191 -1.2101397425155387 1.2098370768821618 -1.2089754610298096 0.0 0.0 0.0 0.0 0.0 0.0
2368.7439999999997 1.7214759154467055e-16 -1.5707963267948966 -1.5707963267948966 0.0 1.5707963267948966 0.0 0.0 0.0 0.0 0.0 0.0 0.0 0.0 0.0 0.0 0.0 0.0 0.0 -1.8327750199862536e-26 0.555172973447796 0.7573864583558305 0.07057808899065858 -9.380070923910231e-28 0.0 -2.1032924999364705e-25 6.394759450000002 6.3947594500000005 0.2913103000000004 -3.894025929994733e-27 0.0 -4.7985707418263246e-05 -1.570796314870016 -1.5708192030536097 -5.2754079000294496e-05 1.570719599723816 -4.7985707418263246e-05 0.0 0.0 -0.0 0.0 0.0 0.0 0.0291595496237278 0.5517883896827698 0.681693434715271 -0.0055949692614376545 -0.022379877045750618 -0.12868429720401764 0.0291595496237278 0.5540314316749573 0.6755932569503784 -0.008951950818300247 -0.024617865681648254 -0.12644630670547485 0.29581052094025156 -0.11305517393891411 0.48154147540699616 -1.2101718533494707 1.2099618329319244 -1.209066722375079 0.0 0.0 0.0 0.0 0.0 0.0 2.7486359575859716 -3.7006807656948033 1.6951708004249357 0.5973557373861133 -0.4477111621408191 0.4087560003803979 0.29580949455060795 -0.11303468883756387 0.4815525763646191 -1.2101397425155387 1.2098370768821618 -1.2089754610298096 0.0 0.0 0.0 0.0 0.0 0.0
2368.752 1.7214759154467055e-16 -1.5707963267948966 -1.5707963267948966 0.0 1.5707963267948966 0.0 0.0 0.0 0.0 0.0 0.0 0.0 0.0 0.0 0.0 0.0 0.0 0.0 -1.8327750199862536e-26 0.555172973447796 0.7573864583558305 0.07057808899065858 -9.380070923910231e-28 0.0 -2.1032924999364705e-25 6.394759450000002 6.3947594500000005 0.2913103000000004 -3.894025929994733e-27 0.0 0.0 -1.5707243124591272 -1.5707834402667444 1.9073486328125e-05 1.5707675218582153 -2.366701234990387e-05 0.0 0.0 -0.0 0.0 0.0 0.0 0.0358886756002903 0.5585175156593323 0.6862685084342957 -0.0055949692614376545 -0.02349887043237686 -0.10742340981960297 0.0336456336081028 0.5562744736671448 0.6755932569503784 -0.008951950818300247 -0.024617865681648254 -0.12644630670547485 0.29578302052206207 -0.11303710238427837 0.4815792512676167 -1.210066898213776 1.2097706630270337 -1.209063391381019 0.0 0.0 0.0 0.0 0.0 0.0 2.926439329075394 -4.225708765676082 1.491067548430786 0.49873361967890306 -0.47971493887625877 0.4573160288208246 0.29580949455060795 -0.11303468883756387 0.4815525763646191 -1.2101397425155387 1.2098370768821618 -1.2089754610298096 0.0 0.0 0.0 0.0 0.0 0.0
2368.7599999999998 1.7214759154467055e-16 -1.5707963267948966 -1.5707963267948966 0.0 1.5707963267948966 0.0 0.0 0.0 0.0 0.0 0.0 0.0 0.0 0.0 0.0 0.0 0.0 0.0 -1.8327750199862536e-26 0.555172973447796 0.7573864583558305 0.07057808899065858 -9.380070923910231e-28 0.0 -2.1032924999364705e-25 6.394759450000002 6.3947594500000005 0.2913103000000004 -3.894025929994733e-27 0.0 1.1984225238848012e-05 -1.5707362333880823 -1.5707834402667444 -5.2754079000294496e-05 1.57077956199646 -2.366701234990387e-05 0.0 0.0 -0.0 0.0 0.0 0.0 0.0291595496237278 0.5540314316749573 0.671018123626709 -0.011189938522875309 -0.02909383922815323 -0.11413737386465073 0.0314025916159153 0.5585175156593323 0.6755932569503784 -0.008951950818300247 -0.024617865681648254 -0.12644630670547485 0.29579443720608256 -0.11303255788597158 0.481569812365542 -1.2101399717414532 1.2098145725361804 -1.2090060236891629 0.0 0.0 0.0 0.0 0.0 0.0 3.281390631105824 -4.129490040903022 2.0477206101322807 0.5299481034869816 -0.49005145018394336 0.4753794176663412 0.29580949455060795 -0.11303468883756387 0.4815525763646191 -1.2101397425155387 1.2098370768821618 -1.2089754610298096 0.0 0.0 0.0 0.0 0.0 0.0
2368.768 1.7214759154467055e-16 -1.5707963267948966 -1.5707963267948966 0.0 1.5707963267948966 0.0 0.0 0.0 0.0 0.0 0.0 0.0 0.0 0.0 0.0 0.0 0.0 0.0 -1.8327750199862536e-26 0.555172973447796 0.7573864583558305 0.07057808899065858 -9.380070923910231e-28 0.0 -2.1032924999364705e-25 6.394759450000002 6.3947594500000005 0.2913103000000004 -3.894025929994733e-27 0.0 1.1984225238848012e-05 -1.5707839171039026 -1.5708072821246546 -7.659593691045075e-05 1.5707556009292603 -4.7985707418263246e-05 0.0 0.0 -0.0 0.0 0.0 0.0 0.0381317175924778 0.5674896836280823 0.6664429903030396 -0.002237987704575062 -0.027974845841526985 -0.12644630670547485 0.0314025916159153 0.5607605576515198 0.6755932569503784 -0.008951950818300247 -0.024617865681648254 -0.12756529450416565 0.29581423088281267 -0.11303448573207528 0.48154670156755747 -1.2102168788012975 1.2098907992960428 -1.2089963264064547 0.0 0.0 0.0 0.0 0.0 0.0 4.169030035884693 -5.114971215265736 2.441907660755467 0.5871672241199379 -0.4918866158968002 0.5511951705146095 0.29580949455060795 -0.11303468883756387 0.4815525763646191 -1.2101397425155387 1.2098370768821618 -1.2089754610298096 0.0 0.0 0.0 0.0 0.0 0.0
2368.776 1.7214759154467055e-16 -1.5707963267948966 -1.5707963267948966 0.0 1.5707963267948966 0.0 0.0 0.0 0.0 0.0 0.0 0.0 0.0 0.0 0.0 0.0 0.0 0.0 -1.8327750199862536e-26 0.555172973447796 0.7573864583558305 0.07057808899065858 -9.380070923910231e-28 0.0 -2.1032924999364705e-25 6.394759450000002 6.3947594500000005 0.2913103000000004 -3.894025929994733e-27 0.0 -2.366701234990387e-05 -1.5707009474383753 -1.5707953611956995 -4.0356312887013246e-05 1.570719599723816 -4.7985707418263246e-05 0.0 0.0 -0.0 0.0 0.0 0.0 0.0291595496237278 0.5517883896827698 0.6847434639930725 -0.007832957431674004 -0.02349887043237686 -0.12868429720401764 0.0314025916159153 0.5607605576515198 0.6755932569503784 -0.008951950818300247 -0.02349887043237686 -0.12868429720401764 0.29577873260967535 -0.11304804097313625 0.48157774435323164 -1.2100863159001412 1.2098471840420852 -1.209111245898834 0.0 0.0 0.0 0.0 0.0 0.0 2.63028907524234 -3.6633066891814545 1.5115818772013254 0.5973125033785537 -0.4631117805687635 0.41098239406375775 0.29580949455060795 -0.11303468883756387 0.4815525763646191 -1.2101397425155387 1.2098370768821618 -1.2089754610298096 0.0 0.0 0.0 0.0 0.0 0.0
2368.784 1.7214759154467055e-16 -1.5707963267948966 -1.5707963267948966 0.0 1.5707963267948966 0.0 0.0 0.0 0.0 0.0 0.0 0.0 0.0 0.0 0.0 0.0 0.0 0.0 -1.8327750199862536e-26 0.555172973447796 0.7573864583558305 0.07057808899065858 -9.380070923910231e-28 0.0 -2.1032924999364705e-25 6.394759450000002 6.3947594500000005 0.2913103000000004 -3.894025929994733e-27 0.0 2.3968450477696024e-05 -1.5707724730121058 -1.5707834402667444 1.9073486328125e-05 1.5707316398620605 -8.422533144170075e-05 0.0 0.0 -0.0 0.0 0.0 0.0 0.0336456336081028 0.5630035996437073 0.6725431680679321 -0.001118993852287531 -0.02014188840985298 -0.11637535691261292 0.0336456336081028 0.5562744736671448 0.6755932569503784 -0.008951950818300247 -0.024617865681648254 -0.12532731890678406 0.29580160250066995 -0.11303295063877676 0.48156501127704343 -1.210141371636795 1.2097861928283455 -1.2090939057132608 0.0 0.0 0.0 0.0 0.0 0.0 3.696219782605828 -4.424100350808639 2.1972929050794656 0.5402813776072714 -0.466516863337015 0.45794198121416374 0.29580949455060795 -0.11303468883756387 0.4815525763646191 -1.2101397425155387 1.2098370768821618 -1.2089754610298096 0.0 0.0 0.0 0.0 0.0 0.0
2368.792 1.7214759154467055e-16 -1.5707963267948966 -1.5707963267948966 0.0 1.5707963267948966 0.0 0.0 0.0 0.0 0.0 0.0 0.0 0.0 0.0 0.0 0.0 0.0 0.0 -1.8327750199862536e-26 0.555172973447796 0.7573864583558305 0.07057808899065858 -9.380070923910231e-28 0.0 -2.1032924999364705e-25 6.394759450000002 6.3947594500000005 0.2913103000000004 -3.894025929994733e-27 0.0 -1.1746083394825746e-05 -1.5707243124591272 -1.5707834402667444 -1.6514454976856996e-05 1.5707675218582153 -4.7985707418263246e-05 0.0 0.0 -0.0 0.0 0.0 0.0 0.0336456336081028 0.5405731797218323 0.6801683902740479 -0.004475975409150124 -0.02349887043237686 -0.13316026329994202 0.0336456336081028 0.5585175156593323 0.6755932569503784 -0.008951950818300247 -0.024617865681648254 -0.12756529450416565 0.2957847305950284 -0.11304057481920662 0.4815763213108529 -1.2101054804454858 1.2097939943459983 -1.209073076260709 0.0 0.0 0.0 0.0 0.0 0.0 2.214096529943729 -3.713351671275944 1.786533130795877 0.6181102793615116 -0.38940883535997856 0.41515061530141123 0.29580949455060795 -0.11303468883756387 0.4815525763646191 -1.2101397425155387 1.2098370768821618 -1.2089754610298096 0.0 0.0 0.0 0.0 0.0 0.0
2368.7999999999997 1.7214759154467055e-16 -1.5707963267948966 -1.5707963267948966 0.0 1.5707963267948966 0.0 0.0 0.0 0.0 0.0 0.0 0.0 0.0 0.0 0.0 0.0 0.0 0.0 -1.8327750199862536e-26 0.555172973447796 0.7573864583558305 0.07057808899065858 -9.380070923910231e-28 0.0 -2.1032924999364705e-25 6.394759450000002 6.3947594500000005 0.2913103000000004 -3.894025929994733e-27 0.0 0.0 -1.5707839171039026 -1.570843521748678 -2.8912221090138246e-05 1.5707675218582153 -5.990663637334137e-05 0.0 0.0 -0.0 0.0 0.0 0.0 0.0403747595846653 0.5854340195655823 0.671018123626709 -0.002237987704575062 -0.022379877045750618 -0.13092228770256042 0.0336456336081028 0.5607605576515198 0.6755932569503784 -0.008951950818300247 -0.02349887043237686 -0.12756529450416565 0.295811911992588 -0.11303701028286242 0.48153991490068104 -1.2102172756470329 1.209876695299188 -1.2090105142276488 0.0 0.0 0.0 0.0 0.0 0.0 4.939942637100018 -5.536293160832288 2.2376796147685827 0.6079287702514674 -0.5745041281305138 0.5598018914476006 0.29580949455060795 -0.11303468883756387 0.4815525763646191 -1.2101397425155387 1.2098370768821618 -1.2089754610298096 0.0 0.0 0.0 0.0 0.0 0.0
2368.808 1.7214759154467055e-16 -1.5707963267948966 -1.5707963267948966 0.0 1.5707963267948966 0.0 0.0 0.0 0.0 0.0 0.0 0.0 0.0 0.0 0.0 0.0 0.0 0.0 -1.8327750199862536e-26 0.555172973447796 0.7573864583558305 0.07057808899065858 -9.380070923910231e-28 0.0 -2.1032924999364705e-25 6.394759450000002 6.3947594500000005 0.2913103000000004 -3.894025929994733e-27 0.0 0.0 -1.570808235798971 -1.5708072821246546 -4.0356312887013246e-05 1.5707556009292603 -3.5587941304981996e-05 0.0 0.0 -0.0 0.0 0.0 0.0 0.0291595496237278 0.5383301377296448 0.6801683902740479 -0.01007094420492649 -0.019022895023226738 -0.13204127550125122 0.0314025916159153 0.5562744736671448 0.6755932569503784 -0.008951950818300247 -0.02349887043237686 -0.12756529450416565 0.29581779921464074 -0.11303802412982077 0.48154249416572104 -1.2101932980534522 1.2098967185002192 -1.2090016626631621 0.0 0.0 0.0 0.0 0.0 0.0 2.0963478570639182 -3.282074623438043 1.666170565904011 0.6129110488197744 -0.4150885997694452 0.3587322838386553 0.29580949455060795 -0.11303468883756387 0.4815525763646191 -1.2101397425155387 1.2098370768821618 -1.2089754610298096 0.0 0.0 0.0 0.0 0.0 0.0
2368.816 1.7214759154467055e-16 -1.5707963267948966 -1.5707963267948966 0.0 1.5707963267948966 0.0 0.0 0.0 0.0 0.0 0.0 0.0 0.0 0.0 0.0 0.0 0.0 0.0 -1.8327750199862536e-26 0.555172973447796 0.7573864583558305 0.07057808899065858 -9.380070923910231e-28 0.0 -2.1032924999364705e-25 6.394759450000002 6.3947594500000005 0.2913103000000004 -3.894025929994733e-27 0.0 -3.5587941304981996e-05 -1.5707839171039026 -1.570735279713766 -4.0356312887013246e-05 1.57077956199646 -5.990663637334137e-05 0.0 0.0 -0.0 0.0 0.0 0.0 0.0358886756002903 0.5630035996437073 0.6847434639930725 -0.002237987704575062 -0.02685585245490074 -0.13316026329994202 0.0314025916159153 0.5607605576515198 0.6755932569503784 -0.008951950818300247 -0.02349887043237686 -0.13092228770256042 0.29579959344292583 -0.1130466683317991 0.48157096937749466 -1.210134600749945 1.2098231131881825 -1.209073867593222 0.0 0.0 0.0 0.0 0.0 0.0 3.2222771764346203 -4.455082531334985 1.6308263878249856 0.6181863150067285 -0.4779566198011566 0.4917632506107118 0.29580949455060795 -0.11303468883756387 0.4815525763646191 -1.2101397425155387 1.2098370768821618 -1.2089754610298096 0.0 0.0 0.0 0.0 0.0 0.0
2368.824 1.7214759154467055e-16 -1.5707963267948966 -1.5707963267948966 0.0 1.5707963267948966 0.0 0.0 0.0 0.0 0.0 0.0 0.0 0.0 0.0 0.0 0.0 0.0 0.0 -1.8327750199862536e-26 0.555172973447796 0.7573864583558305 0.07057808899065858 -9.380070923910231e-28 0.0 -2.1032924999364705e-25 6.394759450000002 6.3947594500000005 0.2913103000000004 -3.894025929994733e-27 0.0 0.0 -1.5707243124591272 -1.5707595984088343 -4.0356312887013246e-05 1.5707316398620605 -4.7985707418263246e-05 0.0 0.0 -0.0 0.0 0.0 0.0 0.0403747595846653 0.5473023056983948 0.6588177680969238 -0.004475975409150124 -0.027974845841526985 -0.12756529450416565 0.0314025916159153 0.5517883896827698 0.6755932569503784 -0.008951950818300247 -0.02685585245490074 -0.12868429720401764 0.29578604685328197 -0.11304008158871576 0.48158140681871014 -1.210094007935299 1.2098118344650772 -1.2090908804846394 0.0 0.0 0.0 0.0 0.0 0.0 3.396779680567147 -4.842586236326965 2.732091840061704 0.5922492844829814 -0.412523273645403 0.528893960016009 0.29580949455060795 -0.11303468883756387 0.4815525763646191 -1.2101397425155387 1.2098370768821618 -1.2089754610298096 0.0 0.0 0.0 0.0 0.0 0.0
2368.832 1.7214759154467055e-16 -1.5707963267948966 -1.5707963267948966 0.0 1.5707963267948966 0.0 0.0 0.0 0.0 0.0 0.0 0.0 0.0 0.0 0.0 0.0 0.0 0.0 -1.8327750199862536e-26 0.555172973447796 0.7573864583558305 0.07057808899065858 -9.380070923910231e-28 0.0 -2.1032924999364705e-25 6.394759450000002 6.3947594500000005 0.2913103000000004 -3.894025929994733e-27 0.0 0.0 -1.5707481543170374 -1.5707715193377894 -6.467500795537262e-05 1.57077956199646 -3.5587941304981996e-05 0.0 0.0 -0.0 0.0 0.0 0.0 0.0448608435690403 0.5831909775733948 0.6771183013916016 -0.03245082125067711 -0.02685585245490074 -0.14099322259426117 0.0403747595846653 0.5562744736671448 0.6755932569503784 -0.008951950818300247 -0.02685585245490074 -0.12868429720401764 0.29579700831043687 -0.11303611146781575 0.4815688297152328 -1.2101518485064655 1.209826559105576 -1.2090179841079618 0.0 0.0 0.0 0.0 0.0 0.0 4.583656240037306 -5.716537862437019 1.3106501018299495 0.6546399600543393 -0.7603042192340851 0.5955903173123991 0.29580949455060795 -0.11303468883756387 0.4815525763646191 -1.2101397425155387 1.2098370768821618 -1.2089754610298096 0.0 0.0 0.0 0.0 0.0 0.0
2368.8399999999997 1.7214759154467055e-16 -1.5707963267948966 -1.5707963267948966 0.0 1.5707963267948966 0.0 0.0 0.0 0.0 0.0 0.0 0.0 0.0 0.0 0.0 0.0 0.0 0.0 -1.8327750199862536e-26 0.555172973447796 0.7573864583558305 0.07057808899065858 -9.380070923910231e-28 0.0 -2.1032924999364705e-25 6.394759450000002 6.3947594500000005 0.2913103000000004 -3.894025929994733e-27 0.0 1.1984225238848012e-05 -1.5707839171039026 -1.5707953611956995 -2.8912221090138246e-05 1.5707675218582153 -5.990663637334137e-05 0.0 0.0 -0.0 0.0 0.0 0.0 0.0381317175924778 0.5607605576515198 0.6908436417579651 -0.01007094420492649 -0.027974845841526985 -0.12308932095766068 0.0336456336081028 0.5630035996437073 0.6755932569503784 -0.008951950818300247 -0.02685585245490074 -0.12868429720401764 0.2958091409159439 -0.11303352010591068 0.4815541515697099 -1.2101873628517632 1.209832554856099 -1.209024583688474 0.0 0.0 0.0 0.0 0.0 0.0 2.867128876635274 -4.426310582820133 1.1897363436057924 0.57150671251087 -0.5201447312021743 0.49461952199860404 0.29580949455060795 -0.11303468883756387 0.4815525763646191 -1.2101397425155387 1.2098370768821618 -1.2089754610298096 0.0 0.0 0.0 0.0 0.0 0.0
2368.848 1.7214759154467055e-16 -1.5707963267948966 -1.5707963267948966 0.0 1.5707963267948966 0.0 0.0 0.0 0.0 0.0 0.0 0.0 0.0 0.0 0.0 0.0 0.0 0.0 -1.8327750199862536e-26 0.555172973447796 0.7573864583558305 0.07057808899065858 -9.380070923910231e-28 0.0 -2.1032924999364705e-25 6.394759450000002 6.3947594500000005 0.2913103000000004 -3.894025929994733e-27 0.0 0.0 -1.5707481543170374 -1.5707715193377894 7.152557373046875e-06 1.5707316398620605 -5.990663637334137e-05 0.0 0.0 -0.0 0.0 0.0 0.0 0.0381317175924778 0.5473023056983948 0.6755932569503784 -0.006713963113725185 -0.02685585245490074 -0.10294743627309799 0.0314025916159153 0.5585175156593323 0.6755932569503784 -0.008951950818300247 -0.025736859068274498 -0.12644630670547485 0.29579087267064336 -0.11304006207752954 0.48157474462089894 -1.21009416743918 1.2097975120375422 -1.2091051949404379 0.0 0.0 0.0 0.0 0.0 0.0 2.747136210579629 -4.33903395171004 1.9401758903511215 0.4779909567134422 -0.43261429677130503 0.48226825193532114 0.29580949455060795 -0.11303468883756387 0.4815525763646191 -1.2101397425155387 1.2098370768821618 -1.2089754610298096 0.0 0.0 0.0 0.0 0.0 0.0
2368.8559999999998 1.7214759154467055e-16 -1.5707963267948966 -1.5707963267948966 0.0 1.5707963267948966 0.0 0.0 0.0 0.0 0.0 0.0 0.0 0.0 0.0 0.0 0.0 0.0 0.0 -1.8327750199862536e-26 0.555172973447796 0.7573864583558305 0.07057808899065858 -9.380070923910231e-28 0.0 -2.1032924999364705e-25 6.394759450000002 6.3947594500000005 0.2913103000000004 -3.894025929994733e-27 0.0 -1.1746083394825746e-05 -1.5707362333880823 -1.5707715193377894 -2.8912221090138246e-05 1.57077956199646 -4.7985707418263246e-05 0.0 0.0 -0.0 0.0 0.0 0.0 0.0403747595846653 0.5540314316749573 0.6740682125091553 -0.006713963113725185 -0.02349887043237686 -0.11413737386465073 0.0358886756002903 0.5585175156593323 0.6740682125091553 -0.008951950818300247 -0.024617865681648254 -0.12756529450416565 0.2957886982238528 -0.11303959195314366 0.4815752992131757 -1.2101202915946276 1.2097942712521907 -1.2090583520027092 0.0 0.0 0.0 0.0 0.0 0.0 3.1614770235473615 -4.620383463529881 2.0070035594991764 0.52993524899124 -0.46247608770133813 0.48978191011844274 0.29580949455060795 -0.11303468883756387 0.4815525763646191 -1.2101397425155387 1.2098370768821618 -1.2089754610298096 0.0 0.0 0.0 0.0 0.0 0.0
2368.864 1.7214759154467055e-16 -1.5707963267948966 -1.5707963267948966 0.0 1.5707963267948966 0.0 0.0 0.0 0.0 0.0 0.0 0.0 0.0 0.0 0.0 0.0 0.0 0.0 -1.8327750199862536e-26 0.555172973447796 0.7573864583558305 0.07057808899065858 -9.380070923910231e-28 0.0 -2.1032924999364705e-25 6.394759450000002 6.3947594500000005 0.2913103000000004 -3.894025929994733e-27 0.0 -3.5587941304981996e-05 -1.5707481543170374 -1.5707834402667444 -2.8912221090138246e-05 1.5707435607910156 -2.366701234990387e-05 0.0 0.0 -0.0 0.0 0.0 0.0 0.0314025916159153 0.5899201035499573 0.6847434639930725 -0.006713963113725185 -0.027974845841526985 -0.11189938336610794 0.0269165076315403 0.5585175156593323 0.6755932569503784 -0.008951950818300247 -0.027974845841526985 -0.12756529450416565 0.29579095077398987 -0.11304959145886849 0.48156825121442515 -1.2100916527290582 1.2098673764405035 -1.20907318688797 0.0 0.0 0.0 0.0 0.0 0.0 4.646239176851597 -4.962976492766702 1.534337101455023 0.5195622138585274 -0.6281567513035983 0.538690018493581 0.29580949455060795 -0.11303468883756387 0.4815525763646191 -1.2101397425155387 1.2098370768821618 -1.2089754610298096 0.0 0.0 0.0 0.0 0.0 0.0
2368.872 1.8616845526753767e-08 -1.5707963267948966 -1.5707963267948966 0.0 1.5707963267948966 0.0 9.308422677303088e-06 0.0 0.0 0.0 0.0 0.0 0.001163552834662886 0.0 0.0 0.0 0.0 0.0 8.308916139136837e-05 0.5551610956953602 0.7573848148067851 0.07057472694661497 2.1713706078648036e-06 0.0 0.0009535311648987164 6.394622636118084 6.394745573199493 0.29129642319952365 9.014189252131172e-06 0.0 0.0 -1.5707362333880823 -1.5707715193377894 -4.0356312887013246e-05 1.57077956199646 -7.230440248662262e-05 0.0 0.0 -0.0 0.0 0.0 0.0 0.0314025916159153 0.5831909775733948 0.6801683902740479 -0.019022895023226738 -0.014546919614076614 -0.11525636911392212 0.0336456336081028 0.5585175156593323 0.6755932569503784 -0.008951950818300247 -0.024617865681648254 -0.12756529450416565 0.2957910028257977 -0.11303611698045861 0.4815743569855025 -1.2101521970723776 1.2097825269721494 -1.2090621837391597 0.0 0.0 0.0 0.0 0.0 0.0 4.468523555738676 -4.571050469937225 1.470799843421133 0.5350797095222226 -0.6750920564012782 0.4439820855861109 0.2958094966549572 -0.11303468333053146 0.4815525763646191 -1.2101397513219048 1.209837063162975 -1.2089754473270822 1.0521746096357202e-06 2.753519826824616e-06 0.0 0.0 0.0 9.308422677303088e-06
2368.88 1.6755160836360318e-07 -1.5707963267948966 -1.5707963267948966 0.0 1.5707963267948966 0.0 4.18879020478639e-05 0.0 0.0 0.0 0.0 0.0 0.004072434921320102 0.0 0.0 0.0 0.0 0.0 0.001290052872101999 0.5551314013374337 0.7573807059384979 0.07056632184535604 7.599798292703308e-06 0.0 0.0033373590771455077 6.39428060168009 6.394710881234753 0.29126173123486027 3.154966721955204e-05 0.0 -3.5587941304981996e-05 -1.5707362333880823 -1.5708072821246546 -4.0356312887013246e-05 1.5707675218582153 -5.990663637334137e-05 0.0 0.0 -0.0 0.0 0.0 0.0 0.0403747595846653 0.5316010117530823 0.681693434715271 -0.0033569815568625927 -0.02349887043237686 -0.09623347222805023 0.0381317175924778 0.5585175156593323 0.6755932569503784 -0.008951950818300247 -0.025736859068274498 -0.12756529450416565 0.29579004318674995 -0.11304759448480442 0.4815637856766018 -1.2101469534641058 1.209849709711904 -1.2090711192079522 0.0 0.0 0.0 0.0 0.0 0.0 1.6823249502940851 -3.759757245258013 1.7427658867885374 0.4468250934304914 -0.3423728225662764 0.41901189053705373 0.29580951348974766 -0.1130346392742203 0.4815525763646191 -1.2101398217728276 1.2098369534094773 -1.2089753377052603 4.734783897934392e-06 1.2390839925884825e-05 0.0 0.0 0.0 4.18879020478639e-05
2368.888 6.7020643293797e-07 -1.5707963267948966 -1.5707963267948966 0.0 1.5707963267948966 0.0 0.00011170107212763705 0.0 0.0 0.0 0.0 0.0 0.008726646259971644 0.0 0.0 0.0 0.0 0.0 0.0032878896649995845 0.5550838904932888 0.7573741317732469 0.0705528737324529 1.6285289054304923e-05 0.0 0.007151483736740372 6.393733348059859 6.394655374293875 0.2912062242941047 6.760645880968147e-05 0.0 3.5952674807049334e-05 -1.5707481543170374 -1.5707595984088343 -6.467500795537262e-05 1.5707435607910156 -3.5587941304981996e-05 0.0 0.0 -0.0 0.0 0.0 0.0 0.02467346377670765 0.5495453476905823 0.6847434639930725 -0.006713963113725185 -0.0335698164999485 -0.10854240506887436 0.0269165076315403 0.5585175156593323 0.6755932569503784 -0.008951950818300247 -0.02685585245490074 -0.12756529450416565 0.29580004725138 -0.11302845532960029 0.4815723544008582 -1.2101430118880598 1.2098178471757495 -1.209023690929699 0.0 0.0 0.0 0.0 0.0 0.0 2.517601904305699 -3.3543854279687846 1.5379150202662286 0.5039465288695217 -0.4459920610456002 0.432497898354406 0.29580957030711713 -0.11303449058412873 0.4815525763646191 -1.2101400595446377 1.2098365829914117 -1.2089749677316002 1.2626073785647665e-05 3.304224614892061e-05 0.0 0.0 0.0 0.00011170107212763705
2368.8959999999997 1.861684535632765e-06 -1.5707963267948966 -1.5707963267948966 0.0 1.5707963267948966 0.0 0.00023271056693257718 0.0 0.0 0.0 0.0 0.0 0.015126186850617515 0.0 0.0 0.0 0.0 0.0 0.006631945649342975 0.5550185635124445 0.7573650923763146 0.07053438274144888 2.8227860474661246e-05 0.0 0.01239590514368331 6.3929808792833285 6.394579052928056 0.2911299029284555 0.00011718463701208609 0.0 -1.1746083394825746e-05 -1.5707600752459925 -1.5707476774798792 -7.659593691045075e-05 1.570719599723816 -2.366701234990387e-05 0.0 0.0 -0.0 0.0 0.0 0.0 0.0381317175924778 0.5787048935890198 0.6847434639930725 -0.011189938522875309 -0.017903901636600494 -0.14323121309280396 0.0381317175924778 0.5585175156593323 0.6755932569503784 -0.008951950818300247 -0.02685585245490074 -0.12756529450416565 0.2957985789672704 -0.11304454666738294 0.48157137225686314 -1.2101090890903812 1.2098850870608853 -1.2090620302799093 0.0 0.0 0.0 0.0 0.0 0.0 4.0602766290906755 -4.439345737681701 1.4372332039995674 0.6648417470319163 -0.6065894985604467 0.44885153151535234 0.2958097049850275 -0.11303413813341688 0.4815525763646191 -1.2101406231515544 1.2098357049633335 -1.2089740907569286 2.6304238367761684e-05 6.883804415122415e-05 0.0 0.0 0.0 0.00023271056693257718
2368.904 4.1887902049585364e-06 -1.5707963267948966 -1.5707963267948966 0.0 1.5707963267948966 0.0 0.0004188790204786389 0.0 0.0 0.0 0.0 0.0 0.023271056693257713 0.0 0.0 0.0 0.0 0.0 0.01165578703953767 0.5549354211717269 0.757353587892797 0.07051084916915094 4.342755163066158e-05 0.0 0.01907062329797432 6.392023204298363 6.3944819183623665 0.2910327683629802 0.0001802843640498679 0.0 0.0 -1.5707362333880823 -1.5707953611956995 -5.2754079000294496e-05 1.570719599723816 -9.614626039677887e-05 0.0 0.0 -0.0 0.0 0.0 0.0 0.0538330152630806 0.5630035996437073 0.6786433458328247 -0.008951950818300247 -0.034688808023929596 -0.09511447697877884 0.0448608435690403 0.5585175156593323 0.6755932569503784 -0.008951950818300247 -0.02685585245490074 -0.12644630670547485 0.2957940982771001 -0.1130410275815924 0.4815662898466516 -1.2101681403445679 1.2098420210635 -1.2091066701760396 0.0 0.0 0.0 0.0 0.0 0.0 3.4697435272302526 -5.136937125942896 1.7547876151025992 0.4417736517747526 -0.5196035235525825 0.5845566668180101 0.29580996802661025 -0.11303344975267442 0.4815525763646191 -1.2101417239449483 1.209833990064458 -1.2089723779154868 4.734734071372032e-05 0.00012390858965480398 0.0 0.0 0.0 0.0004188790204786389
2368.912 8.210028801553469e-06 -1.5707963267948966 -1.5707963267948966 0.0 1.5707963267948966 0.0 0.0006841690667817768 0.0 0.0 0.0 0.0 0.0 0.03316125578789224 0.0 0.0 0.0 0.0 0.0 0.018693414774052956 0.5548344649345536 0.7573396185960308 0.07048227357469736 6.188443613711348e-05 0.0 0.027175638199613408 6.3908603399613435 6.3943639729046415 0.290914822905516 0.00025690594552622723 0.0 -3.5587941304981996e-05 -1.5707600752459925 -1.5707953611956995 -1.6514454976856996e-05 1.570719599723816 -7.230440248662262e-05 0.0 0.0 -0.0 0.0 0.0 0.0 0.0538330152630806 0.5607605576515198 0.6679680347442627 -0.0055949692614376545 -0.0335698164999485 -0.12868429720401764 0.0493469275534153 0.5585175156593323 0.6755932569503784 -0.008951950818300247 -0.02685585245490074 -0.12644630670547485 0.2957948412191584 -0.1130515478533235 0.48156222364507073 -1.2101246107190464 1.209870398937663 -1.2091211821349273 0.0 0.0 0.0 0.0 0.0 0.0 3.770246469801606 -4.847820264354177 2.302287379533111 0.5974611111351305 -0.4845551955359928 0.555585746116733 0.29581042255868945 -0.11303226022929583 0.4815525763646191 -1.210143626111675 1.20983102671831 -1.208969418124585 7.733317599731031e-05 0.00020238434074630157 0.0 0.0 0.0 0.0006841690667817768
2368.92 1.4595606758183387e-05 -1.5707963267948966 -1.5707963267948966 0.0 1.5707963267948966 0.0 0.0010425433398579455 0.0 0.0 0.0 0.0 0.0 0.04479678413452109 0.0 0.0 0.0 0.0 0.0 0.028079468087113396 0.5547156972724533 0.7573231849476476 0.07044865690240183 8.359863832008796e-05 0.0 0.03671094984860056 6.389492314740565 6.394225220452526 0.2907760704537075 0.0003470498975662002 0.0 -2.366701234990387e-05 -1.5707362333880823 -1.5707953611956995 -4.0356312887013246e-05 1.5707435607910156 -2.366701234990387e-05 0.0 0.0 -0.0 0.0 0.0 0.0 0.0650482252240181 0.5630035996437073 0.6679680347442627 -0.007832957431674004 -0.024617865681648254 -0.1365172564983368 0.0583190992474556 0.5585175156593323 0.6755932569503784 -0.008951950818300247 -0.02349887043237686 -0.12644630670547485 0.2957903670202767 -0.1130460553417622 0.48156731009004583 -1.2101057443970389 1.2098669856727635 -1.2090589769040299 0.0 0.0 0.0 0.0 0.0 0.0 3.894135052993095 -4.8289802901419 2.253364423614158 0.6337712635488594 -0.5093206471018212 0.5124711528557347 0.2958111443289678 -0.1130303713064791 0.4815525763646191 -1.2101466466709023 1.2098263210320623 -1.2089647180839342 0.00011783906080724246 0.0003083959383759229 0.0 0.0 0.0 0.0010425433398579455
2368.928 2.4127431579741747e-05 -1.5707963267948966 -1.5707963267948966 0.0 1.5707963267948966 0.0 0.0015079644737231 0.0 0.0 0.0 0.0 0.0 0.05817764173314429 0.0 0.0 0.0 0.0 0.0 0.040149467481362916 0.5545791220488087 0.7573042876692497 0.0704100006283736 0.00010857035252059008 0.0 0.04767655824493581 6.387919173136403 6.394065667098645 0.29061651710017966 0.0004507170269535724 0.0 0.0 -1.570796314870016 -1.5708072821246546 -7.659593691045075e-05 1.570815086364746 -5.990663637334137e-05 0.0 0.0 -0.0 0.0 0.0 0.0 0.0785064771771431 0.5450592637062073 0.6847434639930725 -0.004475975409150124 -0.025736859068274498 -0.12644630670547485 0.0762634351849556 0.5562744736671448 0.6755932569503784 -0.008951950818300247 -0.024617865681648254 -0.12644630670547485 0.29581696836076765 -0.11303312729066588 0.48154303397804377 -1.210257276538063 1.2098592821622458 -1.20896424683848 0.0 0.0 0.0 0.0 0.0 0.0 2.3016776957477263 -4.09384631716217 1.5821356922429823 0.5870966809993949 -0.4128815112639096 0.4573225989386084 0.2958122217012285 -0.11302755168133648 0.4815525763646191 -1.2101511554686997 1.2098192967954 -1.208957702274518 0.00017044153248735138 0.000446074321218554 0.0 0.0 0.0 0.0015079644737231
2368.9359999999997 3.769911184324964e-05 -1.5707963267948966 -1.5707963267948966 0.0 1.5707963267948966 0.0 0.002094395102393194 0.0 0.0 0.0 0.0 0.0 0.07330382858376175 0.0 0.0 0.0 0.0 0.0 0.055240097101501295 0.5544247449648326 0.7572829278257087 0.0703663069309141 0.00013679986552855364 0.0 0.060072463388619074 6.386140980818272 6.393885321833916 0.2904361718358481 0.000567908524262965 0.0 0.0 -1.5707362333880823 -1.5707834402667444 -2.8912221090138246e-05 1.5707075595855713 -7.230440248662262e-05 0.0 0.0 -0.0 0.0 0.0 0.0 0.1121521145105362 0.5854340195655823 0.6786433458328247 -0.0033569815568625927 -0.031331829726696014 -0.13987423479557037 0.1121521145105362 0.5607605576515198 0.6755932569503784 -0.008951950818300247 -0.02349887043237686 -0.12644630670547485 0.2957910405469905 -0.113042034033473 0.4815717770023022 -1.2101185007915651 1.2098358933337532 -1.2091149471560532 0.0 0.0 0.0 0.0 0.0 0.0 4.677121474597213 -6.593218774941682 1.8712416153983698 0.6494867255575933 -0.5865451726119161 0.6892151038175273 0.29581375564777795 -0.11302353700202984 0.4815525763646191 -1.210157575169516 1.2098092954787427 -1.2089477129568051 0.00023671594235221107 0.0006195508810492431 0.0 0.0 0.0 0.002094395102393194
2368.944 5.6315957197855814e-05 -1.5707963267948966 -1.5707963267948966 0.0 1.5707963267948966 0.0 0.0028157978598841835 0.0 0.0 0.0 0.0 0.0 0.09017534468637368 0.0 0.0 0.0 0.0 0.0 0.0736895265088935 0.5542525740677705 0.7572591069200875 0.0703175788846896 0.00016828758214716233 0.0 0.07389866527965053 6.384157830478361 6.393684197348987 0.2902350473513647 0.0006986260699871019 0.0 0.0 -1.5707243124591272 -1.5707834402667444 -5.2754079000294496e-05 1.5706956386566162 -8.422533144170075e-05 0.0 0.0 -0.0 0.0 0.0 0.0 0.1457977443933487 0.5316010117530823 0.6725431680679321 -0.0055949692614376545 -0.027974845841526985 -0.10854240506887436 0.1457977443933487 0.5585175156593323 0.6755932569503784 -0.008951950818300247 -0.024617865681648254 -0.12644630670547485 0.295789144695375 -0.1130430187872705 0.4815733392128751 -1.2101304235964172 1.2098478098127081 -1.2091268532381207 0.0 0.0 0.0 0.0 0.0 0.0 2.0739108112850086 -6.0590289329749245 2.0919465384616736 0.5041102302756666 -0.35626949334526126 0.6299352721963748 0.295815859738225 -0.11301802986349938 0.4815525763646191 -1.2101663812435266 1.2097955762305928 -1.2089340101681043 0.0003182359266179714 0.0008329576647706937 0.0 0.0 0.0 0.0028157978598841835
2368.9519999999998 8.109497836483663e-05 -1.5707963267948966 -1.5707963267948966 0.0 1.5707963267948966 0.0 0.003686135380212022 0.0 0.0 0.0 0.0 0.0 0.10879219004097983 0.0 0.0 0.0 0.0 0.0 0.09583777185715119 0.5540626203213336 0.7572328270001865 0.07026382067868031 0.00020303405388749296 0.0 0.08915516391802997 6.381969848402167 6.393462310933831 0.2900131609366999 0.0008428719536592408 0.0 4.793690095539205e-05 -1.5707600752459925 -1.5707834402667444 -7.659593691045075e-05 1.5707316398620605 -2.366701234990387e-05 0.009357282891869545 0.0 -0.0 0.0 0.0 0.0 0.2108459621667862 0.5360870957374573 0.6649179458618164 -0.0033569815568625927 -0.014546919614076614 -0.11301837861537933 0.2130890041589737 0.5585175156593323 0.6755932569503784 -0.008951950818300247 -0.024617865681648254 -0.12644630670547485 0.29580839074182086 -0.11302585983038288 0.4815608002939043 -1.2101694414806488 1.2098584541297357 -1.2089922417198569 0.0010576149445296634 0.002767962793959902 0.0 0.0 0.0 0.009357282891869545 2.6100681834238304 -8.635960190872407 2.4685449717154038 0.5250976903473559 -0.3603097975703274 0.779770495617499 0.29581866012356356 -0.1130106998013533 0.4815525763646191 -1.2101781019486852 1.2097773158737835 -1.2089157717188064 0.0004165727388802928 0.0010904276292083828 0.0 0.0 0.0 0.003686135380212022
2368.96 0.0001132648871375961 -1.5707963267948966 -1.5707963267948966 0.0 1.5707963267948966 0.0 0.004719370297392665 0.0 0.0 0.0 0.0 0.0 0.12915436464758034 0.0 0.0 0.0 0.0 0.0 0.12202709646868704 0.5538548982383592 0.757204090776711 0.07020503785790558 0.00024104001079348753 0.0 0.10584195930375752 6.379577201755799 6.393219685475455 0.2897705354788613 0.0010006492059707944 0.0 7.227985770441592e-05 -1.5707362333880823 -1.5707715193377894 -2.8912221090138246e-05 1.5707556009292603 -2.366701234990387e-05 0.0070946612395346165 0.0 -0.0 0.0 0.0 0.0 0.0314025916159153 0.5383301377296448 0.6649179458618164 -0.001118993852287531 -0.014546919614076614 -0.11301837861537933 0.02243042178452015 0.5585175156593323 0.6755932569503784 -0.008951950818300247 -0.024617865681648254 -0.12532731890678406 0.2957981933109139 -0.11301671103313977 0.4815752997540872 -1.2101307797447998 1.2097615116141285 -1.2089962440237119 0.0008018152791865341 0.0020985879768073085 0.0 0.0 0.0 0.0070946612395346165 2.767666115337496 3.6756747071874525 2.566431135532595 0.5240832926228478 -0.3550687636833458 -0.2339822716874791 0.29582229551439404 -0.11300118328357325 0.4815525763646191 -1.210193318306167 1.2097536089003407 -1.2088920931872458 0.0005332944279587429 0.0013960949547571462 0.0 0.0 0.0 0.004719370297392665
2368.968 0.00015416609638166587 -1.5707963267948966 -1.5707963267948966 0.0 1.5707963267948966 0.0 0.005929465245442067 0.0 0.0 0.0 0.0 0.0 0.15126186850617526 0.0 0.0 0.0 0.0 0.0 0.15260245081224155 0.5536294265757024 0.7571729017530638 0.0701412375889255 0.00028230639639724653 0.0 0.12395905143683318 6.376980106590075 6.392956350553759 0.2895072005577482 0.0011719617438841132 0.0 8.426408021477982e-05 -1.5707243124591272 -1.5707476774798792 -4.0356312887013246e-05 1.5707556009292603 -5.990663637334137e-05 0.0027228158432990313 0.0 -0.0 0.0 0.0 0.0 0.1682281643152237 0.5585175156593323 0.6679680347442627 -0.001118993852287531 -0.017903901636600494 -0.12644630670547485 0.1816864162683487 0.5607605576515198 0.6725431680679321 -0.008951950818300247 -0.024617865681648254 -0.12532731890678406 0.2957945515255619 -0.11301319731029137 0.48158493008935116 -1.2101451778993655 1.2097177056615873 -1.2090256572978173 0.0003077141241383511 0.0008053940912553316 0.0 0.0 0.0 0.0027228158432990313 3.7122858497796862 -3.3036079695196987 2.404845557642162 0.5869361669146064 -0.4487289886267956 0.35659542619943846 0.29582691715199316 -0.11298908369944778 0.4815525763646191 -1.2102126640677524 1.2097234674646615 -1.2088619879128746 0.0006699648449101883 0.0017540954239190132 0.0 0.0 0.0 0.005929465245442067
2368.976 0.00020525072003470523 -1.5707963267948966 -1.5707963267948966 0.0 1.5707963267948966 0.0 0.007330382858376182 0.0 0.0 0.0 0.0 0.0 0.17511470161676435 0.0 0.0 0.0 0.0 0.0 0.18791195188138232 0.5533862290913542 0.7571392643667583 0.07007242894911869 0.000326834405804649 0.0 0.14350644031725682 6.374178836561397 6.392672343635524 0.2892231936401429 0.0013568145287404486 0.0 0.0002400590165052563 -1.5707362333880823 -1.5707715193377894 -4.0356312887013246e-05 1.5707435607910156 -2.366701234990387e-05 0.017199760302901268 0.0 -0.0 0.0 0.0 0.0 0.1099090725183487 0.5450592637062073 0.6771183013916016 -0.007832957431674004 -0.02349887043237686 -0.1186133474111557 0.1121521145105362 0.5585175156593323 0.6755932569503784 -0.008951950818300247 -0.024617865681648254 -0.12532731890678406 0.2958181269257454 -0.11296807144043593 0.4815743577982516 -1.210212869521692 1.2096551608963186 -1.2088761905809478 0.0019430237506565065 0.005088000876376044 0.0 0.0 0.0 0.017199760302901268 2.6702389987441917 2.769436206512386 1.8758899835316216 0.5502156953861446 -0.4340383543677295 -0.11723582265832899 0.2958326887708076 -0.11297397134529533 0.4815525763646191 -1.2102368256735414 1.2096858213746695 -1.208824386987417 0.0008281424629922602 0.0021685668707128645 0.0 0.0 0.0 0.007330382858376182
2368.984 0.00026808257310650106 -1.5707963267948966 -1.5707963267948966 0.0 1.5707963267948966 0.0 0.008936085770210966 0.0 0.0 0.0 0.0 0.0 0.20071286397934804 0.0 0.0 0.0 0.0 0.0 0.22830740197397612 0.5531253353637913 0.7571031841424578 0.06999862323973637 0.0003746255269112985 0.0 0.16448412594502876 6.371173732369421 6.392367711366544 0.2889185613718375 0.0015552137373630983 0.0 0.0002760116767603904 -1.5707481543170374 -1.5707834402667444 -5.2754079000294496e-05 1.570719599723816 -7.230440248662262e-05 0.005062136799097061 0.0 -0.0 0.0 0.0 0.0 0.1547699123620987 0.5764618515968323 0.6786433458328247 -0.01342792622745037 -0.02349887043237686 -0.14323121309280396 0.1547699123620987 0.5585175156593323 0.6755932569503784 -0.008951950818300247 -0.024617865681648254 -0.12868429720401764 0.2958281958720511 -0.11295938920327063 0.48156628872008456 -1.210281100112143 1.2096499213696783 -1.2088859793585376 0.0005718158808894116 0.0014975227965344034 0.0 0.0 0.0 0.005062136799097061 4.282918460166003 1.646320309580957 1.684272981130253 0.6645432463123565 -0.6129507433554542 -0.024614763869063902 0.29583978655082116 -0.11295538340627159 0.4815525763646191 -1.2102665421982584 1.2096395180805872 -1.2087781392436345 0.0010093789943255778 0.0026436497068590423 0.0 0.0 0.0 0.008936085770210966
2368.9919999999997 0.000344337171678968 -1.5707963267948966 -1.5707963267948966 0.0 1.5707963267948966 0.0 0.010760536614962372 0.0 0.0 0.0 0.0 0.0 0.22805635559392576 0.0 0.0 0.0 0.0 0.0 0.2561610025752767 0.5528467816735514 0.7570646678566351 0.06991983432273247 0.00042568158474878945 0.0 0.1868921083201485 6.367965211911498 6.392042510961882 0.28859336096789745 0.0017671669461557051 0.0 0.00031196436611935496 -1.5707724730121058 -1.5707953611956995 -4.593526021778871e-06 1.57077956199646 -3.5587941304981996e-05 0.02327815815806389 0.0 -0.0 0.0 0.0 0.0 0.2467346489429474 0.5495453476905823 0.681693434715271 -0.006713963113725185 -0.024617865681648254 -0.12532731890678406 0.2601929008960724 0.5585175156593323 0.6755932569503784 -0.008951950818300247 -0.025736859068274498 -0.12532731890678406 0.2958371881654049 -0.11294379371145162 0.48155953774284144 -1.210290668633557 1.2095878192938279 -1.2087939674700712 0.0026291234929868377 0.006886544855151201 0.0 0.0 0.0 0.02327815815806389 2.7467725287030524 -1.4308990666622585 1.6802766668985762 0.5817590410419022 -0.45067479511808134 0.2343714178937326 0.29584839905811183 -0.11293282393372955 0.4815525763646191 -1.2103026052842536 1.2095833226609263 -1.2087220112413113 0.0012152177869698619 0.003183487530542811 0.0 0.0 0.0 0.010760536614962372
2369.0 0.00043580173290614814 -1.5707963267948966 -1.5707963267948966 0.0 1.5707963267948966 0.0 0.012817698026646354 0.0 0.0 0.0 0.0 0.0 0.2571451764604978 0.0 0.0 0.0 0.0 0.0 0.2590987160814605 0.552550611947042 0.7570237237138578 0.06983607898137048 0.00048000478896130603 0.0 0.2107303874426163 6.364553781153913 6.391696811694277 0.28824766170106136 0.001992683328195764 0.0 0.00046813380322419107 -1.5707600752459925 -1.5707476774798792 -1.6514454976856996e-05 1.5707675218582153 -7.230440248662262e-05 0.009951700456440449 0.0 -0.0 0.0 0.0 0.0 0.1794433742761612 0.5787048935890198 0.6755932569503784 -0.007832957431674004 -0.025736859068274498 -0.1376362442970276 0.1816864162683487 0.5585175156593323 0.6755932569503784 -0.008951950818300247 -0.024617865681648254 -0.12644630670547485 0.29584766709575055 -0.11289864464426395 0.4815763179312716 -1.2103502774353891 1.2094289221572072 -1.208737791012891 0.0011235334934376923 0.002944187363673623 0.0 0.0 0.0 0.009951700456440449 4.5477066366841 1.8244889280661052 1.9425500354205087 0.6387223567417661 -0.5875971132869525 -0.028273066789072564 0.2958587271717874 -0.1129057638173722 0.4815525763646191 -1.2103458590591623 1.209515917805275 -1.2086546872500359 0.0014471919860789793 0.0037922278234359223 0.0 0.0 0.0 0.012817698026646354
2369.008 0.0005443751750142113 -1.5707963267948966 -1.5707963267948966 0.0 1.5707963267948966 0.0 0.01512153263927887 0.0 0.0 0.0 0.0 0.0 0.2879793265790644 0.0 0.0 0.0 0.0 0.0 0.26226446635949674 0.5522368787625742 0.7569803615346945 0.06974737730460613 0.0005375977844125388 0.0 0.2359989633124324 6.3609400457199 6.391330696480679 0.2878815464882771 0.002231773863323274 0.0 0.0005400391528382897 -1.5707481543170374 -1.5707834402667444 -5.2754079000294496e-05 1.57077956199646 -3.5587941304981996e-05 0.01998010091483593 0.0 -0.0 0.0 0.0 0.0 0.1749572902917862 0.5338440537452698 0.6679680347442627 -0.008951950818300247 -0.021260883659124374 -0.10406643152236938 0.1727142482995987 0.5585175156593323 0.6725431680679321 -0.008951950818300247 -0.024617865681648254 -0.12756529450416565 0.2958580130438175 -0.11287634007730366 0.4815662873661484 -1.2104072736801683 1.2094285456808231 -1.2086204670864047 0.002255280665641554 0.005911272957078319 0.0 0.0 0.0 0.01998010091483593 2.487070490307323 3.4715551909214972 2.260376269328412 0.4827836056132958 -0.3903644313839228 -0.18443481563686948 0.29587098399535505 -0.11287364075156224 0.4815525763646191 -1.2103972000360432 1.2094359037934295 -1.2085747692283202 0.0017068224427390175 0.004474022741501317 0.0 0.0 0.0 0.01512153263927887
2369.016 0.0006720681173014552 -1.5707963267948966 -1.5707963267948966 0.0 1.5707963267948966 0.0 0.017686003086875866 0.0 0.0 0.0 0.0 0.0 0.3205588059496246 0.0 0.0 0.0 0.0 0.0 0.26566417305079876 0.551905644418627 0.7569345929552452 0.06965375309524643 0.0005984637049229277 0.0 0.26269783592959595 6.357124723194443 6.390944263566917 0.28749511357537333 0.0024844515612245702 0.0 0.0007081928197294474 -1.5707600752459925 -1.5708072821246546 -2.8912221090138246e-05 1.5707435607910156 -5.990663637334137e-05 0.02093883790075779 0.0 -0.0 0.0 0.0 0.0 0.2601929008960724 0.5158997178077698 0.6755932569503784 -0.004475975409150124 -0.021260883659124374 -0.11749435216188431 0.2579498589038849 0.5585175156593323 0.6755932569503784 -0.008951950818300247 -0.024617865681648254 -0.12644630670547485 0.2958809254741553 -0.1128295209789775 0.48155767843450986 -1.2104965009120479 1.2093283309905567 -1.2085354146157719 0.0023625190501988256 0.006195402736429535 0.0 0.0 0.0 0.02093883790075779 1.2488440995209427 -0.8069398558789567 1.9997843377189435 0.5454206066973034 -0.28468241477689143 0.16825065066187547 0.29588539475044984 -0.11283585919494882 0.4815525763646191 -1.2104575769936639 1.2093417984703791 -1.2084807767985803 0.0019956153540322103 0.00523303000491794 0.0 0.0 0.0 0.017686003086875866
2369.024 0.0008210028801383047 -1.5707963267948966 -1.5707963267948966 0.0 1.5707963267948966 0.0 0.019547687622336486 0.0 0.0 0.0 0.0 0.0 0.23271056693257738 0.0 0.0 0.0 0.0 0.0 0.2601702240111905 0.5528035211250972 0.7570588875609336 0.06990801014944052 0.000434580879501784 0.0 0.19070623297974343 6.367466915318777 6.391993706814206 0.288544556820347 0.0018041113198261557 0.0 0.0008280350593850017 -1.570796314870016 -1.5707715193377894 -5.2754079000294496e-05 1.5707675218582153 -3.5587941304981996e-05 0.0174490325152874 0.0 -0.0 0.0 0.0 0.0 0.1682281643152237 0.5293579697608948 0.6786433458328247 -0.007832957431674004 -0.02014188840985298 -0.12868429720401764 0.1659851223230362 0.5585175156593323 0.6755932569503784 -0.008951950818300247 -0.02349887043237686 -0.12644630670547485 0.29590536257484684 -0.1127921053230163 0.4815555700856418 -1.2105644417059005 1.209251830464559 -1.2084001827873148 0.0019681131132488826 0.005163262293016409 0.0 0.0 0.0 0.0174490325152874 1.8079005441020741 4.136254442433377 1.8117653530864566 0.5970094606492418 -0.3647842313574707 -0.2448355744009464 0.2959021966507161 -0.11279179032258131 0.4815525763646191 -1.2105279908344722 1.2092320372166443 -1.2083711472174552 0.002204818683589797 0.005784203706891379 0.0 0.0 0.0 0.019547687622336486
2369.0319999999997 0.0009848311192588392 -1.5707963267948966 -1.5707963267948966 0.0 1.5707963267948966 0.0 0.021409372157797105 0.0 0.0 0.0 0.0 0.0 0.23271056693257738 0.0 0.0 0.0 0.0 0.0 0.26094966034900896 0.5528047380475721 0.757059114857519 0.06990847510735276 0.0004346420947445078 0.0 0.19070623297974343 6.36748093243933 6.391995625922966 0.2885464759291078 0.0018043654476940698 0.0 0.0010321413865312934 -1.5707362333880823 -1.5707595984088343 -4.593526021778871e-06 1.570719599723816 -4.7985707418263246e-05 0.024351945146918297 0.0 -0.0 0.0 0.0 0.0 0.2108459621667862 0.5495453476905823 0.6786433458328247 -0.008951950818300247 -0.022379877045750618 -0.10630441457033157 0.2130890041589737 0.5585175156593323 0.6755932569503784 -0.008951950818300247 -0.02685585245490074 -0.12644630670547485 0.29590343956041026 -0.1127357167860539 0.4815808265627541 -1.2105587797791524 1.2090425369366176 -1.2083512793492401 0.0027453339912724877 0.007205824328959566 0.0 0.0 0.0 0.024351945146918297 2.8717040215966025 1.0049487291390595 1.7774165461170868 0.4936074143549123 -0.46343973451894727 0.023574371362494427 0.2959206711600673 -0.11274331167332637 0.4815525763646191 -1.2106054375144468 1.2091112980508527 -1.2082505528908007 0.0024137635179167245 0.006335475778050977 0.0 0.0 0.0 0.021409372157797105
2369.04 0.0011635528346630587 -1.5707963267948966 -1.5707963267948966 0.0 1.5707963267948966 0.0 0.023271056693257724 0.0 0.0 0.0 0.0 0.0 0.23271056693257738 0.0 0.0 0.0 0.0 0.0 0.2617292503792058 0.5528060655993629 0.7570593628174301 0.06990898233416613 0.00043470887500929756 0.0 0.19070623297974343 6.367496223843569 6.391997719496159 0.2885485695023015 0.001804642678095431 0.0 0.0011879362864419818 -1.570796314870016 -1.5707834402667444 -6.467500795537262e-05 1.5707316398620605 -8.422533144170075e-05 0.01938568241894245 0.0 -0.0 0.0 0.0 0.0 0.2355194389820099 0.5966492295265198 0.671018123626709 -0.002237987704575062 -0.017903901636600494 -0.10966140031814575 0.2310333549976349 0.5585175156593323 0.6740682125091553 -0.008951950818300247 -0.022379877045750618 -0.12644630670547485 0.2959479762234753 -0.11268853988191013 0.48155106538909626 -1.2107710175629935 1.2090074734633374 -1.2081861780877352 0.002184544246405001 0.005737153479597024 0.0 0.0 0.0 0.01938568241894245 5.657577427670963 -1.8064264042636944 2.2539644306134665 0.5096659325450693 -0.6304878859190939 0.23430651831142907 0.2959408161119547 -0.11269042242303869 0.4815525763646191 -1.2106899145925063 1.2089795804628476 -1.2081189933082503 0.0026224252089935766 0.006886855509590257 0.0 0.0 0.0 0.023271056693257724
2369.048 0.0013571680263509633 -1.5707963267948966 -1.5707963267948966 0.0 1.5707963267948966 0.0 0.025132741228718343 0.0 0.0 0.0 0.0 0.0 0.23271056693257738 0.0 0.0 0.0 0.0 0.0 0.2625089941017811 0.5528075037804697 0.7570596314406675 0.06990953182988062 0.00043478122029615314 0.0 0.19070623297974343 6.367512789531496 6.391999987533785 0.28855083753992794 0.001804943011030239 0.0 0.0013560899533331394 -1.5707481543170374 -1.5708072821246546 -2.8912221090138246e-05 1.5707316398620605 -2.366701234990387e-05 0.02414102293550968 0.0 -0.0 0.0 0.0 0.0 0.1682281643152237 0.5540314316749573 0.6755932569503784 -0.002237987704575062 -0.02349887043237686 -0.12085133790969849 0.1727142482995987 0.5585175156593323 0.6755932569503784 -0.008951950818300247 -0.025736859068274498 -0.12644630670547485 0.2959500358920041 -0.1126387882540247 0.4815612037499952 -1.2107616405669617 1.2088680125225801 -1.2080462430776606 0.002719215570668 0.007144536604233783 0.0 0.0 0.0 0.02414102293550968 3.22962270566215 3.453995776800459 2.06839396760607 0.5610240519569549 -0.4389852832157809 -0.17287673351463417 0.2959626291426139 -0.11263312167334805 0.4815525763646191 -1.2107814194058022 1.2088368838962436 -1.2079764679131881 0.0028307791007990816 0.0074383521716124505 0.0 0.0 0.0 0.025132741228718343
2369.056 0.0015656766943225526 -1.5707963267948966 -1.5707963267948966 0.0 1.5707963267948966 0.0 0.026994425764178962 0.0 0.0 0.0 0.0 0.0 0.23271056693257738 0.0 0.0 0.0 0.0 0.0 0.2632888915167348 0.5528090525908924 0.7570599207272306 0.06991012359449622 0.0004348591306050746 0.0 0.19070623297974343 6.367530629503109 6.392002430035843 0.2885532800419872 0.001805266446498494 0.0 0.001559821772389114 -1.5707839171039026 -1.5707715193377894 -4.0356312887013246e-05 1.57077956199646 -3.5587941304981996e-05 0.02732403390109539 0.0 -0.0 0.0 0.0 0.0 0.2287903130054474 0.5495453476905823 0.671018123626709 0.0 -0.025736859068274498 -0.12197033315896988 0.2310333549976349 0.5562744736671448 0.6725431680679321 -0.008951950818300247 -0.024617865681648254 -0.12644630670547485 0.2959826777701389 -0.11257455699375764 0.48156025680602416 -1.2108977181713447 1.2086853882469464 -1.2078643826204185 0.003075991011698201 0.008087440721528269 0.0 0.0 0.0 0.02732403390109539 3.1660816606811175 -0.16190566387841815 2.3056661440040074 0.5665825359638754 -0.40315512879674453 0.1353952628515633 0.29598610769099776 -0.11257140845180813 0.4815525763646191 -1.210879949069753 1.2086832077484597 -1.2078229761027863 0.0030388005286214478 0.00798997501129292 0.0 0.0 0.0 0.026994425764178962
2369.064 0.001789078838577827 -1.5707963267948966 -1.5707963267948966 0.0 1.5707963267948966 0.0 0.02885611029963958 0.0 0.0 0.0 0.0 0.0 0.23271056693257738 0.0 0.0 0.0 0.0 0.0 0.2640689426240669 0.5528107120306309 0.7570602306771196 0.06991075762801291 0.00043494260593606175 0.0 0.19070623297974343 6.367549743758407 6.392005047002333 0.2885558970084792 0.0018056129845001954 0.0 0.0017643026076257229 -1.5707362333880823 -1.5707715193377894 -4.0356312887013246e-05 1.5707435607910156 -5.990663637334137e-05 0.026020148769021034 0.0 -0.0 0.0 0.0 0.0 0.2086029201745987 0.5203858017921448 0.6832184791564941 -0.004475975409150124 -0.02909383922815323 -0.10406643152236938 0.2018737941980362 0.5540314316749573 0.6786433458328247 -0.008951950818300247 -0.02685585245490074 -0.12644630670547485 0.2959899740781634 -0.1125170415005482 0.4815743577982516 -1.2109600416781343 1.2085146480620355 -1.2077808450114351 0.0029277101588944775 0.007701703159652492 0.0 0.0 0.0 0.026020148769021034 1.15051798232037 2.0905719635179123 1.673510024724427 0.4832560407471023 -0.30425361842573856 -0.03455826755094873 0.29601124899870457 -0.11250528171210318 0.4815525763646191 -1.2109855004780896 1.2085185513707681 -1.2076585172280483 0.003246464818376341 0.008541733251040696 0.0 0.0 0.0 0.02885611029963958
2369.072 0.0020273744591167864 -1.5707963267948966 -1.5707963267948966 0.0 1.5707963267948966 0.0 0.0307177948351002 0.0 0.0 0.0 0.0 0.0 0.23271056693257738 0.0 0.0 0.0 0.0 0.0 0.2648491474237774 0.5528124820996855 0.7570605612903347 0.06991143393043074 0.00043503164628911473 0.0 0.19070623297974343 6.367570132297394 6.3920078384332575 0.28855868843940413 0.0018059826250353434 0.0 0.001980018801987171 -1.5707243124591272 -1.5708192030536097 -4.0356312887013246e-05 1.5707556009292603 -8.422533144170075e-05 0.030545393005013466 0.0 -0.0 0.0 0.0 0.0 0.2108459621667862 0.5719757676124573 0.6694930791854858 -0.007832957431674004 -0.02014188840985298 -0.10406643152236938 0.2130890041589737 0.5585175156593323 0.6725431680679321 -0.008951950818300247 -0.02349887043237686 -0.12532731890678406 0.2960143942574022 -0.11245214704208394 0.4815637870376618 -1.211111998096872 1.2083614186708163 -1.2076140905498733 0.0034348950256579826 0.009041876007733353 0.0 0.0 0.0 0.030545393005013466 4.412725511573145 0.47920072779327794 2.207883286002419 0.4838881268762017 -0.5538724836144024 0.05678981258115317 0.2960380501099002 -0.11243474033421788 0.4815525763646191 -1.2110980703028968 1.2083429140683335 -1.2074830905938525 0.0034537472859242214 0.009093636086659024 0.0 0.0 0.0 0.0307177948351002
2369.08 0.0022805635559394305 -1.5707963267948966 -1.5707963267948966 0.0 1.5707963267948966 0.0 0.03257947937056082 0.0 0.0 0.0 0.0 0.0 0.23271056693257738 0.0 0.0 0.0 0.0 0.0 0.26562950591586637 0.5528143627980558 0.7570609125668756 0.06991215250174967 0.00043512625166423343 0.0 0.19070623297974343 6.367591795120067 6.3920108043286135 0.2885616543347618 0.0018063753681039382 0.0 0.002196109388023615 -1.5707724730121058 -1.5707595984088343 -6.467500795537262e-05 1.5707556009292603 -4.7985707418263246e-05 0.032156072556972504 0.0 -0.0 0.0 0.0 0.0 0.2041168361902237 0.5607605576515198 0.6801683902740479 -0.004475975409150124 -0.025736859068274498 -0.11413737386465073 0.2041168361902237 0.5652466416358948 0.6755932569503784 -0.008951950818300247 -0.024617865681648254 -0.12532731890678406 0.29605153161108366 -0.11238819982398462 0.4815651630099984 -1.211196778603386 1.2082289146539316 -1.207422310453346 0.003613963108087642 0.009519854531088843 0.0 0.0 0.0 0.032156072556972504 3.404798539756297 1.341043029304433 1.8089482873049592 0.5305391286271977 -0.4851304659449726 0.011808321428958194 0.2960665078712348 -0.11235978312467443 0.4815525763646191 -1.2112176549946647 1.2081562951002633 -1.2072966954589999 0.0036606232363910296 0.009645692685504876 0.0 0.0 0.0 0.03257947937056082
2369.0879999999997 0.0025486461290457597 -1.5707963267948966 -1.5707963267948966 0.0 1.5707963267948966 0.0 0.034441163906021435 0.0 0.0 0.0 0.0 0.0 0.23271056693257697 0.0 0.0 0.0 0.0 0.0 0.2664100181003337 0.552816354125742 0.7570612845067426 0.06991291334196974 0.0004352264220614174 0.0 0.1907062329797431 6.367614732226427 6.3920139446884034 0.2885647946945523 0.0018067912137059768 0.0 0.0024597621522843838 -1.5707839171039026 -1.5707834402667444 -5.2754079000294496e-05 1.570719599723816 -4.7985707418263246e-05 0.032769665122032166 0.0 -0.0 0.0 0.0 0.0 0.2287903130054474 0.5540314316749573 0.6664429903030396 -0.008951950818300247 -0.02685585245490074 -0.134279265999794 0.2220611870288849 0.5562744736671448 0.671018123626709 -0.008951950818300247 -0.025736859068274498 -0.12532731890678406 0.29608595416216216 -0.11231306374350804 0.4815557134410367 -1.211321568811049 1.2080782049997227 -1.207243631478059 0.0036804614877041404 0.009702637565231419 0.0 0.0 0.0 0.032769665122032166 3.5807702782737225 -0.2135876055838141 2.3146949584937357 0.6242151208294718 -0.4785700241528776 0.14512686892297602 0.2960966189317545 -0.11228040881683632 0.4815525763646191 -1.2113442507823358 1.2079586936796582 -1.2070993310362659 0.003867067963495931 0.010197912184647327 0.0 0.0 0.0 0.034441163906021435
2369.096 0.002831622178435774 -1.5707963267948966 -1.5707963267948966 0.0 1.5707963267948966 0.0 0.03630284844148206 0.0 0.0 0.0 0.0 0.0 0.23271056693257783 0.0 0.0 0.0 0.0 0.0 0.26719068397717954 0.5528184560827442 0.7570616771099352 0.06991371645109089 0.00043533215748066937 0.0 0.1907062329797438 6.3676389436164715 6.392017259512624 0.28856810951877554 0.001807230161841472 0.0 0.002724164165556431 -1.5707839171039026 -1.5707953611956995 -1.6514454976856996e-05 1.570719599723816 -1.1746083394825746e-05 0.03568422794342041 0.0 -0.0 0.0 0.0 0.0 0.2265472710132599 0.5405731797218323 0.6862685084342957 -0.007832957431674004 -0.022379877045750618 -0.12197033315896988 0.2332763969898224 0.5607605576515198 0.6786433458328247 -0.008951950818300247 -0.02349887043237686 -0.12532731890678406 0.2961135677434971 -0.11223476808137754 0.48155517346159077 -1.2114018361940413 1.207882599602102 -1.2070337806213318 0.004005011047393075 0.010566584048498412 0.0 0.0 0.0 0.03568422794342041 2.0982661322592153 0.8462263703934437 1.4608794708663768 0.5669662923751743 -0.41737634060015255 0.03688247574624161 0.2961283797428073 -0.11219661607103219 0.4815525763646191 -1.211477853673362 1.2077501089736682 -1.2068909964924552 0.004073056748874526 0.010750303689024777 0.0 0.0 0.0 0.03630284844148206
2369.104 0.0031294917041094733 -1.5707963267948966 -1.5707963267948966 0.0 1.5707963267948966 0.0 0.038164532976942674 0.0 0.0 0.0 0.0 0.0 0.23271056693257697 0.0 0.0 0.0 0.0 0.0 0.26797150354640376 0.5528206686690622 0.7570620903764541 0.06991456182911318 0.0004354434579219839 0.0 0.19070623297974307 6.367664429290204 6.392020748801278 0.28857159880743166 0.0018076922125104004 0.0 0.0030481128487735987 -1.5707724730121058 -1.5707476774798792 -4.593526021778871e-06 1.570719599723816 -1.1746083394825746e-05 0.03773592785000801 0.0 -0.0 0.0 0.0 0.0 0.2691650688648224 0.5607605576515198 0.681693434715271 -0.0055949692614376545 -0.02349887043237686 -0.12420831620693207 0.2714081108570099 0.5562744736671448 0.6755932569503784 -0.008951950818300247 -0.024617865681648254 -0.12532731890678406 0.2961410350448656 -0.11213892264920595 0.4815736344667991 -1.2115022499272863 1.2075917507551412 -1.2068289408355937 0.004231666294267931 0.011175156731879743 0.0 0.0 0.0 0.03773592785000801 3.346237912106671 -2.351452965328895 1.7018674302547185 0.5779552549838406 -0.49273175978991607 0.3057605603246121 0.2961617865579434 -0.11210840347494497 0.4815525763646191 -1.211618459453761 1.207530540103546 -1.206671690948457 0.004278564861412001 0.01130287626960089 0.0 0.0 0.0 0.038164532976942674
2369.112 0.0034422547060668574 -1.5707963267948966 -1.5707963267948966 0.0 1.5707963267948966 0.0 0.040026217512403296 0.0 0.0 0.0 0.0 0.0 0.23271056693257783 0.0 0.0 0.0 0.0 0.0 0.2687524768080064 0.5528229918846963 0.757062524306299 0.06991544947603658 0.0004355603233853676 0.0 0.1907062329797438 6.3676911892476245 6.392024412554367 0.2885752625605206 0.0018081773657127893 0.0 0.0033237498719245195 -1.570808235798971 -1.5707953611956995 -1.6514454976856996e-05 1.5707075595855713 -3.5587941304981996e-05 0.038848064839839935 0.0 -0.0 0.0 0.0 0.0 0.2534637749195099 0.5585175156593323 0.6755932569503784 -0.0055949692614376545 -0.02349887043237686 -0.13204127550125122 0.2736511528491974 0.5652466416358948 0.6740682125091553 -0.008951950818300247 -0.024617865681648254 -0.12532731890678406 0.296188827059732 -0.11205815880156623 0.4815479823533273 -1.2117146710187128 1.2074560325711068 -1.2066072575762412 0.004353242618956828 0.011506362758452607 0.0 0.0 0.0 0.038848064839839935 3.4639574767329844 -1.4197310726814059 1.9760896639836012 0.6143337371101977 -0.480089124800628 0.22906396407255414 0.29619683543281144 -0.11201576954374935 0.4815525763646191 -1.211766063688177 1.2072999861447138 -1.206441413479308 0.004483567556577973 0.011855638961519232 0.0 0.0 0.0 0.040026217512403296
2369.12 0.0037699111843079265 -1.5707963267948966 -1.5707963267948966 0.0 1.5707963267948966 0.0 0.04188790204786391 0.0 0.0 0.0 0.0 0.0 0.23271056693257697 0.0 0.0 0.0 0.0 0.0 0.2695336037619874 0.5528254257296461 0.7570629788994695 0.06991637939186106 0.000435682753870814 0.0 0.1907062329797431 6.36771922348873 6.392028250771887 0.28857910077804216 0.0018086856214486117 0.0 0.0037079942412674427 -1.570796314870016 -1.5707834402667444 -5.2754079000294496e-05 1.5707675218582153 -4.7985707418263246e-05 0.04084223881363869 0.0 -0.0 0.0 0.0 0.0 0.3185119926929474 0.5630035996437073 0.6786433458328247 -0.01007094420492649 -0.024617865681648254 -0.12420831620693207 0.3140259087085724 0.5517883896827698 0.6740682125091553 -0.008951950818300247 -0.024617865681648254 -0.12420831620693207 0.2962299928825882 -0.11193942601160073 0.4815520461635985 -1.2119425280592495 1.207131834711834 -1.2062834814067964 0.004571856769827549 0.01209869611307316 0.0 0.0 0.0 0.04084223881363869 3.5886985685411905 -5.3743771378288026 1.7283079051567438 0.5787425176496616 -0.5304778561146801 0.5601284626858894 0.2962335222250474 -0.11191871272058926 0.4815525763646191 -1.2119206617199452 1.207058446126821 -1.2062001631142563 0.004688040075762923 0.012408600762256503 0.0 0.0 0.0 0.04188790204786391
2369.1279999999997 0.004112461138832681 -1.5707963267948966 -1.5707963267948966 0.0 1.5707963267948966 0.0 0.043749586583324535 0.0 0.0 0.0 0.0 0.0 0.23271056693257783 0.0 0.0 0.0 0.0 0.0 0.2703148844083469 0.552827970203912 0.7570634541559661 0.06991735157658667 0.00043581074937832926 0.0 0.1907062329797438 6.367748532013523 6.39203226345384 0.28858311345999665 0.0018092169797178938 0.0 0.004043926950544119 -1.570796314870016 -1.570723835621969 7.152557373046875e-06 1.5707675218582153 -9.614626039677887e-05 0.043603405356407166 0.0 -0.0 0.0 0.0 0.0 0.2938385307788849 0.5787048935890198 0.6862685084342957 -0.004475975409150124 -0.021260883659124374 -0.12756529450416565 0.2915954887866974 0.5562744736671448 0.6755932569503784 -0.008951950818300247 -0.024617865681648254 -0.12532731890678406 0.29625736020858034 -0.11184001875004472 0.4815745979545874 -1.21204807179287 1.206773729746534 -1.2061281511600448 0.004876605672626397 0.012917829766993861 0.0 0.0 0.0 0.043603405356407166 4.123230480298387 -4.048646288667811 1.5172832900737796 0.5944598310521882 -0.5676712777450296 0.4356196332456872 0.29627184259416023 -0.11181723137671458 0.4815525763646191 -1.2120822486711575 1.2068059190338152 -1.2059479388368244 0.004891957645624112 0.01296177062977431 0.0 0.0 0.0 0.043749586583324535
2369.136 0.00446990456964112 -1.5707963267948966 -1.5707963267948966 0.0 1.5707963267948966 0.0 0.04561127111878515 0.0 0.0 0.0 0.0 0.0 0.23271056693257697 0.0 0.0 0.0 0.0 0.0 0.2710963187470847 0.5528306253074936 0.7570639500757885 0.0699183660302134 0.0004359443099079072 0.0 0.1907062329797431 6.367779114822001 6.392036450600225 0.28858730060638393 0.0018097714405206095 0.0 0.004367875400930643 -1.5707362333880823 -1.5707834402667444 -1.6514454976856996e-05 1.5707556009292603 -7.230440248662262e-05 0.044370394200086594 0.0 -0.0 0.0 0.0 0.0 0.2803802788257599 0.5697327256202698 0.6679680347442627 -0.004475975409150124 -0.02349887043237686 -0.1365172564983368 0.2691650688648224 0.5585175156593323 0.6755932569503784 -0.007832957431674004 -0.02685585245490074 -0.12532731890678406 0.29628090007022484 -0.11174503007988196 0.48157279666431396 -1.2121949136971109 1.206571909712467 -1.2058698138680028 0.004958171034544608 0.013146100330072342 0.0 0.0 0.0 0.044370394200086594 4.358419889902085 -3.36217931652092 2.332667840642102 0.6359318277012351 -0.5203838733070887 0.3896607631518857 0.2963117920014107 -0.11171132381188599 0.4815525763646191 -1.2122508194427326 1.2065424038040111 -1.2056847395848866 0.005095295477422561 0.013515157480669417 0.0 0.0 0.0 0.04561127111878515
2369.144 0.004842241476733244 -1.5707963267948966 -1.5707963267948966 0.0 1.5707963267948966 0.0 0.04747295565424577 0.0 0.0 0.0 0.0 0.0 0.23271056693257783 0.0 0.0 0.0 0.0 0.0 0.27187790677820106 0.5528333910403912 0.757064466658937 0.06991942275274124 0.00043608343545955414 0.0 0.1907062329797438 6.367810971914167 6.392040812211043 0.288591662217204 0.0018103490038567855 0.0 0.004740135744214058 -1.570808235798971 -1.5707595984088343 -2.8912221090138246e-05 1.570719599723816 -1.1746083394825746e-05 0.047150734812021255 0.0 -0.0 0.0 0.0 0.0 0.3274841606616974 0.5630035996437073 0.6649179458618164 -0.004475975409150124 -0.022379877045750618 -0.1365172564983368 0.2803802788257599 0.5607605576515198 0.6755932569503784 -0.008951950818300247 -0.02349887043237686 -0.12532731890678406 0.296345238536241 -0.11163758685047433 0.48155753297561693 -1.2123536293175778 1.2063972395492428 -1.2055490305156877 0.005263794252641105 0.013972895755027482 0.0 0.0 0.0 0.047150734812021255 4.127997522541467 -5.999831322133138 2.4569113415293096 0.6362017420769642 -0.4890604691633686 0.6016944470761901 0.2963533657096861 -0.11160098825473729 0.4815525763646191 -1.2124263687144898 1.2062678993301634 -1.2054105642507336 0.005298028766387405 0.014068770188322414 0.0 0.0 0.0 0.04747295565424577
