Fleaurent/UniversalRobot/csv/robolib_movel_x400.csv
timestamp target_q_0 target_q_1 target_q_2 target_q_3 target_q_4 target_q_5 target_qd_0 target_qd_1 target_qd_2 target_qd_3 target_qd_4 target_qd_5 target_TCP_pose_0 target_TCP_pose_1 target_TCP_pose_2 target_TCP_pose_3 target_TCP_pose_4 target_TCP_pose_5 target_TCP_speed_0 target_TCP_speed_1 target_TCP_speed_2 target_TCP_speed_3 target_TCP_speed_4 target_TCP_speed_5 target_TCP_acc_0 target_TCP_acc_1 target_TCP_acc_2 target_TCP_acc_3 target_TCP_acc_4 target_TCP_acc_5
0.0 -0.2006306349210063 -1.6700186465528968 -1.830543675325789 5.964376441884271 1.2752804927530452 0.3178329118330315 0.0 0.0 0.0 0.0 0.0 0.0 300.0 -200.0 350.0 2.0 -2.0 2.0 0.0 0.0 0.0 0.0 0.0 0.0 0.0 1000.0 0.0 0.0 0.0 0.0 
0.008 -0.20050974827723644 -1.6699120191354075 -1.8306597272760727 5.964327772789982 1.275165660948356 0.3178444151928534 0.028272604246563995 0.0208238166598745 -0.021890881352438454 -0.004332704508830016 -0.022022413887015264 0.018534048259895852 300.0 -199.968 350.0 2.0 -2.0 2.0 0.0 8.0 0.0 0.0 0.0 0.0 0.0 1000.0 0.0 0.0 0.0 0.0 
0.016 -0.2001470147233544 -1.6695921658881248 -1.8310077563825142 5.964181647080794 1.274821098209137 0.3178789631507263 0.05656325971603265 0.04164294762257619 -0.04375459787646591 -0.00870703446761527 -0.04405270505370937 0.03709185175018329 300.0 -199.872 350.0 2.0 -2.0 2.0 0.0 16.0 0.0 0.0 0.0 0.0 0.0 1000.0 0.0 0.0 0.0 0.0 
0.024 -0.19954221343394196 -1.6690591739064085 -1.8315873823706266 5.963937709503503 1.2742466026206543 0.31793666948138777 0.0848900134066205 0.062452714121460834 -0.06556398080975273 -0.01316470079967491 -0.06609872619755758 0.05569721616836763 300.0 -199.712 350.0 2.0 -2.0 2.0 0.0 24.0 0.0 0.0 0.0 0.0 0.0 1000.0 0.0 0.0 0.0 0.0 
0.032 -0.1986949765087922 -1.6683131886167275 -1.8323979713110488 5.963595368055377 1.273441837862011 0.31801772427516056 0.11327090361867398 0.08324845105666945 -0.08729185323391055 -0.017747585748171035 -0.088168280616927 0.07437404825885982 300.0 -199.488 350.0 2.0 -2.0 2.0 0.0 32.0 0.0 0.0 0.0 0.0 0.0 1000.0 0.0 0.0 0.0 0.0 
0.04 -0.19760478919016666 -1.6673544141831718 -1.8334386354082064 5.963153794113468 1.2724063335160096 0.31812239463906716 0.14172395498222415 0.10402551334200415 -0.10891102527703314 -0.0224978294667145 -0.11026909692345642 0.0931464066178257 300.0 -199.2 350.0 2.0 -2.0 2.0 0.0 40.0 0.0 0.0 0.0 0.0 0.0 1000.0 0.0 0.0 0.0 0.0 
0.048 -0.1962709901750337 -1.6661831140870262 -1.8347082326974395 5.962611922616356 1.271139485511698 0.31825102568335567 0.17026717272988812 0.12477928166561372 -0.1303942884560566 -0.02745791772086363 -0.13240880304506783 0.11203855283487274 300.0 -198.848 350.0 2.0 -2.0 2.0 0.0 48.0 0.0 0.0 0.0 0.0 0.0 1000.0 0.0 0.0 0.0 0.0 
0.056 -0.19469277203043722 -1.6647996118898556 -1.8362053666436975 5.961968452299158 1.2696405567084526 0.31840404179843884 0.19891853595282888 0.14550516746506448 -0.15171440887738694 -0.03267077106080898 -0.15459489927702338 0.13107500308241352 300.0 -198.432 350.0 2.0 -2.0 2.0 0.0 56.0 0.0 0.0 0.0 0.0 0.0 1000.0 0.0 0.0 0.0 0.0 
0.064 -0.1928691817225876 -1.6632042921935875 -1.8379283856330615 5.961221845982862 1.267908677633069 0.3185819482287236 0.22769598956823772 0.1661986169137658 -0.1728441190185865 -0.03817983581671553 -0.17683473013320605 0.15028058026223856 300.0 -197.952 350.0 2.0 -2.0 2.0 0.0 64.0 0.0 0.0 0.0 0.0 0.0 1000.0 0.0 0.0 0.0 0.0 
0.072 -0.190799121272762 -1.661397601814075 -1.839875382346626 5.960370330919401 1.2659428473840273 0.3187853329513326 0.25661743471521753 0.1868551137110238 -0.19375610781922548 -0.04402917725685994 -0.199135454743305 0.16968046681710486 300.0 -197.408 350.0 2.0 -2.0 2.0 0.0 72.00000000000001 0.0 0.0 0.0 0.0 0.0 1000.0 0.0 0.0 0.0 0.0 
0.08 -0.18848134855573884 -1.6593800511877073 -1.8420441930046483 5.959411899194276 1.2637419347200065 0.31901486886927694 0.2857007172819716 0.2074701804620811 -0.21442300881522852 -0.050263575234598686 -0.22150401553382354 0.1893002583129262 300.0 -196.8 350.0 2.0 -2.0 2.0 0.0 80.0 0.0 0.0 0.0 0.0 0.0 1000.0 0.0 0.0 0.0 0.0 
0.088 -0.18591447825917884 -1.65715221603365 -1.8444323964674223 5.95834430818894 1.2613046793525549 0.31927131633026734 0.3149636142508587 0.22803937842723307 -0.23481738605809338 -0.05692862263313507 -0.24394710492188096 0.20916601789437492 300.0 -196.12800000000001 350.0 2.0 -2.0 2.0 0.0 88.0 0.0 0.0 0.0 0.0 0.0 1000.0 0.0 0.0 0.0 0.0 
0.096 -0.18309698302525534 -1.6547147392974375 -1.8470373131780085 5.957165081105717 1.258629693466047 0.3195555259840303 0.3444238175290982 0.24855830541030885 -0.25491171756817277 -0.06407082689656657 -0.2664711297406411 0.2293043317132484 300.0 -195.392 350.0 2.0 -2.0 2.0 0.0 96.0 0.0 0.0 0.0 0.0 0.0 1000.0 0.0 0.0 0.0 0.0 
0.104 -0.18002719479879703 -1.652068333404687 -1.8498560039308671 5.955871507558529 1.2557154634911667 0.31986844199276443 0.3740989149117475 0.26902259154631314 -0.27467837607968304 -0.0717377149115445 -0.28908217310400314 0.24974236542473927 300.0 -194.59199999999998 350.0 2.0 -2.0 2.0 0.0 104.00000000000001 0.0 0.0 0.0 0.0 0.0 1000.0 0.0 0.0 0.0 0.0 
0.112 -0.17670330640940524 -1.6492137828568754 -1.8528852684495059 5.954460644233299 1.2525603521617357 0.32021110561121036 0.4040063677999744 0.2894278927356112 -0.29408960684420343 -0.07997794147541304 -0.31178595340592435 0.2705079218416089 300.0 -193.728 350.0 2.0 -2.0 2.0 0.0 112.0 0.0 0.0 0.0 0.0 0.0 1000.0 0.0 0.0 0.0 0.0 
0.12 -0.17312337341830863 -1.6461519472042134 -1.8561216437556 5.9529293156226135 1.2491626008881707 0.3205846591547559 0.4341634852717052 0.3097698814575484 -0.31311750226905755 -0.08884140155356696 -0.3345877801366493 0.29162949983006153 300.0 -192.8 350.0 2.0 -2.0 2.0 0.0 120.0 0.0 0.0 0.0 0.0 0.0 1000.0 0.0 0.0 0.0 0.0 
0.128 -0.16928531626428267 -1.6428837644338268 -1.8595614023115967 5.951274114839853 1.2455203324848296 0.32099035037603507 0.4645873940734297 0.330044234679554 -0.33173397317711656 -0.0983793464901239 -0.35749250618418144 0.313136354523658 300.0 -191.808 350.0 2.0 -2.0 2.0 0.0 128.0 0.0 0.0 0.0 0.0 0.0 1000.0 0.0 0.0 0.0 0.0 
0.136 -0.16518692274665647 -1.6394102548145466 -1.8632005499186732 5.949491404518575 1.2416315542924325 0.3214295372726479 0.4952950040714454 0.350246618558432 -0.34991071648515143 -0.10864450429138478 -0.38050447627481027 0.3350585589227724 300.0 -190.752 350.0 2.0 -2.0 2.0 0.0 136.0 0.0 0.0 0.0 0.0 0.0 1000.0 0.0 0.0 0.0 0.0 
0.144 -0.1608258508874001 -1.6357325252427684 -1.8670348233520362 5.947577317803848 1.2374941617411293 0.3219036933509089 0.526302968668229 0.37037266960844073 -0.36761917910898906 -0.11969120404981268 -0.4036274711916827 0.3574270669364373 300.0 -189.632 350.0 2.0 -2.0 2.0 0.0 144.00000000000003 0.0 0.0 0.0 0.0 0.0 1000.0 0.0 0.0 0.0 0.0 
0.152 -0.15619963221843736 -1.6318517741368685 -1.8710596877159884 5.945527759442426 1.2331059424042776 0.3224144133729583 0.5576276396551202 0.3904179719857172 -0.3848305179152708 -0.13157550451683783 -0.42686464739526436 0.3802737779110462 300.0 -188.448 350.0 2.0 -2.0 2.0 0.0 152.0 0.0 0.0 0.0 0.0 0.0 1000.0 0.0 0.0 0.0 0.0 
0.16 -0.1513056755447082 -1.6277692969306863 -1.8752703335019787 5.9433384069795 1.2284645805977719 0.322963419617141 0.5892850159364548 0.41037803051046173 -0.40151555555181273 -0.14435532676434665 -0.450218471654844 0.40363160267556464 300.0 -187.2 350.0 2.0 -2.0 2.0 0.0 160.0 0.0 0.0 0.0 0.0 0.0 1000.0 0.0 0.0 0.0 0.0 
0.168 -0.14614127123813336 -1.6234864922194685 -1.8796616733339402 5.941004712069825 1.2235676625848462 0.3235525686842885 0.6212906855229295 0.43024823901687304 -0.4176447320013819 -0.1580905907963081 -0.473690650285909 0.42753453111568784 300.0 -185.888 350.0 2.0 -2.0 2.0 0.0 168.0 0.0 0.0 0.0 0.0 0.0 1000.0 0.0 0.0 0.0 0.0 
0.176 -0.14070359612244698 -1.6190048686144154 -1.8842283383867209 5.938521901911076 1.2184126824515409 0.3241838588854397 0.6536597601539355 0.45002384358604475 -0.4331880517173581 -0.17284335588233674 -0.49728205257505553 0.45201770126922375 300.0 -184.512 350.0 2.0 -2.0 2.0 0.0 176.0 0.0 0.0 0.0 0.0 0.0 1000.0 0.0 0.0 0.0 0.0 
0.184 -0.13498971901391266 -1.6143260523645084 -1.8889646744652624 5.93588498080717 1.2129970487235862 0.32485943824961905 0.6864068018704125 0.46969990017884744 -0.4481150262144295 -0.1886779642827063 -0.5209926279626255 0.47711746991142623 300.0 -183.072 350.0 2.0 -2.0 2.0 0.0 184.0 0.0 0.0 0.0 0.0 0.0 1000.0 0.0 0.0 0.0 0.0 
0.192 -0.1289966069881583 -1.6094517958065504 -1.893864737734462 5.933088731868347 1.2073180918012214 0.32558161319356016 0.7195457408222707 0.4892712261442521 -0.46239461200338416 -0.20566118791811466 -0.5448213165439565 0.5028714845718456 300.0 -181.56799999999998 350.0 2.0 -2.0 2.0 0.0 192.0 0.0 0.0 0.0 0.0 0.0 1000.0 0.0 0.0 0.0 0.0 
0.2 -0.1227211324487616 -1.6043839867062757 -1.8989222900922984 5.930127718853666 1.2013730722944704 0.32635285789874013 0.7530897835585613 0.5087323450337179 -0.47599514377653007 -0.22386237740571246 -0.5687659524441001 0.5293187568927071 300.0 -180.0 350.0 2.0 -2.0 2.0 0.0 200.0 0.0 0.0 0.0 0.0 0.0 0.0 0.0 0.0 0.0 0.0 
0.208 -0.11628901633338162 -1.5992276302996258 -1.9040292116370217 5.927058174186289 1.1952812864055637 0.32715948698454267 0.7567079327653785 0.5077857188241317 -0.4701971574906615 -0.23379415232820167 -0.56999801649347 0.5349820470269578 300.0 -178.4 350.0 2.0 -2.0 2.0 0.0 200.0 0.0 0.0 0.0 0.0 0.0 0.0 0.0 0.0 0.0 0.0 
0.216 -0.10982825278025854 -1.5940866112405256 -1.909081580253022 5.9239401100125315 1.1891640645126993 0.32798632283839024 0.760307145684664 0.5068356312123905 -0.4643816218848089 -0.24383121167268945 -0.5711916124445093 0.5407031304482574 300.0 -176.8 350.0 2.0 -2.0 2.0 0.0 200.0 0.0 0.0 0.0 0.0 0.0 0.0 0.0 0.0 0.0 0.0 
0.224 -0.10333906582076158 -1.5889612525087125 -1.9140792275468599 5.920773597389062 1.1830216804918692 0.32883373799079746 0.7638861663975626 0.5058811882779047 -0.45854760137942224 -0.25397453582173685 -0.5723456953377728 0.5464823528841428 300.0 -175.2 350.0 2.0 -2.0 2.0 0.0 200.0 0.0 0.0 0.0 0.0 0.0 0.0 0.0 0.0 0.0 0.0 
0.232 -0.09682169048076439 -1.5838518883067283 -1.9190219808833695 5.917558708736427 1.1768544201631033 0.32970211154572737 0.7674437159326727 0.5049214803683084 -0.45269416925531447 -0.26422506619991587 -0.573459209902337 0.5523200520211365 300.0 -173.6 350.0 2.0 -2.0 2.0 0.0 200.0 0.0 0.0 0.0 0.0 0.0 0.0 0.0 0.0 0.0 0.0 
0.24 -0.09027637292937785 -1.5787588640184023 -1.923909663605861 5.914295517785311 1.1706625814577296 0.3305918292764279 0.7709784925759431 0.5039555817542275 -0.44682040763135733 -0.274583703855639 -0.5745310909657771 0.5582165570916815 300.0 -172.0 350.0 2.0 -2.0 2.0 0.0 200.0 0.0 0.0 0.0 0.0 0.0 0.0 0.0 0.0 0.0 0.0 
0.248 -0.08370337062303168 -1.5736825361581754 -1.9287420952552186 5.910984099507653 1.1644464745812837 0.33150328372151056 0.7744891722229691 0.5029825503088957 -0.4409254074604975 -0.2850513080270308 -0.5755602638910515 0.5641721884531338 300.0 -170.4 350.0 2.0 -2.0 2.0 0.0 200.0 0.0 0.0 0.0 0.0 0.0 0.0 0.0 0.0 0.0 0.0 
0.256 -0.07710295244454413 -1.5686232723108031 -1.9335190917877814 5.9076245300322086 1.1582064221717046 0.3324368742812087 0.7779744087751197 0.5020014272136825 -0.4350082685432778 -0.295628694694481 -0.5765456450409103 0.5701872571588864 300.0 -168.8 350.0 2.0 -2.0 2.0 0.0 200.0 0.0 0.0 0.0 0.0 0.0 0.0 0.0 0.0 0.0 0.0 
0.264 -0.07047539883682497 -1.5635814510609958 -1.9382404657918597 5.904216886544054 1.1519427594524678 0.3333930073137453 0.7814328345809043 0.5010112366905966 -0.42906809955805764 -0.3063166351225965 -0.5774861422704 0.576262064521771 300.0 -167.2 350.0 2.0 -2.0 2.0 0.0 200.0 0.0 0.0 0.0 0.0 0.0 0.0 0.0 0.0 0.0 0.0 
0.272 -0.06382100193083673 -1.5585574619125453 -1.9429060267027412 5.900761247167512 1.1456558343802676 0.33437209623173814 0.7848630609239324 0.5000109857628295 -0.4231040181070665 -0.31711585439443163 -0.5783806554479514 0.5823969016699118 300.0 -165.6 350.0 2.0 -2.0 2.0 0.0 200.0 0.0 0.0 0.0 0.0 0.0 0.0 0.0 0.0 0.0 0.0 
0.28 -0.057140065667442785 -1.5535517051965197 -1.9475155810160092 5.897257690832101 1.1393460077868869 0.3353745615985662 0.788263678558804 0.4989996640444026 -0.41711515077744404 -0.32802702994089306 -0.5792280770055981 0.5885920490951543 300.0 -164.0 350.0 2.0 -2.0 2.0 0.0 200.0 0.0 0.0 0.0 0.0 0.0 0.0 0.0 0.0 0.0 0.0 
0.288 -0.0504329059127655 -1.5485645919681073 -1.9520689324989837 5.893706297120971 1.1330136535148816 0.336400831224618 0.7916332582961939 0.49797624355995856 -0.4111006332163669 -0.3390507900683472 -0.5800272925187349 0.5948477761942527 300.0 -162.4 350.0 2.0 -2.0 2.0 0.0 200.0 0.0 0.0 0.0 0.0 0.0 0.0 0.0 0.0 0.0 0.0 
0.296 -0.04369985056666392 -1.543596543891708 -1.9565658824000876 5.890107146101445 1.1266591585466703 0.3374513402633347 0.7949703516383694 0.49693967859572813 -0.4050596102193546 -0.35018771248754493 -0.5807771813158626 0.6011643408029934 300.0 -160.8 350.0 2.0 -2.0 2.0 0.0 200.0 0.0 0.0 0.0 0.0 0.0 0.0 0.0 0.0 0.0 0.0 
0.304 -0.036941239663951464 -1.5386479931139072 -1.9610062296559057 5.886460318137214 1.1202829231266793 0.3385265313069606 0.7982734914662784 0.4958889055826583 -0.3989912358308227 -0.3614383228469838 -0.5814766171186856 0.607541988723396 300.0 -159.2 350.0 2.0 -2.0 2.0 0.0 200.0 0.0 0.0 0.0 0.0 0.0 0.0 0.0 0.0 0.0 0.0 
0.312 -0.030157425467950638 -1.533719382123946 -1.9653897710957138 5.882765893681767 1.1138853608760952 0.339626854481908 0.8015411927793172 0.4948228430126711 -0.39289467345591217 -0.3728030932740155 -0.5821244687128642 0.613980953244224 300.0 -157.6 350.0 2.0 -2.0 2.0 0.0 200.0 0.0 0.0 0.0 0.0 0.0 0.0 0.0 0.0 0.0 0.0 
0.32 -0.023348772556001762 -1.5288111636013766 -1.9697163016432158 5.879023953052707 1.1074668988998901 0.34075276754363687 0.8047719534887756 0.4937403913889537 -0.3867690959826196 -0.3842824409269043 -0.5827196006497155 0.620481454654937 300.0 -156.0 350.0 2.0 -2.0 2.0 0.0 200.0 0.0 0.0 0.0 0.0 0.0 0.0 0.0 0.0 0.0 0.0 
0.328 -0.016515657896523095 -1.5239238002505686 -1.973985614515227 5.87523457618655 1.1010279778856735 0.34190473597094606 0.8079642552658732 0.4926404332111418 -0.38061368591320816 -0.3958767265612267 -0.5832608739790385 0.6270436997533085 300.0 -154.4 350.0 2.0 -2.0 2.0 0.0 200.0 0.0 0.0 0.0 0.0 0.0 0.0 0.0 0.0 0.0 0.0 
0.336 -0.009658470917226492 -1.5190577646217873 -1.9781975014170303 5.871397842373746 1.0945690521939941 0.34308323305956945 0.8111165644452454 0.4915218329961957 -0.37442763550387975 -0.4075862531139331 -0.58374714701326 0.6336678813468535 300.0 -152.8 350.0 2.0 -2.0 2.0 0.0 200.0 0.0 0.0 0.0 0.0 0.0 0.0 0.0 0.0 0.0 0.0 
0.344 -0.002777613564095782 -1.5142135389185838 -1.9823517527341021 5.867513829973559 1.088090589939693 0.34428874001496135 0.8142273329845597 0.4903834373356775 -0.3682101469116335 -0.41941126430846576 -0.5841772761229265 0.6403541777482704 300.0 -151.2 350.0 2.0 -2.0 2.0 0.0 200.0 0.0 0.0 0.0 0.0 0.0 0.0 0.0 0.0 0.0 0.0 
0.352 0.004126499649271809 -1.5093916147912692 -1.986448157719912 5.8635826161086095 1.0815930730639018 0.3455217460441537 0.8172949994809112 0.4892240749900803 -0.36196043234725045 -0.43135194328429505 -0.5845501165636017 0.6471027522650451 300.0 -149.6 350.0 2.0 -2.0 2.0 0.0 200.0 0.0 0.0 0.0 0.0 0.0 0.0 0.0 0.0 0.0 0.0 
0.36 0.011053441602353331 -1.5045924931162746 -1.9904865046794782 5.8596042763388185 1.075076997396283 0.34678274844656043 0.8203179902444591 0.4880425570207487 -0.3556777142332932 -0.4434084112542668 -0.5848645233340741 0.6539137526833968 300.0 -148.0 350.0 2.0 -2.0 2.0 0.0 200.0 0.0 0.0 0.0 0.0 0.0 0.0 0.0 0.0 0.0 0.0 
0.368 0.01800277253880389 -1.4998166837612446 -1.9944665811483513 5.855578884314624 1.0685428727071415 0.348072252703598 0.8232947204296825 0.48683767695984714 -0.34936122536602043 -0.4555807261930586 -0.5851193520657599 0.6607873107466867 300.0 -146.4 350.0 2.0 -2.0 2.0 0.0 200.0 0.0 0.0 0.0 0.0 0.0 0.0 0.0 0.0 0.0 0.0 
0.376 0.02497404004836401 -1.4950647053357402 -1.9983881740666871 5.851506511409308 1.0619912227489974 0.34939077256698486 0.826223595224458 0.4856082110186993 -0.3430102090800788 -0.4678688815600541 -0.5853134599430538 0.667723541628436 300.0 -144.8 350.0 2.0 -2.0 2.0 0.0 200.0 0.0 0.0 0.0 0.0 0.0 0.0 0.0 0.0 0.0 0.0 
0.384 0.03196677905995249 -1.490337084927469 -2.0022510699480716 5.847387226330397 1.0554225852872303 0.35073883014557955 0.8291030110970458 0.48435291833473537 -0.3366239194148382 -0.4802728050598711 -0.5854457066543433 0.6747225434000594 300.0 -143.2 350.0 2.0 -2.0 2.0 0.0 200.0 0.0 0.0 0.0 0.0 0.0 0.0 0.0 0.0 0.0 0.0 
0.392 0.03898051184631224 -1.4856343578240137 -2.0060550550427356 5.843221094710086 1.0488375121194426 0.3521169559906052 0.8319313571008884 0.4830705412571193 -0.3302016212812242 -0.49279235744365163 -0.5855149553732629 0.6817843964933987 300.0 -141.6 350.0 2.0 -2.0 2.0 0.0 200.0 0.0 0.0 0.0 0.0 0.0 0.0 0.0 0.0 0.0 0.0 
0.4 0.046014748040580145 -1.4809570672200534 -2.009799915494811 5.839008178674753 1.0422365690831354 0.35352568917910615 0.8347070162369791 0.48175980567102306 -0.32374259062790184 -0.5054273313541725 -0.5855200737697159 0.6889091631581082 300.0 -140.0 350.0 2.0 -2.0 2.0 0.0 200.0 0.0 0.0 0.0 0.0 0.0 0.0 0.0 0.0 0.0 0.0 
0.408 0.05306898466512866 -1.4763057639101518 -2.01348543749325 5.8347485363936515 1.0356203360513752 0.35496557739547246 0.837428366873368 0.4804194213603452 -0.3172461146056595 -0.5181774502176605 -0.585459935050054 0.6960968869139292 300.0 -138.4 350.0 2.0 -2.0 2.0 0.0 200.0 0.0 0.0 0.0 0.0 0.0 0.0 0.0 0.0 0.0 0.0 
0.416 0.06014270617303241 -1.4716810059671992 -2.0171114074160537 5.830442221606962 1.0289894069160526 0.35643717701086214 0.8400937842212066 0.47904808240853736 -0.31071149172885837 -0.5310423671850969 -0.5853334190257364 0.7033475919978309 300.0 -136.8 350.0 2.0 -2.0 2.0 0.0 200.0 0.0 0.0 0.0 0.0 0.0 0.0 0.0 0.0 0.0 0.0 
0.424 0.0672353845024849 -1.4670833584066745 -2.0206776119674323 5.826089283133423 1.0223443895584332 0.35794105316034364 0.8427016418665344 0.4776444676370267 -0.304138032032818 -0.544021664125576 -0.5851394132096681 0.7106612828059787 300.0 -135.2 350.0 2.0 -2.0 2.0 0.0 200.0 0.0 0.0 0.0 0.0 0.0 0.0 0.0 0.0 0.0 0.0 
0.432 0.07434647914448655 -1.4625133928369385 -2.0241838383075215 5.821689764357881 1.0156859058066496 0.35947777981757045 0.8452503133568113 0.4762072410805624 -0.29752505722603245 -0.557114850674114 -0.5848768139393131 0.7180379433304119 300.0 -133.6 350.0 2.0 -2.0 2.0 0.0 200.0 0.0 0.0 0.0 0.0 0.0 0.0 0.0 0.0 0.0 0.0 
0.44 0.08147543722411021 -1.457971687095817 -2.027629874174289 5.817243702699104 1.0090145913798239 0.3610479398667958 0.8477381738410006 0.47473505249863285 -0.29087190083612463 -0.570321363336101 -0.5845445275255656 0.7254775365903063 300.0 -132.0 350.0 2.0 -2.0 2.0 0.0 200.0 0.0 0.0 0.0 0.0 0.0 0.0 0.0 0.0 0.0 0.0 
0.448 0.08862169359562633 -1.4534588248738038 -2.0310155079972585 5.812751129058372 1.0023310958185276 0.36265212517202217 0.850163601761804 0.4732265379219404 -0.28417790834850454 -0.5836405646503063 -0.5841414714262737 0.732980004057587 300.0 -130.4 350.0 2.0 -2.0 2.0 0.0 200.0 0.0 0.0 0.0 0.0 0.0 0.0 0.0 0.0 0.0 0.0 
0.456 0.09578467095176268 -1.4489753953242586 -2.034340529002682 5.80821206724935 0.9956360824012915 0.3642909366430768 0.8525249805984106 0.4716803202327037 -0.27744243733670204 -0.5970717424121279 -0.5836665754431498 0.7405452650766489 300.0 -128.8 350.0 2.0 -2.0 2.0 0.0 200.0 0.0 0.0 0.0 0.0 0.0 0.0 0.0 0.0 0.0 0.0 
0.464 0.10296377994734374 -1.4445219926610464 -2.0376047273098012 5.803626533409904 0.9889302280469113 0.3659649842983877 0.8548207006579323 0.4700950097774005 -0.27066485758342196 -0.6106141089584409 -0.5831187829407477 0.7481732162778204 300.0 -127.19999999999999 350.0 2.0 -2.0 2.0 0.0 200.0 0.0 0.0 0.0 0.0 0.0 0.0 0.0 0.0 0.0 0.0 
0.472 0.110158419337542 -1.4400992157441177 -2.0408078940178385 5.798994535396558 0.9822142232022956 0.3676748873242328 0.8570491609134449 0.46846920501036243 -0.2638445511914074 -0.6242668005151396 -0.5824970520860088 0.7558637309841847 300.0 -125.6 350.0 2.0 -2.0 2.0 0.0 200.0 0.0 0.0 0.0 0.0 0.0 0.0 0.0 0.0 0.0 0.0 
0.48 0.11736797613094874 -1.4357076676535934 -2.0439498212833747 5.794316072162436 0.9754887717156328 0.36942127413021997 0.8592087708863501 0.46680149316643965 -0.25698091268327344 -0.6380288766080827 -0.5818003571068294 0.7636166586112448 300.0 -124.0 350.0 2.0 -2.0 2.0 0.0 200.0 0.0 0.0 0.0 0.0 0.0 0.0 0.0 0.0 0.0 0.0 
0.488 0.12459182575764327 -1.4313479552529884 -2.0470303023877676 5.7895911331195435 0.9687545906946998 0.37120478240074495 0.8612979525705098 0.4650904509607648 -0.25007334908953055 -0.6518993195378158 -0.5810276895679067 0.7714318240588748 300.0 -122.4 350.0 2.0 -2.0 2.0 0.0 200.0 0.0 0.0 0.0 0.0 0.0 0.0 0.0 0.0 0.0 0.0 
0.496 0.13182933225242444 -1.4270206887422536 -2.0500491317942937 5.7848196974864265 0.9620124103501025 0.37302605914216713 0.8633151423954167 0.4633346453134617 -0.24312128002412162 -0.6658770339180706 -0.5801780596620987 0.7793090270948744 300.0 -120.80000000000001 350.0 2.0 -2.0 2.0 0.0 200.0 0.0 0.0 0.0 0.0 0.0 0.0 0.0 0.0 0.0 0.0 
0.504 0.13907984845333066 -1.4227264812014084 -2.053006105194691 5.780001733622287 0.955262973823329 0.37488576072542584 0.8652587932253781 0.4615326340969495 -0.23612413774687138 -0.6799608462776041 -0.5792504975153271 0.7872480417293646 300.0 -119.2 350.0 2.0 -2.0 2.0 0.0 200.0 0.0 0.0 0.0 0.0 0.0 0.0 0.0 0.0 0.0 0.0 
0.512 0.14634271621555595 -1.4184659481255641 -2.055901019544809 5.775137198348727 0.9485070369994707 0.3767845529238137 0.8671273763915035 0.45968296690332017 -0.22908136721235253 -0.6941495047245689 -0.5782440545030086 0.7952486155791623 300.0 -117.6 350.0 2.0 -2.0 2.0 0.0 200.0 0.0 0.0 0.0 0.0 0.0 0.0 0.0 0.0 0.0 0.0 
0.52 0.15361726664083442 -1.4142397069522363 -2.0587336730890846 5.770226036260462 0.9417453683045339 0.3787231109456067 0.8689193837530378 0.4577841858290887 -0.22199242610480324 -0.7084416786720957 -0.5771578045758817 0.8033104692211341 300.0 -116.0 350.0 2.0 -2.0 2.0 0.0 200.0 0.0 0.0 0.0 0.0 0.0 0.0 0.0 0.0 0.0 0.0 
0.528 0.1609028203223386 -1.4100483765818814 -2.061503865373579 5.765268179026306 0.9349787484872532 0.3807021194612394 0.8706333297843261 0.45583482627444394 -0.21485678485880894 -0.7228359586234093 -0.5759908455929134 0.8114332955334767 300.0 -114.39999999999999 350.0 2.0 -2.0 2.0 0.0 200.0 0.0 0.0 0.0 0.0 0.0 0.0 0.0 0.0 0.0 0.0 
0.536 0.1681986876051016 -1.4058925768926738 -2.0642113972473277 5.760263544682022 0.9282079703853939 0.38272227262470027 0.8722677536835345 0.45383341775398334 -0.20767392666566817 -0.7373308560141723 -0.574742300659024 0.8196167590236434 300.0 -112.8 350.0 2.0 -2.0 2.0 0.0 200.0 0.0 0.0 0.0 0.0 0.0 0.0 0.0 0.0 0.0 0.0 
0.544 0.17550416886194542 -1.4017729282505882 -2.0668560708517925 5.755212036916541 0.9214338386765206 0.384784274088807 0.873821221498965 0.45177848471575843 -0.20044334746541823 -0.75192480310945 -0.5734113194650914 0.827860495141652 300.0 -111.19999999999999 350.0 2.0 -2.0 2.0 0.0 200.0 0.0 0.0 0.0 0.0 0.0 0.0 0.0 0.0 0.0 0.0 
0.552 0.18281855478485975 -1.3976900510159158 -2.069437689598208 5.75011354435328 0.9146571696132638 0.38688883701400634 0.8752923282686395 0.4496685473653347 -0.1931645559247244 -0.7666161529520271 -0.5719970796277508 0.8361641095772466 300.0 -109.6 350.0 2.0 -2.0 2.0 0.0 200.0 0.0 0.0 0.0 0.0 0.0 0.0 0.0 0.0 0.0 0.0 
0.56 0.19014112669174144 -1.3936445650474047 -2.0719560581326557 5.744967939828339 0.9078787907431493 0.3890366840703301 0.8766797001685988 0.44750212249145105 -0.18583707340096067 -0.7814031793583867 -0.5704987880263329 0.8445271775393367 300.0 -107.99999999999999 350.0 2.0 -2.0 2.0 0.0 200.0 0.0 0.0 0.0 0.0 0.0 0.0 0.0 0.0 0.0 0.0 
0.568 0.19747115684836936 -1.3896370892052625 -2.074410982288719 5.73977507966746 0.9010995406130822 0.3912285474321184 0.877981996665185 0.4452777242897693 -0.17846043389299482 -0.7962840769581265 -0.56891568213425 0.8529492430159668 300.0 -106.39999999999999 350.0 2.0 -2.0 2.0 0.0 200.0 0.0 0.0 0.0 0.0 0.0 0.0 0.0 0.0 0.0 0.0 
0.576 0.20480790880545618 -1.3856682408543233 -2.0768022690276 5.734534802963746 0.8943202684586075 0.39346516876510856 0.8791979126663735 0.4429938651811241 -0.17103418397938694 -0.8112569612720515 -0.5672470313420553 0.86142981801292 300.0 -104.79999999999998 350.0 2.0 -2.0 2.0 0.0 200.0 0.0 0.0 0.0 0.0 0.0 0.0 0.0 0.0 0.0 0.0 
0.584 0.21215063775057352 -1.3817386353687207 -2.0791297263656157 5.729246930858178 0.8875418338781159 0.3957472992054671 0.8803261806670702 0.4406490566206368 -0.16355788274487565 -0.8263198688237214 -0.5654921382693189 0.8699683817689609 300.0 -103.2 350.0 2.0 -2.0 2.0 0.0 200.0 0.0 0.0 0.0 0.0 0.0 0.0 0.0 0.0 0.0 0.0 
0.592 0.2194985908747189 -1.3778488856394597 -2.081393163289017 5.723911265825177 0.880765106492198 0.39807569933032594 0.881365572883136 0.4382418098940179 -0.15603110169628295 -0.8414707572786072 -0.5636503400624887 0.8785643799454875 300.0 -101.60000000000001 350.0 2.0 -2.0 2.0 0.0 200.0 0.0 0.0 0.0 0.0 0.0 0.0 0.0 0.0 0.0 0.0 
0.6 0.22685100775324396 -1.3739996015863336 -2.083592389656106 5.718527590965388 0.873990965588377 0.4004511391193626 0.882314903368728 0.43577063689737866 -0.14845342466911676 -0.8567075056046383 -0.5617210096757346 0.8872172237883332 300.0 -100.0 350.0 2.0 -2.0 2.0 0.0 200.0 0.0 0.0 0.0 0.0 0.0 0.0 0.0 0.0 0.0 0.0 
0.608 0.23420712074083738 -1.3701913896756501 -2.0857272160866716 5.7130956693080925 0.8672202997514824 0.4028743979069471 0.8831730301114689 0.43323405089690825 -0.1408244477264289 -0.8720279142473338 -0.5597035571318786 0.8959262892592116 300.0 -98.4 350.0 2.0 -2.0 2.0 0.0 200.0 0.0 0.0 0.0 0.0 0.0 0.0 0.0 0.0 0.0 0.0 
0.616 0.24156615538020376 -1.3664248524452973 -2.087797453838784 5.70761524312568 0.8604540064799966 0.4053462643243532 0.8839388570998136 0.43063056726480464 -0.13314377905169078 -0.8874297053122275 -0.557597430760409 0.9046909161341941 300.0 -96.8 350.0 2.0 -2.0 2.0 0.0 200.0 0.0 0.0 0.0 0.0 0.0 0.0 0.0 0.0 0.0 0.0 
0.624 0.24892733082405227 -1.3627005880386784 -2.0898029146730446 5.702086033262675 0.8536929917886876 0.4078675362315132 0.8846113363569241 0.42795870418796356 -0.1254110388376882 -0.9029105227469074 -0.5554021184096006 0.9135104070664767 300.0 -95.2 350.0 2.0 -2.0 2.0 0.0 200.0 0.0 0.0 0.0 0.0 0.0 0.0 0.0 0.0 0.0 0.0 
0.632 0.2562898602699635 -1.3590191897491004 -2.091743410704407 5.696507738481916 0.8469381697979301 0.41043902063777304 0.8851894699352711 0.4252169833460156 -0.11762585917368526 -0.9184679325144699 -0.5531171486297557 0.9223840266105298 300.0 -93.6 350.0 2.0 -2.0 2.0 0.0 200.0 0.0 0.0 0.0 0.0 0.0 0.0 0.0 0.0 0.0 0.0 
0.64 0.26365295140766554 -1.355381245576201 -2.0936187542417435 5.690880034830581 0.8401904623101224 0.41306153361107517 0.8856723118661685 0.42240393055548314 -0.10978788393336616 -0.9340994227498033 -0.5507420918246306 0.931311000204583 300.0 -92.0 350.0 2.0 -2.0 2.0 0.0 200.0 0.0 0.0 0.0 0.0 0.0 0.0 0.0 0.0 0.0 0.0 
0.648 0.27101580687821736 -1.3517873377960283 -2.095428757615358 5.685202575028736 0.833450798373634 0.41573590017498274 0.8860589700583978 0.419518076377014 -0.10189676866629417 -0.9498024038898009 -0.5482765613680914 0.9402905131083239 300.0 -90.39999999999999 350.0 2.0 -2.0 2.0 0.0 200.0 0.0 0.0 0.0 0.0 0.0 0.0 0.0 0.0 0.0 0.0 
0.656 0.27837762474455174 -1.3482380425463907 -2.097173232992694 5.679474987883281 0.8267201138347915 0.4184629541929215 0.8863486081401112 0.4165579566828671 -0.09395218049593453 -0.9655742087681012 -0.5457202146831732 0.949321709292455 300.0 -88.8 350.0 2.0 -2.0 2.0 0.0 200.0 0.0 0.0 0.0 0.0 0.0 0.0 0.0 0.0 0.0 0.0 
0.664 0.28573759897279905 -1.3447339294291072 -2.098851992182535 5.6736968777300705 0.8199993508784067 0.4212435382389975 0.8865404472381975 0.4135221131821061 -0.08595379802749277 -0.9814120926648323 -0.5430727542806718 0.958403690276775 300.0 -87.19999999999999 350.0 2.0 -2.0 2.0 0.0 200.0 0.0 0.0 0.0 0.0 0.0 0.0 0.0 0.0 0.0 0.0 
0.672 0.2930949199237771 -1.341275561130772 -2.1004648464280273 5.667867823907164 0.8132894575573937 0.42407850345471926 0.8866337676893843 0.41040909390127045 -0.07790131126913473 -0.9973132333014612 -0.540333928754579 0.9675355139132409 300.0 -85.6 350.0 2.0 -2.0 2.0 0.0 200.0 0.0 0.0 0.0 0.0 0.0 0.0 0.0 0.0 0.0 0.0 
0.68 0.3004487748539968 -1.337863493063656 -2.1020116061889094 5.661987380262138 0.8065913873120543 0.4269687093909239 0.8866279106774069 0.40721745361863304 -0.06979442157039167 -1.0132747307706953 -0.5375035337316945 0.9767161931104407 300.0 -83.99999999999999 350.0 2.0 -2.0 2.0 0.0 200.0 0.0 0.0 0.0 0.0 0.0 0.0 0.0 0.0 0.0 0.0 
0.688 0.3077983484254978 -1.3344982730283381 -2.1034920809133775 5.656055074696465 0.7999060984796467 0.42991502383417995 0.8865222797906877 0.4039457542505582 -0.061632841581837634 -1.0292936073912144 -0.5345814127728967 0.9859446944957981 300.0 -82.39999999999999 350.0 2.0 -2.0 2.0 0.0 200.0 0.0 0.0 0.0 0.0 0.0 0.0 0.0 0.0 0.0 0.0 
0.696 0.3151428232237994 -1.331180440899653 -2.104906078800055 5.650070408749956 0.79323455379487 0.4329183226169057 0.8863163424950917 0.40059256518889225 -0.053416295240366445 -1.0453668074769364 -0.5315674582236274 0.9952199370117945 300.0 -80.79999999999998 350.0 2.0 -2.0 2.0 0.0 200.0 0.0 0.0 0.0 0.0 0.0 0.0 0.0 0.0 0.0 0.0 
0.704 0.3224813802832205 -1.3279105283374943 -2.1062534065505973 5.6440328572283684 0.7865777198819225 0.43597948941041886 0.8860096315165209 0.397156463588828 -0.045144517784692306 -1.061491197010491 -0.5284616120113635 1.0045407904424404 300.0 -79.2 350.0 2.0 -2.0 2.0 0.0 200.0 0.0 0.0 0.0 0.0 0.0 0.0 0.0 0.0 0.0 0.0 
0.712 0.32981319961879274 -1.3246890585239917 -2.107533869113495 5.637941867877195 0.7799365667388344 0.439099415500092 0.8856017461282385 0.3936360346071631 -0.036817255805909783 -1.0776635632106293 -0.5252638663879017 1.013906073866222 300.0 -77.6 350.0 2.0 -2.0 2.0 0.0 200.0 0.0 0.0 0.0 0.0 0.0 0.0 0.0 0.0 0.0 0.0 
0.72 0.33713746076396256 -1.3215165459285303 -2.1087472694196894 5.631796861104757 0.773312067214766 0.44227899954176525 0.8850923533380785 0.390029871591468 -0.02843426733823267 -1.0938806139834172 -0.5219742646145317 1.023314554031745 300.0 -76.0 350.0 2.0 -2.0 2.0 0.0 200.0 0.0 0.0 0.0 0.0 0.0 0.0 0.0 0.0 0.0 0.0 
0.728 0.34445334331325905 -1.3183934961020323 -2.109893408110687 5.625597229757692 0.7667051964810153 0.44551914729853 0.8844811889709085 0.38633657622126644 -0.01999532199525504 -1.1101389772472614 -0.5185929015883067 1.032764943652334 300.0 -74.39999999999999 350.0 2.0 -2.0 2.0 0.0 200.0 0.0 0.0 0.0 0.0 0.0 0.0 0.0 0.0 0.0 0.0 
0.736 0.35176002746907553 -1.315320405501852 -2.110972083259872 5.619342338951896 0.7601169314964665 0.44882077135696624 0.8837680586419826 0.38255475860297256 -0.011500201157298703 -1.126435200122139 -0.5151199244078247 1.042255899615927 300.0 -72.8 350.0 2.0 -2.0 2.0 0.0 200.0 0.0 0.0 0.0 0.0 0.0 0.0 0.0 0.0 0.0 0.0 
0.744 0.3590566945916911 -1.3122977613485844 -2.1119830900878047 5.61303152596205 0.7535482504682586 0.45218479082188 0.8829528386171184 0.37868303732102193 -0.002948698215656091 -1.1427657479737074 -0.5115555328771494 1.0517860211066483 300.0 -71.19999999999999 350.0 2.0 -2.0 2.0 0.0 200.0 0.0 0.0 0.0 0.0 0.0 0.0 0.0 0.0 0.0 0.0 
0.752 0.3663425277516503 -1.3093260415160055 -2.1129262206723043 5.60666410017274 0.7470001323084281 0.4556121309885591 0.8820354765559247 0.37472003944832255 0.005659381120296981 -1.1591270033035137 -0.5078999799466909 1.0613538476346278 300.0 -69.6 350.0 2.0 -2.0 2.0 0.0 200.0 0.0 0.0 0.0 0.0 0.0 0.0 0.0 0.0 0.0 0.0 
0.76 0.3736167122835894 -1.3064057144552739 -2.113801263654217 5.600239343094263 0.7404735560873248 0.4591037229915238 0.8810159921346681 0.37066440051994526 0.014324218446925453 -1.1755152644770526 -0.5041535720901211 1.070957856970752 300.0 -67.99999999999999 350.0 2.0 -2.0 2.0 0.0 200.0 0.0 0.0 0.0 0.0 0.0 0.0 0.0 0.0 0.0 0.0 
0.768 0.38087843634059726 -1.3035372391544446 -2.1146080039397717 5.593756508446106 0.7339695004845849 0.4626605034287208 0.8798944775456992 0.366514764474711 0.023045982214759436 -1.1919267442820738 -0.5003166696166234 1.0805964629832558 300.0 -66.39999999999999 350.0 2.0 -2.0 2.0 0.0 200.0 0.0 0.0 0.0 0.0 0.0 0.0 0.0 0.0 0.0 0.0 
0.776 0.38812689144818036 -1.3007210651342427 -2.115346222400513 5.587214822311063 0.7274889432384515 0.46628341396007394 0.8786710978707462 0.36226978357018585 0.03182482719502368 -1.2083575683103616 -0.4963896869180101 1.0902680133733174 300.0 -64.79999999999998 350.0 2.0 -2.0 2.0 0.0 200.0 0.0 0.0 0.0 0.0 0.0 0.0 0.0 0.0 0.0 0.0 
0.784 0.39536127305689894 -1.2979576324809345 -2.1160156955718405 5.580613483362926 0.721032860594239 0.4699734008792689 0.8773460913257708 0.3579281182773931 0.04066089385767442 -1.2248037731570394 -0.4923730926505013 1.0999707873070914 300.0 -63.19999999999999 350.0 2.0 -2.0 2.0 0.0 200.0 0.0 0.0 0.0 0.0 0.0 0.0 0.0 0.0 0.0 0.0 
0.792 0.40258078109273376 -1.2952473719170274 -2.1166161953512423 5.573951663170628 0.7146022267527404 0.47373141465762086 0.8759197693755013 0.3534884371624478 0.04955430765421562 -1.2412613044324239 -0.48826740985123945 1.1097029929419462 300.0 -61.59999999999998 350.0 2.0 -2.0 2.0 0.0 200.0 0.0 0.0 0.0 0.0 0.0 0.0 0.0 0.0 0.0 0.0 
0.8 0.40978462050424036 -1.2925907049104057 -2.117147488697357 5.567228506581607 0.7081980133193598 0.47755840945883565 0.8743925167161591 0.34894941676316116 0.05850517819855496 -1.2577260145826166 -0.48407321598980424 1.1194627648451054 300.0 -59.999999999999986 350.0 2.0 -2.0 2.0 0.0 200.0 0.0 0.0 0.0 0.0 0.0 0.0 0.0 0.0 0.0 0.0 
0.808 0.41697200180555516 -1.2899880438223792 -2.1176093373310616 5.560443132187173 0.701821188754746 0.481455342623453 0.8727647911253477 0.34430974146957305 0.067513598339079 -1.274193660516145 -0.47979114295533964 1.129248161303274 300.0 -58.39999999999998 350.0 2.0 -2.0 2.0 0.0 200.0 0.0 0.0 0.0 0.0 0.0 0.0 0.0 0.0 0.0 0.0 
0.816 0.42414214161431363 -1.2874397920949767 -2.11800149743984 5.553594632872503 0.6954727178276995 0.4854231741217217 0.8710371231785271 0.3395681034182793 0.07657964311515274 -1.2906599010353772 -0.4754218769801256 1.1390571615223941 300.0 -56.79999999999998 350.0 2.0 -2.0 2.0 0.0 200.0 0.0 0.0 0.0 0.0 0.0 0.0 0.0 0.0 0.0 0.0 
0.824 0.4312942631835568 -1.2849463444776976 -2.1183237193867197 5.546682076453818 0.6891535610710959 0.4894628659736379 0.8692101158318959 0.33472320241126224 0.08570336859131582 -1.3071202940728044 -0.4709661585006417 1.1488876627171976 300.0 -55.199999999999974 350.0 2.0 -2.0 2.0 0.0 200.0 0.0 0.0 0.0 0.0 0.0 0.0 0.0 0.0 0.0 0.0 
0.832 0.43842759692669775 -1.282508087293749 -2.118575747425159 5.539704506405252 0.6828646742415929 0.49357538163484277 0.8672844438720381 0.3297737458709049 0.09488481056246029 -1.3235702937338067 -0.4664247819575461 1.1587374770908139 300.0 -53.59999999999998 350.0 2.0 -2.0 2.0 0.0 200.0 0.0 0.0 0.0 0.0 0.0 0.0 0.0 0.0 0.0 0.0 
0.84 0.4455413809346602 -1.28012539874566 -2.118757319421279 5.532660942677735 0.6766070077837714 0.49776168534706433 0.8652608532330803 0.3247184488436971 0.10412398312350502 -1.340005247149397 -0.4617985955361183 1.1686043287055075 300.0 -52.000000000000014 350.0 2.0 -2.0 2.0 0.0 200.0 0.0 0.0 0.0 0.0 0.0 0.0 0.0 0.0 0.0 0.0 
0.848 0.452634861484283 -1.2777986492599964 -2.118868166584923 5.525550382612154 0.6703815062994704 0.5020227414517584 0.863140160182598 0.31955603406602034 0.1134208770971656 -1.356420391143884 -0.45708850084904074 1.178485850246187 300.0 -50.400000000000006 350.0 2.0 -2.0 2.0 0.0 200.0 0.0 0.0 0.0 0.0 0.0 0.0 0.0 0.0 0.0 0.0 
0.856 0.4597072935371307 -1.2755282018707148 -2.1189080132110654 5.518371801948909 0.6641891080229356 0.5063595136655941 0.8609232503779639 0.3142852321062485 0.12277545831373031 -1.3728108487246298 -0.4522954525635973 1.1883795796793328 300.0 -48.80000000000001 350.0 2.0 -2.0 2.0 0.0 200.0 0.0 0.0 0.0 0.0 0.0 0.0 0.0 0.0 0.0 0.0 
0.864 0.4667579412278602 -1.2733144126405294 -2.1188765764331516 5.511124155935864 0.6580307443024234 0.5107729643164134 0.8586110777952707 0.3089047815982012 0.13218766573697302 -1.3891716254028499 -0.4474204579756083 1.198282956810758 300.0 -47.20000000000002 350.0 2.0 -2.0 2.0 0.0 200.0 0.0 0.0 0.0 0.0 0.0 0.0 0.0 0.0 0.0 0.0 
0.872 0.47378607834132014 -1.2711576311194661 -2.1187735659900016 5.503806380536499 0.6519073390888714 0.5152640535382909 0.8562046635334071 0.303413429581737 0.14165740943075678 -1.4054976053566568 -0.4424645765326099 1.2081933197466697 300.0 -45.60000000000002 350.0 2.0 -2.0 2.0 0.0 200.0 0.0 0.0 0.0 0.0 0.0 0.0 0.0 0.0 0.0 0.0 
0.88 0.4807909887775861 -1.2690582008396016 -2.1185986840079725 5.4964173937399945 0.6458198084321822 0.5198337384243142 0.8537050944963049 0.29780993196701544 0.15118456836123506 -1.4217835474497353 -0.4374289193090063 1.2181079012635236 300.0 -44.0 350.0 2.0 -2.0 2.0 0.0 200.0 0.0 0.0 0.0 0.0 0.0 0.0 0.0 0.0 0.0 0.0 
0.888 0.48777196700416603 -1.2670164598447715 -2.1183516248001224 5.488956096974736 0.6397690599856726 0.5244829721357087 0.851113521956787 0.29209305413956677 0.16076898803006937 -1.4380240811212874 -0.4323146484360982 1.2280238250932405 300.0 -42.400000000000006 350.0 2.0 -2.0 2.0 0.0 200.0 0.0 0.0 0.0 0.0 0.0 0.0 0.0 0.0 0.0 0.0 
0.896 0.4947283184946427 -1.2650327412538427 -2.1180320746841614 5.481421376626567 0.6337559925191576 0.5292127029659459 0.8484311600058448 0.2862615717239118 0.170410477934666 -1.4542137021654538 -0.4271229764900155 1.2379381021316544 300.0 -40.80000000000001 350.0 2.0 -2.0 2.0 0.0 200.0 0.0 0.0 0.0 0.0 0.0 0.0 0.0 0.0 0.0 0.0 
0.904 0.501659360153051 -1.2631073738559278 -2.1176397118210484 5.473812105662997 0.6277814954411262 0.5340238733584858 0.8456592838915894 0.28031427152397187 0.18010880885200317 -1.4703467684207634 -0.4218551658408091 1.2478476265792415 300.0 -39.20000000000002 350.0 2.0 -2.0 2.0 0.0 200.0 0.0 0.0 0.0 0.0 0.0 0.0 0.0 0.0 0.0 0.0 
0.912 0.5085644207233329 -1.2612406827357103 -2.1171742060761254 5.466127145364227 0.6218464483303925 0.5389174188768343 0.8427992282524397 0.2742499526588876 0.18986370994342916 -1.4864174953929217 -0.4165125279659459 1.2577491720246474 300.0 -37.599999999999994 350.0 2.0 -2.0 2.0 0.0 200.0 0.0 0.0 0.0 0.0 0.0 0.0 0.0 0.0 0.0 0.0 
0.92 0.5154428411832346 -1.259432989926836 -2.1166352189047206 5.458365347161797 0.6159517204776277 0.5438942671256247 0.8398523852495187 0.2680674279131659 0.19967486567851583 -1.5024199518366466 -0.41109642273168834 1.267639387482812 300.0 -36.0 350.0 2.0 -2.0 2.0 0.0 200.0 0.0 0.0 0.0 0.0 0.0 0.0 0.0 0.0 0.0 0.0 
0.928 0.5222939751220779 -1.2576846150911045 -2.1160224032642185 5.4505255545852975 0.6100981704370171 0.5489553366214873 0.8368202026034823 0.26176552532026276 0.2095419125770471 -1.5183480553253164 -0.4056082576457622 1.2775147934012048 300.0 -34.400000000000006 350.0 2.0 -2.0 2.0 0.0 200.0 0.0 0.0 0.0 0.0 0.0 0.0 0.0 0.0 0.0 0.0 
0.936 0.5291171891018467 -1.2559958762209655 -2.115335403554612 5.442606605317432 0.604286645588366 0.5541015356125111 0.8337041815413779 0.25534308999873745 0.21946443576911417 -1.534195567839635 -0.4000494870848985 1.2873717776490887 300.0 -32.80000000000001 350.0 2.0 -2.0 2.0 0.0 200.0 0.0 0.0 0.0 0.0 0.0 0.0 0.0 0.0 0.0 0.0 
0.944 0.5359118630011048 -1.254367090362611 -2.1145738555896116 5.434607333357379 0.5985179817098217 0.5593337608451823 0.8305058746593343 0.2487989862600184 0.22944196537447564 -1.5499560914095944 -0.3944216115007047 1.29720659150654 300.0 -31.19999999999999 350.0 2.0 -2.0 2.0 0.0 200.0 0.0 0.0 0.0 0.0 0.0 0.0 0.0 0.0 0.0 0.0 
0.952 0.5426773903412798 -1.2527985743567276 -2.1137373866003877 5.426526571292222 0.5927930025614278 0.5646528962777488 0.827226883707179 0.2421321000065542 0.2394739727033991 -1.5656230638465087 -0.3887261766074499 1.3070153456715015 300.0 -29.599999999999994 350.0 2.0 -2.0 2.0 0.0 200.0 0.0 0.0 0.0 0.0 0.0 0.0 0.0 0.0 0.0 0.0 
0.96 0.5494131785949132 -1.2512906455937292 -2.1128256152740845 5.418363152675786 0.5871125194795674 0.5700598117390657 0.8238688573012637 0.23534134143870997 0.24955986628266172 -1.5811897546051878 -0.3829647725551462 1.3167940063052017 300.0 -28.0 350.0 2.0 -2.0 2.0 0.0 200.0 0.0 0.0 0.0 0.0 0.0 0.0 0.0 0.0 0.0 0.0 
0.968 0.556118649475513 -1.2498436227800975 -2.1118381518292386 5.410115914514049 0.5814773309824092 0.5755553615320669 0.8204334885719724 0.22842564808813695 0.259698987711596 -1.5966492608186011 -0.3771390330913649 1.3265383911378177 300.0 -26.400000000000006 350.0 2.0 -2.0 2.0 0.0 200.0 0.0 0.0 0.0 0.0 0.0 0.0 0.0 0.0 0.0 0.0 
0.976 0.5627932392086914 -1.2484578267121949 -2.110774598130263 5.401783699855862 0.5758882223863556 0.5811403829811425 0.8169225127525633 0.2213839881945353 0.2698906073547254 -1.6119945035505574 -0.37125063471503256 1.336244165658388 300.0 -24.799999999999983 350.0 2.0 -2.0 2.0 0.0 200.0 0.0 0.0 0.0 0.0 0.0 0.0 0.0 0.0 0.0 0.0 
0.984 0.5694363987843278 -1.2471335810537276 -2.1096345478431484 5.3933653604873815 0.570345965433458 0.5868156949228315 0.813337704716071 0.21421536444169573 0.2801339198790693 -1.6272182243144782 -0.36530129582530685 1.3459068394148375 300.0 -23.19999999999999 350.0 2.0 -2.0 2.0 0.0 200.0 0.0 0.0 0.0 0.0 0.0 0.0 0.0 0.0 0.0 0.0 
0.992 0.5760475941895347 -1.2458712131127956 -2.10841758663456 5.384859759728302 0.5648513179297291 0.5925820961393925 0.8096808764671491 0.20691881806748125 0.29042803964592007 -1.642312981908969 -0.3592927758685297 1.3555217624519045 300.0 -21.599999999999994 350.0 2.0 -2.0 2.0 0.0 200.0 0.0 0.0 0.0 0.0 0.0 0.0 0.0 0.0 0.0 0.0 
1.0 0.5826263066222587 -1.244671054614265 -2.1071232924164596 5.376265775327493 0.559405023394219 0.5984403637349914 0.8059538745957409 0.19949343336087738 0.30077199596877585 -1.6572711496235297 -0.35322687448592777 1.3650841219168663 300.0 -20.0 350.0 2.0 -2.0 2.0 0.0 200.0 0.0 0.0 0.0 0.0 0.0 0.0 0.0 0.0 0.0 0.0 
1.008 0.5891720326853932 -1.2435334424629905 -2.105751235638386 5.367582302455302 0.5540078107187023 0.604391251454434 0.8021585776995357 0.19193834255753103 0.31116472825098496 -1.6720849128699897 -0.34710543066460303 1.3745889388648225 300.0 -18.399999999999977 350.0 2.0 -2.0 2.0 0.0 200.0 0.0 0.0 0.0 0.0 0.0 0.0 0.0 0.0 0.0 0.0 
1.016 0.5956842845613314 -1.2424587194932202 -2.1043009796294765 5.358808256789315 0.5486603938377353 0.6104354879445769 0.7982968937821435 0.18425273114319615 0.32160508101875296 -1.686746267297698 -0.340930321893995 1.3840310652974415 300.0 -16.799999999999983 350.0 2.0 -2.0 2.0 0.0 200.0 0.0 0.0 0.0 0.0 0.0 0.0 0.0 0.0 0.0 0.0 
1.024 0.6021625901669325 -1.241447235199321 -2.1027720809922767 5.349942577689925 0.5433634714088574 0.6165737749587964 0.7943707576339104 0.17643584357221992 0.33209179886726337 -1.701247017452325 -0.3347034633297555 1.3934051814709045 300.0 -15.199999999999989 350.0 2.0 -2.0 2.0 0.0 200.0 0.0 0.0 0.0 0.0 0.0 0.0 0.0 0.0 0.0 0.0 
1.032 0.6086064932889176 -1.2404993464428111 -2.101164090050305 5.340984231461556 0.5381177265026414 0.6228067855051205 0.790382128202214 0.16848698940565043 0.3426235213399051 -1.7155787760400412 -0.3284268069665745 1.4027057935107807 300.0 -13.599999999999994 350.0 2.0 -2.0 2.0 0.0 200.0 0.0 0.0 0.0 0.0 0.0 0.0 0.0 0.0 0.0 0.0 
1.04 0.6150155536997652 -1.2396154181304868 -2.0994765513512714 5.331932214694914 0.5329238263022532 0.6291351619389355 0.7863329859580163 0.16040554987074773 0.35319877776291814 -1.7297329638604486 -0.32210234082120837 1.4119272313734732 300.0 -11.999999999999972 350.0 2.0 -2.0 2.0 0.0 200.0 0.0 0.0 0.0 0.0 0.0 0.0 0.0 0.0 0.0 0.0 
1.048 0.6213893472542134 -1.238795823858338 -2.0977090042277644 5.32278555768511 0.5277824218121941 0.6355595140014442 0.7822253302653182 0.15219098484051186 0.3638159820601251 -1.743700810472679 -0.3157320881265011 1.4210636471955287 300.0 -10.399999999999977 350.0 2.0 -2.0 2.0 0.0 200.0 0.0 0.0 0.0 0.0 0.0 0.0 0.0 0.0 0.0 0.0 
1.056 0.6277274659665244 -1.238040946515778 -2.095860983417061 5.313543327919915 0.5226941475758078 0.642080416805397 0.7780611767600193 0.14384284022845173 0.37447342757490143 -1.7574733556602051 -0.30931810653680963 1.4301090140739423 300.0 -8.799999999999983 350.0 2.0 -2.0 2.0 0.0 200.0 0.0 0.0 0.0 0.0 0.0 0.0 0.0 0.0 0.0 0.0 
1.064 0.6340295180687074 -1.2373511788446276 -2.093932019741643 5.304204633631906 0.5176596214011634 0.6486984087699408 0.7738425547445344 0.13536075579013046 0.3851692819289881 -1.7710414517602766 -0.3028624873448112 1.439057125322021 300.0 -7.199999999999989 350.0 2.0 -2.0 2.0 0.0 200.0 0.0 0.0 0.0 0.0 0.0 0.0 0.0 0.0 0.0 0.0 
1.072 0.6402951280499307 -1.2367269239472347 -2.091921640851795 5.294768627407634 0.5126794440949162 0.6554139895067994 0.7695715046043075 0.12674447331898772 0.39590158195024827 -1.7843957669238324 -0.296367354709174 1.4479015942466813 300.0 -5.599999999999966 350.0 2.0 -2.0 2.0 0.0 200.0 0.0 0.0 0.0 0.0 0.0 0.0 0.0 0.0 0.0 0.0 
1.08 0.6465239366774077 -1.2361685957380095 -2.089829372031504 5.285234509846355 0.5077541992036284 0.6622276176603988 0.7652500752521724 0.11799384521975212 0.40666822870407066 -1.7975267893718405 -0.28983486489215754 1.456635854494514 300.0 -3.9999999999999716 350.0 2.0 -2.0 2.0 0.0 200.0 0.0 0.0 0.0 0.0 0.0 0.0 0.0 0.0 0.0 0.0 
1.088 0.6527156009990615 -1.2356766193326845 -2.0876547370686915 5.275601533260247 0.5028844527621896 0.6691397087049367 0.7608803216062696 0.10910884343815035 0.4174669826655213 -1.8104248327124712 -0.2832672055056344 1.465253161014536 300.0 -2.3999999999999773 350.0 2.0 -2.0 2.0 0.0 200.0 0.0 0.0 0.0 0.0 0.0 0.0 0.0 0.0 0.0 0.0 
1.096 0.658869794328319 -1.2352514313695813 -2.08539725919054 5.265869005407408 0.4980707530488104 0.6761506327018492 0.7564643021069677 0.10008956872090569 0.42829545907188293 -1.8230800423825626 -0.27666659476362115 1.4737465916865418 300.0 -0.799999999999983 350.0 2.0 -2.0 2.0 0.0 200.0 0.0 0.0 0.0 0.0 0.0 0.0 0.0 0.0 0.0 0.0 
1.104 0.6649862062114174 -1.2348934802572191 -2.083056462064488 5.25603629324831 0.4933136303461739 0.6832607120215649 0.7520040762780041 0.09093626017501322 0.43915112349757096 -1.8354824032745292 -0.2700352807388222 1.4821090496642282 300.0 0.8000000000000398 350.0 2.0 -2.0 2.0 0.0 200.0 0.0 0.0 0.0 0.0 0.0 0.0 0.0 0.0 0.0 0.0 
1.112 0.6710645423776331 -1.2346032263426912 -2.0806318708651323 5.246102826715667 0.48861359670826476 0.6904702190339141 0.747501702336743 0.08164930509006452 0.45003128769575257 -1.8476217486073168 -0.2633755406202113 1.4903332664824216 300.0 2.400000000000034 350.0 2.0 -2.0 2.0 0.0 200.0 0.0 0.0 0.0 0.0 0.0 0.0 0.0 0.0 0.0 0.0 
1.12 0.6771045246728788 -1.2343811419953385 -2.078123013407008 5.236068102487135 0.4839711457324658 0.6977793737720478 0.742959234858183 0.0722292489820657 0.4609331057530674 -1.8594877700964458 -0.2566896799681869 1.4984118059773301 300.0 4.000000000000028 350.0 2.0 -2.0 2.0 0.0 200.0 0.0 0.0 0.0 0.0 0.0 0.0 0.0 0.0 0.0 0.0 
1.128 0.6831058909771363 -1.2342277116004343 -2.075529421342879 5.225931687749495 0.479386752336464 0.7051883415752248 0.7383787224970305 0.06267680581171046 0.4718535706059326 -1.8710700294743976 -0.24998003196329008 1.5063370690682245 300.0 5.600000000000023 350.0 2.0 -2.0 2.0 0.0 200.0 0.0 0.0 0.0 0.0 0.0 0.0 0.0 0.0 0.0 0.0 
1.136 0.6890683951062195 -1.2341434314577797 -2.072850631426805 5.215693223942414 0.4748608725396012 0.7126972307163488 0.7337622057718491 0.05299286832449758 0.48278951096858214 -1.8823579714074592 -0.24324895664403953 1.5141012994476122 300.0 7.2000000000000455 350.0 2.0 -2.0 2.0 0.0 200.0 0.0 0.0 0.0 0.0 0.0 0.0 0.0 0.0 0.0 0.0 
1.144 0.6949918066983902 -1.2341288095803922 -2.0700861868408813 5.205352430469188 0.47039394324824835 0.7203060900206606 0.7291117149149784 0.04317851845453325 0.4937375887246095 -1.8933409378499415 -0.23649884012892833 1.5216965902256063 300.0 8.80000000000004 350.0 2.0 -2.0 2.0 0.0 200.0 0.0 0.0 0.0 0.0 0.0 0.0 0.0 0.0 0.0 0.0 
1.152 0.7008759110863569 -1.234184365388765 -2.067235638584129 5.194909108361282 0.46598638204493337 0.7280149064825325 0.7244292677915837 0.03323503772823648 0.5046942968348749 -1.9040081838697362 -0.2297320938171977 1.5291148915716988 300.0 10.400000000000034 350.0 2.0 -2.0 2.0 0.0 200.0 0.0 0.0 0.0 0.0 0.0 0.0 0.0 0.0 0.0 0.0 
1.16 0.7067205091552221 -1.2343106292965302 -2.0642985469215756 5.184363143882874 0.46163858698083754 0.7358236028878525 0.7197168678908878 0.023163917598811392 0.5156559578156666 -1.9143488949727883 -0.22295115356259088 1.536348019394963 300.0 12.0 350.0 2.0 -2.0 2.0 0.0 200.0 0.0 0.0 0.0 0.0 0.0 0.0 0.0 0.0 0.0 0.0 
1.168 0.7125254171869457 -1.2345081421837927 -2.0612744828911147 5.173714512061044 0.457350936371485 0.7437320354500291 0.7149765023922937 0.012966869636929593 0.5266187228413428 -1.92435220594518 -0.21615847881388878 1.5433876650999223 300.0 13.599999999999994 350.0 2.0 -2.0 2.0 0.0 200.0 0.0 0.0 0.0 0.0 0.0 0.0 0.0 0.0 0.0 0.0 
1.176 0.7182904666919151 -1.2347774547548418 -2.058163029865247 5.162963280126713 0.45312378859535973 0.7517399914681879 0.7102101403087977 0.0026458354981332274 0.5375785715258677 -1.9340072212235322 -0.20935655171571257 1.5502254064519498 300.0 15.199999999999989 350.0 2.0 -2.0 2.0 0.0 200.0 0.0 0.0 0.0 0.0 0.0 0.0 0.0 0.0 0.0 0.0 
1.184 0.724015504228216 -1.2351191267775097 -2.0549637851642926 5.152109610850971 0.4489574818953631 0.7598471870166525 0.7054197307097421 -0.007797003417387448 0.5485313124371021 -1.9433030367940216 -0.2025478761627641 1.5568527195810773 300.0 16.80000000000001 350.0 2.0 -2.0 2.0 0.0 200.0 0.0 0.0 0.0 0.0 0.0 0.0 0.0 0.0 0.0 0.0 
1.192 0.7297003912092203 -1.2355337262019854 -2.0516763617171625 5.141153765760942 0.44485233418295467 0.7680532646753387 0.7006072010246773 -0.018359216701196494 0.5594725843969149 -1.952228763610804 -0.19573497680044827 1.5632609921485117 300.0 18.400000000000006 350.0 2.0 -2.0 2.0 0.0 200.0 0.0 0.0 0.0 0.0 0.0 0.0 0.0 0.0 0.0 0.0 
1.2 0.7353450037001001 -1.2360218281575615 -2.048300389765222 5.130096108219032 0.4408086428450245 0.7763577913111643 0.695774455429744 -0.029038116161698335 0.5703978586184942 -1.9607735525125847 -0.18892039796464147 1.5694415376937518 300.0 20.0 350.0 2.0 -2.0 2.0 0.0 200.0 0.0 0.0 0.0 0.0 0.0 0.0 0.0 0.0 0.0 0.0 
1.208 0.7409492322038933 -1.2365840138264632 -2.0448355186042457 5.118937106349026 0.43682668455350854 0.7847602559210665 0.6909233733177095 -0.03983074763357795 0.5813024417302446 -1.968926620604913 -0.1821067025532478 1.5753856111741558 300.0 21.599999999999994 350.0 2.0 -2.0 2.0 0.0 200.0 0.0 0.0 0.0 0.0 0.0 0.0 0.0 0.0 0.0 0.0 
1.216 0.7465129814377427 -1.2372208691946582 -2.041281418358896 5.107677335792302 0.4329067150778855 0.7932600675476494 0.686055807852478 -0.0507338834698852 0.5921814797328254 -1.9766772790629585 -0.17529647082215458 1.5810844257014407 300.0 23.19999999999999 350.0 2.0 -2.0 2.0 0.0 200.0 0.0 0.0 0.0 0.0 0.0 0.0 0.0 0.0 0.0 0.0 
1.224 0.7520361700999398 -1.2379329836803303 -2.037637781783614 5.096317482277281 0.4290489691007611 0.801856553278895 0.68117358460861 -0.06174401581682206 0.6030299629324485 -1.9840149622965497 -0.16849229909823724 1.5865291704718354 300.0 24.80000000000001 350.0 2.0 -2.0 2.0 0.0 200.0 0.0 0.0 0.0 0.0 0.0 0.0 0.0 0.0 0.0 0.0 
1.232 0.7575187306283944 -1.238720948641547 -2.0339043260832366 5.084858343985138 0.4252536600368109 0.8105489563437197 0.6762785002960962 -0.07285735077226005 0.6138427318894497 -1.9909292584057758 -0.16169679840215695 1.59171102987819 300.0 26.400000000000006 350.0 2.0 -2.0 2.0 0.0 200.0 0.0 0.0 0.0 0.0 0.0 0.0 0.0 0.0 0.0 0.0 
1.24 0.762960608951155 -1.239585355765525 -2.030080794746125 5.073300833694902 0.421520979855486 0.8193364343154663 0.6713723215703709 -0.08406980352897468 0.6246144844161976 -1.997409940841276 -0.15491259297394772 1.5966212037831229 300.0 28.0 350.0 2.0 -2.0 2.0 0.0 200.0 0.0 0.0 0.0 0.0 0.0 0.0 0.0 0.0 0.0 0.0 
1.248 0.768361764229605 -1.2405267953428107 -2.0261669593820395 5.061645980691157 0.4178510989078811 0.8282180574356783 0.6664567839272842 -0.09537699460254459 0.6353397836529604 -2.0034470011696124 -0.14814231869463057 1.6012509289229537 300.0 29.600000000000023 350.0 2.0 -2.0 2.0 0.0 200.0 0.0 0.0 0.0 0.0 0.0 0.0 0.0 0.0 0.0 0.0 
1.256 0.7737221685949388 -1.2415458544306492 -2.022162621556484 5.049894932417869 0.41424416575836925 0.8371928070706589 0.6615335906825114 -0.10677424724173094 0.6460130672438696 -2.0090306828291413 -0.1413886213975346 1.6055915014016087 300.0 31.200000000000017 350.0 2.0 -2.0 2.0 0.0 200.0 0.0 0.0 0.0 0.0 0.0 0.0 0.0 0.0 0.0 0.0 
1.264 0.7790418068785361 -1.2426431149107722 -2.0180676146127583 5.038048955862245 0.4107003070215817 0.846259574313454 0.6566044120346423 -0.11825658611577727 0.6566286576282306 -2.0141515157480896 -0.13465415506346565 1.6096343002234843 300.0 32.80000000000001 350.0 2.0 -2.0 2.0 0.0 200.0 0.0 0.0 0.0 0.0 0.0 0.0 0.0 0.0 0.0 0.0 
1.272 0.784320676336826 -1.2438191514478314 -2.013881805472495 5.026109438653012 0.4072196272054656 0.8554171587438991 0.6516708842109732 -0.12981873736856958 0.6671807734546452 -2.018800351681949 -0.12794157989444394 1.6133708118030288 300.0 34.400000000000006 350.0 2.0 -2.0 2.0 0.0 200.0 0.0 0.0 0.0 0.0 0.0 0.0 0.0 0.0 0.0 0.0 
1.28 0.7895587863712317 -1.245074529355695 -2.0096050964050365 5.0140778898582115 0.4038022085612233 0.8646642673593276 0.6467346086948211 -0.14145513012372227 0.6776635421170111 -2.0229684001135513 -0.12125356026145731 1.6167926553775926 300.0 36.0 350.0 2.0 -2.0 2.0 0.0 200.0 0.0 0.0 0.0 0.0 0.0 0.0 0.0 0.0 0.0 0.0 
1.288 0.7947561582437743 -1.246409802379802 -2.00523742675566 5.001955940468349 0.40044811094100174 0.8739995136883705 0.6417971515329882 -0.15315989951756434 0.6880710134025215 -2.0266472645459186 -0.11459276252240955 1.619891609238755 300.0 37.60000000000002 350.0 2.0 -2.0 2.0 0.0 200.0 0.0 0.0 0.0 0.0 0.0 0.0 0.0 0.0 0.0 0.0 
1.296 0.7999128247889002 -1.247825510404764 -2.0007787746223102 4.989745343551659 0.39715737166430126 0.8834214171000397 0.6368600427218294 -0.16492689132857297 0.6983971742322029 -2.029828979005159 -0.10796185270735849 1.6226596376857079 300.0 39.20000000000002 350.0 2.0 -2.0 2.0 0.0 200.0 0.0 0.0 0.0 0.0 0.0 0.0 0.0 0.0 0.0 0.0 
1.304 0.8050288301220843 -1.2493221770973433 -1.9962291584702796 4.977447974069364 0.39393000539413 0.8929284023199185 0.631924775670204 -0.17674966826208344 0.7086359644645243 -2.032506044558997 -0.10136349406910906 1.625088918592959 300.0 40.80000000000001 350.0 2.0 -2.0 2.0 0.0 200.0 0.0 0.0 0.0 0.0 0.0 0.0 0.0 0.0 0.0 0.0 
1.312 0.8101042293457473 -1.2509003074958556 -1.9915886386740713 4.9650658283399265 0.39076600402399847 0.9025187991648311 0.626992806737462 -0.18862151793816 0.7187812937222358 -2.034671465645805 -0.09480034449825453 1.627171871473364 300.0 42.400000000000034 350.0 2.0 -2.0 2.0 0.0 200.0 0.0 0.0 0.0 0.0 0.0 0.0 0.0 0.0 0.0 0.0 
1.32 0.8151390882530075 -1.252560385557922 -1.986857318975585 4.952601023142766 0.3876653365769574 0.9121908425067702 0.6220655548444651 -0.2005354626183174 0.7288270591917804 -2.036318785999235 -0.08827505380295873 1.628901185906447 300.0 44.00000000000003 350.0 2.0 -2.0 2.0 0.0 200.0 0.0 0.0 0.0 0.0 0.0 0.0 0.0 0.0 0.0 0.0 
1.328 0.8201334830297776 -1.2543028716792943 -1.9820353478477242 4.940055794453233 0.38462794911783843 0.9219426724762074 0.6171444011555288 -0.21248427069353598 0.7387671643339729 -2.037442123946095 -0.08179026085492438 1.6302698501919517 300.0 45.60000000000002 350.0 2.0 -2.0 2.0 0.0 200.0 0.0 0.0 0.0 0.0 0.0 0.0 0.0 0.0 0.0 0.0 
1.336 0.8250874999556914 -1.2561282001972272 -1.977122919752605 4.92743249580238 0.3816537646800294 0.9317723349140635 0.6122306888290766 -0.22446046994168597 0.7485955384334844 -2.038036206848046 -0.07534859060431877 1.631271180078411 300.0 47.20000000000002 350.0 2.0 -2.0 2.0 0.0 200.0 0.0 0.0 0.0 0.0 0.0 0.0 0.0 0.0 0.0 0.0 
1.344 0.8300012351043389 -1.2580367768925265 -1.9721202762836723 4.914733596256747 0.3787426832080289 0.9416777820807448 0.6073257228346822 -0.2364563625472734 0.7583061569040617 -2.0380964044537357 -0.0689526509677491 1.6318988474080351 300.0 48.80000000000001 350.0 2.0 -2.0 2.0 0.0 200.0 0.0 0.0 0.0 0.0 0.0 0.0 0.0 0.0 0.0 0.0 
1.352 0.8348747940432572 -1.2600289765049593 -1.9670277071813072 4.901961678015204 0.37589458151719296 0.9516568736295828 0.602430769834125 -0.2484640418605295 0.7678930622556477 -2.0376187609246554 -0.06260502959474751 1.6321469085108489 300.0 50.400000000000034 350.0 2.0 -2.0 2.0 0.0 200.0 0.0 0.0 0.0 0.0 0.0 0.0 0.0 0.0 0.0 0.0 
1.36 0.8397082915341232 -1.2621051402771735 -1.9618455512118271 4.889119433621873 0.37310931327192043 0.9617073778509123 0.5975470581239951 -0.26047541085629344 0.7773503856195965 -2.0366000252984686 -0.05630829051963714 1.632009832174889 300.0 52.00000000000003 350.0 2.0 -2.0 2.0 0.0 200.0 0.0 0.0 0.0 0.0 0.0 0.0 0.0 0.0 0.0 0.0 
1.368 0.8445018512335573 -1.2642655735426183 -1.9565741969002535 4.8762096627961995 0.3703867089837606 0.9718269731917459 0.592675777637342 -0.27248220223630343 0.7866723687182294 -2.0350376801539585 -0.050064970707082004 1.6314825270129403 300.0 53.60000000000002 350.0 2.0 -2.0 2.0 0.0 200.0 0.0 0.0 0.0 0.0 0.0 0.0 0.0 0.0 0.0 0.0 
1.376 0.8492556053949457 -1.2665105433731654 -1.9512140831077505 4.863235268883307 0.36772657603066067 0.9820132500546908 0.58781808000182 -0.28447600010140506 0.7958533861564081 -2.0329299682473163 -0.04387757650101303 1.6305603680433052 300.0 55.200000000000045 350.0 2.0 -2.0 2.0 0.0 200.0 0.0 0.0 0.0 0.0 0.0 0.0 0.0 0.0 0.0 0.0 
1.384 0.8539696945716563 -1.2688402763022255 -1.9457656994453074 4.850199254929983 0.36512869869881165 0.9922637128782971 0.5829750786517486 -0.2964482631032247 0.8048879679043379 -2.0302759168943587 -0.03774857998803882 1.6292392222986216 300.0 56.80000000000004 350.0 2.0 -2.0 2.0 0.0 200.0 0.0 0.0 0.0 0.0 0.0 0.0 0.0 0.0 0.0 0.0 
1.392 0.858644267322012 -1.2712549561390951 -1.9402295865159673 4.837104719393851 0.3625928382483036 1.0025757824995236 0.578147848991486 -0.3083903489680713 0.8137708218340508 -2.0270753598834115 -0.03168041528782224 1.6275154732768804 300.0 58.400000000000034 350.0 2.0 -2.0 2.0 0.0 200.0 0.0 0.0 0.0 0.0 0.0 0.0 0.0 0.0 0.0 0.0 
1.4 0.8632794799163677 -1.273754721890061 -1.9346063359787646 4.823954851495491 0.3601187330038838 1.0129467987974268 0.5733374286075146 -0.32029354026969203 0.8224968561659585 -2.023328956714166 -0.02567547478417657 1.6253860440493972 300.0 60.00000000000003 350.0 2.0 -2.0 2.0 0.0 200.0 0.0 0.0 0.0 0.0 0.0 0.0 0.0 0.0 0.0 0.0 
1.408 0.8678754960466071 -1.2763396658014696 -1.9288965904284592 4.810752926225522 0.3577060984720189 1.0233740236155153 0.5685448175266223 -0.33214907131205745 0.8310612016772739 -2.019038208971702 -0.019736105311906563 1.6228484188435552 300.0 61.599999999999994 350.0 2.0 -2.0 2.0 0.0 200.0 0.0 0.0 0.0 0.0 0.0 0.0 0.0 0.0 0.0 0.0 
1.416 0.8724324865383726 -1.2790098315394398 -1.923101043086176 4.79750229902089 0.3553546274853679 1.0338546439585412 0.5637709785175877 -0.3439481559689601 0.8394592335209539 -2.014205473661056 -0.013864604315550226 1.6199006629231694 300.0 63.19999999999999 350.0 2.0 -2.0 2.0 0.0 200.0 0.0 0.0 0.0 0.0 0.0 0.0 0.0 0.0 0.0 0.0 
1.424 0.8769506290663096 -1.2817652125202785 -1.9172204372971597 4.784206400126738 0.3530639903757092 1.044385775457778 0.5590168374337827 -0.3556820163140832 0.847686592502143 -2.008833973345967 -0.008063215997219268 1.6165414405961482 300.0 64.79999999999998 350.0 2.0 -2.0 2.0 0.0 200.0 0.0 0.0 0.0 0.0 0.0 0.0 0.0 0.0 0.0 0.0 
1.432 0.8814301078725945 -1.2846057504048694 -1.9112555658330042 4.77086872866237 0.3508338351762826 1.054964466097086 0.5542832835941428 -0.3673419118635241 0.8557392056589498 -2.002927802955557 -0.0023341274716484266 1.612770031187862 300.0 66.4 350.0 2.0 -2.0 2.0 0.0 200.0 0.0 0.0 0.0 0.0 0.0 0.0 0.0 0.0 0.0 0.0 
1.44 0.8858711134889954 -1.287531333769362 -1.9052072699969493 4.757492846411849 0.34866378785435104 1.0655877001903538 0.5495711701999824 -0.37891916924281765 0.8636133059961455 -1.996491933145544 0.0033205350526494966 1.608586342829723 300.0 68.0 350.0 2.0 -2.0 2.0 0.0 200.0 0.0 0.0 0.0 0.0 0.0 0.0 0.0 0.0 0.0 0.0 
1.448 0.8902738424626995 -1.290541796963446 -1.8990764385320937 4.744082371361644 0.3465534525746958 1.0762524025991889 0.5448813147851651 -0.3904052120824335 0.8713054512236011 -1.9895322101242445 0.00889871004662162 1.6039909239250072 300.0 69.6 350.0 2.0 -2.0 2.0 0.0 200.0 0.0 0.0 0.0 0.0 0.0 0.0 0.0 0.0 0.0 0.0 
1.456 0.8946384970861166 -1.2936369191662993 -1.8928640063336717 4.730640971009571 0.3445024119946402 1.0869554431780424 0.5402144996972028 -0.40179159093968064 0.8788125413562957 -1.9820553518791333 0.01439840436832786 1.5989849721684022 300.0 71.19999999999999 350.0 2.0 -2.0 2.0 0.0 200.0 0.0 0.0 0.0 0.0 0.0 0.0 0.0 0.0 0.0 0.0 
1.464 0.8989652851308628 -1.2968164236489974 -1.8865709529678576 4.7171723554708445 0.3425102275909902 1.0976936414323708 0.5355714726068879 -0.41307001304116475 0.8861318350396185 -1.9740689407668495 0.01981769688478136 1.5935703410122488 300.0 72.80000000000001 350.0 2.0 -2.0 2.0 0.0 200.0 0.0 0.0 0.0 0.0 0.0 0.0 0.0 0.0 0.0 0.0 
1.472 0.9032544195860941 -1.3000799772507903 -1.8801983010008902 4.703680270408619 0.3405764400192302 1.108463771373845 0.5309529470441328 -0.42423237163832184 0.8932609644718656 -1.9655814124564703 0.025154741987621434 1.5877495434896896 300.0 74.4 350.0 2.0 -2.0 2.0 0.0 200.0 0.0 0.0 0.0 0.0 0.0 0.0 0.0 0.0 0.0 0.0 
1.48 0.9075061184013662 -1.3034271900751435 -1.873747114143607 4.690168489817533 0.33870056950502664 1.1192625665552254 0.5263596029577405 -0.4352707747694388 0.9001979488061147 -1.9566020412449228 0.030407772982414868 1.5815257533245615 300.0 76.0 350.0 2.0 -2.0 2.0 0.0 200.0 0.0 0.0 0.0 0.0 0.0 0.0 0.0 0.0 0.0 0.0 
1.488 0.911720604234157 -1.3068576154099127 -1.8672184952177866 4.6766408086899816 0.3368821162680447 1.1300867252661209 0.5217920872969057 -0.44617757322466933 0.9069412059248685 -1.9471409217910594 0.035575105331632065 1.574902803277523 300.0 77.60000000000002 350.0 2.0 -2.0 2.0 0.0 200.0 0.0 0.0 0.0 0.0 0.0 0.0 0.0 0.0 0.0 0.0 
1.496 0.9158981042021903 -1.3103707498743944 -1.860613583951927 4.663101035595622 0.3351205609778412 1.1409329158696737 0.5172510146122979 -0.4569453875161298 0.9134895624938794 -1.937208947343814 0.04065513973187419 1.5678851806993657 300.0 79.19999999999999 350.0 2.0 -2.0 2.0 0.0 200.0 0.0 0.0 0.0 0.0 0.0 0.0 0.0 0.0 0.0 0.0 
1.504 0.9200388496406788 -1.3139660337943644 -1.8539335546152995 4.649552985205239 0.33341536524142934 1.1517977822591208 0.5127369676746614 -0.467567133663023 0.9198422622155857 -1.9268177845676187 0.04564636500661949 1.5604780202841129 300.0 80.80000000000001 350.0 2.0 -2.0 2.0 0.0 200.0 0.0 0.0 0.0 0.0 0.0 0.0 0.0 0.0 0.0 0.0 
1.512 0.9241430758645848 -1.317642851804562 -1.8471796135002398 4.636000470790573 0.3317659721219693 1.1626779494122317 0.5082504981089263 -0.47803604761174884 0.9259989722176207 -1.9159798450953294 0.05054736079661209 1.552687094036599 300.0 82.40000000000003 350.0 2.0 -2.0 2.0 0.0 200.0 0.0 0.0 0.0 0.0 0.0 0.0 0.0 0.0 0.0 0.0 
1.52 0.9282110219359907 -1.3214005336764207 -1.840352996263689 4.622447296731768 0.3301718066878467 1.1735700290209004 0.5037921270419127 -0.48834570812314887 0.9319597875278057 -1.9047082539648925 0.055356800031127126 1.5445187984914865 300.0 84.0 350.0 2.0 -2.0 2.0 0.0 200.0 0.0 0.0 0.0 0.0 0.0 0.0 0.0 0.0 0.0 0.0 
1.528 0.9322429304366597 -1.325238355367216 -1.8334549651399499 4.608897251064077 0.32863227659118904 1.1844706251725494 0.49936234576176836 -0.49849005797310025 0.9377252336037003 -1.893016815120862 0.06007345116456268 1.535980139242975 300.0 85.60000000000002 350.0 2.0 -2.0 2.0 0.0 200.0 0.0 0.0 0.0 0.0 0.0 0.0 0.0 0.0 0.0 0.0 
1.536 0.9362390472458395 -1.3291555402852222 -1.8264868060374846 4.595354098095123 0.32714677267478465 1.1953763400595914 0.49496161638737013 -0.5084634233284133 0.9432962669015477 -1.8809199741841365 0.06469618016421194 1.5270787128657515 300.0 87.19999999999999 350.0 2.0 -2.0 2.0 0.0 200.0 0.0 0.0 0.0 0.0 0.0 0.0 0.0 0.0 0.0 0.0 
1.544 0.9401996213233705 -1.3331512607639255 -1.8194498255333114 4.581821571123408 0.3257146696061196 1.206283779692995 0.4905903725459942 -0.5182605311773225 0.9486742734868129 -1.8684327787145578 0.06922395223663773 1.517822686328978 300.0 88.80000000000001 350.0 2.0 -2.0 2.0 0.0 200.0 0.0 0.0 0.0 0.0 0.0 0.0 0.0 0.0 0.0 0.0 
1.552 0.9441249044981298 -1.3372246397369152 -1.8123453477791793 4.5683033652880205 0.32433532653716723 1.217189559595932 0.48624902005761994 -0.5278765247123215 0.9538610657054427 -1.8555708362090542 0.0736558332817301 1.50822077402474 300.0 90.40000000000003 350.0 2.0 -2.0 2.0 0.0 200.0 0.0 0.0 0.0 0.0 0.0 0.0 0.0 0.0 0.0 0.0 
1.56 0.9480151512618483 -1.3413747526036879 -1.8051747113341872 4.554803130578389 0.3230080877882933 1.2280903104536756 0.4819379376243419 -0.5373069765826405 0.9588588769520592 -1.8423502700947583 0.07799099106533577 1.498282212551572 300.0 92.0 350.0 2.0 -2.0 2.0 0.0 200.0 0.0 0.0 0.0 0.0 0.0 0.0 0.0 0.0 0.0 0.0 
1.568 0.951870618568308 -1.3456006292753702 -1.797939265938879 4.541324465031769 0.32173228355471933 1.2389826836962095 0.4776574775234066 -0.5465478999537643 0.9636703545871835 -1.8287876739884805 0.08222869610320634 1.4880167334099315 300.0 93.60000000000002 350.0 2.0 -2.0 2.0 0.0 200.0 0.0 0.0 0.0 0.0 0.0 0.0 0.0 0.0 0.0 0.0 
1.576 0.9556915656379359 -1.349901256388225 -1.7906403692460562 4.5278709081446635 0.3205072306335935 1.2498633569905837 0.47340796630249443 -0.5555957573320416 0.9682985510717267 -1.8149000645061006 0.08636832225096669 1.4774345337831387 300.0 95.20000000000005 350.0 2.0 -2.0 2.0 0.0 200.0 0.0 0.0 0.0 0.0 0.0 0.0 0.0 0.0 0.0 0.0 
1.584 0.9594782537677888 -1.354275579671821 -1.783279383523643 4.514445934522762 0.3193322331698199 1.2607290396207091 0.46918970547591726 -0.5644474671330741 0.9727469134012645 -1.8007048329117 0.0904093469968054 1.4665462455899745 300.0 96.80000000000001 350.0 2.0 -2.0 2.0 0.0 200.0 0.0 0.0 0.0 0.0 0.0 0.0 0.0 0.0 0.0 0.0 
1.592 0.9632309461469216 -1.3587225064578585 -1.7758576723448842 4.5010529477922185 0.31820658341854824 1.2715764777331855 0.46500297222050285 -0.5731004079930936 0.9770192709364842 -1.7862196959018843 0.094351351455568 1.4553629030074093 300.0 98.40000000000003 350.0 2.0 -2.0 2.0 0.0 200.0 0.0 0.0 0.0 0.0 0.0 0.0 0.0 0.0 0.0 0.0 
1.6 0.966949907677115 -1.3632409083149657 -1.7683765972809784 4.487695274793169 0.31712956252226726 1.2824024594287367 0.4608480200699907 -0.581552420842568 0.9811198217382919 -1.7714626458216483 0.09819402006497359 1.443895908670799 300.0 100.0 350.0 2.0 -2.0 2.0 0.0 200.0 0.0 0.0 0.0 0.0 0.0 0.0 0.0 0.0 0.0 0.0 
1.608 0.9706354047989418 -1.3678296237941994 -1.7608375146109239 4.4743761600743035 0.3161004413002605 1.293203819680054 0.45672507960684033 -0.5898018087806437 0.9850531175272552 -1.7564519006076866 0.10193713998663587 1.4321569987666016 300.0 101.60000000000002 350.0 2.0 -2.0 2.0 0.0 200.0 0.0 0.0 0.0 0.0 0.0 0.0 0.0 0.0 0.0 0.0 
1.616 0.9742877053231348 -1.3724874612695754 -1.7532417720629334 4.461098760705205 0.3151184810481628 1.3039774450580883 0.4526343591504286 -0.59784733480738 0.9888240473964107 -1.7412058537508532 0.10558060021651938 1.4201582072375005 300.0 103.20000000000005 350.0 2.0 -2.0 2.0 0.0 200.0 0.0 0.0 0.0 0.0 0.0 0.0 0.0 0.0 0.0 0.0 
1.624 0.9779070782672158 -1.377213201857717 -1.7455907056012088 4.447866141420916 0.31418293434535793 1.3147202782502907 0.44857604544067464 -0.6056882174879451 0.9924378204142701 -1.7257430245625212 0.10912439041131383 1.4079118293222632 300.0 104.80000000000001 350.0 2.0 -2.0 2.0 0.0 200.0 0.0 0.0 0.0 0.0 0.0 0.0 0.0 0.0 0.0 0.0 
1.632 0.9814937936973391 -1.3820056024005878 -1.7378856362712212 4.434681270110935 0.3132930458678976 1.3254293223557783 0.4445503043162036 -0.6133241246387441 0.9958999472611091 -1.7100820090205577 0.11256859943900267 1.3954303846532239 300.0 106.40000000000003 350.0 2.0 -2.0 2.0 0.0 200.0 0.0 0.0 0.0 0.0 0.0 0.0 0.0 0.0 0.0 0.0 
1.64 0.9850481225752948 -1.3868633984953385 -1.7301278671158757 4.421547013662523 0.3124480532045791 1.3361016449440213 0.44055728138621575 -0.6207551651398142 0.9992162210462905 -1.6942414314593393 0.11591341366356707 1.3827265801326396 300.0 108.00000000000006 350.0 2.0 -2.0 2.0 0.0 200.0 0.0 0.0 0.0 0.0 0.0 0.0 0.0 0.0 0.0 0.0 
1.648 0.9885703366106172 -1.391785307555475 -1.7223186801741082 4.408466134165897 0.31164718767388105 1.3467343818652906 0.43659710269529994 -0.6279818789904202 1.0023926974570985 -1.6782398973540953 0.11915911497531874 1.3698132728049612 300.0 109.60000000000002 350.0 2.0 -2.0 2.0 0.0 200.0 0.0 0.0 0.0 0.0 0.0 0.0 0.0 0.0 0.0 0.0 
1.656 0.9920607081177308 -1.3967700318878842 -1.714459333572532 4.3954412854865765 0.3108896751394772 1.3573247408028077 0.43266987538049145 -0.6350052257356761 1.0054356743908184 -1.6620959474343526 0.12230607857977717 1.3567034329361574 300.0 111.20000000000005 350.0 2.0 -2.0 2.0 0.0 200.0 0.0 0.0 0.0 0.0 0.0 0.0 0.0 0.0 0.0 0.0 
1.664 0.9955195098780674 -1.4018162617706973 -1.7065510587197972 4.382475010207925 0.31017473682203417 1.3678700045582601 0.42877568831991675 -0.6418265714011248 1.0083516712215284 -1.6458280133442655 0.12535477055926095 1.3434101075036229 300.0 112.80000000000001 350.0 2.0 -2.0 2.0 0.0 200.0 0.0 0.0 0.0 0.0 0.0 0.0 0.0 0.0 0.0 0.0 
1.672 0.9989470150070833 -1.406922678517538 -1.6985950576122646 4.369569736944638 0.30950159010509465 1.3783675340641082 0.42491461277244685 -0.6484476740794161 1.0111474078511173 -1.6294543750487394 0.12830574522249855 1.3299463842905 300.0 114.39999999999998 350.0 2.0 -2.0 2.0 0.0 200.0 0.0 0.0 0.0 0.0 0.0 0.0 0.0 0.0 0.0 0.0 
1.68 1.0023434968260991 -1.412087957514372 -1.690592500258558 4.35672777802591 0.30886944933290567 1.3888147711178063 0.4210867030078209 -0.6548706683185751 1.0138297836907268 -1.6129931201646444 0.13115964225848764 1.3163253567672843 300.0 116.0 350.0 2.0 -2.0 2.0 0.0 200.0 0.0 0.0 0.0 0.0 0.0 0.0 0.0 0.0 0.0 0.0 
1.688 1.0057092287388825 -1.417310771215926 -1.682544522229451 4.343951327544855 0.30827752659810975 1.3992092408347911 0.4172919969267541 -0.661098048464945 1.0164058567142569 -1.5964621053759003 0.1339171837116358 1.3025600899312315 300.0 117.60000000000002 350.0 2.0 -2.0 2.0 0.0 200.0 0.0 0.0 0.0 0.0 0.0 0.0 0.0 0.0 0.0 0.0 
1.696 1.009044484112895 -1.4225897920894943 -1.6744522223384388 4.331242459768905 0.307725032517304 1.4095485538187615 0.41353051667059837 -0.6671326511156506 1.018882822719749 -1.57987892007025 0.1365791707958182 1.2886635872606993 300.0 119.19999999999999 350.0 2.0 -2.0 2.0 0.0 200.0 0.0 0.0 0.0 0.0 0.0 0.0 0.0 0.0 0.0 0.0 
1.704 1.0123495361651118 -1.4279236954948493 -1.666316660457247 4.318603127904046 0.30721117699263767 1.4198304080493513 0.4098022692201753 -0.6729776368354836 1.0212679949274819 -1.5632608523137772 0.13914648056543294 1.2746487589268554 300.0 120.80000000000001 350.0 2.0 -2.0 2.0 0.0 200.0 0.0 0.0 0.0 0.0 0.0 0.0 0.0 0.0 0.0 0.0 
1.712 1.0156246578523342 -1.4333111624899417 -1.6581388554694163 4.306035163204072 0.30673516995755623 1.4300525904889019 0.4061072469834278 -0.6786364712917441 1.0235687840361922 -1.546624857258849 0.14162006246182024 1.2605283913907948 300.0 122.39999999999998 350.0 2.0 -2.0 2.0 0.0 200.0 0.0 0.0 0.0 0.0 0.0 0.0 0.0 0.0 0.0 0.0 
1.72 1.0188701217658997 -1.438750882553057 -1.6499197833640384 4.293540274414494 0.3062962221051721 1.4402129784114572 0.4024454283716101 -0.6841129059574318 1.0257926788497862 -1.529987528058621 0.1440009347535179 1.246315118497571 300.0 124.0 350.0 2.0 -2.0 2.0 0.0 200.0 0.0 0.0 0.0 0.0 0.0 0.0 0.0 0.0 0.0 0.0 
1.728 1.0220862000307014 -1.4442415562131479 -1.6416603754706522 4.281120047539304 0.30589354559757287 1.450309540458522 0.3988167783637477 -0.6894109585290921 1.0279472275784007 -1.5133650693422243 0.14629018088881066 1.232021394163936 300.0 125.60000000000002 350.0 2.0 -2.0 2.0 0.0 200.0 0.0 0.0 0.0 0.0 0.0 0.0 0.0 0.0 0.0 0.0 
1.736 1.0252731642084214 -1.4497818975810874 -1.6333615168353084 4.268775945917602 0.30552635475477735 1.460340337427387 0.39522124905915484 -0.6945348931999434 1.030040019907545 -1.4967732732832577 0.14848894577880828 1.2176594667396283 300.0 127.19999999999999 350.0 2.0 -2.0 2.0 0.0 200.0 0.0 0.0 0.0 0.0 0.0 0.0 0.0 0.0 0.0 0.0 
1.744 1.0284312852048916 -1.455370636775648 -1.6250240447368263 4.256509310595868 0.3051938667219287 1.4703035227990413 0.39165878021783074 -0.6994892009225938 1.0320786699196964 -1.4802274982764176 0.1505984320290218 1.2032413551072076 300.0 128.8 350.0 2.0 -2.0 2.0 0.0 200.0 0.0 0.0 0.0 0.0 0.0 0.0 0.0 0.0 0.0 0.0 
1.752 1.0315608331814765 -1.4610065222390447 -1.6166487473413642 4.244321360980856 0.3048953021136546 1.4801973430137239 0.38812929978858307 -0.7042785797880746 1.0340707999423175 -1.4637426502179574 0.15261989613690063 1.1887788265691899 300.0 130.40000000000003 350.0 2.0 -2.0 2.0 0.0 200.0 0.0 0.0 0.0 0.0 0.0 0.0 0.0 0.0 0.0 0.0 
1.76 1.0346620774703914 -1.4666883229379153 -1.6082363624925482 4.232213195757154 0.3046298856345491 1.490020137503162 0.38463272442477675 -0.7089079156399041 1.0360240253864155 -1.4473331663691575 0.15455464467228158 1.1742833765565088 300.0 132.0 350.0 2.0 -2.0 2.0 0.0 200.0 0.0 0.0 0.0 0.0 0.0 0.0 0.0 0.0 0.0 0.0 
1.768 1.0377352864938554 -1.47241483044661 -1.5997875766336045 4.220185794052879 0.30439684667486117 1.499770338489394 0.38116895998761546 -0.7133822630331871 1.0379459406298859 -1.4310130017664153 0.15640403045699824 1.1597662101779258 300.0 133.60000000000002 350.0 2.0 -2.0 2.0 0.0 200.0 0.0 0.0 0.0 0.0 0.0 0.0 0.0 0.0 0.0 0.0 
1.776 1.0407807276869847 -1.478184860910626 -1.591303023857209 4.208240016836433 0.3041954198806731 1.5094464705607835 0.3777379020369115 -0.7177068266396149 1.0398441059900434 -1.414795618126795 0.15816944875917416 1.1452382256159612 300.0 135.2 350.0 2.0 -2.0 2.0 0.0 200.0 0.0 0.0 0.0 0.0 0.0 0.0 0.0 0.0 0.0 0.0 
1.784 1.0437986674243305 -1.483997256888959 -1.5827832850780692 4.196376608526881 0.3040248456978987 1.519047150036497 0.3743394363093121 -0.7218869431899084 1.0417260358205533 -1.398693975185383 0.15985233351686795 1.1307099993622516 300.0 136.8 350.0 2.0 -2.0 2.0 0.0 200.0 0.0 0.0 0.0 0.0 0.0 0.0 0.0 0.0 0.0 0.0 
1.792 1.0467893709499636 -1.4898508890750217 -1.574228887322684 4.184596198800296 0.3038843708896515 1.5285710841311748 0.37097343918398734 -0.7259280640356786 1.043599187758871 -1.3827205243888538 0.1614541536048634 1.1161917732728626 300.0 138.40000000000003 350.0 2.0 -2.0 2.0 0.0 200.0 0.0 0.0 0.0 0.0 0.0 0.0 0.0 0.0 0.0 0.0 
1.8 1.0497531023110116 -1.4957446578966147 -1.5656403031301378 4.1728993045742655 0.30377324902659364 1.5380170699319693 0.3676397781358017 -0.7298357384031977 1.0454709531419744 -1.3668872048599248 0.16297640915743056 1.101693443413169 300.0 140.0 350.0 2.0 -2.0 2.0 0.0 200.0 0.0 0.0 0.0 0.0 0.0 0.0 0.0 0.0 0.0 0.0 
1.808 1.0526901242945517 -1.5016774949962155 -1.5570179500573513 4.161286332152818 0.30369074095002635 1.5473839932003912 0.36433831217601137 -0.7336155974021701 1.0473486486002936 -1.351205441538709 0.1644206279589139 1.0872245506517357 300.0 141.60000000000002 350.0 2.0 -2.0 2.0 0.0 200.0 0.0 0.0 0.0 0.0 0.0 0.0 0.0 0.0 0.0 0.0 
1.816 1.055600698367765 -1.5076483645935643 -1.5483621902817715 4.149757579514081 0.3036361152075639 1.5566708270116099 0.3610688922805594 -0.7372733388434118 1.0492395088325435 -1.3356861453999997 0.16578836191298868 1.0727942729536482 300.0 143.20000000000005 350.0 2.0 -2.0 2.0 0.0 200.0 0.0 0.0 0.0 0.0 0.0 0.0 0.0 0.0 0.0 0.0 
1.824 1.05848508462126 -1.5136562647332066 -1.5396733302941374 4.1383132387232395 0.30360864846141966 1.565876630243952 0.35783136180604835 -0.7408147129104314 1.0511506805574942 -1.320339715639537 0.16708118360039348 1.0584114193155267 300.0 144.8 350.0 2.0 -2.0 2.0 0.0 200.0 0.0 0.0 0.0 0.0 0.0 0.0 0.0 0.0 0.0 0.0 
1.832 1.0613435417154666 -1.5197002284202377 -1.530951620673686 4.126953398453661 0.3036076258693598 1.5750005459313368 0.35462555689349207 -0.7442455087214591 1.0530892176329842 -1.305176043718275 0.1683006829339132 1.044084425277701 300.0 146.40000000000003 350.0 2.0 -2.0 2.0 0.0 200.0 0.0 0.0 0.0 0.0 0.0 0.0 0.0 0.0 0.0 0.0 
1.84 1.064176326830017 -1.5257793246480507 -1.5221972559378925 4.1156780465994185 0.30363234143849815 1.5840417994913345 0.3514513068599723 -0.7475715418104404 1.05506207732733 -1.2902045191506921 0.16944846391837393 1.0298213499431363 300.0 148.0 350.0 2.0 -2.0 2.0 0.0 200.0 0.0 0.0 0.0 0.0 0.0 0.0 0.0 0.0 0.0 0.0 
1.848 1.0669836956160121 -1.5318926593223732 -1.5134103744586898 4.1044870729629235 0.3036820983522598 1.5929996968413564 0.34830843457831945 -0.7507986425479533 1.0570761177237724 -1.2754340369210195 0.1705261415223766 1.0156298744275236 300.0 149.60000000000002 350.0 2.0 -2.0 2.0 0.0 200.0 0.0 0.0 0.0 0.0 0.0 0.0 0.0 0.0 0.0 0.0 
1.856 1.0697659021510904 -1.5380393760863016 -1.504591058436954 4.093380272001859 0.3037562092708221 1.601873622415285 0.34519675684497886 -0.7539326455161031 1.0591380962351082 -1.2608730064112157 0.17153533866752282 1.0015173016614507 300.0 151.20000000000005 350.0 2.0 -2.0 2.0 0.0 200.0 0.0 0.0 0.0 0.0 0.0 0.0 0.0 0.0 0.0 0.0 
1.864 1.0725231988972097 -1.5442186570514265 -1.4957393339269498 4.082357345620197 0.30385399660550766 1.6106630370925652 0.34211608473620314 -0.7569793798450639 1.061254669202613 -1.2465293617245627 0.1724776833399148 0.9874905574622709 300.0 152.8 350.0 2.0 -2.0 2.0 0.0 200.0 0.0 0.0 0.0 0.0 0.0 0.0 0.0 0.0 0.0 0.0 
1.872 1.07525583666105 -1.550429723440446 -1.4868551709023938 4.071417905988682 0.30397479276764827 1.6193674760514172 0.3390662239527564 -0.7599446605131663 1.0634323925511633 -1.2324105732904105 0.17335480582778473 0.9735561927913807 300.0 154.40000000000003 350.0 2.0 -2.0 2.0 0.0 200.0 0.0 0.0 0.0 0.0 0.0 0.0 0.0 0.0 0.0 0.0 
1.88 1.0779640645569573 -1.5566718361469474 -1.477938483355739 4.060561478380747 0.3041179403924566 1.6279865465574928 0.3360469751532932 -0.7628342806073811 1.065677723471065 -1.2185236606380716 0.17416833608822962 0.9597203871114154 300.0 156.00000000000006 350.0 2.0 -2.0 2.0 0.0 200.0 0.0 0.0 0.0 0.0 0.0 0.0 0.0 0.0 0.0 0.0 
1.888 1.0806481299723356 -1.5629442962182545 -1.4689891294223292 4.0497875040106015 0.3042827925386236 1.6365199256988023 0.33305813427661274 -0.7656540045364523 1.0679970230960483 -1.2048752062306671 0.17491990124517384 0.9459889527571272 300.0 157.60000000000002 350.0 2.0 -2.0 2.0 0.0 200.0 0.0 0.0 0.0 0.0 0.0 0.0 0.0 0.0 0.0 0.0 
1.896 1.083308278535414 -1.569246445267423 -1.4600069115210572 4.039095342860737 0.3044687128642437 1.64496735807735 0.33009949285296947 -0.7684095621852424 1.0703965601470398 -1.1914713702542514 0.175611123219902 0.9323673402343804 300.0 159.20000000000005 350.0 2.0 -2.0 2.0 0.0 200.0 0.0 0.0 0.0 0.0 0.0 0.0 0.0 0.0 0.0 0.0 
1.904 1.0859447540852987 -1.5755776658205938 -1.4509915765032475 4.028484276486925 0.3046750757798319 1.6533286534673686 0.3271708383046522 -0.7711066439955163 1.0728825155115413 -1.178317906261647 0.17624361649475498 0.9188606443622525 300.0 160.8 350.0 2.0 -2.0 2.0 0.0 200.0 0.0 0.0 0.0 0.0 0.0 0.0 0.0 0.0 0.0 0.0 
1.912 1.0885577986442323 -1.5819373816060383 -1.4419428158015168 4.017953510789375 0.3049012665792414 1.661603684449552 0.3242719542360329 -0.7737508969558132 1.0754609877295587 -1.1654201775755353 0.176818986009891 0.9054736111746408 300.0 162.40000000000003 350.0 2.0 -2.0 2.0 0.0 200.0 0.0 0.0 0.0 0.0 0.0 0.0 0.0 0.0 0.0 0.0 
1.92 1.0911476523919847 -1.5883250577912813 -1.4328602655704434 4.0075021787394 0.305146681549227 1.6697923840301698 0.3214026207132989 -0.7763479214811276 1.0781379993588167 -1.1527831743613381 0.17733882519238614 0.8922106455000356 300.0 164.0 350.0 2.0 -2.0 2.0 0.0 200.0 0.0 0.0 0.0 0.0 0.0 0.0 0.0 0.0 0.0 0.0 
1.928 1.0937145536422948 -1.5947402011747673 -1.4237435068109354 3.997129343051606 0.3054107280585037 1.6778947432533815 0.31856261453408186 -0.7789032691616248 1.0809195041940662 -1.1404115312860885 0.17780471411636056 0.8790758191402093 300.0 165.60000000000002 350.0 2.0 -2.0 2.0 0.0 200.0 0.0 0.0 0.0 0.0 0.0 0.0 0.0 0.0 0.0 0.0 
1.936 1.0962587388212888 -1.6011823603384991 -1.4145920654702782 3.986833998792255 0.30569282462717196 1.6859108088145445 0.3157517094872086 -0.7814224413587867 1.0838113953180204 -1.1283095456858996 0.17821821779229371 0.866072879571436 300.0 167.2 350.0 2.0 -2.0 2.0 0.0 200.0 0.0 0.0 0.0 0.0 0.0 0.0 0.0 0.0 0.0 0.0 
1.944 1.0987804424478052 -1.60765112576817 -1.4054054125098574 3.976615075915045 0.3059924009773226 1.6938406806817532 0.31296967660278663 -0.7839108886271031 1.0868195139648669 -1.1164811961715386 0.17858088458321736 0.8532052590950235 300.0 168.8 350.0 2.0 -2.0 2.0 0.0 200.0 0.0 0.0 0.0 0.0 0.0 0.0 0.0 0.0 0.0 0.0 
1.952 1.1012798971155482 -1.6141461299472115 -1.3961829639326475 3.9664714417161515 0.3063088980657287 1.7016845097323 0.31021628439285936 -0.7863740109395603 1.0899496591808384 -1.1049301616081768 0.17889424474505786 0.8404760843671316 300.0 170.39999999999998 350.0 2.0 -2.0 2.0 0.0 200.0 0.0 0.0 0.0 0.0 0.0 0.0 0.0 0.0 0.0 0.0 
1.96 1.1037573334770048 -1.6206670474312252 -1.3869240807625438 3.95640190320091 0.306641768099522 1.7094424954102185 0.3074912990828474 -0.78881715869589 1.0932075982706224 -1.0936598404125046 0.17915980908802426 0.8278881862413644 300.0 172.0 350.0 2.0 -2.0 2.0 0.0 200.0 0.0 0.0 0.0 0.0 0.0 0.0 0.0 0.0 0.0 0.0 
1.968 1.1062129802290552 -1.6272135949092086 -1.3776280689676472 3.9464052093550173 0.3069904745356401 1.7171148834105414 0.30479448483400606 -0.7912456344937763 1.096599078023246 -1.0826733701180444 0.17937906775562704 0.8154441098616244 300.0 173.60000000000002 350.0 2.0 -2.0 2.0 0.0 200.0 0.0 0.0 0.0 0.0 0.0 0.0 0.0 0.0 0.0 0.0 
1.976 1.1086470641002097 -1.6337855312579697 -1.3682941793195713 3.9364800533136197 0.30735449206503096 1.7247019633953762 0.30212560395712446 -0.7936646956446947 1.1001298367159147 -1.0719736471660666 0.17955348911762944 0.8031461249459564 300.0 175.2 350.0 2.0 -2.0 2.0 0.0 200.0 0.0 0.0 0.0 0.0 0.0 0.0 0.0 0.0 0.0 0.0 
1.984 1.111059809839407 -1.6403826575960947 -1.3589216071808081 3.926625074422069 0.30773330658242 1.7322040667464191 0.2994844171176959 -0.7960795574182342 1.1038056169002224 -1.0615633468876227 0.17968451877301342 0.7909962362064195 300.0 176.8 350.0 2.0 -2.0 2.0 0.0 200.0 0.0 0.0 0.0 0.0 0.0 0.0 0.0 0.0 0.0 0.0 
1.992 1.1134514402063114 -1.64700481734382 -1.349509492212067 3.9168388601824784 0.3081264151424951 1.7396215643580277 0.29687068353278157 -0.7984953970012011 1.1076321789811816 -1.0514449436494777 0.17977357865885113 0.7789961938537051 300.0 178.40000000000003 350.0 2.0 -2.0 2.0 0.0 200.0 0.0 0.0 0.0 0.0 0.0 0.0 0.0 0.0 0.0 0.0 
2.0 1.1158221759630467 -1.6536518962951523 -1.3400569179914008 3.907119948080573 0.30853332590337235 1.7469548644745239 0.2942841611597902 -0.8009173581606821 1.1116153156061754 -1.0416207311442802 0.17982206626082903 0.767147504139025 300.0 180.0 350.0 2.0 -2.0 2.0 0.0 200.0 0.0 0.0 0.0 0.0 -0.0 -1000.0 -0.0 0.0 0.0 0.0 
2.008 1.118125435887333 -1.6601901409341526 -1.3307532042696644 3.8976592549473312 0.30894502592239154 1.7540602374120298 0.28010451384269175 -0.7711696795520677 1.0710492730897687 -0.9909892641573053 0.17263828183151114 0.7254565039650911 300.0 181.56799999999998 350.0 2.0 -2.0 2.0 0.0 192.0 0.0 0.0 0.0 0.0 -0.0 -1000.0 -0.0 0.0 0.0 0.0 
2.016 1.120316216427665 -1.6664839144849442 -1.3217909480960557 3.8886427248627706 0.3093515330016818 1.760800430647374 0.26624195136012874 -0.7411551307756895 1.0301454290536267 -0.9417033658894931 0.16542192041244574 0.6852406245560716 300.0 183.0719999999999 350.0 2.0 -2.0 2.0 0.0 184.0 0.0 0.0 0.0 0.0 -0.0 -1000.0 -0.0 0.0 0.0 0.0 
2.024 1.1223969934220537 -1.6725304256668376 -1.3131740915996521 3.880061861156495 0.3097510379221737 1.7671852333508427 0.25267847062451354 -0.7108855149438295 0.9888928748475254 -0.8936566739939916 0.15818179975977925 0.6464124114539818 300.0 184.51200000000017 350.0 2.0 -2.0 2.0 0.0 176.0 0.0 0.0 0.0 0.0 -0.0 -1000.0 -0.0 0.0 0.0 0.0 
2.032 1.1243701005064812 -1.6783270271012398 -1.3049065519596517 3.8719087659726656 0.31014189134048037 1.7732239528271876 0.2393967298058129 -0.6803715070489815 0.9472827223309508 -0.8467488100293081 0.15092550146507683 0.6088874473427842 300.0 185.88799999999992 350.0 2.0 -2.0 2.0 0.0 168.0 0.0 0.0 0.0 0.0 -0.0 -1000.0 -0.0 0.0 0.0 0.0 
2.04 1.1262377343047476 -1.6838712039589847 -1.2969922135104555 3.864176118297881 0.3105225908717765 1.7789254165239698 0.22638000897674534 -0.6496229341028558 0.9053082573513339 -0.8008852428943019 0.14365949174238402 0.572584326783788 300.0 187.2000000000001 350.0 2.0 -2.0 2.0 0.0 160.0 0.0 0.0 0.0 0.0 -0.0 -1000.0 -0.0 0.0 0.0 0.0 
2.048 1.1280019593031536 -1.689160564881487 -1.2894349179413378 3.8568571507018152 0.31089176923199274 1.784297975774675 0.2136121720858954 -0.6186490216710847 0.8629650618407245 -0.7559771230822993 0.13638923169712225 0.537424600579168 300.0 188.4480000000002 350.0 2.0 -2.0 2.0 0.0 152.0 0.0 0.0 0.0 0.0 -0.0 -1000.0 -0.0 0.0 0.0 0.0 
2.056 1.1296647124211194 -1.694192834935927 -1.2822384528781345 3.8499456252081243 0.3112481833692125 1.7893495108987099 0.20107763023112576 -0.5874586093929164 0.8202511069338717 -0.7119410934998114 0.12911927786723826 0.503332695611711 300.0 189.6320000000002 350.0 2.0 -2.0 2.0 0.0 144.0 0.0 0.0 0.0 0.0 -0.0 -1000.0 -0.0 0.0 0.0 0.0 
2.064 1.1312278072884925 -1.6989658503773715 -1.275406539118408 3.8434358086593488 0.31159070451746534 1.7940874373316045 0.1887613061962626 -0.5560603378387224 0.7771668190643775 -0.6686990814883278 0.12185337380513536 0.47023581511740004 300.0 190.75200000000018 350.0 2.0 -2.0 2.0 0.0 136.0 0.0 0.0 0.0 0.0 -0.0 -1000.0 -0.0 0.0 0.0 0.0 
2.072 1.132692938239912 -1.7034775550030508 -1.268942816777688 3.837322447893434 0.3119183091100538 1.7985187125040774 0.17664860020646797 -0.5244628088326009 0.7337151206191426 -0.6261780757470292 0.11459453343979926 0.4380638235630232 300.0 191.8080000000001 350.0 2.0 -2.0 2.0 0.0 128.0 0.0 0.0 0.0 0.0 -0.0 -1000.0 -0.0 0.0 0.0 0.0 
2.08 1.1340616840361784 -1.7077259978957804 -1.2628508305924537 3.831600745009955 0.3122300704932556 1.802649843228608 0.1647253568516941 -0.49267472116035954 0.6899014464253649 -0.5843098910654618 0.10734511692466005 0.40674911961607574 300.0 192.79999999999993 350.0 2.0 -2.0 2.0 0.0 120.0 0.0 0.0 0.0 0.0 -0.0 -1000.0 -0.0 0.0 0.0 0.0 
2.088 1.1353355113220873 -1.7117093323646857 -1.257134014615205 3.8262663329706363 0.31252515138534975 1.8064868933871072 0.15297783312290456 -0.4607049833992698 0.6457337371066809 -0.543030923121217 0.10010689963999683 0.37622650009859515 300.0 193.72800000000012 350.0 2.0 -2.0 2.0 0.0 112.0 0.0 0.0 0.0 0.0 -0.0 -1000.0 -0.0 0.0 0.0 0.0 
2.096 1.1365157778297028 -1.7154258159020057 -1.2517956765277929 3.821315251750149 0.31280279702974273 1.810035491743863 0.14139266750210702 -0.4285628054485563 0.6012224101735153 -0.5022818950645523 0.09288113498059417 0.34643301730175363 300.0 194.59199999999984 350.0 2.0 -2.0 2.0 0.0 104.0 0.0 0.0 0.0 0.0 -0.0 -1000.0 -0.0 0.0 0.0 0.0 
2.104 1.1376037353355217 -1.7188738109849695 -1.246838981790723 3.8167439252288524 0.31306232899507763 1.8133008397345152 0.1299568500444955 -0.3962577702098461 0.5563803096031892 -0.4620075971847747 0.0856686115211007 0.317307831594605 300.0 195.39199999999994 350.0 2.0 -2.0 2.0 0.0 96.0 0.0 0.0 0.0 0.0 -0.0 -1000.0 -0.0 0.0 0.0 0.0 
2.112 1.1386005323794397 -1.7220517865614886 -1.2422669378382323 3.8125491389984547 0.3133031395788178 1.8162877191047897 0.11865769338897457 -0.3637998867652704 0.5112226346136922 -0.4221566206199445 0.07846970511396628 0.2887920608807629 300.0 196.12799999999996 350.0 2.0 -2.0 2.0 0.0 88.0 0.0 0.0 0.0 0.0 -0.0 -1000.0 -0.0 0.0 0.0 0.0 
2.12 1.1395072167529015 -1.7249583200680827 -1.2380823785208115 3.808728019233569 0.31352468677473144 1.8190004992926654 0.10748280463190145 -0.3311996263264807 0.46576684833534854 -0.3826810858184562 0.07128442643865454 0.260828628132294 300.0 196.79999999999993 350.0 2.0 -2.0 2.0 0.0 80.0 0.0 0.0 0.0 0.0 -0.0 -1000.0 -0.0 0.0 0.0 0.0 
2.128 1.1403247377630519 -1.7275920998378709 -1.2342879489886314 3.8052780127666868 0.3137264897681822 1.8214431444646977 0.09642005799792044 -0.29846794217912065 0.42003256713123394 -0.34353636627811324 0.06411246448650501 0.23336210795475265 300.0 197.40799999999984 350.0 2.0 -2.0 2.0 0.0 72.0 0.0 0.0 0.0 0.0 -0.0 -1000.0 -0.0 0.0 0.0 0.0 
2.136 1.1410539482791573 -1.729951927766039 -1.230886091200304 3.8021968684902685 0.31390812492671516 1.8236192201319343 0.08545756824116825 -0.2656162748217309 0.3740414314030783 -0.3046808079637205 0.05695322643351145 0.2063385729039208 300.0 197.9520000000001 350.0 2.0 -2.0 2.0 0.0 64.0 0.0 0.0 0.0 0.0 -0.0 -1000.0 -0.0 0.0 0.0 0.0 
2.144 1.1416956065670107 -1.732036722109808 -1.2278790302315978 3.7994826201972103 0.3140692222566867 1.8255318992834242 0.07458366470982138 -0.23265654349291612 0.32781695883742157 -0.2660754447286528 0.049805874323634744 0.1797054400784498 300.0 198.4319999999999 350.0 2.0 -2.0 2.0 0.0 56.0 0.0 0.0 0.0 0.0 -0.0 -1000.0 -0.0 0.0 0.0 0.0 
2.152 1.1422503779164837 -1.7338455203099286 -1.2252687615477342 3.797133570959484 0.31420946230001245 1.827183967986074 0.06378686600686116 -0.19960112529241486 0.2813843811891069 -0.22768371002944834 0.04266935895822503 0.15341131834781918 300.0 198.84800000000007 350.0 2.0 -2.0 2.0 0.0 48.0 0.0 0.0 0.0 0.0 -0.0 -1000.0 -0.0 0.0 0.0 0.0 
2.16 1.1427188360668175 -1.7353774817308794 -1.223057039390769 3.7951482791339552 0.3143285734481188 1.8285778304087277 0.05305585517999306 -0.16646282312699728 0.2347704658579507 -0.18947114521696723 0.03554245136278706 0.12740585643793062 300.0 199.20000000000016 350.0 2.0 -2.0 2.0 0.0 40.0 0.0 0.0 0.0 0.0 -0.0 -1000.0 -0.0 0.0 0.0 0.0 
2.168 1.143101464433723 -1.7366318902277116 -1.2212453664199316 3.793525546073858 0.3144263296532341 1.8297155132362362 0.042379455373818584 -0.13325482374703662 0.18800332368144484 -0.15140510470460283 0.028423772180732762 0.10163959198314844 300.0 199.4880000000001 350.0 2.0 -2.0 2.0 0.0 32.0 0.0 0.0 0.0 0.0 -0.0 -1000.0 -0.0 0.0 0.0 0.0 
2.176 1.1433986571417822 -1.7376081564584962 -1.2198349847279464 3.7922644056141737 0.3145025485199828 1.8305986694459173 0.031746605877580276 -0.09999064718041954 0.141112204533689 -0.11345445834635197 0.021311819324934377 0.07606380156081369 300.0 199.71200000000005 350.0 2.0 -2.0 2.0 0.0 24.0 0.0 0.0 0.0 0.0 -0.0 -1000.0 -0.0 0.0 0.0 0.0 
2.184 1.1436107198651166 -1.7383058198728838 -1.2188268683401073 3.7913641153889666 0.31455708976308705 1.8312285814245648 0.021146338502051942 -0.06668408891347177 0.09412728248071858 -0.07558929139834593 0.01420499420181679 0.05063035164929712 300.0 199.87199999999996 350.0 2.0 -2.0 2.0 0.0 16.0 0.0 0.0 0.0 0.0 -0.0 -1000.0 -0.0 0.0 0.0 0.0 
2.192 1.1437378704787395 -1.7387245503192572 -1.2182217172853476 3.7908241500283264 0.31458985401959877 1.8316061634091663 0.010567754219391622 -0.033349156210374854 0.0470794323879353 -0.037780602480998585 0.0071016268093908605 0.025291550391454042 300.0 199.9679999999998 350.0 2.0 -2.0 2.0 0.0 8.0 0.0 0.0 0.0 0.0 -0.0 -1000.0 -0.0 0.0 0.0 0.0 
2.2 1.1437802395224694 -1.7388641492252717 -1.2180199533099905 3.790644196272266 0.31460078200682906 1.8317319632388087 0.0 0.0 0.0 0.0 0.0 0.0 300.0 200.0 350.0 2.0 -2.0 2.0 0.0 0.0 0.0 0.0 0.0 0.0 -0.0 -1000.0 -0.0 0.0 0.0 0.0 
