Fleaurent/UniversalRobot/csv/robolib_movej_Trapez_Zeit.csv
timestamp target_q_0 target_q_1 target_q_2 target_q_3 target_q_4 target_q_5 target_qd_0 target_qd_1 target_qd_2 target_qd_3 target_qd_4 target_qd_5 target_qdd_0 target_qdd_1 target_qdd_2 target_qdd_3 target_qdd_4 target_qdd_5 actual_TCP_pose_0 actual_TCP_pose_1 actual_TCP_pose_2 actual_TCP_pose_3 actual_TCP_pose_4 actual_TCP_pose_5
0.0 0.0 -1.5707963267948966 -1.5707963267948966 0.0 1.5707963267948966 0.0 0.0 0.0 0.0 0.0 0.0 0.0 1.0 0.0 0.0 0.0 0.0 0.0 295.15 -112.34999999999998 480.9 -1.2091995761561454 1.2091995761561456 -1.2091995761561458 
0.008 3.2e-05 -1.5707963267948966 -1.5707963267948966 0.0 1.5707963267948966 0.0 0.008 0.0 0.0 0.0 0.0 0.0 1.0 0.0 0.0 0.0 0.0 0.0 295.1535950488826 -112.34055514247841 480.9 -1.2092147055764364 1.2091760113249628 -1.209176011324963 
0.016 0.000128 -1.5707963267948966 -1.5707963267948966 0.0 1.5707963267948966 0.0 0.016 0.0 0.0 0.0 0.0 0.0 1.0 0.0 0.0 0.0 0.0 0.0 295.1643783820919 -112.31221987973194 480.9 -1.2092600917893326 1.209105316402997 -1.2091053164029972 
0.024 0.000288 -1.5707963267948966 -1.5707963267948966 0.0 1.5707963267948966 0.0 0.024 0.0 0.0 0.0 0.0 0.0 1.0 0.0 0.0 0.0 0.0 0.0 295.182344559092 -112.2649921417959 480.9 -1.2093357286510245 1.2089874901051165 -1.2089874901051167 
0.032 0.000512 -1.5707963267948966 -1.5707963267948966 0.0 1.5707963267948966 0.0 0.032 0.0 0.0 0.0 0.0 0.0 1.0 0.0 0.0 0.0 0.0 0.0 295.2074845115868 -112.19886848066349 480.9 -1.2094416059222521 1.2088225302898576 -1.2088225302898579 
0.04 0.0008 -1.5707963267948966 -1.5707963267948966 0.0 1.5707963267948966 0.0 0.04 0.0 0.0 0.0 0.0 0.0 1.0 0.0 0.0 0.0 0.0 0.0 295.23978554241785 -112.11384407318803 480.9 -1.209577709268942 1.2086104339600623 -1.2086104339600627 
0.048 0.001152 -1.5707963267948966 -1.5707963267948966 0.0 1.5707963267948966 0.0 0.048 0.0 0.0 0.0 0.0 0.0 1.0 0.0 0.0 0.0 0.0 0.0 295.2792313240216 -112.00991272514642 480.9 -1.2097440202630958 1.2083511972637653 -1.2083511972637655 
0.056 0.0015680000000000002 -1.5707963267948966 -1.5707963267948966 0.0 1.5707963267948966 0.0 0.056 0.0 0.0 0.0 0.0 0.0 1.0 0.0 0.0 0.0 0.0 0.0 295.32580189645034 -111.88706687646494 480.9 -1.2099405163839287 1.208044815495334 -1.2080448154953343 
0.064 0.002048 -1.5707963267948966 -1.5707963267948966 0.0 1.5707963267948966 0.0 0.064 0.0 0.0 0.0 0.0 0.0 1.0 0.0 0.0 0.0 0.0 0.0 295.379473664957 -111.74529760760825 480.9 -1.21016717101927 1.2076912830968698 -1.20769128309687 
0.072 0.0025920000000000006 -1.5707963267948966 -1.5707963267948966 0.0 1.5707963267948966 0.0 0.07200000000000001 0.0 0.0 0.0 0.0 0.0 1.0 0.0 0.0 0.0 0.0 0.0 295.4402193971484 -111.58459464713222 480.9 -1.2104239534672074 1.2072905936598501 -1.2072905936598504 
0.08 0.0032 -1.5707963267948966 -1.5707963267948966 0.0 1.5707963267948966 0.0 0.08 0.0 0.0 0.0 0.0 0.0 1.0 0.0 0.0 0.0 0.0 0.0 295.50800821970904 -111.40494638040256 480.9 -1.2107108289379842 1.2068427399270305 -1.206842739927031 
0.088 0.0038719999999999996 -1.5707963267948966 -1.5707963267948966 0.0 1.5707963267948966 0.0 0.088 0.0 0.0 0.0 0.0 0.0 1.0 0.0 0.0 0.0 0.0 0.0 295.5828056147004 -111.20633985948024 480.9 -1.2110277585561553 1.206347713794597 -1.2063477137945973 
0.096 0.004608 -1.5707963267948966 -1.5707963267948966 0.0 1.5707963267948966 0.0 0.096 0.0 0.0 0.0 0.0 0.0 1.0 0.0 0.0 0.0 0.0 0.0 295.6645734154394 -110.98876081417534 480.9 -1.2113746993629853 1.2058055063145694 -1.2058055063145698 
0.104 0.005408000000000001 -1.5707963267948966 -1.5707963267948966 0.0 1.5707963267948966 0.0 0.10400000000000001 0.0 0.0 0.0 0.0 0.0 1.0 0.0 0.0 0.0 0.0 0.0 295.75326980196127 -110.75219366427145 480.9 -1.211751604319099 1.2052161076974512 -1.2052161076974515 
0.112 0.006272000000000001 -1.5707963267948966 -1.5707963267948966 0.0 1.5707963267948966 0.0 0.112 0.0 0.0 0.0 0.0 0.0 1.0 0.0 0.0 0.0 0.0 0.0 295.8488492960722 -110.49662153292248 480.9 -1.212158422307384 1.204579507315135 -1.2045795073151353 
0.12 0.0072 -1.5707963267948966 -1.5707963267948966 0.0 1.5707963267948966 0.0 0.12 0.0 0.0 0.0 0.0 0.0 1.0 0.0 0.0 0.0 0.0 0.0 295.95126275599847 -110.22202626122389 480.9 -1.212595098136135 1.203895693704051 -1.2038956937040513 
0.128 0.008192 -1.5707963267948966 -1.5707963267948966 0.0 1.5707963267948966 0.0 0.128 0.0 0.0 0.0 0.0 0.0 1.0 0.0 0.0 0.0 0.0 0.0 296.06045737063687 -109.92838842396122 480.9 -1.2130615725424498 1.2031646545685644 -1.2031646545685646 
0.136 0.009248000000000001 -1.5707963267948966 -1.5707963267948966 0.0 1.5707963267948966 0.0 0.136 0.0 0.0 0.0 0.0 0.0 1.0 0.0 0.0 0.0 0.0 0.0 296.17637665341584 -109.61568734653784 480.9 -1.2135577821958687 1.202386376784623 -1.2023863767846232 
0.144 0.010368000000000002 -1.5707963267948966 -1.5707963267948966 0.0 1.5707963267948966 0.0 0.14400000000000002 0.0 0.0 0.0 0.0 0.0 1.0 0.0 0.0 0.0 0.0 0.0 296.2989604357729 -109.28390112308516 480.9 -1.2140836597022584 1.201560846403644 -1.2015608464036442 
0.152 0.011552 -1.5707963267948966 -1.5707963267948966 0.0 1.5707963267948966 0.0 0.152 0.0 0.0 0.0 0.0 0.0 1.0 0.0 0.0 0.0 0.0 0.0 296.4281448602577 -108.93300663575795 480.9 -1.2146391336079376 1.2006880486566487 -1.200688048656649 
0.16 0.0128 -1.5707963267948966 -1.5707963267948966 0.0 1.5707963267948966 0.0 0.16 0.0 0.0 0.0 0.0 0.0 1.0 0.0 0.0 0.0 0.0 0.0 296.5638623732683 -108.56297957521768 480.9 -1.2152241284040484 1.1997679679586404 -1.1997679679586406 
0.168 0.014112000000000001 -1.5707963267948966 -1.5707963267948966 0.0 1.5707963267948966 0.0 0.168 0.0 0.0 0.0 0.0 0.0 1.0 0.0 0.0 0.0 0.0 0.0 296.70604171743196 -108.1737944623074 480.9 -1.2158385645311605 1.1988005879132215 -1.1988005879132217 
0.176 0.015487999999999998 -1.5707963267948966 -1.5707963267948966 0.0 1.5707963267948966 0.0 0.176 0.0 0.0 0.0 0.0 0.0 1.0 0.0 0.0 0.0 0.0 0.0 296.8546079236366 -107.7654246709212 480.9 -1.21648235838412 1.1977858913174522 -1.1977858913174524 
0.184 0.016928 -1.5707963267948966 -1.5707963267948966 0.0 1.5707963267948966 0.0 0.184 0.0 0.0 0.0 0.0 0.0 1.0 0.0 0.0 0.0 0.0 0.0 297.0094823027274 -107.33784245207201 480.9 -1.2171554223171324 1.1967238601669474 -1.1967238601669477 
0.192 0.018432 -1.5707963267948966 -1.5707963267948966 0.0 1.5707963267948966 0.0 0.192 0.0 0.0 0.0 0.0 0.0 1.0 0.0 0.0 0.0 0.0 0.0 297.1705824368763 -106.891018959161 480.9 -1.217857664649078 1.195614475661211 -1.1956144756612113 
0.2 0.020000000000000004 -1.5707963267948966 -1.5707963267948966 0.0 1.5707963267948966 0.0 0.2 0.0 0.0 0.0 0.0 0.0 1.0 0.0 0.0 0.0 0.0 0.0 297.3378221706364 -106.42492427445274 480.9 -1.2185889896690676 1.194457718209207 -1.1944577182092075 
0.208 0.021632000000000005 -1.5707963267948966 -1.5707963267948966 0.0 1.5707963267948966 0.0 0.20800000000000002 0.0 0.0 0.0 0.0 0.0 1.0 0.0 0.0 0.0 0.0 0.0 297.51111160169467 -105.93952743675972 480.9 -1.2193492976422196 1.1932535674351608 -1.193253567435161 
0.216 0.023327999999999998 -1.5707963267948966 -1.5707963267948966 0.0 1.5707963267948966 0.0 0.216 0.0 0.0 0.0 0.0 0.0 1.0 0.0 0.0 0.0 0.0 0.0 297.69035707133327 -105.4347964703403 480.9 -1.2201384848156724 1.192002002184595 -1.1920020021845952 
0.224 0.025088000000000003 -1.5707963267948966 -1.5707963267948966 0.0 1.5707963267948966 0.0 0.224 0.0 0.0 0.0 0.0 0.0 1.0 0.0 0.0 0.0 0.0 0.0 297.8754611546139 -104.91069841501428 480.9 -1.2209564434248221 1.1907030005305959 -1.190703000530596 
0.232 0.026912000000000002 -1.5707963267948966 -1.5707963267948966 0.0 1.5707963267948966 0.0 0.232 0.0 0.0 0.0 0.0 0.0 1.0 0.0 0.0 0.0 0.0 0.0 298.0663226502984 -104.36719935750016 480.9 -1.2218030616997861 1.1893565397803083 -1.1893565397803085 
0.24 0.0288 -1.5707963267948966 -1.5707963267948966 0.0 1.5707963267948966 0.0 0.24 0.0 0.0 0.0 0.0 0.0 1.0 0.0 0.0 0.0 0.0 0.0 298.2628365705195 -103.80426446397853 480.9 -1.2226782238720857 1.187962596481655 -1.1879625964816551 
0.248 0.030751999999999998 -1.5707963267948966 -1.5707963267948966 0.0 1.5707963267948966 0.0 0.248 0.0 0.0 0.0 0.0 0.0 1.0 0.0 0.0 0.0 0.0 0.0 298.46489413021624 -103.2218580138858 480.9 -1.2235818101815525 1.1865211464302812 -1.1865211464302814 
0.256 0.032768 -1.5707963267948966 -1.5707963267948966 0.0 1.5707963267948966 0.0 0.256 0.0 0.0 0.0 0.0 0.0 1.0 0.0 0.0 0.0 0.0 0.0 298.6723827363506 -102.61994343494302 480.9 -1.2245136968834491 1.1850321646767241 -1.1850321646767243 
0.264 0.034848000000000004 -1.5707963267948966 -1.5707963267948966 0.0 1.5707963267948966 0.0 0.264 0.0 0.0 0.0 0.0 0.0 1.0 0.0 0.0 0.0 0.0 0.0 298.8851859769186 -101.99848333942413 480.9 -1.2254737562558078 1.1834956255337983 -1.1834956255337985 
0.272 0.036992000000000004 -1.5707963267948966 -1.5707963267948966 0.0 1.5707963267948966 0.0 0.272 0.0 0.0 0.0 0.0 0.0 1.0 0.0 0.0 0.0 0.0 0.0 299.10318360977504 -101.35743956166809 480.9 -1.2264618566069785 1.1819115025842022 -1.1819115025842024 
0.28 0.039200000000000006 -1.5707963267948966 -1.5707963267948966 0.0 1.5707963267948966 0.0 0.28 0.0 0.0 0.0 0.0 0.0 1.0 0.0 0.0 0.0 0.0 0.0 299.32625155128665 -100.69677319684001 480.9 -1.227477862283392 1.180279768688341 -1.1802797686883413 
0.28234345 0.039826909566509444 -1.5707963267948966 -1.5707963267948966 0.0 1.5707963267948966 0.0 0.2743434418098265 0.0 0.0 0.0 0.0 0.0 0.0 0.0 0.0 0.0 0.0 0.0 299.38932049764344 -100.50910293082575 480.9 -1.2277660391345417 1.179816416527278 -1.1798164165272782 
0.29034343 0.04202165710098806 -1.5707963267948966 -1.5707963267948966 0.0 1.5707963267948966 0.0 0.2743434418098265 0.0 0.0 0.0 0.0 0.0 0.0 0.0 0.0 0.0 0.0 0.0 299.6091913599725 -99.85177741344093 480.9 -1.2287738932070487 1.1781940591098514 -1.1781940591098516 
0.29834345 0.04421640463546667 -1.5707963267948966 -1.5707963267948966 0.0 1.5707963267948966 0.0 0.2743434418098265 0.0 0.0 0.0 0.0 0.0 0.0 0.0 0.0 0.0 0.0 0.0 299.82761903035157 -99.19397091855103 480.9 -1.2297801545097353 1.1765713786863512 -1.1765713786863514 
0.30634344 0.04641115216994529 -1.5707963267948966 -1.5707963267948966 0.0 1.5707963267948966 0.0 0.2743434418098265 0.0 0.0 0.0 0.0 0.0 0.0 0.0 0.0 0.0 0.0 0.0 300.0446024566331 -98.53568661475391 480.9 -1.230784823703184 1.1749483759200285 -1.1749483759200288 
0.31434345 0.0486058997044239 -1.5707963267948966 -1.5707963267948966 0.0 1.5707963267948966 0.0 0.2743434418098265 0.0 0.0 0.0 0.0 0.0 0.0 0.0 0.0 0.0 0.0 0.0 300.2601405936264 -97.87692767294897 480.9 -1.2317879014468325 1.173325051473144 -1.1733250514731441 
0.32234344 0.05080064723890251 -1.5707963267948966 -1.5707963267948966 0.0 1.5707963267948966 0.0 0.2743434418098265 0.0 0.0 0.0 0.0 0.0 0.0 0.0 0.0 0.0 0.0 0.0 300.4742324031027 -97.21769726632186 480.9 -1.2327893883989784 1.171701406006972 -1.1717014060069721 
0.33034346 0.05299539477338113 -1.5707963267948966 -1.5707963267948966 0.0 1.5707963267948966 0.0 0.2743434418098265 0.0 0.0 0.0 0.0 0.0 0.0 0.0 0.0 0.0 0.0 0.0 300.68687685379996 -96.55799857032936 480.9 -1.2337892852167769 1.1700774401818033 -1.1700774401818037 
0.33834344 0.05519014230785975 -1.5707963267948966 -1.5707963267948966 0.0 1.5707963267948966 0.0 0.2743434418098265 0.0 0.0 0.0 0.0 0.0 0.0 0.0 0.0 0.0 0.0 0.0 300.8980729214279 -95.89783476268386 480.9 -1.2347875925562435 1.1684531546569459 -1.168453154656946 
0.34634343 0.05738488984233836 -1.5707963267948966 -1.5707963267948966 0.0 1.5707963267948966 0.0 0.2743434418098265 0.0 0.0 0.0 0.0 0.0 0.0 0.0 0.0 0.0 0.0 0.0 301.10781958867324 -95.23720902333817 480.9 -1.2357843110722528 1.1668285500907285 -1.166828550090729 
0.35434344 0.05957963737681697 -1.5707963267948966 -1.5707963267948966 0.0 1.5707963267948966 0.0 0.2743434418098265 0.0 0.0 0.0 0.0 0.0 0.0 0.0 0.0 0.0 0.0 0.0 301.31611584520397 -94.57612453447021 480.9 -1.2367794414185438 1.165203627140505 -1.1652036271405053 
0.36234343 0.06177438491129558 -1.5707963267948966 -1.5707963267948966 0.0 1.5707963267948966 0.0 0.2743434418098265 0.0 0.0 0.0 0.0 0.0 0.0 0.0 0.0 0.0 0.0 0.0 301.5229606876748 -93.91458448046761 480.9 -1.2377729842477139 1.1635783864626519 -1.163578386462652 
0.37034345 0.06396913244577421 -1.5707963267948966 -1.5707963267948966 0.0 1.5707963267948966 0.0 0.2743434418098265 0.0 0.0 0.0 0.0 0.0 0.0 0.0 0.0 0.0 0.0 0.0 301.7283531197318 -93.2525920479125 480.9 -1.2387649402112242 1.1619528287125747 -1.1619528287125749 
0.37834343 0.06616387998025282 -1.5707963267948966 -1.5707963267948966 0.0 1.5707963267948966 0.0 0.2743434418098265 0.0 0.0 0.0 0.0 0.0 0.0 0.0 0.0 0.0 0.0 0.0 301.93229215201717 -92.590150425566 480.9 -1.2397553099593996 1.1603269545447097 -1.16032695454471 
0.38634345 0.06835862751473143 -1.5707963267948966 -1.5707963267948966 0.0 1.5707963267948966 0.0 0.2743434418098265 0.0 0.0 0.0 0.0 0.0 0.0 0.0 0.0 0.0 0.0 0.0 302.13477680217386 -91.92726280435298 480.9 -1.240744094141429 1.1587007646125256 -1.1587007646125258 
0.39434344 0.07055337504921004 -1.5707963267948966 -1.5707963267948966 0.0 1.5707963267948966 0.0 0.2743434418098265 0.0 0.0 0.0 0.0 0.0 0.0 0.0 0.0 0.0 0.0 0.0 302.33580609485057 -91.26393237734662 480.9 -1.241731293405366 1.1570742595685253 -1.1570742595685255 
0.40234345 0.07274812258368865 -1.5707963267948966 -1.5707963267948966 0.0 1.5707963267948966 0.0 0.2743434418098265 0.0 0.0 0.0 0.0 0.0 0.0 0.0 0.0 0.0 0.0 0.0 302.5353790617064 -90.60016233975308 480.9 -1.2427169083981289 1.155447440064249 -1.1554474400642492 
0.41034344 0.07494287011816728 -1.5707963267948966 -1.5707963267948966 0.0 1.5707963267948966 0.0 0.2743434418098265 0.0 0.0 0.0 0.0 0.0 0.0 0.0 0.0 0.0 0.0 0.0 302.73349474141526 -89.9359558888961 480.9 -1.2437009397655043 1.153820306750279 -1.1538203067502792 
0.41834345 0.07713761765264589 -1.5707963267948966 -1.5707963267948966 0.0 1.5707963267948966 0.0 0.2743434418098265 0.0 0.0 0.0 0.0 0.0 0.0 0.0 0.0 0.0 0.0 0.0 302.9301521796709 -89.27131622420156 480.9 -1.2446833881521444 1.1521928602762372 -1.1521928602762375 
0.42634344 0.0793323651871245 -1.5707963267948966 -1.5707963267948966 0.0 1.5707963267948966 0.0 0.2743434418098265 0.0 0.0 0.0 0.0 0.0 0.0 0.0 0.0 0.0 0.0 0.0 303.12535042919114 -88.60624654718211 480.9 -1.2456642542015697 1.150565101290791 -1.1505651012907911 
0.43434343 0.08152711272160311 -1.5707963267948966 -1.5707963267948966 0.0 1.5707963267948966 0.0 0.2743434418098265 0.0 0.0 0.0 0.0 0.0 0.0 0.0 0.0 0.0 0.0 0.0 303.3190885497227 -87.9407500614217 480.9 -1.2466435385561694 1.148937030441655 -1.1489370304416555 
0.44234344 0.08372186025608172 -1.5707963267948966 -1.5707963267948966 0.0 1.5707963267948966 0.0 0.2743434418098265 0.0 0.0 0.0 0.0 0.0 0.0 0.0 0.0 0.0 0.0 0.0 303.51136560804554 -87.27482997256024 480.9 -1.2476212418572008 1.147308648375592 -1.1473086483755923 
0.45034343 0.08591660779056035 -1.5707963267948966 -1.5707963267948966 0.0 1.5707963267948966 0.0 0.2743434418098265 0.0 0.0 0.0 0.0 0.0 0.0 0.0 0.0 0.0 0.0 0.0 303.70218067797737 -86.60848948827802 480.9 -1.2485973647447939 1.1456799557384172 -1.1456799557384174 
0.45834345 0.08811135532503896 -1.5707963267948966 -1.5707963267948966 0.0 1.5707963267948966 0.0 0.2743434418098265 0.0 0.0 0.0 0.0 0.0 0.0 0.0 0.0 0.0 0.0 0.0 303.8915328403783 -85.94173181828042 480.9 -1.249571907857947 1.1440509531749996 -1.1440509531749998 
0.46634343 0.09030610285951757 -1.5707963267948966 -1.5707963267948966 0.0 1.5707963267948966 0.0 0.2743434418098265 0.0 0.0 0.0 0.0 0.0 0.0 0.0 0.0 0.0 0.0 0.0 304.0794211831552 -85.27456017428234 480.9 -1.250544871834531 1.1424216413292643 -1.1424216413292645 
0.47434345 0.09250085039399619 -1.5707963267948966 -1.5707963267948966 0.0 1.5707963267948966 0.0 0.2743434418098265 0.0 0.0 0.0 0.0 0.0 0.0 0.0 0.0 0.0 0.0 0.0 304.26584480126576 -84.60697776999271 480.9 -1.2515162573112883 1.1407920208441948 -1.140792020844195 
0.48234344 0.09469559792847479 -1.5707963267948966 -1.5707963267948966 0.0 1.5707963267948966 0.0 0.2743434418098265 0.0 0.0 0.0 0.0 0.0 0.0 0.0 0.0 0.0 0.0 0.0 304.45080279672334 -83.93898782109915 480.9 -1.2524860649238363 1.1391620923618366 -1.1391620923618369 
0.49034345 0.09689034546295341 -1.5707963267948966 -1.5707963267948966 0.0 1.5707963267948966 0.0 0.2743434418098265 0.0 0.0 0.0 0.0 0.0 0.0 0.0 0.0 0.0 0.0 0.0 304.63429427860115 -83.2705935452523 480.9 -1.253454295306664 1.1375318565232968 -1.137531856523297 
0.49834344 0.09908509299743203 -1.5707963267948966 -1.5707963267948966 0.0 1.5707963267948966 0.0 0.2743434418098265 0.0 0.0 0.0 0.0 0.0 0.0 0.0 0.0 0.0 0.0 0.0 304.81631836303626 -82.60179816205046 480.9 -1.2544209490931364 1.1359013139687488 -1.135901313968749 
0.5063434 0.10127984053191064 -1.5707963267948966 -1.5707963267948966 0.0 1.5707963267948966 0.0 0.2743434418098265 0.0 0.0 0.0 0.0 0.0 0.0 0.0 0.0 0.0 0.0 0.0 304.9968741732341 -81.93260489302398 480.9 -1.2553860269154926 1.1342704653374345 -1.1342704653374347 
0.51434344 0.10347458806638925 -1.5707963267948966 -1.5707963267948966 0.0 1.5707963267948966 0.0 0.2743434418098265 0.0 0.0 0.0 0.0 0.0 0.0 0.0 0.0 0.0 0.0 0.0 305.17596083947285 -81.26301696161988 480.9 -1.2563495294048492 1.1326393112676651 -1.1326393112676654 
0.52234346 0.10566933560086787 -1.5707963267948966 -1.5707963267948966 0.0 1.5707963267948966 0.0 0.2743434418098265 0.0 0.0 0.0 0.0 0.0 0.0 0.0 0.0 0.0 0.0 0.0 305.35357749910725 -80.59303759318614 480.9 -1.2573114571911979 1.1310078523968248 -1.131007852396825 
0.5303434 0.10786408313534648 -1.5707963267948966 -1.5707963267948966 0.0 1.5707963267948966 0.0 0.2743434418098265 0.0 0.0 0.0 0.0 0.0 0.0 0.0 0.0 0.0 0.0 0.0 305.5297232965729 -79.9226700149563 480.9 -1.258271810903409 1.1293760893613722 -1.1293760893613725 
0.5383434 0.1100588306698251 -1.5707963267948966 -1.5707963267948966 0.0 1.5707963267948966 0.0 0.2743434418098265 0.0 0.0 0.0 0.0 0.0 0.0 0.0 0.0 0.0 0.0 0.0 305.7043973833906 -79.25191745603391 480.9 -1.25923059116923 1.127744022796843 -1.1277440227968432 
0.54634345 0.1122535782043037 -1.5707963267948966 -1.5707963267948966 0.0 1.5707963267948966 0.0 0.2743434418098265 0.0 0.0 0.0 0.0 0.0 0.0 0.0 0.0 0.0 0.0 0.0 305.87759891817007 -78.58078314737686 480.9 -1.2601877986152894 1.126111653337853 -1.1261116533378535 
0.55434346 0.11444832573878232 -1.5707963267948966 -1.5707963267948966 0.0 1.5707963267948966 0.0 0.2743434418098265 0.0 0.0 0.0 0.0 0.0 0.0 0.0 0.0 0.0 0.0 0.0 306.04932706661435 -77.90927032178196 480.9 -1.261143433867093 1.1244789816180984 -1.1244789816180987 
0.5623434 0.11664307327326094 -1.5707963267948966 -1.5707963267948966 0.0 1.5707963267948966 0.0 0.2743434418098265 0.0 0.0 0.0 0.0 0.0 0.0 0.0 0.0 0.0 0.0 0.0 306.2195810015236 -77.2373822138693 480.9 -1.2620974975490291 1.122846008270361 -1.1228460082703615 
0.57034343 0.11883782080773955 -1.5707963267948966 -1.5707963267948966 0.0 1.5707963267948966 0.0 0.2743434418098265 0.0 0.0 0.0 0.0 0.0 0.0 0.0 0.0 0.0 0.0 0.0 306.388359902799 -76.56512206006661 480.9 -1.2630499902843657 1.1212127339265072 -1.1212127339265074 
0.57834345 0.12103256834221816 -1.5707963267948966 -1.5707963267948966 0.0 1.5707963267948966 0.0 0.2743434418098265 0.0 0.0 0.0 0.0 0.0 0.0 0.0 0.0 0.0 0.0 0.0 306.55566295744705 -75.8924930985938 480.9 -1.2640009126952534 1.1195791592174924 -1.1195791592174926 
0.58634347 0.12322731587669677 -1.5707963267948966 -1.5707963267948966 0.0 1.5707963267948966 0.0 0.2743434418098265 0.0 0.0 0.0 0.0 0.0 0.0 0.0 0.0 0.0 0.0 0.0 306.7214893595832 -75.21949856944731 480.9 -1.2649502654027254 1.1179452847733633 -1.1179452847733635 
0.5943434 0.1254220634111754 -1.5707963267948966 -1.5707963267948966 0.0 1.5707963267948966 0.0 0.2743434418098265 0.0 0.0 0.0 0.0 0.0 0.0 0.0 0.0 0.0 0.0 0.0 306.88583831043576 -74.54614171438439 480.9 -1.2658980490266982 1.1163111112232589 -1.116311111223259 
0.60234344 0.12761681094565402 -1.5707963267948966 -1.5707963267948966 0.0 1.5707963267948966 0.0 0.2743434418098265 0.0 0.0 0.0 0.0 0.0 0.0 0.0 0.0 0.0 0.0 0.0 307.04870901834977 -73.87242577690769 480.9 -1.2668442641859732 1.1146766391954142 -1.1146766391954144 
0.61034346 0.12981155848013262 -1.5707963267948966 -1.5707963267948966 0.0 1.5707963267948966 0.0 0.2743434418098265 0.0 0.0 0.0 0.0 0.0 0.0 0.0 0.0 0.0 0.0 0.0 307.21010069879105 -73.19835400224949 480.9 -1.2677889114982352 1.1130418693171604 -1.1130418693171606 
0.6183434 0.13200630601461122 -1.5707963267948966 -1.5707963267948966 0.0 1.5707963267948966 0.0 0.2743434418098265 0.0 0.0 0.0 0.0 0.0 0.0 0.0 0.0 0.0 0.0 0.0 307.3700125743496 -72.52392963735603 480.9 -1.2687319915800568 1.1114068022149306 -1.111406802214931 
0.6263434 0.13420105354908984 -1.5707963267948966 -1.5707963267948966 0.0 1.5707963267948966 0.0 0.2743434418098265 0.0 0.0 0.0 0.0 0.0 0.0 0.0 0.0 0.0 0.0 0.0 307.5284438747434 -71.84915593087213 480.9 -1.2696735050468944 1.109771438514258 -1.1097714385142583 
0.63434345 0.13639580108356847 -1.5707963267948966 -1.5707963267948966 0.0 1.5707963267948966 0.0 0.2743434418098265 0.0 0.0 0.0 0.0 0.0 0.0 0.0 0.0 0.0 0.0 0.0 307.6853938368225 -71.17403613312516 480.9 -1.2706134525130932 1.1081357788397805 -1.1081357788397808 
0.64234346 0.1385905486180471 -1.5707963267948966 -1.5707963267948966 0.0 1.5707963267948966 0.0 0.2743434418098265 0.0 0.0 0.0 0.0 0.0 0.0 0.0 0.0 0.0 0.0 0.0 307.8408617045723 -70.49857349610969 480.9 -1.2715518345918857 1.1064998238152428 -1.106499823815243 
0.6503434 0.1407852961525257 -1.5707963267948966 -1.5707963267948966 0.0 1.5707963267948966 0.0 0.2743434418098265 0.0 0.0 0.0 0.0 0.0 0.0 0.0 0.0 0.0 0.0 0.0 307.9948467291173 -69.82277127347172 480.9 -1.272488651895394 1.1048635740634984 -1.1048635740634989 
0.65834343 0.1429800436870043 -1.5707963267948966 -1.5707963267948966 0.0 1.5707963267948966 0.0 0.2743434418098265 0.0 0.0 0.0 0.0 0.0 0.0 0.0 0.0 0.0 0.0 0.0 308.1473481687247 -69.14663272049299 480.9 -1.2734239050346279 1.1032270302065117 -1.103227030206512 
0.66634345 0.1451747912214829 -1.5707963267948966 -1.5707963267948966 0.0 1.5707963267948966 0.0 0.2743434418098265 0.0 0.0 0.0 0.0 0.0 0.0 0.0 0.0 0.0 0.0 0.0 308.2983652888081 -68.47016109407525 480.9 -1.2743575946194874 1.1015901928653593 -1.1015901928653595 
0.67434347 0.14736953875596154 -1.5707963267948966 -1.5707963267948966 0.0 1.5707963267948966 0.0 0.2743434418098265 0.0 0.0 0.0 0.0 0.0 0.0 0.0 0.0 0.0 0.0 0.0 308.4478973619309 -67.79335965272472 480.9 -1.2752897212587648 1.0999530626602345 -1.0999530626602347 
0.6823434 0.14956428629044016 -1.5707963267948966 -1.5707963267948966 0.0 1.5707963267948966 0.0 0.2743434418098265 0.0 0.0 0.0 0.0 0.0 0.0 0.0 0.0 0.0 0.0 0.0 308.59594366780993 -67.1162316565363 480.9 -1.2762202855601426 1.0983156402104473 -1.0983156402104475 
0.69034344 0.15175903382491876 -1.5707963267948966 -1.5707963267948966 0.0 1.5707963267948966 0.0 0.2743434418098265 0.0 0.0 0.0 0.0 0.0 0.0 0.0 0.0 0.0 0.0 0.0 308.7425034933187 -66.43878036717788 480.9 -1.2771492881301965 1.0966779261344284 -1.0966779261344286 
0.69834346 0.15395378135939736 -1.5707963267948966 -1.5707963267948966 0.0 1.5707963267948966 0.0 0.2743434418098265 0.0 0.0 0.0 0.0 0.0 0.0 0.0 0.0 0.0 0.0 0.0 308.88757613249084 -65.76100904787458 480.9 -1.2780767295743942 1.0950399210497295 -1.0950399210497297 
0.7063434 0.15614852889387598 -1.5707963267948966 -1.5707963267948966 0.0 1.5707963267948966 0.0 0.2743434418098265 0.0 0.0 0.0 0.0 0.0 0.0 0.0 0.0 0.0 0.0 0.0 309.03116088652405 -65.0829209633931 480.9 -1.2790026104970977 1.0934016255730263 -1.0934016255730268 
0.7143434 0.1583432764283546 -1.5707963267948966 -1.5707963267948966 0.0 1.5707963267948966 0.0 0.2743434418098265 0.0 0.0 0.0 0.0 0.0 0.0 0.0 0.0 0.0 0.0 0.0 309.17325706378267 -64.40451938002595 480.9 -1.279926931501563 1.0917630403201224 -1.0917630403201226 
0.72234344 0.16053802396283323 -1.5707963267948966 -1.5707963267948966 0.0 1.5707963267948966 0.0 0.2743434418098265 0.0 0.0 0.0 0.0 0.0 0.0 0.0 0.0 0.0 0.0 0.0 309.31386397980157 -63.72580756557582 480.9 -1.2808496931899414 1.0901241659059477 -1.0901241659059482 
0.73034346 0.16273277149731186 -1.5707963267948966 -1.5707963267948966 0.0 1.5707963267948966 0.0 0.2743434418098265 0.0 0.0 0.0 0.0 0.0 0.0 0.0 0.0 0.0 0.0 0.0 309.4529809572892 -63.04678878933966 480.9 -1.281770896163281 1.0884850029445654 -1.0884850029445656 
0.7383434 0.16492751903179043 -1.5707963267948966 -1.5707963267948966 0.0 1.5707963267948966 0.0 0.2743434418098265 0.0 0.0 0.0 0.0 0.0 0.0 0.0 0.0 0.0 0.0 0.0 309.5906073261309 -62.367466322093094 480.9 -1.2826905410215255 1.0868455520491693 -1.0868455520491695 
0.74634343 0.16712226656626905 -1.5707963267948966 -1.5707963267948966 0.0 1.5707963267948966 0.0 0.2743434418098265 0.0 0.0 0.0 0.0 0.0 0.0 0.0 0.0 0.0 0.0 0.0 309.72674242339224 -61.68784343607453 480.9 -1.283608628363516 1.08520581383209 -1.0852058138320901 
0.75434345 0.16931701410074768 -1.5707963267948966 -1.5707963267948966 0.0 1.5707963267948966 0.0 0.2743434418098265 0.0 0.0 0.0 0.0 0.0 0.0 0.0 0.0 0.0 0.0 0.0 309.861385593322 -61.00792340496952 480.9 -1.2845251587869926 1.083565788904794 -1.0835657889047943 
0.76234347 0.1715117616352263 -1.5707963267948966 -1.5707963267948966 0.0 1.5707963267948966 0.0 0.2743434418098265 0.0 0.0 0.0 0.0 0.0 0.0 0.0 0.0 0.0 0.0 0.0 309.9945361873555 -60.32770950389497 480.9 -1.2854401328885936 1.0819254778778882 -1.0819254778778886 
0.7703434 0.17370650916970493 -1.5707963267948966 -1.5707963267948966 0.0 1.5707963267948966 0.0 0.2743434418098265 0.0 0.0 0.0 0.0 0.0 0.0 0.0 0.0 0.0 0.0 0.0 310.12619356411767 -59.647205009383256 480.9 -1.2863535512638566 1.0802848813611206 -1.0802848813611208 
0.77834344 0.1759012567041835 -1.5707963267948966 -1.5707963267948966 0.0 1.5707963267948966 0.0 0.2743434418098265 0.0 0.0 0.0 0.0 0.0 0.0 0.0 0.0 0.0 0.0 0.0 310.25635708942616 -58.966413199366585 480.9 -1.2872654145072198 1.0786439999633832 -1.0786439999633834 
0.78634346 0.17809600423866212 -1.5707963267948966 -1.5707963267948966 0.0 1.5707963267948966 0.0 0.2743434418098265 0.0 0.0 0.0 0.0 0.0 0.0 0.0 0.0 0.0 0.0 0.0 310.3850261362944 -58.28533735316107 480.9 -1.2881757232120228 1.0770028342927136 -1.077002834292714 
0.7943435 0.18029075177314074 -1.5707963267948966 -1.5707963267948966 0.0 1.5707963267948966 0.0 0.2743434418098265 0.0 0.0 0.0 0.0 0.0 0.0 0.0 0.0 0.0 0.0 0.0 310.5122000849346 -57.60398075145104 480.9 -1.2890844779705062 1.0753613849562975 -1.0753613849562977 
0.8023434 0.18248549930761937 -1.5707963267948966 -1.5707963267948966 0.0 1.5707963267948966 0.0 0.2743434418098265 0.0 0.0 0.0 0.0 0.0 0.0 0.0 0.0 0.0 0.0 0.0 310.63787832276046 -56.92234667627325 480.9 -1.2899916793738142 1.0737196525604715 -1.0737196525604717 
0.81034344 0.184680246842098 -1.5707963267948966 -1.5707963267948966 0.0 1.5707963267948966 0.0 0.2743434418098265 0.0 0.0 0.0 0.0 0.0 0.0 0.0 0.0 0.0 0.0 0.0 310.7620602443908 -56.24043841100088 480.9 -1.2908973280119924 1.0720776377107228 -1.072077637710723 
0.81834346 0.18687499437657656 -1.5707963267948966 -1.5707963267948966 0.0 1.5707963267948966 0.0 0.2743434418098265 0.0 0.0 0.0 0.0 0.0 0.0 0.0 0.0 0.0 0.0 0.0 310.8847452516519 -55.558259240328056 480.9 -1.2918014244739924 1.0704353410116954 -1.0704353410116956 
0.8263434 0.1890697419110552 -1.5707963267948966 -1.5707963267948966 0.0 1.5707963267948966 0.0 0.2743434418098265 0.0 0.0 0.0 0.0 0.0 0.0 0.0 0.0 0.0 0.0 0.0 311.0059327535804 -54.87581245025363 480.9 -1.2927039693476683 1.068792763067187 -1.0687927630671872 
0.83434343 0.19126448944553381 -1.5707963267948966 -1.5707963267948966 0.0 1.5707963267948966 0.0 0.2743434418098265 0.0 0.0 0.0 0.0 0.0 0.0 0.0 0.0 0.0 0.0 0.0 311.1256221664265 -54.193101328065715 480.9 -1.293604963219782 1.0671499044801565 -1.067149904480157 
0.84234345 0.19345923698001244 -1.5707963267948966 -1.5707963267948966 0.0 1.5707963267948966 0.0 0.2743434418098265 0.0 0.0 0.0 0.0 0.0 0.0 0.0 0.0 0.0 0.0 0.0 311.24381291365654 -53.51012916232558 480.9 -1.2945044066759992 1.0655067658527229 -1.065506765852723 
0.85034347 0.19565398451449106 -1.5707963267948966 -1.5707963267948966 0.0 1.5707963267948966 0.0 0.2743434418098265 0.0 0.0 0.0 0.0 0.0 0.0 0.0 0.0 0.0 0.0 0.0 311.36050442595564 -52.826899242851994 480.9 -1.295402300300894 1.0638633477861674 -1.0638633477861676 
0.8583434 0.19784873204896963 -1.5707963267948966 -1.5707963267948966 0.0 1.5707963267948966 0.0 0.2743434418098265 0.0 0.0 0.0 0.0 0.0 0.0 0.0 0.0 0.0 0.0 0.0 311.47569614123086 -52.14341486070526 480.9 -1.2962986446779474 1.0622196508809372 -1.0622196508809374 
0.86634344 0.20004347958344826 -1.5707963267948966 -1.5707963267948966 0.0 1.5707963267948966 0.0 0.2743434418098265 0.0 0.0 0.0 0.0 0.0 0.0 0.0 0.0 0.0 0.0 0.0 311.5893875046134 -51.45967930817143 480.9 -1.2971934403895486 1.0605756757366456 -1.0605756757366458 
0.87434345 0.20223822711792688 -1.5707963267948966 -1.5707963267948966 0.0 1.5707963267948966 0.0 0.2743434418098265 0.0 0.0 0.0 0.0 0.0 0.0 0.0 0.0 0.0 0.0 0.0 311.7015779684618 -50.77569587874639 480.9 -1.2980866880169961 1.0589314229520763 -1.0589314229520765 
0.8823435 0.2044329746524055 -1.5707963267948966 -1.5707963267948966 0.0 1.5707963267948966 0.0 0.2743434418098265 0.0 0.0 0.0 0.0 0.0 0.0 0.0 0.0 0.0 0.0 0.0 311.81226699236396 -50.09146786712005 480.9 -1.298978388140498 1.0572868931251838 -1.057286893125184 
0.8903434 0.20662772218688413 -1.5707963267948966 -1.5707963267948966 0.0 1.5707963267948966 0.0 0.2743434418098265 0.0 0.0 0.0 0.0 0.0 0.0 0.0 0.0 0.0 0.0 0.0 311.92145404314044 -49.406998569160464 480.9 -1.2998685413391724 1.0556420868530956 -1.0556420868530958 
0.89834344 0.2088224697213627 -1.5707963267948966 -1.5707963267948966 0.0 1.5707963267948966 0.0 0.2743434418098265 0.0 0.0 0.0 0.0 0.0 0.0 0.0 0.0 0.0 0.0 0.0 312.0291385948464 -48.72229128189795 480.9 -1.3007571481910496 1.0539970047321157 -1.053997004732116 
0.90634346 0.21101721725584133 -1.5707963267948966 -1.5707963267948966 0.0 1.5707963267948966 0.0 0.2743434418098265 0.0 0.0 0.0 0.0 0.0 0.0 0.0 0.0 0.0 0.0 0.0 312.13532012877465 -48.037349303509146 480.9 -1.301644209273071 1.0523516473577252 -1.0523516473577255 
0.9143434 0.21321196479031995 -1.5707963267948966 -1.5707963267948966 0.0 1.5707963267948966 0.0 0.2743434418098265 0.0 0.0 0.0 0.0 0.0 0.0 0.0 0.0 0.0 0.0 0.0 312.2399981334577 -47.35217593330118 480.9 -1.3025297251610894 1.0507060153245842 -1.0507060153245844 
0.92234343 0.21540671232479858 -1.5707963267948966 -1.5707963267948966 0.0 1.5707963267948966 0.0 0.2743434418098265 0.0 0.0 0.0 0.0 0.0 0.0 0.0 0.0 0.0 0.0 0.0 312.34317210467054 -46.66677447169587 480.9 -1.3034136964298741 1.0490601092265361 -1.0490601092265364 
0.93034345 0.2176014598592772 -1.5707963267948966 -1.5707963267948966 0.0 1.5707963267948966 0.0 0.2743434418098265 0.0 0.0 0.0 0.0 0.0 0.0 0.0 0.0 0.0 0.0 0.0 312.44484154543295 -45.981148220213605 480.9 -1.3042961236531059 1.0474139296566072 -1.0474139296566074 
0.93834347 0.21979620739375577 -1.5707963267948966 -1.5707963267948966 0.0 1.5707963267948966 0.0 0.2743434418098265 0.0 0.0 0.0 0.0 0.0 0.0 0.0 0.0 0.0 0.0 0.0 312.54500596601196 -45.2953004814577 480.9 -1.3051770074033804 1.0457674772070098 -1.04576747720701 
0.9463434 0.2219909549282344 -1.5707963267948966 -1.5707963267948966 0.0 1.5707963267948966 0.0 0.2743434418098265 0.0 0.0 0.0 0.0 0.0 0.0 0.0 0.0 0.0 0.0 0.0 312.643664883924 -44.609234559098205 480.9 -1.3060563482522098 1.044120752469144 -1.0441207524691443 
0.95434344 0.22418570246271302 -1.5707963267948966 -1.5707963267948966 0.0 1.5707963267948966 0.0 0.2743434418098265 0.0 0.0 0.0 0.0 0.0 0.0 0.0 0.0 0.0 0.0 0.0 312.7408178239374 -43.922953757856256 480.9 -1.3069341467700224 1.0424737560336004 -1.0424737560336008 
0.96234345 0.22638044999719165 -1.5707963267948966 -1.5707963267948966 0.0 1.5707963267948966 0.0 0.2743434418098265 0.0 0.0 0.0 0.0 0.0 0.0 0.0 0.0 0.0 0.0 0.0 312.8364643180749 -43.236461383488006 480.9 -1.3078104035261615 1.0408264884901617 -1.040826488490162 
0.9703435 0.22857519753167027 -1.5707963267948966 -1.5707963267948966 0.0 1.5707963267948966 0.0 0.2743434418098265 0.0 0.0 0.0 0.0 0.0 0.0 0.0 0.0 0.0 0.0 0.0 312.9306039056154 -42.54976074276874 480.9 -1.3086851190888904 1.0391789504278044 -1.0391789504278046 
0.9783434 0.23076994506614884 -1.5707963267948966 -1.5707963267948966 0.0 1.5707963267948966 0.0 0.2743434418098265 0.0 0.0 0.0 0.0 0.0 0.0 0.0 0.0 0.0 0.0 0.0 313.0232361330964 -41.862855143476935 480.9 -1.3095582940253898 1.0375311424347011 -1.0375311424347016 
0.98634344 0.23296469260062747 -1.5707963267948966 -1.5707963267948966 0.0 1.5707963267948966 0.0 0.2743434418098265 0.0 0.0 0.0 0.0 0.0 0.0 0.0 0.0 0.0 0.0 0.0 313.1143605543166 -41.175747894378354 480.9 -1.3104299289017594 1.0358830650982236 -1.0358830650982238 
0.99434346 0.2351594401351061 -1.5707963267948966 -1.5707963267948966 0.0 1.5707963267948966 0.0 0.2743434418098265 0.0 0.0 0.0 0.0 0.0 0.0 0.0 0.0 0.0 0.0 0.0 313.2039767303373 -40.48844230521006 480.9 -1.3113000242830175 1.0342347190049423 -1.0342347190049426 
1.0023434 0.23735418766958472 -1.5707963267948966 -1.5707963267948966 0.0 1.5707963267948966 0.0 0.2743434418098265 0.0 0.0 0.0 0.0 0.0 0.0 0.0 0.0 0.0 0.0 0.0 313.292084229485 -39.800941686664515 480.9 -1.3121685807331054 1.0325861047406315 -1.0325861047406317 
1.0103434 0.23954893520406334 -1.5707963267948966 -1.5707963267948966 0.0 1.5707963267948966 0.0 0.2743434418098265 0.0 0.0 0.0 0.0 0.0 0.0 0.0 0.0 0.0 0.0 0.0 313.3786826273534 -39.113249350373664 480.9 -1.3130355988148836 1.0309372228902696 -1.0309372228902698 
1.0183434 0.2417436827385419 -1.5707963267948966 -1.5707963267948966 0.0 1.5707963267948966 0.0 0.2743434418098265 0.0 0.0 0.0 0.0 0.0 0.0 0.0 0.0 0.0 0.0 0.0 313.46377150680536 -38.4253686088929 480.9 -1.3139010790901355 1.029288074038041 -1.0292880740380412 
1.0263435 0.24393843027302053 -1.5707963267948966 -1.5707963267948966 0.0 1.5707963267948966 0.0 0.2743434418098265 0.0 0.0 0.0 0.0 0.0 0.0 0.0 0.0 0.0 0.0 0.0 313.5473504579751 -37.73730277568512 480.9 -1.3147650221195657 1.0276386587673374 -1.0276386587673376 
1.0343435 0.24613317780749916 -1.5707963267948966 -1.5707963267948966 0.0 1.5707963267948966 0.0 0.2743434418098265 0.0 0.0 0.0 0.0 0.0 0.0 0.0 0.0 0.0 0.0 0.0 313.62941907826985 -37.049055165104846 480.9 -1.3156274284628031 1.025988977660763 -1.0259889776607634 
1.0423435 0.24832792534197778 -1.5707963267948966 -1.5707963267948966 0.0 1.5707963267948966 0.0 0.2743434418098265 0.0 0.0 0.0 0.0 0.0 0.0 0.0 0.0 0.0 0.0 0.0 313.70997697237203 -36.36062909238218 480.9 -1.3164882986784014 1.0243390313001337 -1.024339031300134 
1.0503434 0.2505226728764564 -1.5707963267948966 -1.5707963267948966 0.0 1.5707963267948966 0.0 0.2743434418098265 0.0 0.0 0.0 0.0 0.0 0.0 0.0 0.0 0.0 0.0 0.0 313.78902375224123 -35.67202787360685 480.9 -1.3173476333238374 1.0226888202664788 -1.022688820266479 
1.0583434 0.252717420410935 -1.5707963267948966 -1.5707963267948966 0.0 1.5707963267948966 0.0 0.2743434418098265 0.0 0.0 0.0 0.0 0.0 0.0 0.0 0.0 0.0 0.0 0.0 313.86655903711574 -34.98325482571231 480.9 -1.318205432955514 1.0210383451400455 -1.0210383451400458 
1.0663434 0.2549121679454136 -1.5707963267948966 -1.5707963267948966 0.0 1.5707963267948966 0.0 0.2743434418098265 0.0 0.0 0.0 0.0 0.0 0.0 0.0 0.0 0.0 0.0 0.0 313.9425824535148 -34.29431326645958 480.9 -1.3190616981287608 1.0193876065002987 -1.019387606500299 
1.0743434 0.25710691547989223 -1.5707963267948966 -1.5707963267948966 0.0 1.5707963267948966 0.0 0.2743434418098265 0.0 0.0 0.0 0.0 0.0 0.0 0.0 0.0 0.0 0.0 0.0 314.01709363524 -33.60520651442152 480.9 -1.3199164293978332 1.0177366049259238 -1.017736604925924 
1.0823435 0.25930166301437085 -1.5707963267948966 -1.5707963267948966 0.0 1.5707963267948966 0.0 0.2743434418098265 0.0 0.0 0.0 0.0 0.0 0.0 0.0 0.0 0.0 0.0 0.0 314.0900922233773 -32.91593788896661 480.9 -1.320769627315915 1.016085340994829 -1.0160853409948292 
1.0903435 0.2614964105488495 -1.5707963267948966 -1.5707963267948966 0.0 1.5707963267948966 0.0 0.2743434418098265 0.0 0.0 0.0 0.0 0.0 0.0 0.0 0.0 0.0 0.0 0.0 314.16157786629884 -32.22651071024312 480.9 -1.3216212924351183 1.0144338152841466 -1.0144338152841468 
1.0983435 0.26369115808332805 -1.5707963267948966 -1.5707963267948966 0.0 1.5707963267948966 0.0 0.2743434418098265 0.0 0.0 0.0 0.0 0.0 0.0 0.0 0.0 0.0 0.0 0.0 314.2315502196643 -31.53692829916304 480.9 -1.3224714253064829 1.012782028370235 -1.0127820283702351 
1.1063434 0.2658859056178067 -1.5707963267948966 -1.5707963267948966 0.0 1.5707963267948966 0.0 0.2743434418098265 0.0 0.0 0.0 0.0 0.0 0.0 0.0 0.0 0.0 0.0 0.0 314.30000894642285 -30.847193977386052 480.9 -1.3233200264799794 1.0111299808286818 -1.011129980828682 
1.1143434 0.2680806531522853 -1.5707963267948966 -1.5707963267948966 0.0 1.5707963267948966 0.0 0.2743434418098265 0.0 0.0 0.0 0.0 0.0 0.0 0.0 0.0 0.0 0.0 0.0 314.3669537168146 -30.15731106730366 480.9 -1.3241670965045085 1.0094776732343045 -1.0094776732343047 
1.1223434 0.2702754006867639 -1.5707963267948966 -1.5707963267948966 0.0 1.5707963267948966 0.0 0.2743434418098265 0.0 0.0 0.0 0.0 0.0 0.0 0.0 0.0 0.0 0.0 0.0 314.43238420837235 -29.467282892023086 480.9 -1.3250126359279017 1.0078251061611532 -1.0078251061611534 
1.1303434 0.27247014822124255 -1.5707963267948966 -1.5707963267948966 0.0 1.5707963267948966 0.0 0.2743434418098265 0.0 0.0 0.0 0.0 0.0 0.0 0.0 0.0 0.0 0.0 0.0 314.4963001059229 -28.777112775351213 480.9 -1.3258566452969227 1.0061722801825117 -1.0061722801825121 
1.1383435 0.2746648957557211 -1.5707963267948966 -1.5707963267948966 0.0 1.5707963267948966 0.0 0.2743434418098265 0.0 0.0 0.0 0.0 0.0 0.0 0.0 0.0 0.0 0.0 0.0 314.5587011015888 -28.086804041778738 480.9 -1.3266991251572675 1.0045191958709014 -1.0045191958709014 
1.1463435 0.27685964329019974 -1.5707963267948966 -1.5707963267948966 0.0 1.5707963267948966 0.0 0.2743434418098265 0.0 0.0 0.0 0.0 0.0 0.0 0.0 0.0 0.0 0.0 0.0 314.6195868947899 -27.39636001646402 480.9 -1.327540076053565 1.0028658537980804 -1.0028658537980806 
1.1543435 0.27905439082467837 -1.5707963267948966 -1.5707963267948966 0.0 1.5707963267948966 0.0 0.2743434418098265 0.0 0.0 0.0 0.0 0.0 0.0 0.0 0.0 0.0 0.0 0.0 314.6789571922445 -26.705784025217074 480.9 -1.328379498529378 1.001212254535048 -1.0012122545350481 
1.1623434 0.281249138359157 -1.5707963267948966 -1.5707963267948966 0.0 1.5707963267948966 0.0 0.2743434418098265 0.0 0.0 0.0 0.0 0.0 0.0 0.0 0.0 0.0 0.0 0.0 314.73681170797084 -26.015079394483635 480.9 -1.3292173931272047 0.9995583986520461 -0.9995583986520463 
1.1703434 0.2834438858936356 -1.5707963267948966 -1.5707963267948966 0.0 1.5707963267948966 0.0 0.2743434418098265 0.0 0.0 0.0 0.0 0.0 0.0 0.0 0.0 0.0 0.0 0.0 314.7931501632887 -25.324249451329067 480.9 -1.3300537603884766 0.9979042867185589 -0.9979042867185591 
1.1783434 0.28563863342811424 -1.5707963267948966 -1.5707963267948966 0.0 1.5707963267948966 0.0 0.2743434418098265 0.0 0.0 0.0 0.0 0.0 0.0 0.0 0.0 0.0 0.0 0.0 314.84797228682055 -24.63329752342234 480.9 -1.3308886008535632 0.9962499193033185 -0.9962499193033187 
1.1863434 0.28783338096259287 -1.5707963267948966 -1.5707963267948966 0.0 1.5707963267948966 0.0 0.2743434418098265 0.0 0.0 0.0 0.0 0.0 0.0 0.0 0.0 0.0 0.0 0.0 314.9012778144929 -23.942226939020053 480.9 -1.3317219150617698 0.9945952969743046 -0.9945952969743048 
1.1943434 0.29002812849707144 -1.5707963267948966 -1.5707963267948966 0.0 1.5707963267948966 0.0 0.2743434418098265 0.0 0.0 0.0 0.0 0.0 0.0 0.0 0.0 0.0 0.0 0.0 314.95306648953755 -23.25104102695035 480.9 -1.332553703551339 0.9929404202987461 -0.9929404202987463 
1.2023435 0.29222287603155006 -1.5707963267948966 -1.5707963267948966 0.0 1.5707963267948966 0.0 0.2743434418098265 0.0 0.0 0.0 0.0 0.0 0.0 0.0 0.0 0.0 0.0 0.0 315.00333806249284 -22.559743116596838 480.9 -1.333383966859451 0.9912852898431246 -0.9912852898431248 
1.2103435 0.2944176235660287 -1.5707963267948966 -1.5707963267948966 0.0 1.5707963267948966 0.0 0.2743434418098265 0.0 0.0 0.0 0.0 0.0 0.0 0.0 0.0 0.0 0.0 0.0 315.05209229120493 -21.868336537882655 480.9 -1.3342127055222257 0.9896299061731751 -0.9896299061731754 
1.2183435 0.2966123711005073 -1.5707963267948966 -1.5707963267948966 0.0 1.5707963267948966 0.0 0.2743434418098265 0.0 0.0 0.0 0.0 0.0 0.0 0.0 0.0 0.0 0.0 0.0 315.09932894082874 -21.17682462125441 480.9 -1.3350399200747216 0.9879742698538887 -0.9879742698538889 
1.2263434 0.29880711863498594 -1.5707963267948966 -1.5707963267948966 0.0 1.5707963267948966 0.0 0.2743434418098265 0.0 0.0 0.0 0.0 0.0 0.0 0.0 0.0 0.0 0.0 0.0 315.14504778382957 -20.4852106976661 480.9 -1.3358656110509382 0.9863183814495138 -0.9863183814495142 
1.2343434 0.3010018661694645 -1.5707963267948966 -1.5707963267948966 0.0 1.5707963267948966 0.0 0.2743434418098265 0.0 0.0 0.0 0.0 0.0 0.0 0.0 0.0 0.0 0.0 0.0 315.18924859998344 -19.793498098563084 480.9 -1.3366897789838146 0.9846622415235589 -0.9846622415235591 
1.2423434 0.30319661370394313 -1.5707963267948966 -1.5707963267948966 0.0 1.5707963267948966 0.0 0.2743434418098265 0.0 0.0 0.0 0.0 0.0 0.0 0.0 0.0 0.0 0.0 0.0 315.2319311763789 -19.10169015586599 480.9 -1.3375124244052323 0.9830058506387929 -0.9830058506387931 
1.2503434 0.30539136123842175 -1.5707963267948966 -1.5707963267948966 0.0 1.5707963267948966 0.0 0.2743434418098265 0.0 0.0 0.0 0.0 0.0 0.0 0.0 0.0 0.0 0.0 0.0 315.2730953074175 -18.40979020195474 480.9 -1.3383335478460145 0.9813492093572498 -0.98134920935725 
1.2583435 0.3075861087729004 -1.5707963267948966 -1.5707963267948966 0.0 1.5707963267948966 0.0 0.2743434418098265 0.0 0.0 0.0 0.0 0.0 0.0 0.0 0.0 0.0 0.0 0.0 315.31274079481534 -17.717801569652476 480.9 -1.3391531498359275 0.9796923182402274 -0.9796923182402276 
1.2663435 0.309780856307379 -1.5707963267948966 -1.5707963267948966 0.0 1.5707963267948966 0.0 0.2743434418098265 0.0 0.0 0.0 0.0 0.0 0.0 0.0 0.0 0.0 0.0 0.0 315.35086744760326 -17.025727592209506 480.9 -1.3399712309036815 0.9780351778482919 -0.9780351778482921 
1.2743435 0.3119756038418576 -1.5707963267948966 -1.5707963267948966 0.0 1.5707963267948966 0.0 0.2743434418098265 0.0 0.0 0.0 0.0 0.0 0.0 0.0 0.0 0.0 0.0 0.0 315.38747508212856 -16.333571603287226 480.9 -1.3407877915769302 0.976377788741278 -0.9763777887412782 
1.2823434 0.3141703513763362 -1.5707963267948966 -1.5707963267948966 0.0 1.5707963267948966 0.0 0.2743434418098265 0.0 0.0 0.0 0.0 0.0 0.0 0.0 0.0 0.0 0.0 0.0 315.4225635220554 -15.641336936942025 480.9 -1.3416028323822728 0.9747201514782913 -0.9747201514782915 
1.2903434 0.3163650989108148 -1.5707963267948966 -1.5707963267948966 0.0 1.5707963267948966 0.0 0.2743434418098265 0.0 0.0 0.0 0.0 0.0 0.0 0.0 0.0 0.0 0.0 0.0 315.4561325983655 -14.949026927609346 480.9 -1.3424163538452536 0.9730622666177107 -0.9730622666177109 
1.2983434 0.31855984644529345 -1.5707963267948966 -1.5707963267948966 0.0 1.5707963267948966 0.0 0.2743434418098265 0.0 0.0 0.0 0.0 0.0 0.0 0.0 0.0 0.0 0.0 0.0 315.48818214935983 -14.256644910087523 480.9 -1.3432283564903635 0.9714041347171899 -0.9714041347171901 
1.3063434 0.3207545939797721 -1.5707963267948966 -1.5707963267948966 0.0 1.5707963267948966 0.0 0.2743434418098265 0.0 0.0 0.0 0.0 0.0 0.0 0.0 0.0 0.0 0.0 0.0 315.51871202065826 -13.56419421952171 480.9 -1.3440388408410409 0.9697457563336593 -0.9697457563336596 
1.3143435 0.32294934151425064 -1.5707963267948966 -1.5707963267948966 0.0 1.5707963267948966 0.0 0.2743434418098265 0.0 0.0 0.0 0.0 0.0 0.0 0.0 0.0 0.0 0.0 0.0 315.547722065201 -12.871678191387947 480.9 -1.344847807419671 0.9680871320233282 -0.9680871320233284 
1.3223435 0.32514408904872927 -1.5707963267948966 -1.5707963267948966 0.0 1.5707963267948966 0.0 0.2743434418098265 0.0 0.0 0.0 0.0 0.0 0.0 0.0 0.0 0.0 0.0 0.0 315.57521214324913 -12.179100161476907 480.9 -1.345655256747588 0.9664282623416854 -0.9664282623416857 
1.3303435 0.3273388365832079 -1.5707963267948966 -1.5707963267948966 0.0 1.5707963267948966 0.0 0.2743434418098265 0.0 0.0 0.0 0.0 0.0 0.0 0.0 0.0 0.0 0.0 0.0 315.60118212238535 -11.486463465877986 480.9 -1.346461189345074 0.9647691478435031 -0.9647691478435033 
1.3383435 0.3295335841176865 -1.5707963267948966 -1.5707963267948966 0.0 1.5707963267948966 0.0 0.2743434418098265 0.0 0.0 0.0 0.0 0.0 0.0 0.0 0.0 0.0 0.0 0.0 315.6256318775144 -10.793771440963106 480.9 -1.3472656057313632 0.9631097890828371 -0.9631097890828373 
1.3463434 0.33172833165216514 -1.5707963267948966 -1.5707963267948966 0.0 1.5707963267948966 0.0 0.2743434418098265 0.0 0.0 0.0 0.0 0.0 0.0 0.0 0.0 0.0 0.0 0.0 315.648561290864 -10.101027423370759 480.9 -1.348068506424637 0.9614501866130297 -0.96145018661303 
1.3543434 0.3339230791866437 -1.5707963267948966 -1.5707963267948966 0.0 1.5707963267948966 0.0 0.2743434418098265 0.0 0.0 0.0 0.0 0.0 0.0 0.0 0.0 0.0 0.0 0.0 315.669970251985 -9.408234749989848 480.9 -1.3488698919420303 0.9597903409867106 -0.9597903409867108 
1.3623434 0.33611782672112234 -1.5707963267948966 -1.5707963267948966 0.0 1.5707963267948966 0.0 0.2743434418098265 0.0 0.0 0.0 0.0 0.0 0.0 0.0 0.0 0.0 0.0 0.0 315.68985865775227 -8.715396757943687 480.9 -1.3496697627996292 0.9581302527557999 -0.9581302527558001 
1.3703434 0.33831257425560096 -1.5707963267948966 -1.5707963267948966 0.0 1.5707963267948966 0.0 0.2743434418098265 0.0 0.0 0.0 0.0 0.0 0.0 0.0 0.0 0.0 0.0 0.0 315.7082264123652 -8.022516784573817 480.9 -1.3504681195124715 0.9564699224715092 -0.9564699224715094 
1.3783435 0.3405073217900796 -1.5707963267948966 -1.5707963267948966 0.0 1.5707963267948966 0.0 0.2743434418098265 0.0 0.0 0.0 0.0 0.0 0.0 0.0 0.0 0.0 0.0 0.0 315.7250734273477 -7.32959816742407 480.9 -1.3512649625945488 0.9548093506843434 -0.9548093506843436 
1.3863435 0.3427020693245582 -1.5707963267948966 -1.5707963267948966 0.0 1.5707963267948966 0.0 0.2743434418098265 0.0 0.0 0.0 0.0 0.0 0.0 0.0 0.0 0.0 0.0 0.0 315.7403996215492 -6.63664424422436 480.9 -1.352060292558806 0.9531485379441029 -0.9531485379441031 
1.3943435 0.3448968168590368 -1.5707963267948966 -1.5707963267948966 0.0 1.5707963267948966 0.0 0.2743434418098265 0.0 0.0 0.0 0.0 0.0 0.0 0.0 0.0 0.0 0.0 0.0 315.7542049211448 -5.943658352874781 480.9 -1.3528541099171438 0.9514874847998859 -0.9514874847998861 
1.4023434 0.3470915643935154 -1.5707963267948966 -1.5707963267948966 0.0 1.5707963267948966 0.0 0.2743434418098265 0.0 0.0 0.0 0.0 0.0 0.0 0.0 0.0 0.0 0.0 0.0 315.7664892596354 -5.25064383142923 480.9 -1.3536464151804157 0.9498261918000886 -0.9498261918000888 
1.4103434 0.34928631192799403 -1.5707963267948966 -1.5707963267948966 0.0 1.5707963267948966 0.0 0.2743434418098265 0.0 0.0 0.0 0.0 0.0 0.0 0.0 0.0 0.0 0.0 0.0 315.77725257784857 -4.557604018079687 480.9 -1.3544372088584329 0.9481646594924089 -0.9481646594924091 
1.4183434 0.35148105946247266 -1.5707963267948966 -1.5707963267948966 0.0 1.5707963267948966 0.0 0.2743434418098265 0.0 0.0 0.0 0.0 0.0 0.0 0.0 0.0 0.0 0.0 0.0 315.7864948239382 -3.8645422511398557 480.9 -1.3552264914599625 0.9465028884238473 -0.9465028884238476 
1.4263434 0.3536758069969513 -1.5707963267948966 -1.5707963267948966 0.0 1.5707963267948966 0.0 0.2743434418098265 0.0 0.0 0.0 0.0 0.0 0.0 0.0 0.0 0.0 0.0 0.0 315.7942159533852 -3.1714618690292085 480.9 -1.3560142634927288 0.9448408791407087 -0.9448408791407089 
1.4343435 0.35587055453142985 -1.5707963267948966 -1.5707963267948966 0.0 1.5707963267948966 0.0 0.2743434418098265 0.0 0.0 0.0 0.0 0.0 0.0 0.0 0.0 0.0 0.0 0.0 315.80041592899755 -2.4783662102569686 480.9 -1.356800525463413 0.9431786321886041 -0.9431786321886043 
1.4423435 0.3580653020659085 -1.5707963267948966 -1.5707963267948966 0.0 1.5707963267948966 0.0 0.2743434418098265 0.0 0.0 0.0 0.0 0.0 0.0 0.0 0.0 0.0 0.0 0.0 315.80509472091046 -1.7852586134058228 480.9 -1.3575852778776565 0.9415161481124537 -0.9415161481124539 
1.4503435 0.3602600496003871 -1.5707963267948966 -1.5707963267948966 0.0 1.5707963267948966 0.0 0.2743434418098265 0.0 0.0 0.0 0.0 0.0 0.0 0.0 0.0 0.0 0.0 0.0 315.8082523065867 -1.0921424171160297 480.9 -1.3583685212400587 0.9398534274564868 -0.939853427456487 
1.4583434 0.3624547971348657 -1.5707963267948966 -1.5707963267948966 0.0 1.5707963267948966 0.0 0.2743434418098265 0.0 0.0 0.0 0.0 0.0 0.0 0.0 0.0 0.0 0.0 0.0 315.80988867081635 -0.3990209600692438 480.9 -1.3591502560541788 0.9381904707642451 -0.9381904707642454 
1.4663434 0.36464954466934435 -1.5707963267948966 -1.5707963267948966 0.0 1.5707963267948966 0.0 0.2743434418098265 0.0 0.0 0.0 0.0 0.0 0.0 0.0 0.0 0.0 0.0 0.0 315.8100038057172 0.2941024190275172 480.9 -1.3599304828225374 0.936527278578584 -0.9365272785785842 
1.4743434 0.3668442922038229 -1.5707963267948966 -1.5707963267948966 0.0 1.5707963267948966 0.0 0.2743434418098265 0.0 0.0 0.0 0.0 0.0 0.0 0.0 0.0 0.0 0.0 0.0 315.8085977107346 0.987224381457942 480.9 -1.3607092020466145 0.9348638514416739 -0.9348638514416743 
1.4823434 0.36903903973830154 -1.5707963267948966 -1.5707963267948966 0.0 1.5707963267948966 0.0 0.2743434418098265 0.0 0.0 0.0 0.0 0.0 0.0 0.0 0.0 0.0 0.0 0.0 315.8056703926418 1.6803415885126718 480.9 -1.361486414226854 0.933200189895003 -0.9332001898950032 
1.4903435 0.37123378727278017 -1.5707963267948966 -1.5707963267948966 0.0 1.5707963267948966 0.0 0.2743434418098265 0.0 0.0 0.0 0.0 0.0 0.0 0.0 0.0 0.0 0.0 0.0 315.8012218655392 2.373450701505085 480.9 -1.3622621198626617 0.9315362944793788 -0.931536294479379 
1.4983435 0.3734285348072588 -1.5707963267948966 -1.5707963267948966 0.0 1.5707963267948966 0.0 0.2743434418098265 0.0 0.0 0.0 0.0 0.0 0.0 0.0 0.0 0.0 0.0 0.0 315.7952521508551 3.0665483817877117 480.9 -1.363036319452405 0.9298721657349286 -0.9298721657349288 
1.5063435 0.3756232823417374 -1.5707963267948966 -1.5707963267948966 0.0 1.5707963267948966 0.0 0.2743434418098265 0.0 0.0 0.0 0.0 0.0 0.0 0.0 0.0 0.0 0.0 0.0 315.78776127734506 3.7596312907680307 480.9 -1.363809013493417 0.9282078042011038 -0.928207804201104 
1.5143435 0.377818029876216 -1.5707963267948966 -1.5707963267948966 0.0 1.5707963267948966 0.0 0.2743434418098265 0.0 0.0 0.0 0.0 0.0 0.0 0.0 0.0 0.0 0.0 0.0 315.778749281092 4.4526960899246895 480.9 -1.364580202481995 0.9265432104166793 -0.9265432104166795 
1.5223434 0.3800127774106946 -1.5707963267948966 -1.5707963267948966 0.0 1.5707963267948966 0.0 0.2743434418098265 0.0 0.0 0.0 0.0 0.0 0.0 0.0 0.0 0.0 0.0 0.0 315.76821620550595 5.1457394408236325 480.9 -1.3653498869134 0.9248783849197572 -0.9248783849197573 
1.5303434 0.38220752494517324 -1.5707963267948966 -1.5707963267948966 0.0 1.5707963267948966 0.0 0.2743434418098265 0.0 0.0 0.0 0.0 0.0 0.0 0.0 0.0 0.0 0.0 0.0 315.75616210132375 5.838758005134089 480.9 -1.366118067281861 0.9232133282477666 -0.9232133282477668 
1.5383434 0.38440227247965186 -1.5707963267948966 -1.5707963267948966 0.0 1.5707963267948966 0.0 0.2743434418098265 0.0 0.0 0.0 0.0 0.0 0.0 0.0 0.0 0.0 0.0 0.0 315.74258702660916 6.531748444644631 480.9 -1.366884744080571 0.921548040937467 -0.9215480409374672 
1.5463434 0.3865970200141305 -1.5707963267948966 -1.5707963267948966 0.0 1.5707963267948966 0.0 0.2743434418098265 0.0 0.0 0.0 0.0 0.0 0.0 0.0 0.0 0.0 0.0 0.0 315.72749104675205 7.224707421279412 480.9 -1.367649917801692 0.9198825235249498 -0.91988252352495 
1.5543435 0.38879176754860906 -1.5707963267948966 -1.5707963267948966 0.0 1.5707963267948966 0.0 0.2743434418098265 0.0 0.0 0.0 0.0 0.0 0.0 0.0 0.0 0.0 0.0 0.0 315.7108742344685 7.917631597113985 480.9 -1.3684135889363536 0.9182167765456398 -0.91821677654564 
1.5623435 0.3909865150830877 -1.5707963267948966 -1.5707963267948966 0.0 1.5707963267948966 0.0 0.2743434418098265 0.0 0.0 0.0 0.0 0.0 0.0 0.0 0.0 0.0 0.0 0.0 315.6927366698002 8.61051763439172 480.9 -1.3691757579746533 0.9165508005342967 -0.916550800534297 
1.5703435 0.3931812626175663 -1.5707963267948966 -1.5707963267948966 0.0 1.5707963267948966 0.0 0.2743434418098265 0.0 0.0 0.0 0.0 0.0 0.0 0.0 0.0 0.0 0.0 0.0 315.67307844011435 9.303362195539588 480.9 -1.369936425405657 0.9148845960250167 -0.9148845960250169 
1.5783434 0.39537601015204493 -1.5707963267948966 -1.5707963267948966 0.0 1.5707963267948966 0.0 0.2743434418098265 0.0 0.0 0.0 0.0 0.0 0.0 0.0 0.0 0.0 0.0 0.0 315.6518996401029 9.99616194318433 480.9 -1.3706955917174017 0.9132181635512359 -0.9132181635512361 
1.5863434 0.39757075768652356 -1.5707963267948966 -1.5707963267948966 0.0 1.5707963267948966 0.0 0.2743434418098265 0.0 0.0 0.0 0.0 0.0 0.0 0.0 0.0 0.0 0.0 0.0 315.6292003717824 10.688913540168617 480.9 -1.3714532573968945 0.9115515036457299 -0.9115515036457301 
1.5943434 0.3997655052210022 -1.5707963267948966 -1.5707963267948966 0.0 1.5707963267948966 0.0 0.2743434418098265 0.0 0.0 0.0 0.0 0.0 0.0 0.0 0.0 0.0 0.0 0.0 315.6049807444933 11.38161364956698 480.9 -1.3722094229301127 0.9098846168406172 -0.9098846168406174 
1.6023434 0.40196025275548075 -1.5707963267948966 -1.5707963267948966 0.0 1.5707963267948966 0.0 0.2743434418098265 0.0 0.0 0.0 0.0 0.0 0.0 0.0 0.0 0.0 0.0 0.0 315.57924087489937 12.074258934702026 480.9 -1.3729640888020063 0.90821750366736 -0.9082175036673602 
1.6103435 0.4041550002899594 -1.5707963267948966 -1.5707963267948966 0.0 1.5707963267948966 0.0 0.2743434418098265 0.0 0.0 0.0 0.0 0.0 0.0 0.0 0.0 0.0 0.0 0.0 315.55198088698745 12.76684605916044 480.9 -1.373717255496497 0.9065501646567662 -0.9065501646567664 
1.6183435 0.406349747824438 -1.5707963267948966 -1.5707963267948966 0.0 1.5707963267948966 0.0 0.2743434418098265 0.0 0.0 0.0 0.0 0.0 0.0 0.0 0.0 0.0 0.0 0.0 315.52320091206656 13.459371686809046 480.9 -1.374468923496479 0.9048826003389913 -0.9048826003389915 
1.6263435 0.4085444953589166 -1.5707963267948966 -1.5707963267948966 0.0 1.5707963267948966 0.0 0.2743434418098265 0.0 0.0 0.0 0.0 0.0 0.0 0.0 0.0 0.0 0.0 0.0 315.4929010887673 14.151832481810896 480.9 -1.3752190932838224 0.9032148112435403 -0.9032148112435404 
1.6343434 0.41073924289339525 -1.5707963267948966 -1.5707963267948966 0.0 1.5707963267948966 0.0 0.2743434418098265 0.0 0.0 0.0 0.0 0.0 0.0 0.0 0.0 0.0 0.0 0.0 315.4610815630416 14.844225108641336 480.9 -1.3759677653393694 0.901546797899269 -0.9015467978992692 
1.6423434 0.4129339904278738 -1.5707963267948966 -1.5707963267948966 0.0 1.5707963267948966 0.0 0.2743434418098265 0.0 0.0 0.0 0.0 0.0 0.0 0.0 0.0 0.0 0.0 0.0 315.42774248816113 15.536546232104019 480.9 -1.376714940142937 0.8998785608343857 -0.8998785608343859 
1.6503434 0.41512873796235245 -1.5707963267948966 -1.5707963267948966 0.0 1.5707963267948966 0.0 0.2743434418098265 0.0 0.0 0.0 0.0 0.0 0.0 0.0 0.0 0.0 0.0 0.0 315.39288402471743 16.228792517347134 480.9 -1.3774606181733198 0.8982101005764536 -0.8982101005764538 
1.6583434 0.41732348549683107 -1.5707963267948966 -1.5707963267948966 0.0 1.5707963267948966 0.0 0.2743434418098265 0.0 0.0 0.0 0.0 0.0 0.0 0.0 0.0 0.0 0.0 0.0 315.35650634062085 16.920960629879286 480.9 -1.3782047999082867 0.8965414176523921 -0.8965414176523924 
1.6663435 0.4195182330313097 -1.5707963267948966 -1.5707963267948966 0.0 1.5707963267948966 0.0 0.2743434418098265 0.0 0.0 0.0 0.0 0.0 0.0 0.0 0.0 0.0 0.0 0.0 315.3186096110996 17.613047235585622 480.9 -1.3789474858245845 0.8948725125884782 -0.8948725125884784 
1.6743435 0.4217129805657883 -1.5707963267948966 -1.5707963267948966 0.0 1.5707963267948966 0.0 0.2743434418098265 0.0 0.0 0.0 0.0 0.0 0.0 0.0 0.0 0.0 0.0 0.0 315.27919401869883 18.305049000743946 480.9 -1.3796886763979375 0.8932033859103491 -0.8932033859103493 
1.6823435 0.4239077281002669 -1.5707963267948966 -1.5707963267948966 0.0 1.5707963267948966 0.0 0.2743434418098265 0.0 0.0 0.0 0.0 0.0 0.0 0.0 0.0 0.0 0.0 0.0 315.23825975328026 18.996962592040706 480.9 -1.3804283721030468 0.8915340381430026 -0.8915340381430028 
1.6903435 0.4261024756347455 -1.5707963267948966 -1.5707963267948966 0.0 1.5707963267948966 0.0 0.2743434418098265 0.0 0.0 0.0 0.0 0.0 0.0 0.0 0.0 0.0 0.0 0.0 315.1958070120206 19.688784676587073 480.9 -1.3811665734135947 0.8898644698108005 -0.8898644698108007 
1.6983434 0.42829722316922414 -1.5707963267948966 -1.5707963267948966 0.0 1.5707963267948966 0.0 0.2743434418098265 0.0 0.0 0.0 0.0 0.0 0.0 0.0 0.0 0.0 0.0 0.0 315.15183599941133 20.380511921935028 480.9 -1.3819032808022416 0.8881946814374694 -0.8881946814374696 
1.7063434 0.43049197070370276 -1.5707963267948966 -1.5707963267948966 0.0 1.5707963267948966 0.0 0.2743434418098265 0.0 0.0 0.0 0.0 0.0 0.0 0.0 0.0 0.0 0.0 0.0 315.1063469272568 21.072140996093335 480.9 -1.3826384947406267 0.8865246735461011 -0.8865246735461012 
1.7143434 0.4326867182381814 -1.5707963267948966 -1.5707963267948966 0.0 1.5707963267948966 0.0 0.2743434418098265 0.0 0.0 0.0 0.0 0.0 0.0 0.0 0.0 0.0 0.0 0.0 315.0593400146742 21.76366856754367 480.9 -1.383372215699373 0.8848544466591576 -0.8848544466591577 
1.7223434 0.43488146577265996 -1.5707963267948966 -1.5707963267948966 0.0 1.5707963267948966 0.0 0.2743434418098265 0.0 0.0 0.0 0.0 0.0 0.0 0.0 0.0 0.0 0.0 0.0 315.01081548809174 22.455091305256612 480.9 -1.384104444148082 0.8831840012984695 -0.8831840012984697 
1.7303435 0.4370762133071386 -1.5707963267948966 -1.5707963267948966 0.0 1.5707963267948966 0.0 0.2743434418098265 0.0 0.0 0.0 0.0 0.0 0.0 0.0 0.0 0.0 0.0 0.0 314.9607735812479 23.146405878707778 480.9 -1.3848351805553392 0.8815133379852399 -0.88151333798524 
1.7383435 0.4392709608416172 -1.5707963267948966 -1.5707963267948966 0.0 1.5707963267948966 0.0 0.2743434418098265 0.0 0.0 0.0 0.0 0.0 0.0 0.0 0.0 0.0 0.0 0.0 314.90921453519036 23.837608957893742 480.9 -1.3855644253887112 0.8798424572400445 -0.8798424572400446 
1.7463435 0.44146570837609583 -1.5707963267948966 -1.5707963267948966 0.0 1.5707963267948966 0.0 0.2743434418098265 0.0 0.0 0.0 0.0 0.0 0.0 0.0 0.0 0.0 0.0 0.0 314.8561385982745 24.52869721334821 480.9 -1.3862921791147484 0.8781713595828348 -0.8781713595828349 
1.7543434 0.44366045591057446 -1.5707963267948966 -1.5707963267948966 0.0 1.5707963267948966 0.0 0.2743434418098265 0.0 0.0 0.0 0.0 0.0 0.0 0.0 0.0 0.0 0.0 0.0 314.8015460261628 25.21966731615783 480.9 -1.3870184421989862 0.8765000455329387 -0.8765000455329388 
1.7623434 0.445855203445053 -1.5707963267948966 -1.5707963267948966 0.0 1.5707963267948966 0.0 0.2743434418098265 0.0 0.0 0.0 0.0 0.0 0.0 0.0 0.0 0.0 0.0 0.0 314.7454370818229 25.910515937978552 480.9 -1.387743215105943 0.8748285156090626 -0.8748285156090627 
1.7703434 0.44804995097953165 -1.5707963267948966 -1.5707963267948966 0.0 1.5707963267948966 0.0 0.2743434418098265 0.0 0.0 0.0 0.0 0.0 0.0 0.0 0.0 0.0 0.0 0.0 314.6878120355268 26.601239751051423 480.9 -1.388466498299123 0.8731567703292931 -0.8731567703292932 
1.7783434 0.4502446985140103 -1.5707963267948966 -1.5707963267948966 0.0 1.5707963267948966 0.0 0.2743434418098265 0.0 0.0 0.0 0.0 0.0 0.0 0.0 0.0 0.0 0.0 0.0 314.62867116484955 27.291835428218647 480.9 -1.3891882922410164 0.8714848102110988 -0.8714848102110989 
1.7863435 0.4524394460484889 -1.5707963267948966 -1.5707963267948966 0.0 1.5707963267948966 0.0 0.2743434418098265 0.0 0.0 0.0 0.0 0.0 0.0 0.0 0.0 0.0 0.0 0.0 314.5680147546675 27.98229964293972 480.9 -1.3899085973930998 0.8698126357713316 -0.8698126357713317 
1.7943435 0.4546341935829675 -1.5707963267948966 -1.5707963267948966 0.0 1.5707963267948966 0.0 0.2743434418098265 0.0 0.0 0.0 0.0 0.0 0.0 0.0 0.0 0.0 0.0 0.0 314.5058430971576 28.672629069307302 480.9 -1.3906274142158357 0.8681402475262284 -0.8681402475262285 
1.8023435 0.4568289411174461 -1.5707963267948966 -1.5707963267948966 0.0 1.5707963267948966 0.0 0.2743434418098265 0.0 0.0 0.0 0.0 0.0 0.0 0.0 0.0 0.0 0.0 0.0 314.44215649179523 29.362820382063394 480.9 -1.3913447431686763 0.8664676459914136 -0.8664676459914137 
1.8103434 0.4590236886519247 -1.5707963267948966 -1.5707963267948966 0.0 1.5707963267948966 0.0 0.2743434418098265 0.0 0.0 0.0 0.0 0.0 0.0 0.0 0.0 0.0 0.0 0.0 314.37695524535354 30.05287025661521 480.9 -1.3920605847100613 0.8647948316818999 -0.8647948316819 
1.8183434 0.46121843618640335 -1.5707963267948966 -1.5707963267948966 0.0 1.5707963267948966 0.0 0.2743434418098265 0.0 0.0 0.0 0.0 0.0 0.0 0.0 0.0 0.0 0.0 0.0 314.3102396719013 30.742775369051312 480.9 -1.3927749392974185 0.8631218051120899 -0.86312180511209 
1.8263434 0.46341318372088197 -1.5707963267948966 -1.5707963267948966 0.0 1.5707963267948966 0.0 0.2743434418098265 0.0 0.0 0.0 0.0 0.0 0.0 0.0 0.0 0.0 0.0 0.0 314.2420100928017 31.43253239615755 480.9 -1.3934878073871653 0.8614485667957782 -0.8614485667957783 
1.8343434 0.4656079312553606 -1.5707963267948966 -1.5707963267948966 0.0 1.5707963267948966 0.0 0.2743434418098265 0.0 0.0 0.0 0.0 0.0 0.0 0.0 0.0 0.0 0.0 0.0 314.17226683671083 32.1221380154331 480.9 -1.3941991894347108 0.8597751172461533 -0.8597751172461534 
1.8423434 0.46780267878983917 -1.5707963267948966 -1.5707963267948966 0.0 1.5707963267948966 0.0 0.2743434418098265 0.0 0.0 0.0 0.0 0.0 0.0 0.0 0.0 0.0 0.0 0.0 314.10101023957606 32.81158890510639 480.9 -1.3949090858944544 0.858101456975799 -0.8581014569757992 
1.8503435 0.4699974263243178 -1.5707963267948966 -1.5707963267948966 0.0 1.5707963267948966 0.0 0.2743434418098265 0.0 0.0 0.0 0.0 0.0 0.0 0.0 0.0 0.0 0.0 0.0 314.02824064463437 33.50088174415127 480.9 -1.395617497219786 0.8564275864966955 -0.8564275864966956 
1.8583435 0.4721921738587964 -1.5707963267948966 -1.5707963267948966 0.0 1.5707963267948966 0.0 0.2743434418098265 0.0 0.0 0.0 0.0 0.0 0.0 0.0 0.0 0.0 0.0 0.0 313.95395840241054 34.19001321230286 480.9 -1.396324423863088 0.8547535063202215 -0.8547535063202216 
1.8663435 0.47438692139327504 -1.5707963267948966 -1.5707963267948966 0.0 1.5707963267948966 0.0 0.2743434418098265 0.0 0.0 0.0 0.0 0.0 0.0 0.0 0.0 0.0 0.0 0.0 313.878163870716 34.87897999007355 480.9 -1.3970298662757357 0.8530792169571563 -0.8530792169571564 
1.8743434 0.47658166892775367 -1.5707963267948966 -1.5707963267948966 0.0 1.5707963267948966 0.0 0.2743434418098265 0.0 0.0 0.0 0.0 0.0 0.0 0.0 0.0 0.0 0.0 0.0 313.8008574146464 35.56777875876911 480.9 -1.3977338249080977 0.8514047189176809 -0.851404718917681 
1.8823434 0.47877641646223223 -1.5707963267948966 -1.5707963267948966 0.0 1.5707963267948966 0.0 0.2743434418098265 0.0 0.0 0.0 0.0 0.0 0.0 0.0 0.0 0.0 0.0 0.0 313.72203940658045 36.2564062005045 480.9 -1.3984363002095366 0.8497300127113797 -0.8497300127113798 
1.8903434 0.48097116399671086 -1.5707963267948966 -1.5707963267948966 0.0 1.5707963267948966 0.0 0.2743434418098265 0.0 0.0 0.0 0.0 0.0 0.0 0.0 0.0 0.0 0.0 0.0 313.6417102261777 36.94485899822007 480.9 -1.3991372926284091 0.8480550988472423 -0.8480550988472424 
1.8983434 0.4831659115311895 -1.5707963267948966 -1.5707963267948966 0.0 1.5707963267948966 0.0 0.2743434418098265 0.0 0.0 0.0 0.0 0.0 0.0 0.0 0.0 0.0 0.0 0.0 313.559870260377 37.63313383569726 480.9 -1.3998368026120669 0.8463799778336651 -0.8463799778336653 
1.9063435 0.4853606590656681 -1.5707963267948966 -1.5707963267948966 0.0 1.5707963267948966 0.0 0.2743434418098265 0.0 0.0 0.0 0.0 0.0 0.0 0.0 0.0 0.0 0.0 0.0 313.47651990339455 38.32122739757491 480.9 -1.4005348306068586 0.8447046501784525 -0.8447046501784526 
1.9143435 0.48755540660014673 -1.5707963267948966 -1.5707963267948966 0.0 1.5707963267948966 0.0 0.2743434418098265 0.0 0.0 0.0 0.0 0.0 0.0 0.0 0.0 0.0 0.0 0.0 313.39165955672195 39.00913636936488 480.9 -1.4012313770581282 0.8430291163888199 -0.84302911638882 
1.9223435 0.4897501541346253 -1.5707963267948966 -1.5707963267948966 0.0 1.5707963267948966 0.0 0.2743434418098265 0.0 0.0 0.0 0.0 0.0 0.0 0.0 0.0 0.0 0.0 0.0 313.30528962912405 39.69685743746828 480.9 -1.4019264424102167 0.8413533769713933 -0.8413533769713935 
1.9303434 0.49194490166910393 -1.5707963267948966 -1.5707963267948966 0.0 1.5707963267948966 0.0 0.2743434418098265 0.0 0.0 0.0 0.0 0.0 0.0 0.0 0.0 0.0 0.0 0.0 313.2174105366376 40.3843872891913 480.9 -1.4026200271064628 0.8396774324322124 -0.8396774324322125 
1.9383434 0.49413964920358255 -1.5707963267948966 -1.5707963267948966 0.0 1.5707963267948966 0.0 0.2743434418098265 0.0 0.0 0.0 0.0 0.0 0.0 0.0 0.0 0.0 0.0 0.0 313.1280227025687 41.071722612761256 480.9 -1.4033121315892045 0.8380012832767324 -0.8380012832767325 
1.9463434 0.4963343967380612 -1.5707963267948966 -1.5707963267948966 0.0 1.5707963267948966 0.0 0.2743434418098265 0.0 0.0 0.0 0.0 0.0 0.0 0.0 0.0 0.0 0.0 0.0 313.0371265574909 41.758860097342435 480.9 -1.4040027562997774 0.836324930009824 -0.8363249300098241 
1.9543434 0.4985291442725398 -1.5707963267948966 -1.5707963267948966 0.0 1.5707963267948966 0.0 0.2743434418098265 0.0 0.0 0.0 0.0 0.0 0.0 0.0 0.0 0.0 0.0 0.0 312.9447225392432 42.44579643305212 480.9 -1.4046919016785153 0.8346483731357763 -0.8346483731357764 
1.9623435 0.5007238918070184 -1.5707963267948966 -1.5707963267948966 0.0 1.5707963267948966 0.0 0.2743434418098265 0.0 0.0 0.0 0.0 0.0 0.0 0.0 0.0 0.0 0.0 0.0 312.8508110929278 43.132528310976426 480.9 -1.4053795681647552 0.8329716131582994 -0.8329716131582995 
1.9703435 0.5029186393414969 -1.5707963267948966 -1.5707963267948966 0.0 1.5707963267948966 0.0 0.2743434418098265 0.0 0.0 0.0 0.0 0.0 0.0 0.0 0.0 0.0 0.0 0.0 312.75539267090824 43.819052423186484 480.9 -1.4060657561968324 0.8312946505805231 -0.8312946505805232 
1.9783435 0.5051133868759756 -1.5707963267948966 -1.5707963267948966 0.0 1.5707963267948966 0.0 0.2743434418098265 0.0 0.0 0.0 0.0 0.0 0.0 0.0 0.0 0.0 0.0 0.0 312.6584677328069 44.505365462754185 480.9 -1.4067504662120847 0.8296174859050013 -0.8296174859050013 
1.9863434 0.5073081344104542 -1.5707963267948966 -1.5707963267948966 0.0 1.5707963267948966 0.0 0.2743434418098265 0.0 0.0 0.0 0.0 0.0 0.0 0.0 0.0 0.0 0.0 0.0 312.560036745503 45.19146412376796 480.9 -1.4074336986468508 0.8279401196337122 -0.8279401196337123 
1.9943434 0.5095028819449329 -1.5707963267948966 -1.5707963267948966 0.0 1.5707963267948966 0.0 0.2743434418098265 0.0 0.0 0.0 0.0 0.0 0.0 0.0 0.0 0.0 0.0 0.0 312.4601001831301 45.877345101349086 480.9 -1.4081154539364722 0.82626255226806 -0.8262625522680601 
2.0023434 0.5116976294794114 -1.5707963267948966 -1.5707963267948966 0.0 1.5707963267948966 0.0 0.2743434418098265 0.0 0.0 0.0 0.0 0.0 0.0 0.0 0.0 0.0 0.0 0.0 312.3586585270742 46.56300509166728 480.9 -1.408795732515293 0.8245847843088773 -0.8245847843088773 
2.0103436 0.51389237701389 -1.5707963267948966 -1.5707963267948966 0.0 1.5707963267948966 0.0 0.2743434418098265 0.0 0.0 0.0 0.0 0.0 0.0 0.0 0.0 0.0 0.0 0.0 312.2557122659711 47.24844079195684 480.9 -1.4094745348166628 0.8229068162564253 -0.8229068162564254 
2.0183434 0.5160871245483687 -1.5707963267948966 -1.5707963267948966 0.0 1.5707963267948966 0.0 0.2743434418098265 0.0 0.0 0.0 0.0 0.0 0.0 0.0 0.0 0.0 0.0 0.0 312.1512618957041 47.93364890053237 480.9 -1.4101518612729338 0.8212286486103969 -0.821228648610397 
2.0263433 0.5182818720828473 -1.5707963267948966 -1.5707963267948966 0.0 1.5707963267948966 0.0 0.2743434418098265 0.0 0.0 0.0 0.0 0.0 0.0 0.0 0.0 0.0 0.0 0.0 312.04530791940186 48.618626116804755 480.9 -1.410827712315463 0.8195502818699179 -0.819550281869918 
2.0343435 0.5204766196173259 -1.5707963267948966 -1.5707963267948966 0.0 1.5707963267948966 0.0 0.2743434418098265 0.0 0.0 0.0 0.0 0.0 0.0 0.0 0.0 0.0 0.0 0.0 311.9378508474356 49.30336914129715 480.9 -1.4115020883746128 0.8178717165335468 -0.817871716533547 
2.0423434 0.5226713671518045 -1.5707963267948966 -1.5707963267948966 0.0 1.5707963267948966 0.0 0.2743434418098265 0.0 0.0 0.0 0.0 0.0 0.0 0.0 0.0 0.0 0.0 0.0 311.8288911974168 49.987874675660706 480.9 -1.4121749898797533 0.8161929530992796 -0.8161929530992797 
2.0503435 0.5248661146862831 -1.5707963267948966 -1.5707963267948966 0.0 1.5707963267948966 0.0 0.2743434418098265 0.0 0.0 0.0 0.0 0.0 0.0 0.0 0.0 0.0 0.0 0.0 311.71842949419494 50.67213942269056 480.9 -1.4128464172592599 0.8145139920645491 -0.8145139920645492 
2.0583434 0.5270608622207618 -1.5707963267948966 -1.5707963267948966 0.0 1.5707963267948966 0.0 0.2743434418098265 0.0 0.0 0.0 0.0 0.0 0.0 0.0 0.0 0.0 0.0 0.0 311.6064662698546 51.3561600863418 480.9 -1.4135163709405152 0.8128348339262262 -0.8128348339262264 
2.0663435 0.5292556097552403 -1.5707963267948966 -1.5707963267948966 0.0 1.5707963267948966 0.0 0.2743434418098265 0.0 0.0 0.0 0.0 0.0 0.0 0.0 0.0 0.0 0.0 0.0 311.493002063713 52.03993337174509 480.9 -1.4141848513499096 0.8111554791806238 -0.8111554791806239 
2.0743434 0.531450357289719 -1.5707963267948966 -1.5707963267948966 0.0 1.5707963267948966 0.0 0.2743434418098265 0.0 0.0 0.0 0.0 0.0 0.0 0.0 0.0 0.0 0.0 0.0 311.3780374223176 52.72345598522278 480.9 -1.414851858912842 0.8094759283234957 -0.8094759283234957 
2.0823433 0.5336451048241976 -1.5707963267948966 -1.5707963267948966 0.0 1.5707963267948966 0.0 0.2743434418098265 0.0 0.0 0.0 0.0 0.0 0.0 0.0 0.0 0.0 0.0 0.0 311.2615728994434 53.40672463430469 480.9 -1.4155173940537225 0.8077961818500402 -0.8077961818500403 
2.0903435 0.5358398523586761 -1.5707963267948966 -1.5707963267948966 0.0 1.5707963267948966 0.0 0.2743434418098265 0.0 0.0 0.0 0.0 0.0 0.0 0.0 0.0 0.0 0.0 0.0 311.14360905609 54.08973602774393 480.9 -1.416181457195967 0.8061162402549007 -0.8061162402549008 
2.0983434 0.5380345998931548 -1.5707963267948966 -1.5707963267948966 0.0 1.5707963267948966 0.0 0.2743434418098265 0.0 0.0 0.0 0.0 0.0 0.0 0.0 0.0 0.0 0.0 0.0 311.02414646047913 54.77248687553286 480.9 -1.4168440487620038 0.8044361040321666 -0.8044361040321667 
2.1063435 0.5402293474276334 -1.5707963267948966 -1.5707963267948966 0.0 1.5707963267948966 0.0 0.2743434418098265 0.0 0.0 0.0 0.0 0.0 0.0 0.0 0.0 0.0 0.0 0.0 310.90318568805196 55.45497388891869 480.9 -1.4175051691732725 0.8027557736753773 -0.8027557736753774 
2.1143434 0.542424094962112 -1.5707963267948966 -1.5707963267948966 0.0 1.5707963267948966 0.0 0.2743434418098265 0.0 0.0 0.0 0.0 0.0 0.0 0.0 0.0 0.0 0.0 0.0 310.78072732146626 56.137193780419736 480.9 -1.418164818850223 0.8010752496775204 -0.8010752496775206 
2.1223435 0.5446188424965906 -1.5707963267948966 -1.5707963267948966 0.0 1.5707963267948966 0.0 0.2743434418098265 0.0 0.0 0.0 0.0 0.0 0.0 0.0 0.0 0.0 0.0 0.0 310.65677195059357 56.8191432638409 480.9 -1.4188229982123173 0.7993945325310363 -0.7993945325310364 
2.1303434 0.5468135900310692 -1.5707963267948966 -1.5707963267948966 0.0 1.5707963267948966 0.0 0.2743434418098265 0.0 0.0 0.0 0.0 0.0 0.0 0.0 0.0 0.0 0.0 0.0 310.5313201725163 57.50081905428955 480.9 -1.41947970767803 0.7977136227278179 -0.797713622727818 
2.1383433 0.5490083375655479 -1.5707963267948966 -1.5707963267948966 0.0 1.5707963267948966 0.0 0.2743434418098265 0.0 0.0 0.0 0.0 0.0 0.0 0.0 0.0 0.0 0.0 0.0 310.40437259152503 58.18221786819149 480.9 -1.4201349476648495 0.7960325207592133 -0.7960325207592134 
2.1463435 0.5512030851000265 -1.5707963267948966 -1.5707963267948966 0.0 1.5707963267948966 0.0 0.2743434418098265 0.0 0.0 0.0 0.0 0.0 0.0 0.0 0.0 0.0 0.0 0.0 310.2759298191154 58.863336423306734 480.9 -1.4207887185892771 0.7943512271160257 -0.7943512271160258 
2.1543434 0.553397832634505 -1.5707963267948966 -1.5707963267948966 0.0 1.5707963267948966 0.0 0.2743434418098265 0.0 0.0 0.0 0.0 0.0 0.0 0.0 0.0 0.0 0.0 0.0 310.1459924739852 59.544171438745174 480.9 -1.4214410208668289 0.7926697422885172 -0.7926697422885173 
2.1623435 0.5555925801689837 -1.5707963267948966 -1.5707963267948966 0.0 1.5707963267948966 0.0 0.2743434418098265 0.0 0.0 0.0 0.0 0.0 0.0 0.0 0.0 0.0 0.0 0.0 310.0145611820318 60.224719634982584 480.9 -1.4220918549120363 0.7909880667664083 -0.7909880667664085 
2.1703434 0.5577873277034623 -1.5707963267948966 -1.5707963267948966 0.0 1.5707963267948966 0.0 0.2743434418098265 0.0 0.0 0.0 0.0 0.0 0.0 0.0 0.0 0.0 0.0 0.0 309.8816365763483 60.90497773387626 480.9 -1.4227412211384445 0.7893062010388812 -0.7893062010388813 
2.1783435 0.559982075237941 -1.5707963267948966 -1.5707963267948966 0.0 1.5707963267948966 0.0 0.2743434418098265 0.0 0.0 0.0 0.0 0.0 0.0 0.0 0.0 0.0 0.0 0.0 309.74721929722136 61.5849424586809 480.9 -1.4233891199586162 0.7876241455945794 -0.7876241455945795 
2.1863434 0.5621768227724195 -1.5707963267948966 -1.5707963267948966 0.0 1.5707963267948966 0.0 0.2743434418098265 0.0 0.0 0.0 0.0 0.0 0.0 0.0 0.0 0.0 0.0 0.0 309.6113099921275 62.26461053406435 480.9 -1.4240355517841314 0.7859419009216113 -0.7859419009216114 
2.1943433 0.5643715703068981 -1.5707963267948966 -1.5707963267948966 0.0 1.5707963267948966 0.0 0.2743434418098265 0.0 0.0 0.0 0.0 0.0 0.0 0.0 0.0 0.0 0.0 0.0 309.4739093157302 62.943978686123366 480.9 -1.4246805170255856 0.7842594675075504 -0.7842594675075505 
2.2023435 0.5665663178413768 -1.5707963267948966 -1.5707963267948966 0.0 1.5707963267948966 0.0 0.2743434418098265 0.0 0.0 0.0 0.0 0.0 0.0 0.0 0.0 0.0 0.0 0.0 309.3350179298769 63.623043642399516 480.9 -1.4253240160925924 0.7825768458394368 -0.7825768458394369 
2.2103434 0.5687610653758554 -1.5707963267948966 -1.5707963267948966 0.0 1.5707963267948966 0.0 0.2743434418098265 0.0 0.0 0.0 0.0 0.0 0.0 0.0 0.0 0.0 0.0 0.0 309.1946365035957 64.30180213189466 480.9 -1.425966049393785 0.7808940364037797 -0.7808940364037799 
2.2183435 0.570955812910334 -1.5707963267948966 -1.5707963267948966 0.0 1.5707963267948966 0.0 0.2743434418098265 0.0 0.0 0.0 0.0 0.0 0.0 0.0 0.0 0.0 0.0 0.0 309.0527657130917 64.98025088508709 480.9 -1.4266066173368137 0.7792110396865575 -0.7792110396865576 
2.2263434 0.5731505604448126 -1.5707963267948966 -1.5707963267948966 0.0 1.5707963267948966 0.0 0.2743434418098265 0.0 0.0 0.0 0.0 0.0 0.0 0.0 0.0 0.0 0.0 0.0 308.9094062417445 65.65838663394686 480.9 -1.4272457203283504 0.7775278561732215 -0.7775278561732215 
2.2343435 0.5753453079792912 -1.5707963267948966 -1.5707963267948966 0.0 1.5707963267948966 0.0 0.2743434418098265 0.0 0.0 0.0 0.0 0.0 0.0 0.0 0.0 0.0 0.0 0.0 308.7645587801045 66.33620611195185 480.9 -1.4278833587740853 0.7758444863486949 -0.775844486348695 
2.2423434 0.5775400555137699 -1.5707963267948966 -1.5707963267948966 0.0 1.5707963267948966 0.0 0.2743434418098265 0.0 0.0 0.0 0.0 0.0 0.0 0.0 0.0 0.0 0.0 0.0 308.6182240258896 67.01370605410347 480.9 -1.4285195330787304 0.7741609306973758 -0.7741609306973759 
2.2503433 0.5797348030482484 -1.5707963267948966 -1.5707963267948966 0.0 1.5707963267948966 0.0 0.2743434418098265 0.0 0.0 0.0 0.0 0.0 0.0 0.0 0.0 0.0 0.0 0.0 308.4704026839819 67.69088319694211 480.9 -1.429154243646018 0.7724771897031386 -0.7724771897031387 
2.2583435 0.5819295505827271 -1.5707963267948966 -1.5707963267948966 0.0 1.5707963267948966 0.0 0.2743434418098265 0.0 0.0 0.0 0.0 0.0 0.0 0.0 0.0 0.0 0.0 0.0 308.321095466424 68.36773427856323 480.9 -1.4297874908787032 0.7707932638493356 -0.7707932638493357 
2.2663434 0.5841242981172057 -1.5707963267948966 -1.5707963267948966 0.0 1.5707963267948966 0.0 0.2743434418098265 0.0 0.0 0.0 0.0 0.0 0.0 0.0 0.0 0.0 0.0 0.0 308.17030309241625 69.04425603863282 480.9 -1.4304192751785623 0.7691091536187974 -0.7691091536187975 
2.2743435 0.5863190456516842 -1.5707963267948966 -1.5707963267948966 0.0 1.5707963267948966 0.0 0.2743434418098265 0.0 0.0 0.0 0.0 0.0 0.0 0.0 0.0 0.0 0.0 0.0 308.0180262883126 69.72044521840316 480.9 -1.4310495969463954 0.7674248594938362 -0.7674248594938363 
2.2823434 0.5885137931861629 -1.5707963267948966 -1.5707963267948966 0.0 1.5707963267948966 0.0 0.2743434418098265 0.0 0.0 0.0 0.0 0.0 0.0 0.0 0.0 0.0 0.0 0.0 307.8642657876174 70.39629856072867 480.9 -1.4316784565820257 0.7657403819562456 -0.7657403819562456 
2.2903435 0.5907085407206415 -1.5707963267948966 -1.5707963267948966 0.0 1.5707963267948966 0.0 0.2743434418098265 0.0 0.0 0.0 0.0 0.0 0.0 0.0 0.0 0.0 0.0 0.0 307.70902233098195 71.07181281008127 480.9 -1.4323058544843013 0.7640557214873034 -0.7640557214873035 
2.2983434 0.5929032882551202 -1.5707963267948966 -1.5707963267948966 0.0 1.5707963267948966 0.0 0.2743434418098265 0.0 0.0 0.0 0.0 0.0 0.0 0.0 0.0 0.0 0.0 0.0 307.55229666620073 71.74698471256642 480.9 -1.4329317910510926 0.7623708785677723 -0.7623708785677724 
2.3063436 0.5950980357895987 -1.5707963267948966 -1.5707963267948966 0.0 1.5707963267948966 0.0 0.2743434418098265 0.0 0.0 0.0 0.0 0.0 0.0 0.0 0.0 0.0 0.0 0.0 307.3940895482079 72.42181101593859 480.9 -1.4335562666792985 0.760685853677902 -0.7606858536779021 
2.3143435 0.5972927833240773 -1.5707963267948966 -1.5707963267948966 0.0 1.5707963267948966 0.0 0.2743434418098265 0.0 0.0 0.0 0.0 0.0 0.0 0.0 0.0 0.0 0.0 0.0 307.2344017390737 73.09628846961692 480.9 -1.4341792817648404 0.7590006472974299 -0.75900064729743 
2.3223433 0.599487530858556 -1.5707963267948966 -1.5707963267948966 0.0 1.5707963267948966 0.0 0.2743434418098265 0.0 0.0 0.0 0.0 0.0 0.0 0.0 0.0 0.0 0.0 0.0 307.07323400800067 73.77041382470111 480.9 -1.4348008367026683 0.7573152599055832 -0.7573152599055833 
2.3303435 0.6016822783930346 -1.5707963267948966 -1.5707963267948966 0.0 1.5707963267948966 0.0 0.2743434418098265 0.0 0.0 0.0 0.0 0.0 0.0 0.0 0.0 0.0 0.0 0.0 306.9105871313201 74.44418383398659 480.9 -1.4354209318867581 0.7556296919810808 -0.7556296919810809 
2.3383434 0.6038770259275132 -1.5707963267948966 -1.5707963267948966 0.0 1.5707963267948966 0.0 0.2743434418098265 0.0 0.0 0.0 0.0 0.0 0.0 0.0 0.0 0.0 0.0 0.0 306.746461892488 75.11759525198073 480.9 -1.4360395677101128 0.7539439440021333 -0.7539439440021334 
2.3463435 0.6060717734619918 -1.5707963267948966 -1.5707963267948966 0.0 1.5707963267948966 0.0 0.2743434418098265 0.0 0.0 0.0 0.0 0.0 0.0 0.0 0.0 0.0 0.0 0.0 306.5808590820818 75.79064483491806 480.9 -1.436656744564764 0.7522580164464461 -0.7522580164464461 
2.3543434 0.6082665209964704 -1.5707963267948966 -1.5707963267948966 0.0 1.5707963267948966 0.0 0.2743434418098265 0.0 0.0 0.0 0.0 0.0 0.0 0.0 0.0 0.0 0.0 0.0 306.4137794977961 76.46332934077606 480.9 -1.437272462841772 0.7505719097912202 -0.7505719097912203 
2.3623435 0.6104612685309491 -1.5707963267948966 -1.5707963267948966 0.0 1.5707963267948966 0.0 0.2743434418098265 0.0 0.0 0.0 0.0 0.0 0.0 0.0 0.0 0.0 0.0 0.0 306.245223944439 77.13564552929085 480.9 -1.4378867229312255 0.7488856245131535 -0.7488856245131537 
2.3703434 0.6126560160654276 -1.5707963267948966 -1.5707963267948966 0.0 1.5707963267948966 0.0 0.2743434418098265 0.0 0.0 0.0 0.0 0.0 0.0 0.0 0.0 0.0 0.0 0.0 306.0751932339282 77.80759016197253 480.9 -1.4384995252222432 0.7471991610884428 -0.7471991610884428 
2.3783433 0.6148507635999063 -1.5707963267948966 -1.5707963267948966 0.0 1.5707963267948966 0.0 0.2743434418098265 0.0 0.0 0.0 0.0 0.0 0.0 0.0 0.0 0.0 0.0 0.0 305.90368818528725 78.47916000212115 480.9 -1.4391108701029736 0.7455125199927838 -0.7455125199927839 
2.3863435 0.6170455111343849 -1.5707963267948966 -1.5707963267948966 0.0 1.5707963267948966 0.0 0.2743434418098265 0.0 0.0 0.0 0.0 0.0 0.0 0.0 0.0 0.0 0.0 0.0 305.7307096246413 79.15035181484188 480.9 -1.4397207579605964 0.7438257017013759 -0.743825701701376 
2.3943434 0.6192402586688635 -1.5707963267948966 -1.5707963267948966 0.0 1.5707963267948966 0.0 0.2743434418098265 0.0 0.0 0.0 0.0 0.0 0.0 0.0 0.0 0.0 0.0 0.0 305.55625838521337 79.82116236706106 480.9 -1.440329189181322 0.7421387066889191 -0.7421387066889192 
2.4023435 0.6214350062033421 -1.5707963267948966 -1.5707963267948966 0.0 1.5707963267948966 0.0 0.2743434418098265 0.0 0.0 0.0 0.0 0.0 0.0 0.0 0.0 0.0 0.0 0.0 305.38033530732014 80.49158842754139 480.9 -1.440936164150394 0.7404515354296196 -0.7404515354296197 
2.4103434 0.6236297537378207 -1.5707963267948966 -1.5707963267948966 0.0 1.5707963267948966 0.0 0.2743434418098265 0.0 0.0 0.0 0.0 0.0 0.0 0.0 0.0 0.0 0.0 0.0 305.2029412383681 81.16162676689754 480.9 -1.4415416832520862 0.7387641883971888 -0.7387641883971889 
2.4183435 0.6258245012722994 -1.5707963267948966 -1.5707963267948966 0.0 1.5707963267948966 0.0 0.2743434418098265 0.0 0.0 0.0 0.0 0.0 0.0 0.0 0.0 0.0 0.0 0.0 305.0240770328495 81.83127415761206 480.9 -1.4421457468697074 0.737076666064846 -0.7370766660648461 
2.4263434 0.628019248806778 -1.5707963267948966 -1.5707963267948966 0.0 1.5707963267948966 0.0 0.2743434418098265 0.0 0.0 0.0 0.0 0.0 0.0 0.0 0.0 0.0 0.0 0.0 304.84374355233786 82.50052737405044 480.9 -1.4427483553855984 0.7353889689053184 -0.7353889689053185 
2.4343433 0.6302139963412565 -1.5707963267948966 -1.5707963267948966 0.0 1.5707963267948966 0.0 0.2743434418098265 0.0 0.0 0.0 0.0 0.0 0.0 0.0 0.0 0.0 0.0 0.0 304.6619416654842 83.16938319247693 480.9 -1.4433495091811348 0.7337010973908445 -0.7337010973908447 
2.4423435 0.6324087438757352 -1.5707963267948966 -1.5707963267948966 0.0 1.5707963267948966 0.0 0.2743434418098265 0.0 0.0 0.0 0.0 0.0 0.0 0.0 0.0 0.0 0.0 0.0 304.4786722480128 83.83783839107008 480.9 -1.4439492086367267 0.7320130519931742 -0.7320130519931745 
2.4503434 0.6346034914102138 -1.5707963267948966 -1.5707963267948966 0.0 1.5707963267948966 0.0 0.2743434418098265 0.0 0.0 0.0 0.0 0.0 0.0 0.0 0.0 0.0 0.0 0.0 304.2939361827168 84.50588974993813 480.9 -1.4445474541318184 0.7303248331835708 -0.7303248331835709 
2.4583435 0.6367982389446925 -1.5707963267948966 -1.5707963267948966 0.0 1.5707963267948966 0.0 0.2743434418098265 0.0 0.0 0.0 0.0 0.0 0.0 0.0 0.0 0.0 0.0 0.0 304.1077343594539 85.17353405113465 480.9 -1.4451442460448916 0.7286364414328119 -0.728636441432812 
2.4663434 0.638992986479171 -1.5707963267948966 -1.5707963267948966 0.0 1.5707963267948966 0.0 0.2743434418098265 0.0 0.0 0.0 0.0 0.0 0.0 0.0 0.0 0.0 0.0 0.0 303.9200676751427 85.84076807867383 480.9 -1.445739584753462 0.7269478772111919 -0.726947877211192 
2.4743435 0.6411877340136496 -1.5707963267948966 -1.5707963267948966 0.0 1.5707963267948966 0.0 0.2743434418098265 0.0 0.0 0.0 0.0 0.0 0.0 0.0 0.0 0.0 0.0 0.0 303.7309370337575 86.50758861854625 480.9 -1.446333470634084 0.7252591409885222 -0.7252591409885223 
2.4823434 0.6433824815481283 -1.5707963267948966 -1.5707963267948966 0.0 1.5707963267948966 0.0 0.2743434418098265 0.0 0.0 0.0 0.0 0.0 0.0 0.0 0.0 0.0 0.0 0.0 303.54034334632445 87.17399245873419 480.9 -1.446925904062348 0.7235702332341329 -0.723570233234133 
2.4903433 0.6455772290826068 -1.5707963267948966 -1.5707963267948966 0.0 1.5707963267948966 0.0 0.2743434418098265 0.0 0.0 0.0 0.0 0.0 0.0 0.0 0.0 0.0 0.0 0.0 303.34828753091716 87.8399763892271 480.9 -1.4475168854128821 0.7218811544168762 -0.7218811544168763 
2.4983435 0.6477719766170855 -1.5707963267948966 -1.5707963267948966 0.0 1.5707963267948966 0.0 0.2743434418098265 0.0 0.0 0.0 0.0 0.0 0.0 0.0 0.0 0.0 0.0 0.0 303.15477051265214 88.50553720203717 480.9 -1.4481064150593541 0.7201919050051244 -0.7201919050051245 
2.5063434 0.6499667241515641 -1.5707963267948966 -1.5707963267948966 0.0 1.5707963267948966 0.0 0.2743434418098265 0.0 0.0 0.0 0.0 0.0 0.0 0.0 0.0 0.0 0.0 0.0 302.9597932236844 89.17067169121458 480.9 -1.4486944933744683 0.7185024854667739 -0.718502485466774 
2.5143435 0.6521614716860427 -1.5707963267948966 -1.5707963267948966 0.0 1.5707963267948966 0.0 0.2743434418098265 0.0 0.0 0.0 0.0 0.0 0.0 0.0 0.0 0.0 0.0 0.0 302.76335660320285 89.83537665286319 480.9 -1.4492811207299714 0.7168128962692465 -0.7168128962692466 
2.5223434 0.6543562192205213 -1.5707963267948966 -1.5707963267948966 0.0 1.5707963267948966 0.0 0.2743434418098265 0.0 0.0 0.0 0.0 0.0 0.0 0.0 0.0 0.0 0.0 0.0 302.565461597426 90.49964888515592 480.9 -1.4498662974966479 0.715123137879489 -0.7151231378794891 
2.5303435 0.6565509667549999 -1.5707963267948966 -1.5707963267948966 0.0 1.5707963267948966 0.0 0.2743434418098265 0.0 0.0 0.0 0.0 0.0 0.0 0.0 0.0 0.0 0.0 0.0 302.3661091595973 91.16348518834992 480.9 -1.4504500240443223 0.7134332107639768 -0.7134332107639768 
2.5383434 0.6587457142894786 -1.5707963267948966 -1.5707963267948966 0.0 1.5707963267948966 0.0 0.2743434418098265 0.0 0.0 0.0 0.0 0.0 0.0 0.0 0.0 0.0 0.0 0.0 302.1653002499803 91.8268823648023 480.9 -1.4510323007418617 0.7117431153887137 -0.7117431153887138 
2.5463433 0.6609404618239572 -1.5707963267948966 -1.5707963267948966 0.0 1.5707963267948966 0.0 0.2743434418098265 0.0 0.0 0.0 0.0 0.0 0.0 0.0 0.0 0.0 0.0 0.0 301.96303583585455 92.48983721898539 480.9 -1.451613127957174 0.7100528522192352 -0.7100528522192352 
2.5543435 0.6631352093584357 -1.5707963267948966 -1.5707963267948966 0.0 1.5707963267948966 0.0 0.2743434418098265 0.0 0.0 0.0 0.0 0.0 0.0 0.0 0.0 0.0 0.0 0.0 301.7593168915104 93.15234655750206 480.9 -1.4521925060572092 0.7083624217206073 -0.7083624217206073 
2.5623434 0.6653299568929144 -1.5707963267948966 -1.5707963267948966 0.0 1.5707963267948966 0.0 0.2743434418098265 0.0 0.0 0.0 0.0 0.0 0.0 0.0 0.0 0.0 0.0 0.0 301.5541443982448 93.81440718910144 480.9 -1.4527704354079596 0.70667182435743 -0.7066718243574301 
2.5703435 0.667524704427393 -1.5707963267948966 -1.5707963267948966 0.0 1.5707963267948966 0.0 0.2743434418098265 0.0 0.0 0.0 0.0 0.0 0.0 0.0 0.0 0.0 0.0 0.0 301.347519344356 94.47601592469368 480.9 -1.4533469163744606 0.7049810605938382 -0.7049810605938384 
2.5783434 0.6697194519618717 -1.5707963267948966 -1.5707963267948966 0.0 1.5707963267948966 0.0 0.2743434418098265 0.0 0.0 0.0 0.0 0.0 0.0 0.0 0.0 0.0 0.0 0.0 301.13944272513936 95.137169577366 480.9 -1.4539219493207913 0.7032901308935031 -0.7032901308935032 
2.5863435 0.6719141994963502 -1.5707963267948966 -1.5707963267948966 0.0 1.5707963267948966 0.0 0.2743434418098265 0.0 0.0 0.0 0.0 0.0 0.0 0.0 0.0 0.0 0.0 0.0 300.9299155428822 95.7978649623975 480.9 -1.4544955346100756 0.7015990357196331 -0.7015990357196332 
2.5943434 0.6741089470308288 -1.5707963267948966 -1.5707963267948966 0.0 1.5707963267948966 0.0 0.2743434418098265 0.0 0.0 0.0 0.0 0.0 0.0 0.0 0.0 0.0 0.0 0.0 300.71893880685917 96.45809889727482 480.9 -1.4550676726044807 0.699907775534976 -0.6999077755349761 
2.6023436 0.6763036945653075 -1.5707963267948966 -1.5707963267948966 0.0 1.5707963267948966 0.0 0.2743434418098265 0.0 0.0 0.0 0.0 0.0 0.0 0.0 0.0 0.0 0.0 0.0 300.5065135333272 97.11786820170735 480.9 -1.45563836366522 0.6982163508018198 -0.6982163508018199 
2.6103435 0.678498442099786 -1.5707963267948966 -1.5707963267948966 0.0 1.5707963267948966 0.0 0.2743434418098265 0.0 0.0 0.0 0.0 0.0 0.0 0.0 0.0 0.0 0.0 0.0 300.29264074552077 97.77716969764259 480.9 -1.456207608152552 0.6965247619819941 -0.6965247619819942 
2.6183434 0.6806931896342647 -1.5707963267948966 -1.5707963267948966 0.0 1.5707963267948966 0.0 0.2743434418098265 0.0 0.0 0.0 0.0 0.0 0.0 0.0 0.0 0.0 0.0 0.0 300.07732147364675 98.43600020928136 480.9 -1.4567754064257812 0.6948330095368723 -0.6948330095368724 
2.6263435 0.6828879371687433 -1.5707963267948966 -1.5707963267948966 0.0 1.5707963267948966 0.0 0.2743434418098265 0.0 0.0 0.0 0.0 0.0 0.0 0.0 0.0 0.0 0.0 0.0 299.86055675487984 99.09435656309321 480.9 -1.4573417588432602 0.6931410939273729 -0.693141093927373 
2.6343434 0.6850826847032219 -1.5707963267948966 -1.5707963267948966 0.0 1.5707963267948966 0.0 0.2743434418098265 0.0 0.0 0.0 0.0 0.0 0.0 0.0 0.0 0.0 0.0 0.0 299.64234763335725 99.75223558783172 480.9 -1.4579066657623876 0.6914490156139588 -0.6914490156139589 
2.6423435 0.6872774322377005 -1.5707963267948966 -1.5707963267948966 0.0 1.5707963267948966 0.0 0.2743434418098265 0.0 0.0 0.0 0.0 0.0 0.0 0.0 0.0 0.0 0.0 0.0 299.42269516017365 100.40963411454959 480.9 -1.4584701275396093 0.6897567750566418 -0.6897567750566418 
2.6503434 0.6894721797721791 -1.5707963267948966 -1.5707963267948966 0.0 1.5707963267948966 0.0 0.2743434418098265 0.0 0.0 0.0 0.0 0.0 0.0 0.0 0.0 0.0 0.0 0.0 299.2016003933763 101.0665489766142 480.9 -1.4590321445304208 0.6880643727149822 -0.6880643727149823 
2.6583436 0.6916669273066578 -1.5707963267948966 -1.5707963267948966 0.0 1.5707963267948966 0.0 0.2743434418098265 0.0 0.0 0.0 0.0 0.0 0.0 0.0 0.0 0.0 0.0 0.0 298.97906439795986 101.72297700972265 480.9 -1.4595927170893654 0.68637180904809 -0.6863718090480901 
2.6663435 0.6938616748411364 -1.5707963267948966 -1.5707963267948966 0.0 1.5707963267948966 0.0 0.2743434418098265 0.0 0.0 0.0 0.0 0.0 0.0 0.0 0.0 0.0 0.0 0.0 298.7550882458613 102.3789150519169 480.9 -1.4601518455700362 0.6846790845146281 -0.6846790845146282 
2.6743433 0.6960564223756149 -1.5707963267948966 -1.5707963267948966 0.0 1.5707963267948966 0.0 0.2743434418098265 0.0 0.0 0.0 0.0 0.0 0.0 0.0 0.0 0.0 0.0 0.0 298.52967301595464 103.03435994359938 480.9 -1.4607095303250754 0.6829861995728111 -0.6829861995728113 
2.6823435 0.6982511699100936 -1.5707963267948966 -1.5707963267948966 0.0 1.5707963267948966 0.0 0.2743434418098265 0.0 0.0 0.0 0.0 0.0 0.0 0.0 0.0 0.0 0.0 0.0 298.3028197940458 103.68930852754787 480.9 -1.4612657717061763 0.6812931546804086 -0.6812931546804087 
2.6903434 0.7004459174445722 -1.5707963267948966 -1.5707963267948966 0.0 1.5707963267948966 0.0 0.2743434418098265 0.0 0.0 0.0 0.0 0.0 0.0 0.0 0.0 0.0 0.0 0.0 298.0745296728675 104.34375764893082 480.9 -1.4618205700640827 0.6795999502947464 -0.6795999502947464 
2.6983435 0.7026406649790509 -1.5707963267948966 -1.5707963267948966 0.0 1.5707963267948966 0.0 0.2743434418098265 0.0 0.0 0.0 0.0 0.0 0.0 0.0 0.0 0.0 0.0 0.0 297.84480375207374 104.99770415532264 480.9 -1.4623739257485893 0.6779065868727066 -0.6779065868727067 
2.7063434 0.7048354125135294 -1.5707963267948966 -1.5707963267948966 0.0 1.5707963267948966 0.0 0.2743434418098265 0.0 0.0 0.0 0.0 0.0 0.0 0.0 0.0 0.0 0.0 0.0 297.61364313823475 105.65114489671859 480.9 -1.4629258391085431 0.6762130648707304 -0.6762130648707305 
2.7143435 0.707030160048008 -1.5707963267948966 -1.5707963267948966 0.0 1.5707963267948966 0.0 0.2743434418098265 0.0 0.0 0.0 0.0 0.0 0.0 0.0 0.0 0.0 0.0 0.0 297.38104894483155 106.3040767255504 480.9 -1.4634763104918436 0.6745193847448194 -0.6745193847448195 
2.7223434 0.7092249075824867 -1.5707963267948966 -1.5707963267948966 0.0 1.5707963267948966 0.0 0.2743434418098265 0.0 0.0 0.0 0.0 0.0 0.0 0.0 0.0 0.0 0.0 0.0 297.1470222922504 106.95649649670104 480.9 -1.4640253402454417 0.6728255469505355 -0.6728255469505356 
2.7303433 0.7114196551169653 -1.5707963267948966 -1.5707963267948966 0.0 1.5707963267948966 0.0 0.2743434418098265 0.0 0.0 0.0 0.0 0.0 0.0 0.0 0.0 0.0 0.0 0.0 296.9115643077779 107.60840106751999 480.9 -1.4645729287153437 0.6711315519430042 -0.6711315519430043 
2.7383435 0.7136144026514439 -1.5707963267948966 -1.5707963267948966 0.0 1.5707963267948966 0.0 0.2743434418098265 0.0 0.0 0.0 0.0 0.0 0.0 0.0 0.0 0.0 0.0 0.0 296.67467612559506 108.25978729783859 480.9 -1.4651190762466086 0.6694374001769148 -0.6694374001769149 
2.7463434 0.7158091501859225 -1.5707963267948966 -1.5707963267948966 0.0 1.5707963267948966 0.0 0.2743434418098265 0.0 0.0 0.0 0.0 0.0 0.0 0.0 0.0 0.0 0.0 0.0 296.4363588867721 108.91065204998478 480.9 -1.4656637831833492 0.6677430921065216 -0.6677430921065217 
2.7543435 0.7180038977204011 -1.5707963267948966 -1.5707963267948966 0.0 1.5707963267948966 0.0 0.2743434418098265 0.0 0.0 0.0 0.0 0.0 0.0 0.0 0.0 0.0 0.0 0.0 296.1966137392628 109.56099218879851 480.9 -1.4662070498687343 0.6660486281856466 -0.6660486281856467 
2.7623434 0.7201986452548798 -1.5707963267948966 -1.5707963267948966 0.0 1.5707963267948966 0.0 0.2743434418098265 0.0 0.0 0.0 0.0 0.0 0.0 0.0 0.0 0.0 0.0 0.0 295.955441837899 110.21080458164677 480.9 -1.4667488766449872 0.6643540088676794 -0.6643540088676795 
2.7703435 0.7223933927893583 -1.5707963267948966 -1.5707963267948966 0.0 1.5707963267948966 0.0 0.2743434418098265 0.0 0.0 0.0 0.0 0.0 0.0 0.0 0.0 0.0 0.0 0.0 295.71284434438553 110.86008609843856 480.9 -1.4672892638533863 0.6626592346055791 -0.6626592346055792 
2.7783434 0.724588140323837 -1.5707963267948966 -1.5707963267948966 0.0 1.5707963267948966 0.0 0.2743434418098265 0.0 0.0 0.0 0.0 0.0 0.0 0.0 0.0 0.0 0.0 0.0 295.46882242729356 111.50883361164021 480.9 -1.4678282118342687 0.6609643058518758 -0.6609643058518759 
2.7863433 0.7267828878583156 -1.5707963267948966 -1.5707963267948966 0.0 1.5707963267948966 0.0 0.2743434418098265 0.0 0.0 0.0 0.0 0.0 0.0 0.0 0.0 0.0 0.0 0.0 295.223377262056 112.15704399629013 480.9 -1.4683657209270253 0.6592692230586725 -0.6592692230586726 
2.7943435 0.7289776353927941 -1.5707963267948966 -1.5707963267948966 0.0 1.5707963267948966 0.0 0.2743434418098265 0.0 0.0 0.0 0.0 0.0 0.0 0.0 0.0 0.0 0.0 0.0 294.97651003096115 112.80471413001419 480.9 -1.468901791470107 0.6575739866776449 -0.6575739866776449 
2.8023434 0.7311723829272728 -1.5707963267948966 -1.5707963267948966 0.0 1.5707963267948966 0.0 0.2743434418098265 0.0 0.0 0.0 0.0 0.0 0.0 0.0 0.0 0.0 0.0 0.0 294.72822192314766 113.45184089304057 480.9 -1.4694364238010202 0.6558785971600442 -0.6558785971600443 
2.8103435 0.7333671304617514 -1.5707963267948966 -1.5707963267948966 0.0 1.5707963267948966 0.0 0.2743434418098265 0.0 0.0 0.0 0.0 0.0 0.0 0.0 0.0 0.0 0.0 0.0 294.4785141345981 114.09842116821464 480.9 -1.4699696182563309 0.6541830549566978 -0.6541830549566979 
2.8183434 0.7355618779962301 -1.5707963267948966 -1.5707963267948966 0.0 1.5707963267948966 0.0 0.2743434418098265 0.0 0.0 0.0 0.0 0.0 0.0 0.0 0.0 0.0 0.0 0.0 294.2273878681335 114.74445184101441 480.9 -1.4705013751716638 0.652487360518011 -0.6524873605180112 
2.8263435 0.7377566255307086 -1.5707963267948966 -1.5707963267948966 0.0 1.5707963267948966 0.0 0.2743434418098265 0.0 0.0 0.0 0.0 0.0 0.0 0.0 0.0 0.0 0.0 0.0 293.9748443334079 115.38992979956515 480.9 -1.4710316948817017 0.650791514293968 -0.6507915142939681 
2.8343434 0.7399513730651872 -1.5707963267948966 -1.5707963267948966 0.0 1.5707963267948966 0.0 0.2743434418098265 0.0 0.0 0.0 0.0 0.0 0.0 0.0 0.0 0.0 0.0 0.0 293.72088474690185 116.03485193465448 480.9 -1.471560577720189 0.6490955167341336 -0.6490955167341337 
2.8423433 0.7421461205996659 -1.5707963267948966 -1.5707963267948966 0.0 1.5707963267948966 0.0 0.2743434418098265 0.0 0.0 0.0 0.0 0.0 0.0 0.0 0.0 0.0 0.0 0.0 293.465510331917 116.67921513974753 480.9 -1.4720880240199286 0.6473993682876537 -0.6473993682876538 
2.8503435 0.7443408681341445 -1.5707963267948966 -1.5707963267948966 0.0 1.5707963267948966 0.0 0.2743434418098265 0.0 0.0 0.0 0.0 0.0 0.0 0.0 0.0 0.0 0.0 0.0 293.20872231857027 117.32301631100145 480.9 -1.4726140341127842 0.645703069403258 -0.6457030694032581 
2.8583434 0.7465356156686231 -1.5707963267948966 -1.5707963267948966 0.0 1.5707963267948966 0.0 0.2743434418098265 0.0 0.0 0.0 0.0 0.0 0.0 0.0 0.0 0.0 0.0 0.0 292.95052194378763 117.96625234728103 480.9 -1.473138608329682 0.6440066205292604 -0.6440066205292605 
2.8663435 0.7487303632031017 -1.5707963267948966 -1.5707963267948966 0.0 1.5707963267948966 0.0 0.2743434418098265 0.0 0.0 0.0 0.0 0.0 0.0 0.0 0.0 0.0 0.0 0.0 292.69091045129824 118.60892015017295 480.9 -1.473661747000609 0.6423100221135607 -0.6423100221135608 
2.8743434 0.7509251107375804 -1.5707963267948966 -1.5707963267948966 0.0 1.5707963267948966 0.0 0.2743434418098265 0.0 0.0 0.0 0.0 0.0 0.0 0.0 0.0 0.0 0.0 0.0 292.4298890916285 119.25101662400125 480.9 -1.4741834504546136 0.6406132746036454 -0.6406132746036455 
2.8823435 0.753119858272059 -1.5707963267948966 -1.5707963267948966 0.0 1.5707963267948966 0.0 0.2743434418098265 0.0 0.0 0.0 0.0 0.0 0.0 0.0 0.0 0.0 0.0 0.0 292.1674591220962 119.89253867584183 480.9 -1.474703719019808 0.63891637844659 -0.63891637844659 
2.8903434 0.7553146058065375 -1.5707963267948966 -1.5707963267948966 0.0 1.5707963267948966 0.0 0.2743434418098265 0.0 0.0 0.0 0.0 0.0 0.0 0.0 0.0 0.0 0.0 0.0 291.90362180680404 120.53348321553773 480.9 -1.4752225530233667 0.6372193340890591 -0.6372193340890592 
2.8983433 0.7575093533410162 -1.5707963267948966 -1.5707963267948966 0.0 1.5707963267948966 0.0 0.2743434418098265 0.0 0.0 0.0 0.0 0.0 0.0 0.0 0.0 0.0 0.0 0.0 291.6383784166338 121.17384715571362 480.9 -1.4757399527915285 0.6355221419773092 -0.6355221419773093 
2.9063435 0.7597041008754948 -1.5707963267948966 -1.5707963267948966 0.0 1.5707963267948966 0.0 0.2743434418098265 0.0 0.0 0.0 0.0 0.0 0.0 0.0 0.0 0.0 0.0 0.0 291.3717302292406 121.81362741179095 480.9 -1.4762559186495954 0.6338248025571888 -0.6338248025571889 
2.9143434 0.7618988484099735 -1.5707963267948966 -1.5707963267948966 0.0 1.5707963267948966 0.0 0.2743434418098265 0.0 0.0 0.0 0.0 0.0 0.0 0.0 0.0 0.0 0.0 0.0 291.10367852904574 122.45282090200284 480.9 -1.4767704509219346 0.6321273162741401 -0.6321273162741402 
2.9223435 0.764093595944452 -1.5707963267948966 -1.5707963267948966 0.0 1.5707963267948966 0.0 0.2743434418098265 0.0 0.0 0.0 0.0 0.0 0.0 0.0 0.0 0.0 0.0 0.0 290.83422460723153 123.09142454740856 480.9 -1.4772835499319772 0.6304296835732006 -0.6304296835732007 
2.9303434 0.7662883434789306 -1.5707963267948966 -1.5707963267948966 0.0 1.5707963267948966 0.0 0.2743434418098265 0.0 0.0 0.0 0.0 0.0 0.0 0.0 0.0 0.0 0.0 0.0 290.56336976173463 123.72943527190881 480.9 -1.4777952160022214 0.6287319048990042 -0.6287319048990043 
2.9383435 0.7684830910134093 -1.5707963267948966 -1.5707963267948966 0.0 1.5707963267948966 0.0 0.2743434418098265 0.0 0.0 0.0 0.0 0.0 0.0 0.0 0.0 0.0 0.0 0.0 290.29111529723957 124.36685000226034 480.9 -1.4783054494542294 0.6270339806957822 -0.6270339806957823 
2.9463434 0.7706778385478879 -1.5707963267948966 -1.5707963267948966 0.0 1.5707963267948966 0.0 0.2743434418098265 0.0 0.0 0.0 0.0 0.0 0.0 0.0 0.0 0.0 0.0 0.0 290.0174625251731 125.00366566809063 480.9 -1.4788142506086317 0.6253359114073657 -0.6253359114073658 
2.9543436 0.7728725860823665 -1.5707963267948966 -1.5707963267948966 0.0 1.5707963267948966 0.0 0.2743434418098265 0.0 0.0 0.0 0.0 0.0 0.0 0.0 0.0 0.0 0.0 0.0 289.74241276369725 125.63987920191292 480.9 -1.4793216197851242 0.6236376974771854 -0.6236376974771856 
2.9623435 0.7750673336168451 -1.5707963267948966 -1.5707963267948966 0.0 1.5707963267948966 0.0 0.2743434418098265 0.0 0.0 0.0 0.0 0.0 0.0 0.0 0.0 0.0 0.0 0.0 289.46596733770326 126.27548753914073 480.9 -1.4798275573024704 0.6219393393482743 -0.6219393393482744 
2.9703434 0.7772620811513237 -1.5707963267948966 -1.5707963267948966 0.0 1.5707963267948966 0.0 0.2743434418098265 0.0 0.0 0.0 0.0 0.0 0.0 0.0 0.0 0.0 0.0 0.0 289.1881275788052 126.91048761810293 480.9 -1.4803320634785027 0.6202408374632682 -0.6202408374632683 
2.9783435 0.7794568286858023 -1.5707963267948966 -1.5707963267948966 0.0 1.5707963267948966 0.0 0.2743434418098265 0.0 0.0 0.0 0.0 0.0 0.0 0.0 0.0 0.0 0.0 0.0 288.90889482533356 127.54487638005823 480.9 -1.48083513863012 0.6185421922644068 -0.6185421922644069 
2.9863434 0.7816515762202809 -1.5707963267948966 -1.5707963267948966 0.0 1.5707963267948966 0.0 0.2743434418098265 0.0 0.0 0.0 0.0 0.0 0.0 0.0 0.0 0.0 0.0 0.0 288.6282704223287 128.17865076921 480.9 -1.4813367830732909 0.6168434041935358 -0.6168434041935359 
2.9943435 0.7838463237547596 -1.5707963267948966 -1.5707963267948966 0.0 1.5707963267948966 0.0 0.2743434418098265 0.0 0.0 0.0 0.0 0.0 0.0 0.0 0.0 0.0 0.0 0.0 288.34625572153436 128.81180773272104 480.9 -1.4818369971230532 0.6151444736921082 -0.6151444736921083 
3.0023434 0.7860410712892382 -1.5707963267948966 -1.5707963267948966 0.0 1.5707963267948966 0.0 0.2743434418098265 0.0 0.0 0.0 0.0 0.0 0.0 0.0 0.0 0.0 0.0 0.0 288.0628520813915 129.44434422072806 480.9 -1.482335781093514 0.6134454012011851 -0.6134454012011852 
3.0103436 0.7882358188237167 -1.5707963267948966 -1.5707963267948966 0.0 1.5707963267948966 0.0 0.2743434418098265 0.0 0.0 0.0 0.0 0.0 0.0 0.0 0.0 0.0 0.0 0.0 287.77806086703123 130.07625718635683 480.9 -1.482833135297851 0.6117461871614365 -0.6117461871614366 
3.0183434 0.7904305663581954 -1.5707963267948966 -1.5707963267948966 0.0 1.5707963267948966 0.0 0.2743434418098265 0.0 0.0 0.0 0.0 0.0 0.0 0.0 0.0 0.0 0.0 0.0 287.4918834502686 130.70754358573637 480.9 -1.4833290600483116 0.610046832013144 -0.6100468320131441 
3.0263433 0.792625313892674 -1.5707963267948966 -1.5707963267948966 0.0 1.5707963267948966 0.0 0.2743434418098265 0.0 0.0 0.0 0.0 0.0 0.0 0.0 0.0 0.0 0.0 0.0 287.2043212095957 131.33820037801388 480.9 -1.4838235556562145 0.6083473361962006 -0.6083473361962007 
3.0343435 0.7948200614271527 -1.5707963267948966 -1.5707963267948966 0.0 1.5707963267948966 0.0 0.2743434418098265 0.0 0.0 0.0 0.0 0.0 0.0 0.0 0.0 0.0 0.0 0.0 286.9153755301756 131.96822452536935 480.9 -1.48431662243195 0.6066477001501138 -0.6066477001501139 
3.0423434 0.7970148089616312 -1.5707963267948966 -1.5707963267948966 0.0 1.5707963267948966 0.0 0.2743434418098265 0.0 0.0 0.0 0.0 0.0 0.0 0.0 0.0 0.0 0.0 0.0 286.62504780383483 132.59761299303008 480.9 -1.484808260684981 0.6049479243140052 -0.6049479243140053 
3.0503435 0.7992095564961098 -1.5707963267948966 -1.5707963267948966 0.0 1.5707963267948966 0.0 0.2743434418098265 0.0 0.0 0.0 0.0 0.0 0.0 0.0 0.0 0.0 0.0 0.0 286.33333942905733 133.2263627492855 480.9 -1.4852984707238421 0.6032480091266126 -0.6032480091266127 
