Fleaurent/UniversalRobot/csv/robot_movej_Synchron.csv
timestamp target_q_0 target_q_1 target_q_2 target_q_3 target_q_4 target_q_5 target_qd_0 target_qd_1 target_qd_2 target_qd_3 target_qd_4 target_qd_5 target_qdd_0 target_qdd_1 target_qdd_2 target_qdd_3 target_qdd_4 target_qdd_5 target_current_0 target_current_1 target_current_2 target_current_3 target_current_4 target_current_5 target_moment_0 target_moment_1 target_moment_2 target_moment_3 target_moment_4 target_moment_5 actual_q_0 actual_q_1 actual_q_2 actual_q_3 actual_q_4 actual_q_5 actual_qd_0 actual_qd_1 actual_qd_2 actual_qd_3 actual_qd_4 actual_qd_5 actual_current_0 actual_current_1 actual_current_2 actual_current_3 actual_current_4 actual_current_5 joint_control_output_0 joint_control_output_1 joint_control_output_2 joint_control_output_3 joint_control_output_4 joint_control_output_5 actual_TCP_pose_0 actual_TCP_pose_1 actual_TCP_pose_2 actual_TCP_pose_3 actual_TCP_pose_4 actual_TCP_pose_5 actual_TCP_speed_0 actual_TCP_speed_1 actual_TCP_speed_2 actual_TCP_speed_3 actual_TCP_speed_4 actual_TCP_speed_5 actual_TCP_force_0 actual_TCP_force_1 actual_TCP_force_2 actual_TCP_force_3 actual_TCP_force_4 actual_TCP_force_5 target_TCP_pose_0 target_TCP_pose_1 target_TCP_pose_2 target_TCP_pose_3 target_TCP_pose_4 target_TCP_pose_5 target_TCP_speed_0 target_TCP_speed_1 target_TCP_speed_2 target_TCP_speed_3 target_TCP_speed_4 target_TCP_speed_5
2441.0 0.0 -1.5707963267948966 -1.5707963267948966 0.0 1.5707963267948966 0.0 -0.0 0.0 0.0 0.0 0.0 0.0 0.0 0.0 0.0 0.0 0.0 0.0 -1.8327750199862536e-26 0.555172973447796 0.7573864583558305 0.07057808899065858 -9.380070923910231e-28 0.0 -2.1032924999364705e-25 6.394759450000002 6.3947594500000005 0.2913103000000004 -3.894025929994733e-27 0.0 0.0 -1.5707362333880823 -1.5708072821246546 -7.659593691045075e-05 1.5707316398620605 -1.1746083394825746e-05 0.0 0.0 -0.0 0.0 0.0 0.0 0.0493469275534153 0.5517883896827698 0.6725431680679321 -0.004475975409150124 -0.02685585245490074 -0.07832957059144974 0.0471038855612278 0.5585175156593323 0.6755932569503784 -0.008951950818300247 -0.025736859068274498 -0.08951950818300247 0.2957971558595174 -0.11304002112950906 0.4815608025816874 -1.2101380230386116 1.2098993702190062 -1.2090187234429246 0.0 0.0 0.0 0.0 0.0 0.0 3.1013373602037726 -5.202263365261735 2.121655359617248 0.3639094943061188 -0.4375005671990088 0.5532910886708661 0.29580949455060795 -0.11303468883756389 0.4815525763646191 -1.210139742515539 1.2098370768821622 -1.20897546102981 0.0 0.0 0.0 0.0 0.0 0.0
2441.008 0.0 -1.5707963267948966 -1.5707963267948966 0.0 1.5707963267948966 0.0 -0.0 0.0 0.0 0.0 0.0 0.0 0.0 0.0 0.0 0.0 0.0 0.0 -1.8327750199862536e-26 0.555172973447796 0.7573864583558305 0.07057808899065858 -9.380070923910231e-28 0.0 -2.1032924999364705e-25 6.394759450000002 6.3947594500000005 0.2913103000000004 -3.894025929994733e-27 0.0 1.1984225238848012e-05 -1.5707724730121058 -1.5707715193377894 -4.0356312887013246e-05 1.5707075595855713 -4.7985707418263246e-05 0.0 0.0 -0.0 0.0 0.0 0.0 0.0515899695456028 0.5630035996437073 0.681693434715271 -0.002237987704575062 -0.02685585245490074 -0.07497258484363556 0.0471038855612278 0.5585175156593323 0.6755932569503784 -0.008951950818300247 -0.025736859068274498 -0.09063850343227386 0.29580429683819953 -0.11303848918620395 0.4815636425432012 -1.2101325875421995 1.2098648962402563 -1.2090712885289827 0.0 0.0 0.0 0.0 0.0 0.0 3.339398627425724 -5.463309906342839 1.7634455744297195 0.34832733248046693 -0.4769636476022844 0.5747803038078533 0.29580949455060795 -0.11303468883756389 0.4815525763646191 -1.210139742515539 1.2098370768821622 -1.20897546102981 0.0 0.0 0.0 0.0 0.0 0.0
2441.016 0.0 -1.5707963267948966 -1.5707963267948966 0.0 1.5707963267948966 0.0 -0.0 0.0 0.0 0.0 0.0 0.0 0.0 0.0 0.0 0.0 0.0 0.0 -1.8327750199862536e-26 0.555172973447796 0.7573864583558305 0.07057808899065858 -9.380070923910231e-28 0.0 -2.1032924999364705e-25 6.394759450000002 6.3947594500000005 0.2913103000000004 -3.894025929994733e-27 0.0 1.1984225238848012e-05 -1.5707724730121058 -1.5707953611956995 -5.2754079000294496e-05 1.5707675218582153 -7.230440248662262e-05 0.0 0.0 -0.0 0.0 0.0 0.0 0.0471038855612278 0.5899201035499573 0.699993908405304 -0.015665914863348007 -0.014546919614076614 -0.07832957059144974 0.0471038855612278 0.5585175156593323 0.6755932569503784 -0.008951950818300247 -0.022379877045750618 -0.09175749868154526 0.29580740353269125 -0.11303352291933923 0.48155557258415016 -1.2102056291368368 1.209835813278491 -1.2090278380900974 0.0 0.0 0.0 0.0 0.0 0.0 4.05348442117897 -5.302316206779205 0.6605436021378683 0.36386357792970286 -0.69080957667822 0.5041976752675202 0.29580949455060795 -0.11303468883756389 0.4815525763646191 -1.210139742515539 1.2098370768821622 -1.20897546102981 0.0 0.0 0.0 0.0 0.0 0.0
2441.024 0.0 -1.5707963267948966 -1.5707963267948966 0.0 1.5707963267948966 0.0 -0.0 0.0 0.0 0.0 0.0 0.0 0.0 0.0 0.0 0.0 0.0 0.0 -1.8327750199862536e-26 0.555172973447796 0.7573864583558305 0.07057808899065858 -9.380070923910231e-28 0.0 -2.1032924999364705e-25 6.394759450000002 6.3947594500000005 0.2913103000000004 -3.894025929994733e-27 0.0 -2.366701234990387e-05 -1.5707481543170374 -1.5707476774798792 -5.2754079000294496e-05 1.57077956199646 -7.230440248662262e-05 0.0 0.0 -0.0 0.0 0.0 0.0 0.0448608435690403 0.5495453476905823 0.6862685084342957 -0.004475975409150124 -0.019022895023226738 -0.07161560654640198 0.0471038855612278 0.5585175156593323 0.6755932569503784 -0.008951950818300247 -0.02349887043237686 -0.09063850343227386 0.2957912724221718 -0.11304313978415736 0.4815768589482454 -1.2101413089405597 1.2098003751072766 -1.2090794086651755 0.0 0.0 0.0 0.0 0.0 0.0 2.4513216914499636 -4.4172756991723645 1.5142905371697213 0.332636094484666 -0.43203673816962884 0.452260696464434 0.29580949455060795 -0.11303468883756389 0.4815525763646191 -1.210139742515539 1.2098370768821622 -1.20897546102981 0.0 0.0 0.0 0.0 0.0 0.0
2441.0319999999997 0.0 -1.5707963267948966 -1.5707963267948966 0.0 1.5707963267948966 0.0 -0.0 0.0 0.0 0.0 0.0 0.0 0.0 0.0 0.0 0.0 0.0 0.0 -1.8327750199862536e-26 0.555172973447796 0.7573864583558305 0.07057808899065858 -9.380070923910231e-28 0.0 -2.1032924999364705e-25 6.394759450000002 6.3947594500000005 0.2913103000000004 -3.894025929994733e-27 0.0 -2.366701234990387e-05 -1.5707600752459925 -1.5707953611956995 -5.2754079000294496e-05 1.5707075595855713 -3.5587941304981996e-05 0.0 0.0 -0.0 0.0 0.0 0.0 0.0515899695456028 0.5495453476905823 0.6771183013916016 -0.004475975409150124 -0.031331829726696014 -0.11301837861537933 0.0471038855612278 0.5585175156593323 0.6755932569503784 -0.008951950818300247 -0.02349887043237686 -0.08840051293373108 0.2957992808762491 -0.11304901145956982 0.4815592400487046 -1.2101241992298826 1.2099145200007226 -1.2090770769472705 0.0 0.0 0.0 0.0 0.0 0.0 2.8043674065590314 -5.27790260697233 1.9173819407720623 0.5248385369382692 -0.4290300703791673 0.5803591667839475 0.29580949455060795 -0.11303468883756389 0.4815525763646191 -1.210139742515539 1.2098370768821622 -1.20897546102981 0.0 0.0 0.0 0.0 0.0 0.0
2441.04 0.0 -1.5707963267948966 -1.5707963267948966 0.0 1.5707963267948966 0.0 -0.0 0.0 0.0 0.0 0.0 0.0 0.0 0.0 0.0 0.0 0.0 0.0 -1.8327750199862536e-26 0.555172973447796 0.7573864583558305 0.07057808899065858 -9.380070923910231e-28 0.0 -2.1032924999364705e-25 6.394759450000002 6.3947594500000005 0.2913103000000004 -3.894025929994733e-27 0.0 -3.5587941304981996e-05 -1.5707600752459925 -1.5707834402667444 -2.8912221090138246e-05 1.5707435607910156 -5.990663637334137e-05 0.0 0.0 -0.0 0.0 0.0 0.0 0.0426178015768528 0.5607605576515198 0.6740682125091553 0.0 -0.01678490824997425 -0.1007094457745552 0.0448608435690403 0.5585175156593323 0.6755932569503784 -0.008951950818300247 -0.02349887043237686 -0.08728151768445969 0.2957948804397192 -0.11304958737416622 0.48156472619248586 -1.2101271414772523 1.2098589942148925 -1.209094208562442 0.0 0.0 0.0 0.0 0.0 0.0 3.517177185846743 -4.797284678811577 2.152263530513292 0.4676157825660782 -0.44978454798045137 0.4730323035455854 0.29580949455060795 -0.11303468883756389 0.4815525763646191 -1.210139742515539 1.2098370768821622 -1.20897546102981 0.0 0.0 0.0 0.0 0.0 0.0
2441.048 0.0 -1.5707963267948966 -1.5707963267948966 0.0 1.5707963267948966 0.0 -0.0 0.0 0.0 0.0 0.0 0.0 0.0 0.0 0.0 0.0 0.0 0.0 -1.8327750199862536e-26 0.555172973447796 0.7573864583558305 0.07057808899065858 -9.380070923910231e-28 0.0 -2.1032924999364705e-25 6.394759450000002 6.3947594500000005 0.2913103000000004 -3.894025929994733e-27 0.0 -3.5587941304981996e-05 -1.5707243124591272 -1.5707476774798792 -4.0356312887013246e-05 1.5707675218582153 -5.990663637334137e-05 0.0 0.0 -0.0 0.0 0.0 0.0 0.0515899695456028 0.5450592637062073 0.6801683902740479 -0.024617865681648254 -0.02349887043237686 -0.09735246747732162 0.0471038855612278 0.5585175156593323 0.6755932569503784 -0.008951950818300247 -0.02349887043237686 -0.09175749868154526 0.2957810057110057 -0.11304766628118536 0.4815849298202885 -1.2100941308062236 1.209797243866606 -1.2091050998883417 0.0 0.0 0.0 0.0 0.0 0.0 2.4489595309879055 -4.919770384035774 1.3458322091928032 0.4520530214416491 -0.5389716132970183 0.5145158064496719 0.29580949455060795 -0.11303468883756389 0.4815525763646191 -1.210139742515539 1.2098370768821622 -1.20897546102981 0.0 0.0 0.0 0.0 0.0 0.0
2441.056 0.0 -1.5707963267948966 -1.5707963267948966 0.0 1.5707963267948966 0.0 -0.0 0.0 0.0 0.0 0.0 0.0 0.0 0.0 0.0 0.0 0.0 0.0 -1.8327750199862536e-26 0.555172973447796 0.7573864583558305 0.07057808899065858 -9.380070923910231e-28 0.0 -2.1032924999364705e-25 6.394759450000002 6.3947594500000005 0.2913103000000004 -3.894025929994733e-27 0.0 -1.1746083394825746e-05 -1.5707600752459925 -1.5707953611956995 -4.0356312887013246e-05 1.5707556009292603 -5.990663637334137e-05 0.0 0.0 -0.0 0.0 0.0 0.0 0.0471038855612278 0.5899201035499573 0.6755932569503784 -0.014546919614076614 -0.02349887043237686 -0.09063850343227386 0.0471038855612278 0.5585175156593323 0.6755932569503784 -0.008951950818300247 -0.02349887043237686 -0.09175749868154526 0.2957995750497962 -0.11304152927079232 0.4815602597734829 -1.2101613559719953 1.2098497135391744 -1.209056708171433 0.0 0.0 0.0 0.0 0.0 0.0 4.999167450545779 -5.998370142411333 1.766974375588026 0.4210314329729117 -0.6753183094654716 0.6031147150815327 0.29580949455060795 -0.11303468883756389 0.4815525763646191 -1.210139742515539 1.2098370768821622 -1.20897546102981 0.0 0.0 0.0 0.0 0.0 0.0
2441.064 0.0 -1.5707963267948966 -1.5707963267948966 0.0 1.5707963267948966 0.0 -0.0 0.0 0.0 0.0 0.0 0.0 0.0 0.0 0.0 0.0 0.0 0.0 -1.8327750199862536e-26 0.555172973447796 0.7573864583558305 0.07057808899065858 -9.380070923910231e-28 0.0 -2.1032924999364705e-25 6.394759450000002 6.3947594500000005 0.2913103000000004 -3.894025929994733e-27 0.0 2.3968450477696024e-05 -1.5707009474383753 -1.5707715193377894 1.9073486328125e-05 1.570719599723816 -8.422533144170075e-05 0.0 0.0 -0.0 0.0 0.0 0.0 0.0515899695456028 0.5585175156593323 0.6755932569503784 -0.04923573136329651 -0.025736859068274498 -0.067139632999897 0.0471038855612278 0.5585175156593323 0.6755932569503784 -0.008951950818300247 -0.02349887043237686 -0.09063850343227386 0.2957770009944453 -0.11303398176350887 0.48158968472842884 -1.2100741442072338 1.2097337309121807 -1.2091423442410474 0.0 0.0 0.0 0.0 0.0 0.0 3.338446286873308 -5.439537868436626 1.0148232832102702 0.31189092441693334 -0.7560489506457482 0.5677226550006478 0.29580949455060795 -0.11303468883756389 0.4815525763646191 -1.210139742515539 1.2098370768821622 -1.20897546102981 0.0 0.0 0.0 0.0 0.0 0.0
2441.072 0.0 -1.5707963267948966 -1.5707963267948966 0.0 1.5707963267948966 0.0 -0.0 0.0 0.0 0.0 0.0 0.0 0.0 0.0 0.0 0.0 0.0 0.0 -1.8327750199862536e-26 0.555172973447796 0.7573864583558305 0.07057808899065858 -9.380070923910231e-28 0.0 -2.1032924999364705e-25 6.394759450000002 6.3947594500000005 0.2913103000000004 -3.894025929994733e-27 0.0 -1.1746083394825746e-05 -1.5707243124591272 -1.5708072821246546 -4.593526021778871e-06 1.5707435607910156 -5.990663637334137e-05 0.0 0.0 -0.0 0.0 0.0 0.0 0.0493469275534153 0.5764618515968323 0.6664429903030396 -0.004475975409150124 -0.02349887043237686 -0.08056755363941193 0.0471038855612278 0.5585175156593323 0.6755932569503784 -0.008951950818300247 -0.02349887043237686 -0.08951950818300247 0.29578575377523314 -0.11304252170797888 0.4815702556789508 -1.2101117564972417 1.2098147154590175 -1.2090938073971087 0.0 0.0 0.0 0.0 0.0 0.0 4.642239064549551 -5.945118385458676 2.3916472906798307 0.37427660826121223 -0.5468428515223616 0.5987625346193396 0.29580949455060795 -0.11303468883756389 0.4815525763646191 -1.210139742515539 1.2098370768821622 -1.20897546102981 0.0 0.0 0.0 0.0 0.0 0.0
2441.08 0.0 -1.5707963267948966 -1.5707963267948966 0.0 1.5707963267948966 0.0 -0.0 0.0 0.0 0.0 0.0 0.0 0.0 0.0 0.0 0.0 0.0 0.0 -1.8327750199862536e-26 0.555172973447796 0.7573864583558305 0.07057808899065858 -9.380070923910231e-28 0.0 -2.1032924999364705e-25 6.394759450000002 6.3947594500000005 0.2913103000000004 -3.894025929994733e-27 0.0 -1.1746083394825746e-05 -1.5707600752459925 -1.5707476774798792 -2.8912221090138246e-05 1.5707556009292603 -8.422533144170075e-05 0.0 0.0 -0.0 0.0 0.0 0.0 0.0560760572552681 0.5405731797218323 0.6649179458618164 -0.01007094420492649 -0.024617865681648254 -0.10518541932106018 0.0471038855612278 0.5585175156593323 0.6755932569503784 -0.008951950818300247 -0.022379877045750618 -0.08728151768445969 0.29579451236407334 -0.11304158413245298 0.4815752974663443 -1.2101356124984342 1.2097948268938985 -1.2091026927225803 0.0 0.0 0.0 0.0 0.0 0.0 2.8025779653307734 -5.401276268634904 2.3368994840030988 0.48846499448623226 -0.42022129984866446 0.5593277379552606 0.29580949455060795 -0.11303468883756389 0.4815525763646191 -1.210139742515539 1.2098370768821622 -1.20897546102981 0.0 0.0 0.0 0.0 0.0 0.0
2441.0879999999997 0.0 -1.5707963267948966 -1.5707963267948966 0.0 1.5707963267948966 0.0 -0.0 0.0 0.0 0.0 0.0 0.0 0.0 0.0 0.0 0.0 0.0 0.0 -1.8327750199862536e-26 0.555172973447796 0.7573864583558305 0.07057808899065858 -9.380070923910231e-28 0.0 -2.1032924999364705e-25 6.394759450000002 6.3947594500000005 0.2913103000000004 -3.894025929994733e-27 0.0 -4.7985707418263246e-05 -1.5707243124591272 -1.5708072821246546 -4.593526021778871e-06 1.5707435607910156 -5.990663637334137e-05 0.0 0.0 -0.0 0.0 0.0 0.0 0.0471038855612278 0.5652466416358948 0.6725431680679321 -0.006713963113725185 -0.017903901636600494 -0.09399548172950745 0.0471038855612278 0.5585175156593323 0.6755932569503784 -0.008951950818300247 -0.022379877045750618 -0.08951950818300247 0.29578165696251946 -0.11305324079826623 0.4815702556789508 -1.2100946145494211 1.2098414211238846 -1.2091204815022056 0.0 0.0 0.0 0.0 0.0 0.0 3.812723629247509 -5.249057351464073 2.0731759420338367 0.4364769429126602 -0.5126271632504317 0.5154470280081941 0.29580949455060795 -0.11303468883756389 0.4815525763646191 -1.210139742515539 1.2098370768821622 -1.20897546102981 0.0 0.0 0.0 0.0 0.0 0.0
2441.096 0.0 -1.5707963267948966 -1.5707963267948966 0.0 1.5707963267948966 0.0 -0.0 0.0 0.0 0.0 0.0 0.0 0.0 0.0 0.0 0.0 0.0 0.0 -1.8327750199862536e-26 0.555172973447796 0.7573864583558305 0.07057808899065858 -9.380070923910231e-28 0.0 -2.1032924999364705e-25 6.394759450000002 6.3947594500000005 0.2913103000000004 -3.894025929994733e-27 0.0 1.1984225238848012e-05 -1.5707481543170374 -1.5707476774798792 -1.6514454976856996e-05 1.5707435607910156 -1.1746083394825746e-05 0.0 0.0 -0.0 0.0 0.0 0.0 0.0448608435690403 0.5562744736671448 0.6801683902740479 -0.006713963113725185 -0.017903901636600494 -0.06937761604785919 0.0471038855612278 0.5540314316749573 0.6755932569503784 -0.008951950818300247 -0.022379877045750618 -0.09175749868154526 0.2957922055761128 -0.11303556135669063 0.48157984344490823 -1.2100698160215955 1.2098026195391578 -1.2090522665187375 0.0 0.0 0.0 0.0 0.0 0.0 3.043794712031934 -4.706410408929691 1.736264207366913 0.3222506052498445 -0.47467642415726397 0.47083666866386953 0.29580949455060795 -0.11303468883756389 0.4815525763646191 -1.210139742515539 1.2098370768821622 -1.20897546102981 0.0 0.0 0.0 0.0 0.0 0.0
2441.104 0.0 -1.5707963267948966 -1.5707963267948966 0.0 1.5707963267948966 0.0 -0.0 0.0 0.0 0.0 0.0 0.0 0.0 0.0 0.0 0.0 0.0 0.0 -1.8327750199862536e-26 0.555172973447796 0.7573864583558305 0.07057808899065858 -9.380070923910231e-28 0.0 -2.1032924999364705e-25 6.394759450000002 6.3947594500000005 0.2913103000000004 -3.894025929994733e-27 0.0 -1.1746083394825746e-05 -1.5707009474383753 -1.5708072821246546 -1.6514454976856996e-05 1.570791482925415 -4.7985707418263246e-05 0.0 0.0 -0.0 0.0 0.0 0.0 0.0493469275534153 0.5630035996437073 0.6801683902740479 -0.007832957431674004 -0.02014188840985298 -0.11413737386465073 0.0471038855612278 0.5585175156593323 0.6755932569503784 -0.008951950818300247 -0.022379877045750618 -0.09063850343227386 0.29577907362228356 -0.1130385824725689 0.4815761818566637 -1.2101172123394381 1.2097766407570687 -1.2090551837178927 0.0 0.0 0.0 0.0 0.0 0.0 3.3979705696238813 -5.213523858916359 1.709745653919795 0.5299630612176596 -0.5123137851313996 0.5230011027456638 0.29580949455060795 -0.11303468883756389 0.4815525763646191 -1.210139742515539 1.2098370768821622 -1.20897546102981 0.0 0.0 0.0 0.0 0.0 0.0
2441.112 0.0 -1.5707963267948966 -1.5707963267948966 0.0 1.5707963267948966 0.0 -0.0 0.0 0.0 0.0 0.0 0.0 0.0 0.0 0.0 0.0 0.0 0.0 -1.8327750199862536e-26 0.555172973447796 0.7573864583558305 0.07057808899065858 -9.380070923910231e-28 0.0 -2.1032924999364705e-25 6.394759450000002 6.3947594500000005 0.2913103000000004 -3.894025929994733e-27 0.0 -5.990663637334137e-05 -1.5707839171039026 -1.5707595984088343 7.152557373046875e-06 1.5707675218582153 -9.614626039677887e-05 0.0 0.0 -0.0 0.0 0.0 0.0 0.0493469275534153 0.5630035996437073 0.6908436417579651 -0.007832957431674004 -0.02685585245490074 -0.08728151768445969 0.0471038855612278 0.5630035996437073 0.6755932569503784 -0.008951950818300247 -0.02685585245490074 -0.08951950818300247 0.2957948715791813 -0.1130548280663659 0.48156769258739196 -1.2101270652477538 1.2098156323433584 -1.2091382576661314 0.0 0.0 0.0 0.0 0.0 0.0 2.9843348770596965 -5.140735774983481 1.2363755448383245 0.4053667222245404 -0.5160264112555766 0.5482614338867975 0.29580949455060795 -0.11303468883756389 0.4815525763646191 -1.210139742515539 1.2098370768821622 -1.20897546102981 0.0 0.0 0.0 0.0 0.0 0.0
2441.12 0.0 -1.5707963267948966 -1.5707963267948966 0.0 1.5707963267948966 0.0 -0.0 0.0 0.0 0.0 0.0 0.0 0.0 0.0 0.0 0.0 0.0 0.0 -1.8327750199862536e-26 0.555172973447796 0.7573864583558305 0.07057808899065858 -9.380070923910231e-28 0.0 -2.1032924999364705e-25 6.394759450000002 6.3947594500000005 0.2913103000000004 -3.894025929994733e-27 0.0 1.1984225238848012e-05 -1.5707243124591272 -1.5707715193377894 -1.6514454976856996e-05 1.5707435607910156 -4.7985707418263246e-05 0.0 0.0 -0.0 0.0 0.0 0.0 0.0448608435690403 0.5585175156593323 0.6725431680679321 -0.012308932840824127 -0.025736859068274498 -0.08728151768445969 0.0471038855612278 0.5585175156593323 0.6755932569503784 -0.008951950818300247 -0.022379877045750618 -0.09175749868154526 0.2957863891428252 -0.11303554271791862 0.4815798456633337 -1.2100965586168246 1.2097854199338733 -1.2090789141244893 0.0 0.0 0.0 0.0 0.0 0.0 3.4575989275635997 -5.096428873410475 1.9525737793538451 0.4053698444690098 -0.5181172375312895 0.5393969201004626 0.29580949455060795 -0.11303468883756389 0.4815525763646191 -1.210139742515539 1.2098370768821622 -1.20897546102981 0.0 0.0 0.0 0.0 0.0 0.0
2441.1279999999997 0.0 -1.5707963267948966 -1.5707963267948966 0.0 1.5707963267948966 0.0 -0.0 0.0 0.0 0.0 0.0 0.0 0.0 0.0 0.0 0.0 0.0 0.0 -1.8327750199862536e-26 0.555172973447796 0.7573864583558305 0.07057808899065858 -9.380070923910231e-28 0.0 -2.1032924999364705e-25 6.394759450000002 6.3947594500000005 0.2913103000000004 -3.894025929994733e-27 0.0 -2.366701234990387e-05 -1.5707362333880823 -1.5707595984088343 -4.0356312887013246e-05 1.5707435607910156 -5.990663637334137e-05 0.0 0.0 -0.0 0.0 0.0 0.0 0.0448608435690403 0.5562744736671448 0.6679680347442627 -0.0033569815568625927 -0.01678490824997425 -0.10630441457033157 0.0471038855612278 0.5562744736671448 0.6755932569503784 -0.008951950818300247 -0.02349887043237686 -0.08728151768445969 0.29578730245375573 -0.11304609600540078 0.48157788163408805 -1.2101060244117505 1.2098236175808244 -1.2091026473036965 0.0 0.0 0.0 0.0 0.0 0.0 3.5160676933332446 -4.93215318586298 2.349714987768291 0.493570683912127 -0.4489793162513359 0.48416475750225346 0.29580949455060795 -0.11303468883756389 0.4815525763646191 -1.210139742515539 1.2098370768821622 -1.20897546102981 0.0 0.0 0.0 0.0 0.0 0.0
2441.136 0.0 -1.5707963267948966 -1.5707963267948966 0.0 1.5707963267948966 0.0 -0.0 0.0 0.0 0.0 0.0 0.0 0.0 0.0 0.0 0.0 0.0 0.0 -1.8327750199862536e-26 0.555172973447796 0.7573864583558305 0.07057808899065858 -9.380070923910231e-28 0.0 -2.1032924999364705e-25 6.394759450000002 6.3947594500000005 0.2913103000000004 -3.894025929994733e-27 0.0 -2.366701234990387e-05 -1.5707481543170374 -1.570831600819723 -6.467500795537262e-05 1.570791482925415 -4.7985707418263246e-05 0.0 0.0 -0.0 0.0 0.0 0.0 0.0448608435690403 0.5473023056983948 0.6801683902740479 -0.0033569815568625927 -0.02014188840985298 -0.07721057534217834 0.0471038855612278 0.5562744736671448 0.6755932569503784 -0.008951950818300247 -0.02349887043237686 -0.08951950818300247 0.2957994818463421 -0.11304206195982687 0.48155106894156624 -1.2101998168242798 1.2098734003943301 -1.2090071964404343 0.0 0.0 0.0 0.0 0.0 0.0 2.569154667962717 -4.503706217246641 1.8089332354589238 0.3586553026280345 -0.4126292307069489 0.4645456216786953 0.29580949455060795 -0.11303468883756389 0.4815525763646191 -1.210139742515539 1.2098370768821622 -1.20897546102981 0.0 0.0 0.0 0.0 0.0 0.0
2441.144 0.0 -1.5707963267948966 -1.5707963267948966 0.0 1.5707963267948966 0.0 -0.0 0.0 0.0 0.0 0.0 0.0 0.0 0.0 0.0 0.0 0.0 0.0 -1.8327750199862536e-26 0.555172973447796 0.7573864583558305 0.07057808899065858 -9.380070923910231e-28 0.0 -2.1032924999364705e-25 6.394759450000002 6.3947594500000005 0.2913103000000004 -3.894025929994733e-27 0.0 -3.5587941304981996e-05 -1.570796314870016 -1.5708192030536097 -4.593526021778871e-06 1.5707316398620605 -5.990663637334137e-05 0.0 0.0 -0.0 0.0 0.0 0.0 0.0471038855612278 0.5876770615577698 0.6771183013916016 -0.012308932840824127 -0.019022895023226738 -0.067139632999897 0.0471038855612278 0.5585175156593323 0.6755932569503784 -0.008951950818300247 -0.022379877045750618 -0.08951950818300247 0.2958078132596307 -0.11305051733590005 0.4815454407614112 -1.2101567157675597 1.2099027525313943 -1.209080327346122 0.0 0.0 0.0 0.0 0.0 0.0 4.821803953154682 -5.806756039501084 1.7482264335800632 0.31196407343733384 -0.651345341923822 0.5664892844358417 0.29580949455060795 -0.11303468883756389 0.4815525763646191 -1.210139742515539 1.2098370768821622 -1.20897546102981 0.0 0.0 0.0 0.0 0.0 0.0
2441.152 0.0 -1.5707963267948966 -1.5707963267948966 0.0 1.5707963267948966 0.0 -0.0 0.0 0.0 0.0 0.0 0.0 0.0 0.0 0.0 0.0 0.0 0.0 -1.8327750199862536e-26 0.555172973447796 0.7573864583558305 0.07057808899065858 -9.380070923910231e-28 0.0 -2.1032924999364705e-25 6.394759450000002 6.3947594500000005 0.2913103000000004 -3.894025929994733e-27 0.0 -1.1746083394825746e-05 -1.5707481543170374 -1.5707476774798792 -8.851686586552887e-05 1.570791482925415 -7.230440248662262e-05 0.0 0.0 -0.0 0.0 0.0 0.0 0.0493469275534153 0.5248718857765198 0.6740682125091553 -0.011189938522875309 -0.021260883659124374 -0.09959045052528381 0.0471038855612278 0.5607605576515198 0.6755932569503784 -0.008951950818300247 -0.022379877045750618 -0.09287648648023605 0.29579567368839604 -0.11303863001870457 0.48157391414411954 -1.2101789377862604 1.209809118781517 -1.2090449128638097 0.0 0.0 0.0 0.0 0.0 0.0 1.6187331013344435 -4.295688765216248 1.9089061028332954 0.46244786765226 -0.35954909213868425 0.45271840204352476 0.29580949455060795 -0.11303468883756389 0.4815525763646191 -1.210139742515539 1.2098370768821622 -1.20897546102981 0.0 0.0 0.0 0.0 0.0 0.0
2441.16 0.0 -1.5707963267948966 -1.5707963267948966 0.0 1.5707963267948966 0.0 -0.0 0.0 0.0 0.0 0.0 0.0 0.0 0.0 0.0 0.0 0.0 0.0 -1.8327750199862536e-26 0.555172973447796 0.7573864583558305 0.07057808899065858 -9.380070923910231e-28 0.0 -2.1032924999364705e-25 6.394759450000002 6.3947594500000005 0.2913103000000004 -3.894025929994733e-27 0.0 -1.1746083394825746e-05 -1.5707362333880823 -1.5708072821246546 -4.593526021778871e-06 1.5707316398620605 -5.990663637334137e-05 0.0 0.0 -0.0 0.0 0.0 0.0 0.0471038855612278 0.5585175156593323 0.6771183013916016 -0.0033569815568625927 -0.02014188840985298 -0.08840051293373108 0.0471038855612278 0.5585175156593323 0.6755932569503784 -0.008951950818300247 -0.025736859068274498 -0.09063850343227386 0.29578968229481345 -0.11304349932201938 0.48156673102024816 -1.210114901954843 1.2098322635358993 -1.2090969313564996 0.0 0.0 0.0 0.0 0.0 0.0 3.279885672910707 -5.015455738979644 1.9432521578562738 0.4105372696482266 -0.46227226372415564 0.5066632154098394 0.29580949455060795 -0.11303468883756389 0.4815525763646191 -1.210139742515539 1.2098370768821622 -1.20897546102981 0.0 0.0 0.0 0.0 0.0 0.0
2441.1679999999997 0.0 -1.5707963267948966 -1.5707963267948966 0.0 1.5707963267948966 0.0 -0.0 0.0 0.0 0.0 0.0 0.0 0.0 0.0 0.0 0.0 0.0 0.0 -1.8327750199862536e-26 0.555172973447796 0.7573864583558305 0.07057808899065858 -9.380070923910231e-28 0.0 -2.1032924999364705e-25 6.394759450000002 6.3947594500000005 0.2913103000000004 -3.894025929994733e-27 0.0 1.1984225238848012e-05 -1.5707839171039026 -1.5707476774798792 -6.467500795537262e-05 1.5707556009292603 -1.1746083394825746e-05 0.0 0.0 -0.0 0.0 0.0 0.0 0.0515899695456028 0.5428162217140198 0.6755932569503784 -0.004475975409150124 -0.01342792622745037 -0.09175749868154526 0.0471038855612278 0.5585175156593323 0.6755932569503784 -0.008951950818300247 -0.025736859068274498 -0.09063850343227386 0.29580810679937825 -0.11303455433136349 0.48156530278366294 -1.2101373568025109 1.2098554794898675 -1.2090036298754436 0.0 0.0 0.0 0.0 0.0 0.0 2.508421579218932 -4.7305953465478074 1.9861513163685394 0.4261068251101115 -0.39800681004066507 0.4520004724016695 0.29580949455060795 -0.11303468883756389 0.4815525763646191 -1.210139742515539 1.2098370768821622 -1.20897546102981 0.0 0.0 0.0 0.0 0.0 0.0
2441.176 0.0 -1.5707963267948966 -1.5707963267948966 0.0 1.5707963267948966 0.0 -0.0 0.0 0.0 0.0 0.0 0.0 0.0 0.0 0.0 0.0 0.0 0.0 -1.8327750199862536e-26 0.555172973447796 0.7573864583558305 0.07057808899065858 -9.380070923910231e-28 0.0 -2.1032924999364705e-25 6.394759450000002 6.3947594500000005 0.2913103000000004 -3.894025929994733e-27 0.0 -1.1746083394825746e-05 -1.5707481543170374 -1.5707953611956995 -4.0356312887013246e-05 1.5707556009292603 -9.614626039677887e-05 0.0 0.0 -0.0 0.0 0.0 0.0 0.0471038855612278 0.5652466416358948 0.6694930791854858 -0.008951950818300247 -0.03021283447742462 -0.09063850343227386 0.0471038855612278 0.5585175156593323 0.6755932569503784 -0.008951950818300247 -0.025736859068274498 -0.09063850343227386 0.29579564543742376 -0.1130415334492098 0.4815637848192565 -1.2101792714342732 1.2098237986232678 -1.2090890339547526 0.0 0.0 0.0 0.0 0.0 0.0 3.9311675041988656 -5.579614550519936 2.1596631039277097 0.4210359364000053 -0.5259602577702623 0.5999533939980958 0.29580949455060795 -0.11303468883756389 0.4815525763646191 -1.210139742515539 1.2098370768821622 -1.20897546102981 0.0 0.0 0.0 0.0 0.0 0.0
2441.1839999999997 0.0 -1.5707963267948966 -1.5707963267948966 0.0 1.5707963267948966 0.0 -0.0 0.0 0.0 0.0 0.0 0.0 0.0 0.0 0.0 0.0 0.0 0.0 -1.8327750199862536e-26 0.555172973447796 0.7573864583558305 0.07057808899065858 -9.380070923910231e-28 0.0 -2.1032924999364705e-25 6.394759450000002 6.3947594500000005 0.2913103000000004 -3.894025929994733e-27 0.0 2.3968450477696024e-05 -1.5707123915301722 -1.5708192030536097 -1.6514454976856996e-05 1.5707556009292603 -1.1746083394825746e-05 0.0 0.0 -0.0 0.0 0.0 0.0 0.0560760572552681 0.5450592637062073 0.6740682125091553 -0.007832957431674004 -0.02349887043237686 -0.09511447697877884 0.0471038855612278 0.5585175156593323 0.6755932569503784 -0.008951950818300247 -0.021260883659124374 -0.09063850343227386 0.2957879013173227 -0.11303095623486299 0.48156927497742663 -1.2101076670433804 1.2098110607050436 -1.209017545908813 0.0 0.0 0.0 0.0 0.0 0.0 2.68526471896678 -5.314811370145455 1.9795202874089326 0.44175316200535614 -0.42922912514517475 0.5470065729306423 0.29580949455060795 -0.11303468883756389 0.4815525763646191 -1.210139742515539 1.2098370768821622 -1.20897546102981 0.0 0.0 0.0 0.0 0.0 0.0
2441.192 0.0 -1.5707963267948966 -1.5707963267948966 0.0 1.5707963267948966 0.0 -0.0 0.0 0.0 0.0 0.0 0.0 0.0 0.0 0.0 0.0 0.0 0.0 -1.8327750199862536e-26 0.555172973447796 0.7573864583558305 0.07057808899065858 -9.380070923910231e-28 0.0 -2.1032924999364705e-25 6.394759450000002 6.3947594500000005 0.2913103000000004 -3.894025929994733e-27 0.0 -2.366701234990387e-05 -1.5707362333880823 -1.5707953611956995 -1.6514454976856996e-05 1.570719599723816 -5.990663637334137e-05 0.0 0.0 -0.0 0.0 0.0 0.0 0.0381317175924778 0.5405731797218323 0.6649179458618164 -0.012308932840824127 -0.02349887043237686 -0.09399548172950745 0.0471038855612278 0.5585175156593323 0.6755932569503784 -0.008951950818300247 -0.02349887043237686 -0.09063850343227386 0.2957883295638371 -0.11304802995902136 0.4815692736411723 -1.2101035412890946 1.2098499490549963 -1.2091145867072826 0.0 0.0 0.0 0.0 0.0 0.0 2.805259140407967 -4.296659544922431 2.292818855818693 0.4364443113473862 -0.4344234636202616 0.4631307907402664 0.29580949455060795 -0.11303468883756389 0.4815525763646191 -1.210139742515539 1.2098370768821622 -1.20897546102981 0.0 0.0 0.0 0.0 0.0 0.0
2441.2 0.0 -1.5707963267948966 -1.5707963267948966 0.0 1.5707963267948966 0.0 -0.0 0.0 0.0 0.0 0.0 0.0 0.0 0.0 0.0 0.0 0.0 0.0 -1.8327750199862536e-26 0.555172973447796 0.7573864583558305 0.07057808899065858 -9.380070923910231e-28 0.0 -2.1032924999364705e-25 6.394759450000002 6.3947594500000005 0.2913103000000004 -3.894025929994733e-27 0.0 -2.366701234990387e-05 -1.570796314870016 -1.5707834402667444 -7.659593691045075e-05 1.5707316398620605 -4.7985707418263246e-05 0.0 0.0 -0.0 0.0 0.0 0.0 0.0471038855612278 0.5428162217140198 0.671018123626709 -0.006713963113725185 -0.024617865681648254 -0.08840051293373108 0.0471038855612278 0.5585175156593323 0.6755932569503784 -0.008951950818300247 -0.02349887043237686 -0.09063850343227386 0.2958122426730227 -0.11304702801857118 0.481550083792094 -1.2101801994233834 1.2099263620230276 -1.2090456600524213 0.0 0.0 0.0 0.0 0.0 0.0 2.6862797825568467 -4.798212607874588 2.1413196223752338 0.41059679373428026 -0.41081054486035823 0.5096069961683037 0.29580949455060795 -0.11303468883756389 0.4815525763646191 -1.210139742515539 1.2098370768821622 -1.20897546102981 0.0 0.0 0.0 0.0 0.0 0.0
2441.208 0.0 -1.5707963267948966 -1.5707963267948966 0.0 1.5707963267948966 0.0 -0.0 0.0 0.0 0.0 0.0 0.0 0.0 0.0 0.0 0.0 0.0 0.0 -1.8327750199862536e-26 0.555172973447796 0.7573864583558305 0.07057808899065858 -9.380070923910231e-28 0.0 -2.1032924999364705e-25 6.394759450000002 6.3947594500000005 0.2913103000000004 -3.894025929994733e-27 0.0 0.0 -1.5707600752459925 -1.5707953611956995 -4.0356312887013246e-05 1.5707435607910156 -5.990663637334137e-05 0.0 0.0 -0.0 0.0 0.0 0.0 0.0448608435690403 0.5607605576515198 0.6694930791854858 -0.0055949692614376545 -0.03245082125067711 -0.09959045052528381 0.0471038855612278 0.5585175156593323 0.6755932569503784 -0.008951950818300247 -0.02349887043237686 -0.09063850343227386 0.29580090166652745 -0.11303904638676358 0.48156026004537045 -1.2101612149195882 1.2098499275070382 -1.2090569266405609 0.0 0.0 0.0 0.0 0.0 0.0 3.69427224628903 -5.367584577463348 2.232906636863039 0.4625696355162901 -0.4841670653496645 0.5929135433606221 0.29580949455060795 -0.11303468883756389 0.4815525763646191 -1.210139742515539 1.2098370768821622 -1.20897546102981 0.0 0.0 0.0 0.0 0.0 0.0
2441.216 0.0 -1.5707963267948966 -1.5707963267948966 0.0 1.5707963267948966 0.0 -0.0 0.0 0.0 0.0 0.0 0.0 0.0 0.0 0.0 0.0 0.0 0.0 -1.8327750199862536e-26 0.555172973447796 0.7573864583558305 0.07057808899065858 -9.380070923910231e-28 0.0 -2.1032924999364705e-25 6.394759450000002 6.3947594500000005 0.2913103000000004 -3.894025929994733e-27 0.0 -3.5587941304981996e-05 -1.5707481543170374 -1.5707834402667444 -4.593526021778871e-06 1.5707435607910156 -7.230440248662262e-05 0.0 0.0 -0.0 0.0 0.0 0.0 0.0538330152630806 0.5607605576515198 0.671018123626709 -0.0033569815568625927 -0.03021283447742462 -0.09175749868154526 0.0471038855612278 0.5585175156593323 0.6755932569503784 -0.008951950818300247 -0.025736859068274498 -0.08728151768445969 0.2957888749798209 -0.11304959267316302 0.4815702534605258 -1.2101095720765054 1.2098264701899826 -1.2091205084705041 0.0 0.0 0.0 0.0 0.0 0.0 3.6337663130171234 -5.828203110969994 2.2119515558835565 0.42620667727373734 -0.4704257953809396 0.6204508383119817 0.29580949455060795 -0.11303468883756389 0.4815525763646191 -1.210139742515539 1.2098370768821622 -1.20897546102981 0.0 0.0 0.0 0.0 0.0 0.0
2441.2239999999997 1.5707963267948965e-08 -1.5707963163229213 -1.570796321558909 0.0 1.5707963267948966 0.0 7.853981633974484e-06 5.235987755982988e-06 2.617993877991496e-06 0.0 0.0 0.0 0.0009817477042468104 0.0006544984694978734 0.000327249234748937 0.0 0.0 0.0 6.30604101200629e-05 0.5552270706302042 0.7574121208948338 0.07058320390024732 1.8320936950935382e-06 0.0 0.0007236812276579426 6.395382568352241 6.394976123749566 0.29133141173408217 7.605721121669397e-06 0.0 -5.990663637334137e-05 -1.5707243124591272 -1.5707476774798792 -6.467500795537262e-05 1.5707075595855713 -5.990663637334137e-05 0.0 0.0 -0.0 0.0 0.0 0.0 0.0471038855612278 0.5831909775733948 0.6893185973167419 0.0055949692614376545 -0.017903901636600494 -0.08280554413795471 0.0471038855612278 0.5585175156593323 0.6755932569503784 -0.008951950818300247 -0.025736859068274498 -0.09287648648023605 0.29578032616981026 -0.1130597965071551 0.48158292897714045 -1.2100721690021883 1.2098772319366837 -1.2091556196604978 0.0 0.0 0.0 0.0 0.0 0.0 4.109399151939019 -5.40234929595671 1.5969809284916905 0.38455096523869625 -0.5202229044477119 0.5280251147761359 0.29580949242569743 -0.1130346842006877 0.4815525810091014 -1.2101397383595203 1.2098370537673246 -1.2089754569217737 -1.0624553324468244e-06 2.3184446153611103e-06 2.322241129025093e-06 2.0255692665791846e-09 -7.853959707529183e-06 7.838099670447356e-06
2441.232 1.4137166941154072e-07 -1.5707962325471172 -1.5707962796710069 0.0 1.5707963267948966 0.0 3.5342917352885184e-05 2.3561944901923446e-05 1.1780972450961733e-05 0.0 0.0 0.0 0.0034361169648638376 0.0022907446432425572 0.0011453723216212797 0.0 0.0 0.0 0.0010641528745402129 0.555935481949236 0.7576692345660094 0.0705959693660252 6.4123243389087905e-06 0.0 0.0025328838326290474 6.3969396122755775 6.395517718009644 0.2913841010562015 2.662000900611328e-05 0.0 2.3968450477696024e-05 -1.5707724730121058 -1.5707595984088343 -4.593526021778871e-06 1.570719599723816 -8.422533144170075e-05 0.0 0.0 -0.0 0.0 0.0 0.0 0.0493469275534153 0.5450592637062073 0.6832184791564941 -0.008951950818300247 -0.024617865681648254 -0.08840051293373108 0.0471038855612278 0.5585175156593323 0.6725431680679321 -0.008951950818300247 -0.02349887043237686 -0.09063850343227386 0.2958015786096585 -0.11303396815321723 0.48157011064255806 -1.2101354970822498 1.2097949955814664 -1.2091028868846807 0.0 0.0 0.0 0.0 0.0 0.0 2.302456650243017 -4.666644076708607 1.563425596568796 0.41053755476696463 -0.43607585146832173 0.4988889814916897 0.29580947542640745 -0.11303464710556509 0.48155261816495787 -1.2101397051113585 1.20983686884863 -1.2089754240574762 -4.781051617418518e-06 1.0432999066558884e-05 1.045008421856336e-05 9.119505367093967e-09 -3.5342818682736696e-05 3.5271448517849354e-05
2441.24 5.654866776461629e-07 -1.5707959498037782 -1.5707961382993378 0.0 1.5707963267948966 0.0 9.424777960769381e-05 6.283185307179586e-05 3.1415926535897955e-05 0.0 0.0 0.0 0.0073631077818510785 0.004908738521234051 0.0024543692606170276 0.0 0.0 0.0 0.002722183605398994 0.5571070105851321 0.7580934609770807 0.07061633783883885 1.3740672488296997e-05 0.0 0.005427605257071922 6.399428942029336 6.3963840359928605 0.29146817170774136 5.704278293739032e-05 0.0 -3.5587941304981996e-05 -1.5707243124591272 -1.5707595984088343 -5.2754079000294496e-05 1.5707556009292603 -8.422533144170075e-05 0.0 0.0 -0.0 0.0 0.0 0.0 0.0605621412396431 0.5517883896827698 0.671018123626709 -0.006713963113725185 -0.01678490824997425 -0.07161560654640198 0.0538330152630806 0.5540314316749573 0.6740682125091553 -0.008951950818300247 -0.02349887043237686 -0.08840051293373108 0.29578308445552637 -0.11304863391216745 0.48158038554384386 -1.2101243495199603 1.2098123802612506 -1.2091202356980681 0.0 0.0 0.0 0.0 0.0 0.0 3.0843287097251033 -5.486562690541928 2.169865846803169 0.3326879528196992 -0.44264382628299165 0.5299248408745787 0.2958094180537349 -0.11303452190961895 0.4815527435659511 -1.2101395928986889 1.2098362447481132 -1.2089753131403473 -1.2749494572442151e-05 2.7821315521049013e-05 2.7866883491053036e-05 2.435867398630177e-08 -9.424751647698521e-05 9.405719605512447e-05
2441.248 1.5707963267948967e-06 -1.5707952795973457 -1.5707958031961207 0.0 1.5707963267948966 0.0 0.00019634954084936208 0.00013089969389957468 6.544984694978739e-05 0.0 0.0 0.0 0.012762720155208533 0.008508480103472353 0.00425424005173618 0.0 0.0 0.0 0.005505874932007492 0.5590599694338776 0.7587919899823112 0.07064423807510212 2.381707951653719e-05 0.0 0.009407837710200153 6.402848100230255 6.397574782073396 0.2915833296315695 9.887379953357571e-05 0.0 -1.1746083394825746e-05 -1.5707600752459925 -1.5707595984088343 -2.8912221090138246e-05 1.5707435607910156 -3.5587941304981996e-05 0.0 0.0 -0.0 0.0 0.0 0.0 0.0560760572552681 0.5517883896827698 0.6801683902740479 -0.004475975409150124 -0.02014188840985298 -0.09287648648023605 0.0538330152630806 0.5562744736671448 0.6725431680679321 -0.008951950818300247 -0.02349887043237686 -0.09063850343227386 0.2957955327273823 -0.11304256217597236 0.48157177390175615 -1.210102886154873 1.2098354520215293 -1.2090700914755597 0.0 0.0 0.0 0.0 0.0 0.0 2.654304019757585 -4.8936999645774195 1.8440349356578547 0.43130270301718027 -0.42252838369767487 0.4967972274179131 0.2958092820588279 -0.11303422514911855 0.48155304081261024 -1.2101393269123324 1.209834765399218 -1.208975050224903 -2.6561563532767256e-05 5.7960998332349725e-05 5.8055968959655756e-05 5.0944733804170845e-08 -0.00019634899260931787 0.00019595249181867582
2441.256 3.5342917352885176e-06 -1.5707939706004064 -1.570795148697652 0.0 1.5707963267948966 0.0 0.0003534291735288517 0.00023561944901923443 0.00011780972450961731 0.0 0.0 0.0 0.019634954084936204 0.013089969389957469 0.00654498469497874 0.0 0.0 0.0 0.009696702972387847 0.5619852966925648 0.759829144211363 0.07067957522913824 3.664141289274511e-05 0.0 0.014473563477700038 6.407193814432798 6.399089561259899 0.29172918335317954 0.00015211250860831793 0.0 0.0 -1.5707362333880823 -1.5707476774798792 -1.6514454976856996e-05 1.5707675218582153 -4.7985707418263246e-05 0.0 0.0 -0.0 0.0 0.0 0.0 0.0560760572552681 0.5271149277687073 0.6755932569503784 -0.0055949692614376545 -0.019022895023226738 -0.08056755363941193 0.0560760572552681 0.5585175156593323 0.6832184791564941 -0.008951950818300247 -0.02349887043237686 -0.09063850343227386 0.295786923358892 -0.1130371370108357 0.4815833678300613 -1.210093400775577 1.20976788449921 -1.2090757746944023 0.0 0.0 0.0 0.0 0.0 0.0 1.413555587767229 -3.960463231350566 2.0701045744774067 0.37412447062620446 -0.30333879274309866 0.4149044326987991 0.29580901644205476 -0.11303364553986246 0.4815536213719257 -1.2101388074046167 1.209831876047851 -1.2089745367150542 -4.781122395256199e-05 0.00010432953097024719 0.00010450060943162945 9.239484389179088e-08 -0.00035342818651620524 0.0003527144854042803
2441.2639999999997 6.927211801165493e-06 -1.5707917086536956 -1.570794017724296 0.0 1.5707963267948966 0.0 0.0005772676500971244 0.0003848451000647495 0.0001924225500323749 0.0 0.0 0.0 0.027979809571034082 0.01865320638068938 0.0093266031903447 0.0 0.0 0.0 0.015576438102091625 0.5660739892877799 0.7612692762605322 0.07072223097449758 5.2213420171756244e-05 0.0 0.020624748692086116 6.412462000520913 6.400927878488944 0.2919052444814285 0.00021675786216525912 0.0 2.3968450477696024e-05 -1.5707123915301722 -1.5707476774798792 -1.6514454976856996e-05 1.5707675218582153 -3.5587941304981996e-05 0.0 0.0 -0.0 0.0 0.0 0.0 0.0672912672162056 0.5652466416358948 0.681693434715271 -0.006713963113725185 -0.02014188840985298 -0.07609158009290695 0.0605621412396431 0.5652466416358948 0.6786433458328247 -0.008951950818300247 -0.02349887043237686 -0.08728151768445969 0.29578177278157874 -0.11303005606118771 0.4815904175414603 -1.2100780301624214 1.209738557278174 -1.2090603100431436 0.0 0.0 0.0 0.0 0.0 0.0 3.0321112636535603 -5.163651079410855 1.836076762334282 0.3534416894769959 -0.46614627474930914 0.5191779266013682 0.29580855745090734 -0.11303264397857861 0.48155462457665915 -1.2101379096855693 1.2098268832547416 -1.2089736493603054 -7.809282182194488e-05 0.0001704041497411673 0.00017068394857149002 1.5287123571474718e-07 -0.0005772660374615852 0.0005761003265291121
2441.272 1.2315043202071989e-05 -1.5707881167660949 -1.5707922217804962 0.0 1.5707963267948966 0.0 0.000879645943005142 0.0005864306286700945 0.00029321531433504746 0.0 0.0 0.0 0.03779728661350221 0.025198191075668123 0.012599095537834068 0.0 0.0 0.0 0.023427282730693815 0.5715171637395339 0.7631767881698064 0.07077206365416794 7.053267169146197e-05 0.0 0.02786133556405484 6.418647766903139 6.4030891377311345 0.2921109283285287 0.0002928080765127772 0.0 4.793690095539205e-05 -1.5707839171039026 -1.5707834402667444 -5.2754079000294496e-05 1.5707675218582153 -3.5587941304981996e-05 0.0 0.0 -0.0 0.0 0.0 0.0 0.0740203931927681 0.5607605576515198 0.6832184791564941 -0.001118993852287531 -0.02014188840985298 -0.1018284410238266 0.0695343092083931 0.5719757676124573 0.6847434639930725 -0.008951950818300247 -0.02349887043237686 -0.09063850343227386 0.2958142182346483 -0.11302289716987694 0.4815557123588013 -1.210195210001337 1.2098263687742161 -1.2089745912701426 0.0 0.0 0.0 0.0 0.0 0.0 2.522015455348692 -4.825331075174721 1.9731210214665769 0.47289875669962445 -0.38558818508055676 0.49137299578953575 0.2958078285760037 -0.11303105354540637 0.4815562176240285 -1.2101364841156883 1.209818954899966 -1.2089722402484988 -0.00011900138293088671 0.0002596616493916459 0.00026008890647862047 2.3768853183125788e-07 -0.0008796434843890289 0.00087786716512722
2441.2799999999997 2.0357520395261858e-05 -1.5707827551146334 -1.570789540954765 0.0 1.5707963267948966 0.0 0.001272345024703866 0.0008482300164692438 0.00042411500823462227 0.0 0.0 0.0 0.04908738521234048 0.03272492347489366 0.016362461737446852 0.0 0.0 0.0 0.033532035741630696 0.5785061288037068 0.7656161546668302 0.0708289084595575 9.159849197195121e-05 0.0 0.036183233074949056 6.425745419501238 6.405572640900162 0.29234555464879736 0.0003802603474756051 0.0 -2.366701234990387e-05 -1.5707243124591272 -1.5708192030536097 -6.467500795537262e-05 1.5707435607910156 -7.230440248662262e-05 0.0 0.0 -0.0 0.0 0.0 0.0 0.0829925611615181 0.5517883896827698 0.6862685084342957 -0.006713963113725185 -0.02014188840985298 -0.08280554413795471 0.0829925611615181 0.5809479355812073 0.6908436417579651 -0.008951950818300247 -0.022379877045750618 -0.09175749868154526 0.2957905559407955 -0.11304603112485394 0.48156178496447644 -1.210168327783536 1.2098705762724198 -1.2090775738713704 0.0 0.0 0.0 0.0 0.0 0.0 1.6544396238338277 -4.299100291175465 1.824571113833642 0.38456565727398906 -0.34997863723928 0.4481953867716795 0.2958067405442718 -0.11302867950844238 0.4815585955734673 -1.2101343560935935 1.2098071201906322 -1.208970136793453 -0.0001721330399024322 0.0003755781056756219 0.00037619803923092835 3.5403769336805276e-07 -0.0012723414656875104 0.0012697721514857818
2441.288 3.180862561759665e-05 -1.570775121044485 -1.5707857239196912 0.0 1.5707963267948966 0.0 0.0017671458676442582 0.0011780972450961718 0.0005890486225480864 0.0 0.0 0.0 0.061850105367549035 0.041233403578366 0.020616701789183022 0.0 0.0 0.0 0.04617428359539843 0.5872324698919404 0.7686519501763774 0.07089257763811808 0.0001154098798069526 0.0 0.045590306130524505 6.433748467520038 6.408377586553001 0.2926083484956199 0.0004791105186638671 0.0 -1.1746083394825746e-05 -1.5707600752459925 -1.5707715193377894 -4.0356312887013246e-05 1.5707675218582153 -7.230440248662262e-05 0.0 0.0 -0.0 0.0 0.0 0.0 0.1121521145105362 0.5787048935890198 0.6862685084342957 -0.012308932840824127 -0.024617865681648254 -0.10518541932106018 0.1121521145105362 0.5876770615577698 0.6923686861991882 -0.008951950818300247 -0.022379877045750618 -0.08840051293373108 0.29579753336239106 -0.11304057461199903 0.4815673072612939 -1.2101585169460463 1.2098175846399313 -1.2090683887047757 0.0 0.0 0.0 0.0 0.0 0.0 2.7311279131668043 -5.962756396961809 1.831449678485345 0.4885319021811141 -0.46754110057666404 0.6061016615149774 0.29580519130821603 -0.11302529933063053 0.48156198134309414 -1.2101313260365885 1.2097902696730038 -1.2089671417154857 -0.0002390856099040986 0.0005216284999447342 0.0005224933488407583 5.119654783487695e-07 -0.0017671409188239925 0.001763572436429469
2441.296 4.7516588885545617e-05 -1.5707646490689733 -1.570780487931935 0.0 1.5707963267948966 0.0 0.00237582944427728 0.0015838862961848534 0.0007919431480924272 0.0 0.0 0.0 0.07608544707912775 0.050723631386085204 0.025361815693042602 0.0 0.0 0.0 0.061638618096137916 0.5978881452677791 0.7723488795937467 0.07096286072944552 0.00014196541703272937 0.0 0.05608236317631554 6.44264962998471 6.41150306836787 0.2928984411959512 0.0005893527027378952 0.0 -2.366701234990387e-05 -1.5707724730121058 -1.570735279713766 -6.467500795537262e-05 1.5707435607910156 -5.990663637334137e-05 0.0 0.0 -0.0 0.0 0.0 0.0 0.1390686184167862 0.6101074814796448 0.7076191306114197 -0.007832957431674004 -0.014546919614076614 -0.09847146272659302 0.1390686184167862 0.6145935654640198 0.699993908405304 -0.008951950818300247 -0.022379877045750618 -0.08951950818300247 0.2957992407657412 -0.11304610985803755 0.48157235199520104 -1.2101326862495203 1.209850327669411 -1.2090855003888432 0.0 0.0 0.0 0.0 0.0 0.0 3.142029746501339 -6.651542258761202 1.1409038193705943 0.45736912785700046 -0.5390626552860653 0.6160328031993036 0.2958030660299814 -0.11302066268015103 0.48156662570447 -1.2101271693518005 1.2097671552504965 -1.2089630330125012 -0.0003214593459214671 0.0007012862307859638 0.000702456036060541 7.256482929348127e-07 -0.0023758227797664863 0.0023710251715602566
2441.304 6.842388799518569e-05 -1.5707507108695662 -1.5707735188322314 0.0 1.5707963267948966 0.0 0.003110176727053895 0.002073451151369263 0.0010367255756846322 0.0 0.0 0.0 0.09179341034707686 0.06119560689805121 0.03059780344902562 0.0 0.0 0.0 0.08021088082164501 0.6106655940176245 0.7767718128202542 0.07103952482966695 0.00017126316595252335 0.0 0.06765914227504262 6.452440843028916 6.414948073384542 0.29321487144157166 0.0007109788555778935 0.0 0.0 -1.5707481543170374 -1.5707834402667444 -5.2754079000294496e-05 1.5706956386566162 -3.5587941304981996e-05 0.0 0.0 -0.0 0.0 0.0 0.0 0.1973877102136612 0.6459961533546448 0.7167693376541138 -0.012308932840824127 -0.038045790046453476 -0.11189938336610794 0.1861725002527237 0.6280518174171448 0.7045690417289734 -0.008951950818300247 -0.02685585245490074 -0.09287648648023605 0.29579700410594056 -0.11304301033829882 0.4815662892611241 -1.2101121596766184 1.2098883556298707 -1.209079750791025 0.0 0.0 0.0 0.0 0.0 0.0 4.174585435538019 -10.107236272948969 0.8212749302745094 0.5200324343086883 -0.6746626692620339 1.0100647711838595 0.2958002370587469 -0.11301449144512223 0.4815728072751626 -1.2101216363952418 1.2097363902092049 -1.2089575639189778 -0.00042085788444525847 0.0009180224976781679 0.000919566188462432 1.0149993176126335e-06 -0.0031101679820764744 0.0031038875095600422
2441.312 9.55672485222015e-05 -1.5707326152958814 -1.570764471045389 0.0 1.5707963267948966 0.0 0.003981968688425062 0.0026546457922833745 0.0013273228961416883 0.0 0.0 0.0 0.10897399517139592 0.07264933011426393 0.03632466505713202 0.0 0.0 0.0 0.1021784342168597 0.6257578557949459 0.7819858230588093 0.07112231488390396 0.00020330055538561766 0.0 0.08032029564668432 6.463113267915914 6.418711479989985 0.29355658649622535 0.0008439783032300471 0.0 7.227985770441592e-05 -1.5707123915301722 -1.5707953611956995 -4.0356312887013246e-05 1.5707435607910156 -7.230440248662262e-05 0.009817477315664291 0.0 -0.0 0.0 0.0 0.0 0.1480407863855362 0.7065582871437073 0.7198194265365601 -0.007832957431674004 -0.02014188840985298 -0.06378264725208282 0.1480407863855362 0.6661835312843323 0.7198194265365601 -0.008951950818300247 -0.02349887043237686 -0.09063850343227386 0.29579335263979234 -0.11301768367849263 0.48157435994733994 -1.2101693910232458 1.2097557329840256 -1.20903545872493 0.0011095485457825506 0.002903944529665449 0.0 0.0 0.0 0.009817477315664291 6.6742439841857655 -6.741020366632377 1.029899874492334 0.2965021753374207 -0.8503703739958267 0.6495291756427789 0.29579656389980236 -0.11300647975366775 0.48158083250856987 -1.2101144524158034 1.209696449252837 -1.2089504628498526 -0.0005388894123685429 0.001175305541562926 0.0011773023961971338 1.4076477903163473e-06 -0.003981957455484989 0.00397391660456344
2441.3199999999997 0.0001300776438218854 -1.5707096083656822 -1.5707529675802894 0.0 1.5707963267948966 0.0 0.005002986300841746 0.0033353242005611634 0.0016676621002805832 0.0 0.0 0.0 0.1276272015520854 0.0850848010347236 0.042542400517361856 0.0 0.0 0.0 0.12783045935090964 0.6433587023359493 0.7880562288673516 0.07121095400656408 0.00023807425529886095 0.0 0.0940653726720715 6.4746572997718905 6.422792055630595 0.29392244351762015 0.0009883372214540653 0.0 7.227985770441592e-05 -1.5706647078143519 -1.5707834402667444 -5.2754079000294496e-05 1.570719599723816 -3.5587941304981996e-05 0.003930825740098953 0.007420632056891918 -0.0 0.0 0.0 0.0 0.1009368970990181 0.6706696152687073 0.7243945598602295 -0.01007094420492649 -0.017903901636600494 -0.08168654888868332 0.1054229810833931 0.6975861191749573 0.7335448265075684 -0.008951950818300247 -0.02349887043237686 -0.09063850343227386 0.29577766764107766 -0.11301968803371147 0.48159096273159085 -1.2100961802621264 1.2097560805170209 -1.2090484702025046 -0.0020020893601792136 0.001159844177757239 0.0021940792930186777 3.542330052490681e-07 -0.007420626473336214 0.00392172950391534 3.913993172240471 -0.8462642941582462 1.0646370383128474 0.3790672991946028 -0.6226761300342182 0.15398805370178092 0.29579189317347254 -0.11299629400065203 0.48159103568040257 -1.210105317480857 1.2096456685491188 -1.2089414333260002 -0.0006771680758247373 0.0014765997271195808 0.0014791412878106462 1.941329328397848e-06 -0.005002972123677122 0.004992869612608189
2441.328 0.00017318029502913737 -1.5706808732648767 -1.5707386000298866 0.0 1.5707963267948966 0.0 0.0061850105367549065 0.004123340357836603 0.002061670178918303 0.0 0.0 0.0 0.1477530294891451 0.09850201965942994 0.049251009829714996 0.0 0.0 0.0 0.1574582803378062 0.6636627807447584 0.7950486399677344 0.07130514382919176 0.0002755800399648119 0.0 0.10889380136113576 6.487062577009124 6.427188454230619 0.2943112109931783 0.0011440380676403425 0.0 0.00012021676229778677 -1.5707123915301722 -1.5707834402667444 -4.0356312887013246e-05 1.5707556009292603 -7.230440248662262e-05 0.011773303151130676 0.0041609229519963264 -0.0 0.0 0.0 0.0 0.2489776909351349 0.6123505234718323 0.7564204335212708 -0.0055949692614376545 -0.022379877045750618 -0.10966140031814575 0.2467346489429474 0.5944061875343323 0.7503202557563782 -0.008951950818300247 -0.02349887043237686 -0.09063850343227386 0.29579774949463256 -0.1130025262220508 0.48157788351136643 -1.2101889528518268 1.2097027968874199 -1.2089969759059642 -4.12585124468903e-05 0.003480877196649364 0.0012303328900583272 3.980883949529399e-07 -0.00416091980686296 0.0117682026775291 -1.2304266321219173 -5.360644655425526 0.021957941174766907 0.5092679097189815 -0.24908179373322736 0.5471249764705133 0.29578605856187834 -0.11298357288233483 0.48160377887115735 -1.2100939063798295 1.2095822457899617 -1.208930153877623 -0.0008373156535962669 0.001825364451392612 0.001828556978462169 2.666726171227025e-06 -0.0061849929008894 0.0061725036921705815
2441.336 0.00022619467105846513 -1.570645530347524 -1.5707209285712107 0.0 1.5707963267948966 0.0 0.007539822368615505 0.005026548245743669 0.0025132741228718366 0.0 0.0 0.0 0.16935147898257483 0.11290098598838326 0.056450492994191685 0.0 0.0 0.0 0.19135571542092253 0.6868657685459655 0.803029006807466 0.07140456487557754 0.0003158126395743165 0.0 0.12480486828729496 6.500317991414289 6.431899213294907 0.2947215702882959 0.0013110589647970542 0.0 0.00016815366689115763 -1.570688549672262 -1.5707715193377894 -4.0356312887013246e-05 1.5707556009292603 -4.7985707418263246e-05 0.009184709750115871 0.002205097349360585 -0.0 0.0 0.0 0.0 0.1099090725183487 0.7469330430030823 0.7899713516235352 -0.0055949692614376545 -0.025736859068274498 -0.06378264725208282 0.1054229810833931 0.7200165390968323 0.7991215586662292 -0.008951950818300247 -0.02349887043237686 -0.09063850343227386 0.295794284773232 -0.11298836998439765 0.481588456956269 -1.2101673258207828 1.2096527108045452 -1.2089607583890345 0.00031081944279250806 0.0027158810300221647 0.000652000130091148 3.166739588430593e-07 -0.002205095669938116 0.009182006734234763 3.6916994991798013 2.3880684609571463 -1.0753542846404915 0.2958904764238867 -0.7600820357265613 -0.07551974527808415 0.2957788807413438 -0.11296792744033742 0.4816194519438497 -1.210079868501764 1.2095042402678957 -1.2089162779215838 -0.001020963517605946 0.002225052863234119 0.002229020422839956 3.6507962249899983e-06 -0.007539800686767113 0.007524576004793478
2441.344 0.0002905344886039841 -1.5706026371358277 -1.5706994819653621 0.0 1.5707963267948966 0.0 0.009079202768874505 0.006052801845916335 0.00302640092295817 0.0 0.0 0.0 0.19242255003237504 0.1282817000215833 0.06414085001079164 0.0 0.0 0.0 0.22981945472141754 0.7131645405021851 0.812063673871527 0.0715088769637831 0.00035876558021201915 0.0 0.14179769698985856 6.514411698874642 6.436922750672532 0.29515211730569685 0.001489373037227344 0.0 0.00022807478671893477 -1.570580784474508 -1.570723835621969 -7.659593691045075e-05 1.5707675218582153 -5.990663637334137e-05 0.004218447487801313 0.01179247722029686 -0.0 0.0 0.0 0.0 0.2758941948413849 0.6459961533546448 0.8128469586372375 -0.0033569815568625927 -0.02349887043237686 -0.09735246747732162 0.2803802788257599 0.6437531113624573 0.8113219141960144 -0.008951950818300247 -0.022379877045750618 -0.09063850343227386 0.29576453249848356 -0.112969762574138 0.481631430106187 -1.2101221178554238 1.209506600498546 -1.208973223634418 -0.003411529934332679 0.0012426022157910053 0.0034863526473647914 2.400135170198118e-06 -0.01179246811638938 0.004203992228847181 -3.590054625464925 -1.3995927694254813 -1.671658194305006 0.45184289966148766 -0.17758206416311215 0.22667247432720725 0.29577016729806715 -0.1129489411166271 0.48163847251622866 -1.2100628276825518 1.2094095729714558 -1.2088994336083707 -0.0012297549028366037 0.0026791103777868692 0.0026839986650123568 4.98062979090389e-06 -0.009079176358727077 0.009060843715814441
2441.352 0.00036770771213941736 -1.5705511883201364 -1.5706737575575165 0.0 1.5707963267948966 0.0 0.010814932709982867 0.007209955139988576 0.003604977569994291 0.0 0.0 0.0 0.2169662426385452 0.14464416175903008 0.07232208087951515 0.0 0.0 0.0 0.25387323059316114 0.7427573471940955 0.8222194367413447 0.07161771963472292 0.0004044310120808714 0.0 0.15987122484681912 6.529331130713123 6.44225736095659 0.29560136425439903 0.001678947697423613 0.0 0.00034791702637448907 -1.5705331007586878 -1.570735279713766 -4.593526021778871e-06 1.57077956199646 -4.7985707418263246e-05 0.016701215878129005 0.0035473306197673082 -0.0 0.0 0.0 0.0 0.0874786451458931 0.6975861191749573 0.8585981726646423 0.004475975409150124 -0.021260883659124374 -0.0839245393872261 0.0874786451458931 0.7222595810890198 0.8601232171058655 -0.008951950818300247 -0.022379877045750618 -0.08840051293373108 0.29575718170141646 -0.11293334000614107 0.48164807083783023 -1.2100959464921466 1.2093354303029893 -1.2089186304594246 0.0007164781021124186 0.004937840847049325 0.0010486661563776682 1.1471116073641745e-06 -0.0035473277691946813 0.01669686754810922 -3.7799680846169714 11.559118691895717 -3.032857657980344 0.38882095477934364 -0.2378492464631146 -0.8508038881704787 0.29575971262451367 -0.11292616982108448 0.4816612859266095 -1.2100423820172272 1.2092960267024597 -1.208879223634041 -0.0014653475088314593 0.003190972969935517 0.003196953977376652 6.767872857508989e-06 -0.010814900760818189 0.010793063995201684
2441.3599999999997 0.0004593165539180957 -1.5704901157589513 -1.5706432212769244 0.0 1.5707963267948966 0.0 0.012758793164391552 0.008505862109594366 0.0042529310547971865 0.0 0.0 0.0 0.24298255680108558 0.16198837120072376 0.08099418560036194 0.0 0.0 0.0 0.25634189643614147 0.77584400536023 0.8335636028978256 0.0717307126068959 0.00045279952583587266 0.0 0.1790241784209706 6.5450630056008245 6.44790121149406 0.29606774152661386 0.001879743883598681 0.0 0.00045614957343786955 -1.5704610983477991 -1.570735279713766 -2.8912221090138246e-05 1.57077956199646 -1.1746083394825746e-05 0.010699516162276268 0.01691213808953762 -0.0 0.0 0.0 0.0 0.3028106987476349 0.6572113633155823 0.8906240463256836 -0.0033569815568625927 -0.021260883659124374 -0.06154466047883034 0.3005676567554474 0.6886139512062073 0.895199179649353 -0.008951950818300247 -0.022379877045750618 -0.08951950818300247 0.2957477376903119 -0.11290136289517176 0.48166735387243126 -1.2100852660995656 1.209237786214116 -1.2088348779026072 -0.0043687014460298225 0.0031558226993740335 0.004999220253170171 7.299374265848799e-06 -0.01691212380826712 0.01067878520549888 -8.492403040936393 1.2154136976623287 -4.173162220165526 0.28550391594589786 0.034147215607007966 0.0014325707710618279 0.2957472977938003 -0.11289914201352227 0.4816883651924141 -1.2100181036323547 1.2091612462183159 -1.2088552250121853 -0.001729416454669111 0.0037640652302854977 0.003771342880775897 9.153755836827685e-06 -0.012758754687758925 0.012732994018505604
2441.368 0.0005670574739729578 -1.5704182884789146 -1.5706073076369051 0.0 1.5707963267948966 0.0 0.014922565104551519 0.009948376736367677 0.004974188368183843 0.0 0.0 0.0 0.2704714925199959 0.18031432834666386 0.09015716417333204 0.0 0.0 0.0 0.2589951577359982 0.8126260999935452 0.8461640562652198 0.07184745625681943 0.0005038599568577522 0.0 0.1992550472829402 6.561593342012598 6.45385233797845 0.29654959968073336 0.002091715247151037 0.0 0.0005640076124109328 -1.5704367796527308 -1.5706871191607874 -1.6514454976856996e-05 1.570791482925415 -8.422533144170075e-05 0.015608254820108414 0.0044293696992099285 0.0057524279691278934 0.0 0.0 0.0 0.1547699123620987 0.7200165390968323 0.9333252310752869 -0.008951950818300247 -0.024617865681648254 -0.1007094457745552 0.1480407863855362 0.7379608750343323 0.9409503936767578 -0.008951950818300247 -0.022379877045750618 -0.08840051293373108 0.2957467039708934 -0.11286855325214182 0.48168979721802657 -1.2101326121529203 1.20905293062336 -1.2088403257961748 -0.00019258433018208104 0.004606866514816564 0.0030094852356317412 1.0371627302132054e-05 -0.010181750580132593 0.015582032836030374 -8.267023970102874 10.107155435332412 -5.598566552574152 0.4668760521881188 -0.1290205422417874 -0.7150015527971745 0.29573269040916295 -0.11286735880215205 0.4817202109604502 -1.2099895384132182 1.2090027384026902 -1.2088269888006344 -0.002023657609017591 0.004401798166780468 0.0044106150377412725 1.2314766622845572e-05 -0.014922518862449193 0.014892390967933824
2441.3759999999997 0.0006927211801165497 -1.570334512674819 -1.5705654197348577 0.0 1.5707963267948966 0.0 0.01649336143134642 0.010995574287564275 0.005497787143782142 0.0 0.0 0.0 0.19634954084936243 0.13089969389957481 0.06544984694978741 0.0 0.0 0.0 0.25487971393425013 0.8101724723452843 0.8528542514201035 0.07142977876698302 0.00036543222822015676 0.0 0.14460698122083762 6.5134557306296035 6.4373588442304035 0.29482564035273856 0.001517048840982369 0.0 0.0007441454799845815 -1.5703180472003382 -1.5706031958209437 -1.6514454976856996e-05 1.5707316398620605 -5.990663637334137e-05 0.021379858255386353 0.02540655806660652 0.01176850963383913 0.0 0.0 0.0 0.2130890041589737 0.6975861191749573 0.8341975212097168 -0.0055949692614376545 -0.019022895023226738 -0.09399548172950745 0.2153320610523224 0.7446900010108948 0.8387726545333862 -0.008951950818300247 -0.02349887043237686 -0.08840051293373108 0.2957206676257238 -0.11282037698621272 0.48174969568753095 -1.2100219534776224 1.2088270259138656 -1.2088299397307676 -0.00697822218040627 0.006293075376666218 0.010986823787977868 3.6736004206011565e-05 -0.03717495069293316 0.02130617810989286 -5.228619269078074 4.860018429106121 -0.8358036815256227 0.43593810887545875 0.021289149823624978 -0.3095907972994366 0.2957156444254461 -0.11283029406057009 0.48175735144786697 -1.2099562056802653 1.2088178724681498 -1.20879403977729 -0.002237896491892475 0.0048643492709808675 0.004874487629221084 1.568476842739649e-05 -0.016493308480756252 0.01646001146053126
2441.384 0.0008309512568745007 -1.5702423592903134 -1.570519343042605 0.0 1.5707963267948966 0.0 0.018064157758141314 0.012042771838760874 0.006021385919380442 0.0 0.0 0.0 0.196349540849362 0.13089969389957481 0.06544984694978752 0.0 0.0 0.0 0.25552407527012383 0.8105530081661301 0.8614871516725114 0.07139543554994417 0.00036523517631545794 0.0 0.14458118971764305 6.512267113003942 6.437211091016969 0.2946838890953493 0.001516230803216262 0.0 0.0008520035189576447 -1.5702937285052698 -1.5705912748919886 -4.0356312887013246e-05 1.5707675218582153 -5.990663637334137e-05 0.017621604725718498 0.0054456316865980625 0.005392901599407196 0.0 0.0 0.0 0.2310333549976349 0.7132874131202698 0.8616482615470886 -0.004475975409150124 -0.027974845841526985 -0.10742340981960297 0.2310333549976349 0.7312317490577698 0.8692734837532043 -0.008951950818300247 -0.025736859068274498 -0.09175749868154526 0.2957258269865725 -0.11278555218352135 0.48175844342181007 -1.2100807300427112 1.2087120471466224 -1.2087300077238008 -0.00027182407632653303 0.00520116749170731 0.0032032242143408196 1.3544262670357344e-05 -0.010838484529746688 0.017595437185267907 -5.150036149484383 3.579048457509554 -1.650882246411237 0.49833673614141555 -0.04704004416596266 -0.1624445710781992 0.2956968830881506 -0.11278952985169828 0.48179820244011856 -1.2099195201908142 1.2086145321053767 -1.2087577763327795 -0.00245250180196291 0.00532666116519909 0.005338239320631794 1.9676883050080428e-05 -0.018064097216972635 0.018027632070458183
2441.392 0.000981747704246811 -1.570141828325399 -1.5704690775601478 0.0 1.5707963267948966 0.0 0.019634954084936214 0.013089969389957472 0.0065449846949787414 0.0 0.0 0.0 0.19634954084936243 0.13089969389957481 0.06544984694978741 0.0 0.0 0.0 0.25616834101531044 0.8109242016383593 0.8701251829904664 0.07135796864030687 0.000365020138788321 0.0 0.1445530549500029 6.510970298866601 6.43704976835265 0.29452924483049886 0.0015153381002576322 0.0 0.0009722202667035162 -1.5701382795916956 -1.5706151167498987 -6.467500795537262e-05 1.5707675218582153 -5.990663637334137e-05 0.018810439854860306 0.02569417841732502 0.0032357408199459314 0.0 0.0 0.0 0.1704712063074112 0.7648773789405823 0.9546757936477661 -0.01007094420492649 -0.02685585245490074 -0.08728151768445969 0.1682281643152237 0.7895508408546448 0.9501006603240967 -0.008951950818300247 -0.022379877045750618 -0.09063850343227386 0.2956922331270335 -0.11275007262128728 0.48179533289325355 -1.2100584477488012 1.2085445827574197 -1.2086922803653095 -0.006632918863336711 0.005540806246224838 0.008548551546040941 3.0162874697793885e-05 -0.028929862039121998 0.018767248910473676 -5.706565874042875 7.589217642933997 -5.503064948912569 0.4051036038371393 -0.34244542407215206 -0.49798942588133227 0.295676403326743 -0.11274506818105687 0.48184276292376954 -1.2098794763810574 1.208392720792969 -1.2087181928931054 -0.002667508312851909 0.005788710882570621 0.005801858551320541 2.435035910184824e-05 -0.019634884830032052 0.019595252808944353
2441.4 0.0011451105222334804 -1.5700329197800738 -1.5704146232874852 0.0 1.5707963267948966 0.0 0.02120575041173111 0.014137166941154071 0.0070685834705770416 0.0 0.0 0.0 0.196349540849362 0.13089969389957481 0.06544984694978752 0.0 0.0 0.0 0.2568125112024926 0.8112860495843058 0.8787683411308713 0.07131737762629221 0.0003647870969160775 0.0 0.14452257729298176 6.509565251615636 6.436874840412164 0.294361705858574 0.0015143706543815274 0.0 0.0011280152248218656 -1.5700424353228968 -1.570531193410055 -5.2754079000294496e-05 1.5707556009292603 -4.7985707418263246e-05 0.024409469217061996 0.007401457522064447 0.010546118021011353 0.0 0.0 0.0 0.2601929008960724 0.7514191269874573 1.011102318763733 -0.012308932840824127 -0.01678490824997425 -0.09735246747732162 0.2601929008960724 0.7514191269874573 1.011102318763733 -0.008951950818300247 -0.02349887043237686 -0.09063850343227386 0.2956699457045998 -0.11270516079275576 0.48184943442387695 -1.2099761183715354 1.2083035360530459 -1.2086684033765267 -0.0005974820436889098 0.007198736878331208 0.005303342391494125 2.8759197990990143e-05 -0.01794747649270072 0.0243622805269171 -8.297803549279157 3.8044634354031484 -7.695179308660362 0.45194793927458216 -0.3109847085383698 -0.23315578841921855 0.2956542017926336 -0.11269691123810187 0.4818910317928504 -1.2098360681826656 1.2081524423270362 -1.208675283378824 -0.002882950764217249 0.00625047540584393 0.006265333747995709 2.976444509352387e-05 -0.021205671036034376 0.021162873687234653
2441.408 0.001321039710834509 -1.5699156336543405 -1.570355980224618 0.0 1.5707963267948966 0.0 0.02277654673852601 0.01518436449235067 0.007592182246175341 0.0 0.0 0.0 0.19634954084936243 0.13089969389957481 0.06544984694978741 0.0 0.0 0.0 0.257456585867267 0.811638548562039 0.8874166214971745 0.07127366206218604 0.00036453603042049267 0.0 0.14448975715508752 6.508051931605171 6.43668626838594 0.2941812703398945 0.0015133283814052455 0.0 0.001295794383622706 -1.569946591054098 -1.5703757444964808 -5.2754079000294496e-05 1.5707435607910156 -5.990663637334137e-05 0.017602430656552315 0.022952187806367874 0.012942963279783726 0.0 0.0 0.0 0.2063598781824112 0.7962799668312073 0.8646983504295349 -0.011189938522875309 -0.01678490824997425 -0.07832957059144974 0.2041168361902237 0.7940369248390198 0.8570731282234192 -0.008951950818300247 -0.02349887043237686 -0.09063850343227386 0.2956438569170655 -0.11265681284909732 0.48192368626043064 -1.2098728154003053 1.2079988427441848 -1.2086816061389483 -0.006704830032710868 0.005169926177302816 0.010604751208677628 5.6624347570236e-05 -0.03589500166422505 0.01752751816274558 0.07133430571714344 2.6681285429764956 -0.7706138796516934 0.36395185763789817 -0.45098425842956263 -0.1393892578811633 0.29563027485946347 -0.11264506139661558 0.48194300784874944 -1.2097892890231285 1.2078937008215418 -1.2086290412053724 -0.003098863858764461 0.006711931663023904 0.006728653323630152 3.597838941070305e-05 -0.02277645550452099 0.02273049471659043
2441.4159999999997 0.001509535270049897 -1.5697899699481965 -1.5702931483715465 0.0 1.5707963267948966 0.0 0.02434734306532091 0.016231562043547268 0.008115781021773641 0.0 0.0 0.0 0.19634954084936243 0.13089969389957481 0.06544984694978752 0.0 0.0 0.0 0.25810056504818973 0.8119816948654788 0.8960700191393974 0.07122682146842631 0.0003642669174688673 0.0 0.14445459497878965 6.506430296146726 6.436484010480357 0.29398793629507314 0.001512211190692907 0.0 0.0014639480505138636 -1.569838825856344 -1.5703275839435022 -2.8912221090138246e-05 1.5707675218582153 -1.1746083394825746e-05 0.025253159925341606 0.010776215232908726 0.008628642186522484 0.0 0.0 0.0 0.1794433742761612 0.7469330430030823 0.9729762673377991 -0.004475975409150124 -0.02685585245490074 -0.09735246747732162 0.1727142482995987 0.7603912949562073 0.9607759714126587 -0.008951950818300247 -0.02349887043237686 -0.09063850343227386 0.29562104814428963 -0.11260527962762754 0.48197170892918356 -1.209795437193342 1.2077481277432989 -1.2085897658637852 -0.0014558651707346304 0.007445429636676733 0.005732489707463164 3.5262054472791257e-05 -0.019404759204230185 0.025208766111418483 -6.418375415367284 7.538786459577922 -5.045291243301275 0.45212730559647907 -0.21693532810674823 -0.4937965936732169 0.29560461862340726 -0.11258952121521115 0.48199868980010196 -1.2097391318261108 1.2076165007086541 -1.2085794592834374 -0.003315282259239326 0.007173056523021362 0.007191805676364845 4.3051440284553565e-05 -0.024347237854750167 0.024298115908290795
2441.424 0.001710597199879644 -1.5696559286616436 -1.5702261277282705 0.0 1.5707963267948966 0.0 0.025918139392115805 0.017278759594743866 0.00863937979737194 0.0 0.0 0.0 0.196349540849362 0.13089969389957481 0.06544984694978741 0.0 0.0 0.0 0.2587444487868258 0.8123154845245466 0.9047285287541733 0.0711768553317036 0.00036397973467525353 0.0 0.1444170912410886 6.504700299510954 6.43626802191807 0.2937817016054309 0.0015110189851605057 0.0 0.0016796640120446682 -1.5696709791766565 -1.5703519026385706 -6.467500795537262e-05 1.57077956199646 -7.230440248662262e-05 0.02448616921901703 0.020862139761447906 0.010402307845652103 0.0 0.0 0.0 0.2400055229663849 0.7581482529640198 1.0751540660858154 -0.007832957431674004 -0.024617865681648254 -0.1018284410238266 0.2400055229663849 0.7738495469093323 1.0751540660858154 -0.008951950818300247 -0.025736859068274498 -0.09063850343227386 0.29559508146732594 -0.11254062944240309 0.48201115362524816 -1.2098680393204182 1.2074724988664094 -1.2085175855072112 -0.005026579979739796 0.0072056892270226805 0.00923440720951248 6.058801843491994e-05 -0.031264302789622264 0.024423003422277018 -9.470738975956897 5.583150629697329 -9.28647191901336 0.4730860289832289 -0.3196232064426814 -0.34339462616693744 0.2955772289035096 -0.11253029343780746 0.4820580762626641 -1.2096855890118468 1.2073208467391439 -1.2085265300193386 -0.0035322405854220913 0.0076338267913094926 0.007654779188413292 5.1042845758188774e-05 -0.02591801765197246 0.02586573727363393
2441.432 0.0019242255003237502 -1.5695135097946809 -1.5701549182947883 0.0 1.5707963267948966 0.0 0.027488935718910704 0.018325957145940465 0.00916297857297024 0.0 0.0 0.0 0.19634954084936243 0.13089969389957481 0.06544984694978741 0.0 0.0 0.0 0.25938823712780196 0.8126399133053046 0.9133921446847812 0.0711237631050636 0.0003636744571017455 0.0 0.1443772464541209 6.502861892929247 6.4360382549383 0.2935625640134197 0.001509751661281263 0.0 0.001884144963696599 -1.5695751349078577 -1.570184055958883 -6.467500795537262e-05 1.5707556009292603 -4.7985707418263246e-05 0.026825489476323128 0.013230584561824799 0.014381070621311665 0.0 0.0 0.0 0.2130890041589737 0.7828217148780823 0.9592509269714355 -0.0033569815568625927 -0.014546919614076614 -0.08728151768445969 0.2153320610523224 0.7805786728858948 0.9638260006904602 -0.008951950818300247 -0.021260883659124374 -0.08840051293373108 0.29557198560462694 -0.11248246887419863 0.4820890483497513 -1.209740468019785 1.2071577154075646 -1.208491572272305 -0.002590615787030446 0.00789723682110579 0.008155431800481037 6.357335923673156e-05 -0.027611475659571356 0.026757300781626237 -3.3536499388472674 4.2354031105644765 -3.6467998569107998 0.4057676434587104 -0.3576352302932486 -0.27890608075311746 0.2955481012420376 -0.11246738099414443 0.4821211657591836 -1.2096286524975535 1.2070067439827903 -1.2084702453154494 -0.0037497734111001328 0.008094219205587398 0.00811756222496643 6.0011853648286965e-05 -0.027488794403706093 0.02743335882393843
2441.44 0.0021504201713822154 -1.5693627133473083 -1.5700795200711024 0.0 1.5707963267948966 0.0 0.0290597320457056 0.019373154697137063 0.009686577348568539 0.0 0.0 0.0 0.196349540849362 0.13089969389957481 0.06544984694978741 0.0 0.0 0.0 0.2600319301188627 0.8129549767101194 0.9220608609211904 0.07106754420802135 0.0003633510582598525 0.0 0.14433506116580205 6.500915024595617 6.435794658797199 0.2933305211230941 0.0015084091090913306 0.0 0.0021118451841175556 -1.5694201628314417 -1.5700996557818812 -5.2754079000294496e-05 1.5707435607910156 -2.366701234990387e-05 0.028896363452076912 0.020842963829636574 0.007406251505017281 0.0 0.0 0.0 0.2086029201745987 0.7334747910499573 1.0324528217315674 -0.006713963113725185 -0.021260883659124374 -0.09959045052528381 0.1951446682214737 0.7334747910499573 1.0446531772613525 -0.008951950818300247 -0.02349887043237686 -0.08951950818300247 0.29553812106690264 -0.11241643293372292 0.4821607164963207 -1.209638740536899 1.2068260094882002 -1.208433651071083 -0.004273681209643568 0.008508283249397364 0.008340952906214396 6.526405188613218e-05 -0.02824907395038167 0.02884405019280921 -8.483472726500139 7.104858204863485 -6.590360704146588 0.4628618497050659 -0.17631067160608888 -0.4843361076528422 0.29551723090486265 -0.11240078700034527 0.48218795671925646 -1.209568313697885 1.2066741978288327 -1.2084105965706375 -0.003967915261033926 0.008554210431451511 0.008580143133098309 7.001771150162838e-05 -0.029059567556012425 0.029000980570544576
2441.448 0.0023891812130550404 -1.5692035393195267 -1.5699999330572112 0.0 1.5707963267948966 0.0 0.0306305283725005 0.020420352248333662 0.01021017612416684 0.0 0.0 0.0 0.19634954084936243 0.13089969389957481 0.06544984694978762 0.0 0.0 0.0 0.26067552781093045 0.81326066997783 0.9273346943593327 0.07100819802667763 0.00036300951011197736 0.0 0.14429053596051822 6.498859639668634 6.435537179768205 0.29308557040059174 0.0015069912121959276 0.0 0.0023519042879343033 -1.5693123976336878 -1.5701115767108362 -1.6514454976856996e-05 1.5707675218582153 -3.5587941304981996e-05 0.028858013451099396 0.01992257498204708 0.009946906939148903 0.0 0.0 0.0 0.2377624809741974 0.7940369248390198 1.0095772743225098 -0.004475975409150124 -0.02014188840985298 -0.09735246747732162 0.2400055229663849 0.7985230088233948 1.0034770965576172 -0.008951950818300247 -0.02349887043237686 -0.08840051293373108 0.2955274363623061 -0.11234362470236445 0.4821919822517214 -1.2096746152484863 1.2065288992599736 -1.2083103254231886 -0.0041962730064369165 0.008492465625314716 0.008818977102616796 7.797998607139153e-05 -0.02986929781673315 0.02879764818325562 -4.203917136868855 3.1483583714606334 -5.291990558535074 0.4527865526069472 -0.4241701453983734 -0.1633201370198163 0.2954846128818643 -0.11233051475950069 0.4822584474791802 -1.2095045635253963 1.2063232139864337 -1.2083475746807406 -0.004186700607910896 0.00901377705807525 0.009042510240672482 8.111966654622199e-05 -0.03063033648977141 0.030568602524815695
2441.4559999999997 0.002640508625342224 -1.5690359877113353 -1.5699161572531155 0.0 1.5707963267948966 0.0 0.032201324699295396 0.02146754979953026 0.010733774899765139 0.0 0.0 0.0 0.196349540849362 0.13089969389957481 0.06544984694978741 0.0 0.0 0.0 0.26131903025816866 0.8135569880839222 0.9275387336166465 0.07094572391384582 0.0003626497830729595 0.0 0.1442436714598479 6.4966956802734375 6.435265761142415 0.292827709174657 0.0015054978477757447 0.0 0.0026039474178105593 -1.569108788167135 -1.5700038115130823 -4.593526021778871e-06 1.5707435607910156 -5.990663637334137e-05 0.030679617077112198 0.02245364338159561 0.005153216887265444 0.0 0.0 0.0 0.2018737941980362 0.7020722031593323 1.1026047468185425 -0.006713963113725185 -0.02349887043237686 -0.10966140031814575 0.2063598781824112 0.7043152451515198 1.108704924583435 -0.008951950818300247 -0.02349887043237686 -0.09175749868154526 0.2954781644198228 -0.11227150625738216 0.482284887102612 -1.2095611736635226 1.206112272741546 -1.2083130072824149 -0.004418593684849554 0.00903087342791421 0.008148023756511373 7.559607115103266e-05 -0.027606704735189433 0.030633472571115754 -12.685766808087589 9.75283353964398 -9.4680625488869 0.5098867587035975 -0.05250047807915376 -0.6926155919492331 0.29545024188735897 -0.11225656776232579 0.48233263628179435 -1.2094373923910515 1.205953798485179 -1.2082811700390657 -0.004406163869282627 0.009472895593897487 0.009504651855249133 9.337696563669449e-05 -0.03220110051695707 0.032136224698139426
2441.464 0.002904402408243767 -1.5688600585227341 -1.5698281926588153 0.0 1.5707963267948966 0.0 0.03377212102609029 0.022514747350726855 0.011257373675363438 0.0 0.0 0.0 0.196349540849362 0.13089969389957437 0.06544984694978741 0.0 0.0 0.0 0.26196243751804876 0.8138439257407224 0.927741136304388 0.0708801211891846 0.0003622718460117305 0.0 0.14419446832333527 6.494423085503962 6.434980343229019 0.2925569346371882 0.00150392888659382 0.0 0.002820038003847003 -1.5689414183246058 -1.5699318091021937 -1.6514454976856996e-05 1.5707556009292603 -3.5587941304981996e-05 0.03370922803878784 0.02051699347794056 0.013230584561824799 0.0 0.0 0.0 0.2512207329273224 0.8299255967140198 0.9897517561912537 -0.002237987704575062 -0.017903901636600494 -0.1018284410238266 0.2579498589038849 0.8321686387062073 1.0034770965576172 -0.008951950818300247 -0.022379877045750618 -0.08728151768445969 0.29544191500627137 -0.11220697314330129 0.4823545599654528 -1.2094828195094476 1.205788970818008 -1.2082344773820781 -0.004141069703315241 0.009914453723307395 0.009961030628293725 0.00010560950622479257 -0.03374730809178307 0.03363627242336104 -1.5500170577409331 1.0606932721069076 -4.342309966423807 0.4739347545023518 -0.5612793013337309 -0.0012366981264135682 0.2954141123605534 -0.11217894968777598 0.48241052127631445 -1.2093667902047511 1.2055659576756008 -1.2082113725369148 -0.004626339404491112 0.009931542462320357 0.00996655626299309 0.00010684885519361328 -0.03377185887691311 0.033703847101929064
2441.4719999999998 0.003180862561759669 -1.568675751753723 -1.5697360392743098 0.0 1.5707963267948966 0.0 0.035342917352885195 0.023561944901923454 0.011780972450961737 0.0 0.0 0.0 0.19634954084936287 0.13089969389957481 0.06544984694978741 0.0 0.0 0.0 0.26260574965142097 0.8141214773975934 0.9279418949997353 0.07081138913933725 0.00036187566625304053 0.0 0.1441429272492951 6.492041791425198 6.434680863355707 0.29227324384381326 0.0015022841930027028 0.0 0.003084065392613411 -1.5687735716449183 -1.569859806691305 -2.8912221090138246e-05 1.5707316398620605 -5.990663637334137e-05 0.0344378687441349 0.02293301373720169 0.006807039957493544 0.0 0.0 0.0 0.2781372368335724 0.7289887070655823 1.070578932762146 -0.002237987704575062 -0.022379877045750618 -0.11078038811683655 0.2714081108570099 0.7379608750343323 1.0629537105560303 -0.008951950818300247 -0.02349887043237686 -0.08951950818300247 0.29541089932800146 -0.11213126555686695 0.4824243238261508 -1.2094456812258683 1.2054339315760934 -1.2081828774026446 -0.004306864136070443 0.010132272036004258 0.008774960573182222 9.67904237445027e-05 -0.02973983262189834 0.03438516260528292 -10.032392969069432 3.8463351795762866 -7.946488018487808 0.5147271826332324 -0.13116145392098902 -0.21114851981720786 0.29537621846602286 -0.11209766440380796 0.48249210051815605 -1.2092927463758871 1.2051596982297277 -1.208138171564145 -0.004847261511576603 0.010389693997416936 0.010428211727582657 0.00012159458113641574 -0.03534261073262845 0.03527146974762487
2441.48 0.0034698890858899305 -1.568483067404303 -1.5696396970995998 0.0 1.5707963267948966 0.0 0.03691371367968009 0.024609142453120052 0.012304571226560037 0.0 0.0 0.0 0.196349540849362 0.13089969389957481 0.06544984694978741 0.0 0.0 0.0 0.2632489667225874 0.8143896372411454 0.9281410019267994 0.07073952701807966 0.0003614612095792744 0.0 0.14408904897566086 6.4895517310756174 6.434367255869152 0.2919766337145002 0.0015005636249519956 0.0 0.0033477183897048235 -1.5685938040362757 -1.5698121229754847 -5.2754079000294496e-05 1.570719599723816 -3.5587941304981996e-05 0.03470631688833237 0.02600097469985485 0.01555552426725626 0.0 0.0 0.0 0.2781372368335724 0.8276825547218323 1.0934544801712036 -0.008951950818300247 -0.025736859068274498 -0.09175749868154526 0.2938385307788849 0.8209534287452698 1.108704924583435 -0.008951950818300247 -0.02349887043237686 -0.08951950818300247 0.29537894892431743 -0.11205468978869955 0.48248947027889244 -1.2093958672858611 1.2051109063354057 -1.2080755915279262 -0.006053162654539318 0.010191329204678148 0.012261923041517521 0.00015136068262824222 -0.04155609871570084 0.03461824293819058 -5.696825114109075 1.5258385816944107 -9.087938326564675 0.4277047777741151 -0.6260483924666307 -0.003912437932912012 0.2953365540942141 -0.11201271596805396 0.48257737196875 -1.2092152498139328 1.2047350271416641 -1.2080615560097467 -0.005068964424174301 0.010847326439649259 0.010889606489119387 0.000137673388809617 -0.03691335516701292 0.03683909264669535
2441.488 0.003771481980634551 -1.5682820054744733 -1.5695391661346854 0.0 1.5707963267948966 0.0 0.03848451000647499 0.02565634000431665 0.012828170002158338 0.0 0.0 0.0 0.196349540849362 0.13089969389957481 0.06544984694978762 0.0 0.0 0.0 0.263892088799381 0.8146483991954513 0.9283384489566774 0.07066453404647244 0.000361028440232378 0.0 0.14403283428088093 6.486952834469661 6.434039452135465 0.2916671010341852 0.0014987670339963498 0.0 0.0036840257234871387 -1.5683906714068812 -1.5696805159198206 -1.6514454976856996e-05 1.5707556009292603 -8.422533144170075e-05 0.03880971297621727 0.025617480278015137 0.010785803198814392 0.0 0.0 0.0 0.2915954887866974 0.7917938828468323 1.0248277187347412 -0.01007094420492649 -0.021260883659124374 -0.08951950818300247 0.3005676567554474 0.7850647568702698 1.0248277187347412 -0.008951950818300247 -0.025736859068274498 -0.08840051293373108 0.29533494357231416 -0.11195290474564236 0.4825912057810679 -1.2093327502971987 1.2045417908921587 -1.2080121900826266 -0.0050611457079836174 0.01140587994418913 0.01073772399443831 0.00014241717144592553 -0.03640291249384849 0.0387393439110383 -4.943160451800228 0.4502893538232007 -6.058251916565917 0.4167416577049043 -0.44600794779360736 0.06395452231737601 0.2952951128619722 -0.11192410862862444 0.4826663334953505 -1.2091342889290517 1.2042919517281927 -1.2079815142624593 -0.005291482308388972 0.011304415931597301 0.01135072876303879 0.0001551445229019683 -0.038484091179172966 0.0384067158106386
2441.496 0.004085641245993531 -1.5680725659642345 -1.5694344463795655 0.0 1.5707963267948966 0.0 0.04005530633326989 0.02670353755551325 0.013351768777756637 0.0 0.0 0.0 0.19634954084936287 0.13089969389957481 0.06544984694978741 0.0 0.0 0.0 0.26453511595324536 0.8148977569222807 0.9285342276075156 0.07058640941302301 0.00036057732091584473 0.0 0.14397428398484316 6.484245028600428 6.433697380540726 0.2913446424534413 0.001496894265303712 0.0 0.003972021862864494 -1.5682109037982386 -1.5695608297931116 -1.6514454976856996e-05 1.57077956199646 -0.000108067189351857 0.03834952041506767 0.024869663640856743 0.021619543433189392 0.0 0.0 0.0 0.2624359428882599 0.7648773789405823 1.0294028520584106 -0.014546919614076614 -0.017903901636600494 -0.10966140031814575 0.2938385307788849 0.7626343369483948 1.023302674293518 -0.008951950818300247 -0.025736859068274498 -0.09287648648023605 0.2952973342735011 -0.11186634855550727 0.4826795408692595 -1.2092757062650161 1.204081398722797 -1.207941138244456 -0.005812143007480954 0.011250982862744058 0.013714187645429086 0.00020196543628939637 -0.046488604387310374 0.03824093108464706 -6.554342147848033 3.1692923909058357 -6.347820935146549 0.5106088392706168 -0.35222786081153584 -0.17566314931726412 0.2952518881130947 -0.11183184682489855 0.48275898287083285 -1.2090498516327395 1.2038304796294053 -1.2078980342114067 -0.005514849259657577 0.011760938513699415 0.011811566739022087 0.00017406722735823798 -0.040054817680687464 0.03997433925098361
2441.504 0.00441236688196687 -1.567854748873585 -1.5693255378342412 0.0 1.5707963267948966 0.0 0.041626102660064786 0.027750735106709848 0.013875367553354936 0.0 0.0 0.0 0.196349540849362 0.13089969389957481 0.06544984694978741 0.0 0.0 0.0 0.2651780482593198 0.8151377038213338 0.9287283290445694 0.07050515227385291 0.00036010781279680466 0.0 0.14391339894984626 6.481428237442367 6.433340966491485 0.2910092544891693 0.0014949451576639983 0.0 0.0043199388310313225 -1.5679596106158655 -1.5694883505450647 -4.593526021778871e-06 1.5707316398620605 -3.5587941304981996e-05 0.041187383234500885 0.028858013451099396 0.008341020904481411 0.0 0.0 0.0 0.2669220268726349 0.7491760849952698 1.0324528217315674 -0.008951950818300247 -0.021260883659124374 -0.07832957059144974 0.2915954887866974 0.7491760849952698 1.0477032661437988 -0.008951950818300247 -0.025736859068274498 -0.09063850343227386 0.29524580542960727 -0.11176811223232093 0.4827759781272586 -1.2091153743901941 1.2036488985526665 -1.2078245903524867 -0.005668962034600981 0.012096338818168698 0.010966073639715055 0.0001669074533500711 -0.03719858144115862 0.041121877518350426 -7.5082723865566 3.3662270945542416 -6.357273272173194 0.3649738610422358 -0.24524207305609558 -0.17711882347893276 0.2952068729189076 -0.11173593518834231 0.4828553177734837 -1.2089619253384927 1.2033506188093601 -1.2078111032467678 -0.005739099299592266 0.012216870120004674 0.012272108579908955 0.0001945007452832876 -0.041625533491883596 0.04154196297929156
2441.5119999999997 0.004751658888554568 -1.5676285542025266 -1.5692124404987116 0.0 1.5707963267948966 0.0 0.04319689898685968 0.028797932657906446 0.014398966328953235 0.0 0.0 0.0 0.196349540849362 0.13089969389957481 0.06544984694978741 0.0 0.0 0.0 0.265820885796528 0.8153682330304982 0.9289207440802713 0.07042076175287339 0.0003596198755082224 0.0 0.14385018008161898 6.478502381954245 6.432970132415348 0.29066093352532235 0.0014929195434982168 0.0 0.004680214449763298 -1.567803684865133 -1.5693085829364222 -4.0356312887013246e-05 1.5707316398620605 -9.614626039677887e-05 0.042203646153211594 0.02726650983095169 0.021595574915409088 0.0 0.0 0.0 0.3140259087085724 0.7200165390968323 0.9257000088691711 -0.008951950818300247 -0.024617865681648254 -0.09511447697877884 0.2893524467945099 0.7200165390968323 0.9257000088691711 -0.008951950818300247 -0.021260883659124374 -0.09063850343227386 0.29522189485940803 -0.11166229326530976 0.4828720609285247 -1.2091072127943105 1.2031355444914102 -1.2077450105747216 -0.00618964709219099 0.0123742004884882 0.014408181050878283 0.0002459360903014216 -0.048861300026144305 0.04209221286034831 -4.917024579010999 -0.8830984821940675 -1.6124864263781093 0.4409547737851172 -0.07571245532669157 0.18950079055083638 0.29516006007887174 -0.11163637854337947 0.48295533578678046 -1.2088704969625053 1.2028523775567659 -1.2077207082604664 -0.005964266372802046 0.012672186573937944 0.012732342420611465 0.00021650431883811508 -0.04319623733811281 0.04310958700715712
2441.52 0.005103517265756625 -1.5673939819510583 -1.5690951543729774 0.0 1.5707963267948966 0.0 0.04476769531365458 0.029845130209103045 0.014922565104551535 0.0 0.0 0.0 0.196349540849362 0.13089969389957481 0.06544984694978741 0.0 0.0 0.0 0.2664636286476693 0.815589337426102 0.9291114631742985 0.07033323694196675 0.00035911346715114935 0.0 0.1437846283303661 6.475467380082051 6.432584797761533 0.2902996758136545 0.0014908172488678193 0.0 0.004979819990694523 -1.567529026662008 -1.5691888968097132 -4.0356312887013246e-05 1.570719599723816 -3.5587941304981996e-05 0.044197823852300644 0.03259709104895592 0.011408982798457146 0.0 0.0 0.0 0.2871094048023224 0.7132874131202698 1.0141524076461792 -0.004475975409150124 -0.02909383922815323 -0.1197323426604271 0.2826233208179474 0.7200165390968323 1.0095772743225098 -0.008951950818300247 -0.027974845841526985 -0.09175749868154526 0.2951540097006389 -0.11157556756993332 0.48298829331479615 -1.2089062669365205 1.2026637073917026 -1.2076739498785856 -0.006853939998297074 0.012961982490964063 0.012967568484742375 0.00022781650169142778 -0.04400538213965386 0.04411665612202009 -8.707678307642762 2.6738147085307453 -5.443240904796192 0.5560010638603459 -0.04395001413226171 -0.08327279616708581 0.29511144212120816 -0.11153318190832376 0.483059034399165 -1.208775552924393 1.2023357644856922 -1.2076268356468962 -0.006190384343699881 0.01312686358407781 0.013192256367029066 0.00024013718912753722 -0.04476692784602693 0.044677211346209805
2441.528 0.005467942013573042 -1.567151032119181 -1.5689736794570388 0.0 1.5707963267948966 0.0 0.04633849164044948 0.030892327760299643 0.015446163880149836 0.0 0.0 0.0 0.19634954084936287 0.13089969389957481 0.06544984694978762 0.0 0.0 0.0 0.26710627689951444 0.8158010096231894 0.9293004764336453 0.07024257690117595 0.00035858854429709943 0.0 0.14371674469186696 6.47232314676218 6.432184879001491 0.2899254774745032 0.0014886380934845621 0.0 0.005399642512202263 -1.5673373381244105 -1.5690692106830042 -7.659593691045075e-05 1.570791482925415 -5.990663637334137e-05 0.045405831187963486 0.028455344960093498 0.014381070621311665 0.0 0.0 0.0 0.3521576225757599 0.7402039170265198 0.8601232171058655 -0.004475975409150124 -0.02014188840985298 -0.07049661129713058 0.2915954887866974 0.7491760849952698 0.8372476100921631 -0.008951950818300247 -0.025736859068274498 -0.09063850343227386 0.2951300096983852 -0.11144630954693971 0.4830770967957576 -1.2089517077021141 1.2020889324092612 -1.207458914218145 -0.005616501777902663 0.013316559021188043 0.012622795638300188 0.00024255179861820252 -0.04283561019378343 0.045319007377194805 -1.3074116769717092 -4.912899567976869 1.42083134792752 0.3256032256559015 -0.11338202434104558 0.5012921202661103 0.295061011303555 -0.11142635049629679 0.4831664110038064 -1.2086770791479464 1.2018007885363025 -1.2075294713036704 -0.0064174869932825465 0.01358087673994833 0.013651838494964827 0.0002654585960791837 -0.04633760353985437 0.046244836008115235
2441.536 0.005844933132003818 -1.566899704706894 -1.5688480157508948 0.0 1.5707963267948966 0.0 0.04790928796724438 0.03193952531149624 0.015969762655748135 0.0 0.0 0.0 0.196349540849362 0.13089969389957481 0.06544984694978741 0.0 0.0 0.0 0.26774883064290367 0.8160032419757971 0.9294877736126971 0.07014878065889975 0.000358045061990491 0.0 0.1436465302086066 6.469069593924605 6.431770289629529 0.28953833449759475 0.0014863818907206452 0.0 0.0057599181309342384 -1.5670378843890589 -1.5689366499530237 -4.0356312887013246e-05 1.57077956199646 0.0 0.04918326064944267 0.03255874291062355 0.030200248584151268 0.0 0.0 0.0 0.2960815727710724 0.6841278672218323 0.9668760895729065 -0.01007094420492649 -0.017903901636600494 -0.08280554413795471 0.3185119926929474 0.6863709092140198 0.9699261784553528 -0.008951950818300247 -0.025736859068274498 -0.08728151768445969 0.29505628812143037 -0.11134187021609464 0.483207339036949 -1.2087249099343367 1.2015180741555775 -1.20737794382983 -0.007946896109313172 0.014388647895922264 0.018495250876927508 0.000385802066656436 -0.06275757847484668 0.0490342771522535 -8.42884968954211 2.3041711813898207 -3.4513157738235316 0.38424246430727704 0.0705174503657999 -0.10593453971847584 0.2950087596136465 -0.11131588971618071 0.4832774628983569 -1.2085750610619053 1.2012474589756166 -1.2074286006324007 -0.00664560801590237 0.014034201507824874 0.014111076849042916 0.000292527778313475 -0.04790826283767647 0.04781246100457643
2441.544 0.006234490621048952 -1.566639999714197 -1.5687181632545464 0.0 1.5707963267948966 0.0 0.04948008429403927 0.032986722862692844 0.016493361431346436 0.0 0.0 0.0 0.196349540849362 0.13089969389957523 0.06544984694978762 0.0 0.0 0.0 0.2683912899728505 0.8161960265772484 0.9296733441133097 0.07005184721209716 0.0003574829737512122 0.0 0.14357398597095908 6.465706630496284 6.431340940163479 0.28913824274288835 0.0014840484476193595 0.0 0.0061557721346616745 -1.566798512135641 -1.5687688032733362 -4.0356312887013246e-05 1.57077956199646 -3.5587941304981996e-05 0.049202434718608856 0.03545413166284561 0.010785803198814392 0.0 0.0 0.0 0.2669220268726349 0.7491760849952698 0.8250472545623779 -0.006713963113725185 -0.02014188840985298 -0.10966140031814575 0.2714081108570099 0.7581482529640198 0.8433477878570557 -0.008951950818300247 -0.024617865681648254 -0.09063850343227386 0.29500636106463346 -0.11122591630049217 0.4833273106184153 -1.2086352696147455 1.200912002242846 -1.2073036077615147 -0.007219893531971709 0.014412119963859217 0.013614044951184023 0.0002927467268219497 -0.04623890814530291 0.04912002253408837 0.5030078208351022 -0.6385668001975623 2.9788225648244473 0.5089210331796361 -0.1513491476746516 0.15133881406219438 0.2949546787700191 -0.11120180517363278 0.4833921872846969 -1.2084694836007746 1.200675785398299 -1.2073242085394993 -0.0068747810159984855 0.014486813226554787 0.014569959441627334 0.0003214039730042562 -0.04947890404770397 0.04938008634733517
2441.5519999999997 0.006636614480708447 -1.5663719171410913 -1.5685841219679935 0.0 1.5707963267948966 0.0 0.051050880620834176 0.03403392041388944 0.017016960206944733 0.0 0.0 0.0 0.19634954084936287 0.13089969389957437 0.06544984694978719 0.0 0.0 0.0 0.26903365498864695 0.8163793552604556 0.9298571769848901 0.06995177552649723 0.0003569022315772451 0.0 0.14349911311839902 6.4622341624046165 6.43089673814538 0.2887251979414418 0.0014816375649059836 0.0 0.006540016271173954 -1.5664995352374476 -1.5687091986285608 -4.0356312887013246e-05 1.5707435607910156 -5.990663637334137e-05 0.050161171704530716 0.03217524662613869 0.03485012799501419 0.0 0.0 0.0 0.2130890041589737 0.6459961533546448 0.8936741352081299 -0.007832957431674004 -0.01678490824997425 -0.10742340981960297 0.2534637749195099 0.6527252793312073 0.8677484393119812 -0.008951950818300247 -0.022379877045750618 -0.08840051293373108 0.29494478279893116 -0.11111637403856005 0.48343284824668087 -1.2085508659037656 1.200381883930876 -1.2072328151555467 -0.00814333234911814 0.014654050550092003 0.019745953145388986 0.00046658232483831955 -0.06702349302959476 0.0499958806151212 -7.645189661390958 7.008255070063112 -0.11453976613935307 0.49918665910098664 0.2864618742573482 -0.4977010365841295 0.29489876022274536 -0.11108410267211359 0.48351058126867263 -1.2083603312056546 1.2000857777274725 -1.2072162794370143 -0.007105039504825486 0.014938687103393354 0.015028474251742039 0.0003521464157297592 -0.05104952536455368 0.05094771204817327
2441.56 0.0070513047109823 -1.5660954569875756 -1.568445891891236 0.0 1.5707963267948966 0.0 0.05262167694762907 0.035081117965086034 0.017540558982543034 0.0 0.0 0.0 0.196349540849362 0.13089969389957437 0.06544984694978762 0.0 0.0 0.0 0.2696759257939731 0.8165532195982282 0.9300392609244815 0.06984856453681584 0.0003563027859473967 0.0 0.1434219128407591 6.45865209258102 6.430437588142193 0.2882991956963065 0.0014791490369991194 0.0 0.00699579156935215 -1.566200081502096 -1.5685413519488733 -4.0356312887013246e-05 1.57077956199646 -5.990663637334137e-05 0.05240461975336075 0.03844539448618889 0.008844357915222645 0.0 0.0 0.0 0.2781372368335724 0.7110443711280823 0.9562008380889893 -0.007832957431674004 -0.022379877045750618 -0.08728151768445969 0.2624359428882599 0.7020722031593323 0.9684011340141296 -0.008951950818300247 -0.02349887043237686 -0.09063850343227386 0.29488138402900577 -0.1109800630799847 0.4835704249385559 -1.208435496466877 1.199678260070071 -1.2070893943543863 -0.00770955480159587 0.015334912933530481 0.013912204498145755 0.0003372559182619555 -0.04728846058873413 0.052325556839912635 -6.600211998122192 2.4387085207858585 -2.8922913815091915 0.4056758572365504 -0.02764424152716444 -0.09550973966050791 0.29484099515419065 -0.11096278821400381 0.4836326418598264 -1.2082475878251036 1.1994774462155522 -1.207104797243492 -0.007336416897142495 0.01538979820985567 0.015486609223992425 0.0003848143403135658 -0.05262012486552535 0.05251533811891386
2441.5679999999998 0.007478561311870513 -1.56581061925365 -1.5683034730242733 0.0 1.5707963267948966 0.0 0.05419247327442397 0.036128315516282636 0.018064157758141332 0.0 0.0 0.0 0.196349540849362 0.13089969389957523 0.06544984694978719 0.0 0.0 0.0 0.270318102497011 0.8167176109035993 0.9302195842768499 0.06974221314698066 0.0003556845858241414 0.0 0.14334238637953742 6.454960320964671 6.429963391746538 0.28786023148345563 0.0014765826520224924 0.0 0.007379661314189434 -1.565972630177633 -1.5684335867511194 -7.659593691045075e-05 1.5707675218582153 -7.230440248662262e-05 0.05422622337937355 0.03286553919315338 0.025909895077347755 0.0 0.0 0.0 0.2444916069507599 0.7200165390968323 0.8143720030784607 -0.0055949692614376545 -0.02014188840985298 -0.09063850343227386 0.2714081108570099 0.7200165390968323 0.7930214405059814 -0.008951950818300247 -0.02349887043237686 -0.09175749868154526 0.2948421880207614 -0.11086865490278267 0.4836661154695054 -1.2083972086749981 1.1991803960131429 -1.2069642549659196 -0.007164850840397258 0.015849866293132644 0.01730293575806644 0.00045454587170751004 -0.05877347766485011 0.05409238275548041 -0.6468353467779058 1.4396324635755071 3.5073797721896844 0.4206627752587666 -0.004313071786468964 -0.020440337704218225 0.2947813744797996 -0.11083786800164327 0.48375836597111627 -1.2081312369160322 1.1988508014451125 -1.2069897453848617 -0.007568946507891737 0.015840121477584956 0.015944352267488224 0.00041946697865524334 -0.05419070050687867 0.05408296457142273
2441.576 0.007918384283373084 -1.5655174039393147 -1.568156865367106 0.0 1.5707963267948966 0.0 0.055763269601218864 0.03717551306747923 0.018587756533739633 0.0 0.0 0.0 0.196349540849362 0.13089969389957437 0.06544984694978762 0.0 0.0 0.0 0.2709601852105611 0.8168725202301561 0.9303981350345766 0.06963272023036292 0.00035504757865652406 0.0 0.14326053502923108 6.451158744506323 6.429474047577471 0.28740830065274114 0.0014739381918170032 0.0 0.007871763780713081 -1.5656617323504847 -1.5682533423053187 -5.2754079000294496e-05 1.5707435607910156 -4.7985707418263246e-05 0.05522330850362778 0.03990267589688301 0.029744846746325493 0.0 0.0 0.0 0.2310333549976349 0.7110443711280823 1.0721039772033691 -0.008951950818300247 -0.02014188840985298 -0.10294743627309799 0.2265472710132599 0.6975861191749573 1.0614286661148071 -0.008951950818300247 -0.02349887043237686 -0.09063850343227386 0.29477568346181116 -0.11072679098461717 0.48381259003435906 -1.2082169597889496 1.198471181172771 -1.2068419971625803 -0.009743332228714261 0.01610574918249907 0.020496377699711636 0.0005720983751048271 -0.06964494278716242 0.05506700265966902 -11.10659073478053 7.771294417302173 -8.06633302634747 0.4817726299553434 -0.06917524182842176 -0.5472517657485613 0.2947198888489076 -0.11070934843849971 0.48388775041862636 -1.2080112614446208 1.1982058543297764 -1.2068711067953555 -0.007802661548842941 0.016289631694238024 0.01640169125476795 0.00045616356055032544 -0.05576125012011053 0.055650591417609606
