Fleaurent/UniversalRobot/csv/robolib_movej_Trapez_Zeit.csv
timestamp target_q_0 target_q_1 target_q_2 target_q_3 target_q_4 target_q_5 target_qd_0 target_qd_1 target_qd_2 target_qd_3 target_qd_4 target_qd_5 target_qdd_0 target_qdd_1 target_qdd_2 target_qdd_3 target_qdd_4 target_qdd_5 target_TCP_pose_0 target_TCP_pose_1 target_TCP_pose_2 target_TCP_pose_3 target_TCP_pose_4 target_TCP_pose_5 target_TCP_speed_0 target_TCP_speed_1 target_TCP_speed_2 target_TCP_speed_3 target_TCP_speed_4 target_TCP_speed_5
0.0 0.0 -1.5707963267948966 -1.5707963267948966 0.0 1.5707963267948966 0.0 0.0 0.0 0.0 0.0 0.0 0.0 1.0 0.0 0.0 0.0 0.0 0.0 0.29514999999999997 -0.11234999999999999 0.4809 -1.2091995761561454 1.2091995761561456 -1.2091995761561458 0.0 0.0 0.0 0.0 0.0 0.0 
0.008 3.2e-05 -1.5707963267948966 -1.5707963267948966 0.0 1.5707963267948966 0.0 0.008 0.0 0.0 0.0 0.0 0.0 1.0 0.0 0.0 0.0 0.0 0.0 0.29515359504888256 -0.11234055514247841 0.4809 -1.2092147055764364 1.2091760113249628 -1.209176011324963 0.0008987244411398273 0.0023612287603910604 0.0 0.0 0.0 0.008 
0.016 0.000128 -1.5707963267948966 -1.5707963267948966 0.0 1.5707963267948966 0.0 0.016 0.0 0.0 0.0 0.0 0.0 1.0 0.0 0.0 0.0 0.0 0.0 0.29516437838209186 -0.11231221987973197 0.4809 -1.2092600917893326 1.209105316402997 -1.2091053164029972 0.0017969955180757117 0.00472263005411347 0.0 0.0 0.0 0.016 
0.024 0.000288 -1.5707963267948966 -1.5707963267948966 0.0 1.5707963267948966 0.0 0.024 0.0 0.0 0.0 0.0 0.0 1.0 0.0 0.0 0.0 0.0 0.0 0.295182344559092 -0.11226499214179592 0.4809 -1.2093357286510245 1.2089874901051165 -1.2089874901051167 0.002694359811403102 0.007084376269418208 0.0 0.0 0.0 0.024 
0.032 0.000512 -1.5707963267948966 -1.5707963267948966 0.0 1.5707963267948966 0.0 0.032 0.0 0.0 0.0 0.0 0.0 1.0 0.0 0.0 0.0 0.0 0.0 0.2952074845115868 -0.1121988684806635 0.4809 -1.2094416059222521 1.2088225302898576 -1.2088225302898579 0.0035903637913812323 0.009446639504370778 0.0 0.0 0.0 0.032 
0.04 0.0008 -1.5707963267948966 -1.5707963267948966 0.0 1.5707963267948966 0.0 0.04 0.0 0.0 0.0 0.0 0.0 1.0 0.0 0.0 0.0 0.0 0.0 0.2952397855424178 -0.11211384407318803 0.4809 -1.209577709268942 1.2086104339600623 -1.2086104339600627 0.004484553762927521 0.011809591421696713 0.0 0.0 0.0 0.04 
0.048 0.001152 -1.5707963267948966 -1.5707963267948966 0.0 1.5707963267948966 0.0 0.048 0.0 0.0 0.0 0.0 0.0 1.0 0.0 0.0 0.0 0.0 0.0 0.2952792313240216 -0.11200991272514643 0.4809 -1.2097440202630958 1.2083511972637653 -1.2083511972637655 0.005376475810807029 0.014173403103553039 0.0 0.0 0.0 0.048 
0.056 0.0015680000000000002 -1.5707963267948966 -1.5707963267948966 0.0 1.5707963267948966 0.0 0.056 0.0 0.0 0.0 0.0 0.0 1.0 0.0 0.0 0.0 0.0 0.0 0.29532580189645036 -0.11188706687646495 0.4809 -1.2099405163839287 1.208044815495334 -1.2080448154953343 0.006265675745082037 0.01653824490620122 0.0 0.0 0.0 0.056 
0.064 0.002048 -1.5707963267948966 -1.5707963267948966 0.0 1.5707963267948966 0.0 0.064 0.0 0.0 0.0 0.0 0.0 1.0 0.0 0.0 0.0 0.0 0.0 0.295379473664957 -0.11174529760760826 0.4809 -1.21016717101927 1.2076912830968698 -1.20769128309687 0.007151699046886929 0.018904286314557248 0.0 0.0 0.0 0.064 
0.072 0.0025920000000000006 -1.5707963267948966 -1.5707963267948966 0.0 1.5707963267948966 0.0 0.07200000000000001 0.0 0.0 0.0 0.0 0.0 1.0 0.0 0.0 0.0 0.0 0.0 0.2954402193971484 -0.11158459464713222 0.4809 -1.2104239534672074 1.2072905936598501 -1.2072905936598504 0.00803409081459352 0.021271695796594686 0.0 0.0 0.0 0.07200000000000001 
0.08 0.0032 -1.5707963267948966 -1.5707963267948966 0.0 1.5707963267948966 0.0 0.08 0.0 0.0 0.0 0.0 0.0 1.0 0.0 0.0 0.0 0.0 0.0 0.295508008219709 -0.11140494638040258 0.4809 -1.2107108289379842 1.2068427399270305 -1.206842739927031 0.008912395710432206 0.023640640657576723 0.0 0.0 0.0 0.08 
0.088 0.0038719999999999996 -1.5707963267948966 -1.5707963267948966 0.0 1.5707963267948966 0.0 0.088 0.0 0.0 0.0 0.0 0.0 1.0 0.0 0.0 0.0 0.0 0.0 0.2955828056147004 -0.11120633985948025 0.4809 -1.2110277585561553 1.206347713794597 -1.2063477137945973 0.009786157907634261 0.026011286894093634 0.0 0.0 0.0 0.088 
0.096 0.004608 -1.5707963267948966 -1.5707963267948966 0.0 1.5707963267948966 0.0 0.096 0.0 0.0 0.0 0.0 0.0 1.0 0.0 0.0 0.0 0.0 0.0 0.2956645734154394 -0.11098876081417536 0.4809 -1.2113746993629853 1.2058055063145694 -1.2058055063145698 0.010654921038160835 0.028383799047882182 0.0 0.0 0.0 0.096 
0.104 0.005408000000000001 -1.5707963267948966 -1.5707963267948966 0.0 1.5707963267948966 0.0 0.10400000000000001 0.0 0.0 0.0 0.0 0.0 1.0 0.0 0.0 0.0 0.0 0.0 0.29575326980196126 -0.11075219366427147 0.4809 -1.211751604319099 1.2052161076974512 -1.2052161076974515 0.011518228141084235 0.030758340059403973 0.0 0.0 0.0 0.10400000000000001 
0.112 0.006272000000000001 -1.5707963267948966 -1.5707963267948966 0.0 1.5707963267948966 0.0 0.112 0.0 0.0 0.0 0.0 0.0 1.0 0.0 0.0 0.0 0.0 0.0 0.29584884929607225 -0.11049662153292249 0.4809 -1.212158422307384 1.204579507315135 -1.2045795073151353 0.012375621611687319 0.03313507112116009 0.0 0.0 0.0 0.112 
0.12 0.0072 -1.5707963267948966 -1.5707963267948966 0.0 1.5707963267948966 0.0 0.12 0.0 0.0 0.0 0.0 0.0 1.0 0.0 0.0 0.0 0.0 0.0 0.2959512627559985 -0.1102220262612239 0.4809 -1.212595098136135 1.203895693704051 -1.2038956937040513 0.013226643151346869 0.035514151530719816 0.0 0.0 0.0 0.12 
0.128 0.008192 -1.5707963267948966 -1.5707963267948966 0.0 1.5707963267948966 0.0 0.128 0.0 0.0 0.0 0.0 0.0 1.0 0.0 0.0 0.0 0.0 0.0 0.29606045737063685 -0.10992838842396122 0.4809 -1.2130615725424498 1.2031646545685644 -1.2031646545685646 0.014070833718267036 0.03789573854344152 0.0 0.0 0.0 0.128 
0.136 0.009248000000000001 -1.5707963267948966 -1.5707963267948966 0.0 1.5707963267948966 0.0 0.136 0.0 0.0 0.0 0.0 0.0 1.0 0.0 0.0 0.0 0.0 0.0 0.29617637665341584 -0.10961568734653783 0.4809 -1.2135577821958687 1.202386376784623 -1.2023863767846232 0.014907733479129145 0.040279987224864554 0.0 0.0 0.0 0.136 
0.144 0.010368000000000002 -1.5707963267948966 -1.5707963267948966 0.0 1.5707963267948966 0.0 0.14400000000000002 0.0 0.0 0.0 0.0 0.0 1.0 0.0 0.0 0.0 0.0 0.0 0.2962989604357729 -0.10928390112308517 0.4809 -1.2140836597022584 1.201560846403644 -1.2015608464036442 0.015736881761724265 0.04266705030275131 0.0 0.0 0.0 0.14400000000000002 
0.152 0.011552 -1.5707963267948966 -1.5707963267948966 0.0 1.5707963267948966 0.0 0.152 0.0 0.0 0.0 0.0 0.0 1.0 0.0 0.0 0.0 0.0 0.0 0.2964281448602577 -0.10893300663575797 0.4809 -1.2146391336079376 1.2006880486566487 -1.200688048656649 0.016557817008635213 0.04505707801875917 0.0 0.0 0.0 0.152 
0.16 0.0128 -1.5707963267948966 -1.5707963267948966 0.0 1.5707963267948966 0.0 0.16 0.0 0.0 0.0 0.0 0.0 1.0 0.0 0.0 0.0 0.0 0.0 0.2965638623732683 -0.1085629795752177 0.4809 -1.2152241284040484 1.1997679679586404 -1.1997679679586406 0.01737007673203483 0.04745021797972293 0.0 0.0 0.0 0.16 
0.168 0.014112000000000001 -1.5707963267948966 -1.5707963267948966 0.0 1.5707963267948966 0.0 0.168 0.0 0.0 0.0 0.0 0.0 1.0 0.0 0.0 0.0 0.0 0.0 0.2967060417174319 -0.1081737944623074 0.4809 -1.2158385645311605 1.1988005879132215 -1.1988005879132217 0.018173197469667644 0.049846615008528564 0.0 0.0 0.0 0.168 
0.176 0.015487999999999998 -1.5707963267948966 -1.5707963267948966 0.0 1.5707963267948966 0.0 0.176 0.0 0.0 0.0 0.0 0.0 1.0 0.0 0.0 0.0 0.0 0.0 0.2968546079236366 -0.10776542467092122 0.4809 -1.21648235838412 1.1977858913174522 -1.1977858913174524 0.018966714742082134 0.05224641099456004 0.0 0.0 0.0 0.176 
0.184 0.016928 -1.5707963267948966 -1.5707963267948966 0.0 1.5707963267948966 0.0 0.184 0.0 0.0 0.0 0.0 0.0 1.0 0.0 0.0 0.0 0.0 0.0 0.2970094823027274 -0.10733784245207202 0.4809 -1.2171554223171324 1.1967238601669474 -1.1967238601669477 0.01975016301118125 0.054649744743701836 0.0 0.0 0.0 0.184 
0.192 0.018432 -1.5707963267948966 -1.5707963267948966 0.0 1.5707963267948966 0.0 0.192 0.0 0.0 0.0 0.0 0.0 1.0 0.0 0.0 0.0 0.0 0.0 0.2971705824368762 -0.10689101895916102 0.4809 -1.217857664649078 1.195614475661211 -1.1956144756612113 0.020523075640158917 0.05705675182788023 0.0 0.0 0.0 0.192 
0.2 0.020000000000000004 -1.5707963267948966 -1.5707963267948966 0.0 1.5707963267948966 0.0 0.2 0.0 0.0 0.0 0.0 0.0 1.0 0.0 0.0 0.0 0.0 0.0 0.29733782217063637 -0.10642492427445274 0.4809 -1.2185889896690676 1.194457718209207 -1.1944577182092075 0.02128498485489055 0.059467564434127276 0.0 0.0 0.0 0.2 
0.208 0.021632000000000005 -1.5707963267948966 -1.5707963267948966 0.0 1.5707963267948966 0.0 0.20800000000000002 0.0 0.0 0.0 0.0 0.0 1.0 0.0 0.0 0.0 0.0 0.0 0.29751111160169463 -0.10593952743675973 0.4809 -1.2193492976422196 1.1932535674351608 -1.193253567435161 0.022035421706846026 0.06188231121315249 0.0 0.0 0.0 0.20800000000000002 
0.216 0.023327999999999998 -1.5707963267948966 -1.5707963267948966 0.0 1.5707963267948966 0.0 0.216 0.0 0.0 0.0 0.0 0.0 1.0 0.0 0.0 0.0 0.0 0.0 0.2976903570713333 -0.1054347964703403 0.4809 -1.2201384848156724 1.192002002184595 -1.1920020021845952 0.022773916037593506 0.06430111712740799 0.0 0.0 0.0 0.216 
0.224 0.025088000000000003 -1.5707963267948966 -1.5707963267948966 0.0 1.5707963267948966 0.0 0.224 0.0 0.0 0.0 0.0 0.0 1.0 0.0 0.0 0.0 0.0 0.0 0.2978754611546139 -0.1049106984150143 0.4809 -1.2209564434248221 1.1907030005305959 -1.190703000530596 0.023499996444963204 0.06672410329863351 0.0 0.0 0.0 0.224 
0.232 0.026912000000000002 -1.5707963267948966 -1.5707963267948966 0.0 1.5707963267948966 0.0 0.232 0.0 0.0 0.0 0.0 0.0 1.0 0.0 0.0 0.0 0.0 0.0 0.2980663226502984 -0.10436719935750016 0.4809 -1.2218030616997861 1.1893565397803083 -1.1893565397803085 0.02421319025094004 0.06915138685486924 0.0 0.0 0.0 0.232 
0.24 0.0288 -1.5707963267948966 -1.5707963267948966 0.0 1.5707963267948966 0.0 0.24 0.0 0.0 0.0 0.0 0.0 1.0 0.0 0.0 0.0 0.0 0.0 0.29826283657051944 -0.10380426446397853 0.4809 -1.2226782238720857 1.187962596481655 -1.1879625964816551 0.024913023471354847 0.07158308077692466 0.0 0.0 0.0 0.24 
0.248 0.030751999999999998 -1.5707963267948966 -1.5707963267948966 0.0 1.5707963267948966 0.0 0.248 0.0 0.0 0.0 0.0 0.0 1.0 0.0 0.0 0.0 0.0 0.0 0.29846489413021626 -0.10322185801388581 0.4809 -1.2235818101815525 1.1865211464302812 -1.1865211464302814 0.02559902078744368 0.07401929374429363 0.0 0.0 0.0 0.248 
0.256 0.032768 -1.5707963267948966 -1.5707963267948966 0.0 1.5707963267948966 0.0 0.256 0.0 0.0 0.0 0.0 0.0 1.0 0.0 0.0 0.0 0.0 0.0 0.29867238273635055 -0.10261994343494303 0.4809 -1.2245136968834491 1.1850321646767241 -1.1850321646767243 0.026270705519345416 0.07646012998050575 0.0 0.0 0.0 0.256 
0.264 0.034848000000000004 -1.5707963267948966 -1.5707963267948966 0.0 1.5707963267948966 0.0 0.264 0.0 0.0 0.0 0.0 0.0 1.0 0.0 0.0 0.0 0.0 0.0 0.29888518597691854 -0.10199848333942413 0.4809 -1.2254737562558078 1.1834956255337983 -1.1834956255337985 0.026927599601607972 0.0789056890979065 0.0 0.0 0.0 0.264 
0.272 0.036992000000000004 -1.5707963267948966 -1.5707963267948966 0.0 1.5707963267948966 0.0 0.272 0.0 0.0 0.0 0.0 0.0 1.0 0.0 0.0 0.0 0.0 0.0 0.299103183609775 -0.1013574395616681 0.4809 -1.2264618566069785 1.1819115025842022 -1.1819115025842024 0.027569223560773723 0.0813560659418588 0.0 0.0 0.0 0.272 
0.28 0.0391840016747206 -1.5707963267948966 -1.5707963267948966 0.0 1.5707963267948966 0.0 0.2743434418098265 0.0 0.0 0.0 0.0 0.0 0.0 0.0 0.0 0.0 0.0 0.0 0.2993246405332488 -0.1007015619026903 0.4809 -1.2274705064958296 1.1802915927890807 -1.180291592789081 0.02762681308800936 0.08211775210238058 0.0 0.0 0.0 0.2743434418098265 
0.288 0.04137874920919921 -1.5707963267948966 -1.5707963267948966 0.0 1.5707963267948966 0.0 0.2743434418098265 0.0 0.0 0.0 0.0 0.0 0.0 0.0 0.0 0.0 0.0 0.0 0.2995449339498717 -0.10004437787785467 0.4809 -1.228478827264019 1.1786693301156386 -1.1786693301156388 0.027446518960733517 0.08217818815650495 0.0 0.0 0.0 0.2743434418098265 
0.296 0.04357349674367781 -1.5707963267948966 -1.5707963267948966 0.0 1.5707963267948966 0.0 0.2743434418098265 0.0 0.0 0.0 0.0 0.0 0.0 0.0 0.0 0.0 0.0 0.0 0.29976378448406704 -0.09938671194777396 0.4809 -1.229485555068668 1.17704674424165 -1.1770467442416501 0.027266092625914114 0.08223822836529802 0.0 0.0 0.0 0.2743434418098265 
0.304 0.04576824427815643 -1.5707963267948966 -1.5707963267948966 0.0 1.5707963267948966 0.0 0.2743434418098265 0.0 0.0 0.0 0.0 0.0 0.0 0.0 0.0 0.0 0.0 0.0 0.29998119108165044 -0.09872856728036886 0.4809 -1.2304906905706925 1.1754238358306544 -1.1754238358306546 0.027085534952649416 0.08229787243955121 0.0 0.0 0.0 0.2743434418098265 
0.312 0.04796299181263504 -1.5707963267948966 -1.5707963267948966 0.0 1.5707963267948966 0.0 0.2743434418098265 0.0 0.0 0.0 0.0 0.0 0.0 0.0 0.0 0.0 0.0 0.0 0.3001971526953928 -0.09806994704586622 0.4809 -1.231494234429866 1.1738006055452033 -1.1738006055452035 0.026904846810670367 0.08235712009196411 0.0 0.0 0.0 0.2743434418098265 
0.32 0.05015773934711366 -1.5707963267948966 -1.5707963267948966 0.0 1.5707963267948966 0.0 0.2743434418098265 0.0 0.0 0.0 0.0 0.0 0.0 0.0 0.0 0.0 0.0 0.0 0.3004116682850255 -0.09741085441678356 0.4809 -1.2324961873048201 1.1721770540468597 -1.17217705404686 0.02672402907033634 0.0824159710371458 0.0 0.0 0.0 0.2743434418098265 
0.328 0.05235248688159227 -1.5707963267948966 -1.5707963267948966 0.0 1.5707963267948966 0.0 0.2743434418098265 0.0 0.0 0.0 0.0 0.0 0.0 0.0 0.0 0.0 0.0 0.0 0.3006247368172451 -0.09675129256791395 0.4809 -1.233496549853044 1.1705531819962018 -1.170553181996202 0.026543082602631003 0.0824744249916163 0.0 0.0 0.0 0.2743434418098265 
0.336 0.054547234416070886 -1.5707963267948966 -1.5707963267948966 0.0 1.5707963267948966 0.0 0.2743434418098265 0.0 0.0 0.0 0.0 0.0 0.0 0.0 0.0 0.0 0.0 0.0 0.3008363572657188 -0.09609126467631061 0.4809 -1.2344953227308872 1.1689289900528252 -1.1689289900528255 0.026362008279158057 0.0825324816738079 0.0 0.0 0.0 0.2743434418098265 
0.344 0.0567419819505495 -1.5707963267948966 -1.5707963267948966 0.0 1.5707963267948966 0.0 0.2743434418098265 0.0 0.0 0.0 0.0 0.0 0.0 0.0 0.0 0.0 0.0 0.0 0.3010465286110888 -0.09543077392127168 0.4809 -1.2354925065935594 1.1673044788753466 -1.167304478875347 0.026180806972137104 0.08259014080406651 0.0 0.0 0.0 0.2743434418098265 
0.352 0.058936729485028094 -1.5707963267948966 -1.5707963267948966 0.0 1.5707963267948966 0.0 0.2743434418098265 0.0 0.0 0.0 0.0 0.0 0.0 0.0 0.0 0.0 0.0 0.0 0.3012552498409777 -0.09476982348432485 0.4809 -1.2364881020951304 1.165679649121403 -1.1656796491214032 0.025999479554399404 0.082647402104653 0.0 0.0 0.0 0.2743434418098265 
0.36 0.061131477019506705 -1.5707963267948966 -1.5707963267948966 0.0 1.5707963267948966 0.0 0.2743434418098265 0.0 0.0 0.0 0.0 0.0 0.0 0.0 0.0 0.0 0.0 0.0 0.30146251994999307 -0.09410841654921205 0.4809 -1.2374821098885331 1.1640545014476587 -1.1640545014476589 0.02581802689938367 0.08270426529974459 0.0 0.0 0.0 0.2743434418098265 
0.368 0.06332622455398532 -1.5707963267948966 -1.5707963267948966 0.0 1.5707963267948966 0.0 0.2743434418098265 0.0 0.0 0.0 0.0 0.0 0.0 0.0 0.0 0.0 0.0 0.0 0.30166833793973247 -0.09344655630187418 0.4809 -1.2384745306255611 1.1624290365098024 -1.1624290365098027 0.025636449881131895 0.08276073011543607 0.0 0.0 0.0 0.2743434418098265 
0.376 0.06552097208846394 -1.5707963267948966 -1.5707963267948966 0.0 1.5707963267948966 0.0 0.2743434418098265 0.0 0.0 0.0 0.0 0.0 0.0 0.0 0.0 0.0 0.0 0.0 0.3018727028187882 -0.0927842459304356 0.4809 -1.2394653649568723 1.1608032549625547 -1.1608032549625549 0.02545474937428509 0.08281679627974127 0.0 0.0 0.0 0.2743434418098265 
0.384 0.06771571962294255 -1.5707963267948966 -1.5707963267948966 0.0 1.5707963267948966 0.0 0.2743434418098265 0.0 0.0 0.0 0.0 0.0 0.0 0.0 0.0 0.0 0.0 0.0 0.30207561360275204 -0.09212148862518901 0.4809 -1.2404546135319872 1.1591771574596665 -1.1591771574596668 0.025272926254079137 0.08287246352259424 0.0 0.0 0.0 0.2743434418098265 
0.392 0.06991046715742116 -1.5707963267948966 -1.5707963267948966 0.0 1.5707963267948966 0.0 0.2743434418098265 0.0 0.0 0.0 0.0 0.0 0.0 0.0 0.0 0.0 0.0 0.0 0.30227706931422 -0.09145828757857986 0.4809 -1.2414422769992932 1.1575507446539246 -1.1575507446539248 0.025090981396340504 0.08292773157585061 0.0 0.0 0.0 0.2743434418098265 
0.4 0.07210521469189979 -1.5707963267948966 -1.5707963267948966 0.0 1.5707963267948966 0.0 0.2743434418098265 0.0 0.0 0.0 0.0 0.0 0.0 0.0 0.0 0.0 0.0 0.0 0.30247706898279714 -0.09079464598519109 0.4809 -1.2424283560060412 1.1559240171971508 -1.155924017197151 0.02490891567748207 0.08298260017328889 0.0 0.0 0.0 0.2743434418098265 
0.408 0.07429996222637839 -1.5707963267948966 -1.5707963267948966 0.0 1.5707963267948966 0.0 0.2743434418098265 0.0 0.0 0.0 0.0 0.0 0.0 0.0 0.0 0.0 0.0 0.0 0.30267561164510204 -0.09013056704172773 0.4809 -1.243412851198348 1.154296975740207 -1.1542969757402073 0.024726729974498898 0.0830370690506117 0.0 0.0 0.0 0.2743434418098265 
0.416 0.07649470976085701 -1.5707963267948966 -1.5707963267948966 0.0 1.5707963267948966 0.0 0.2743434418098265 0.0 0.0 0.0 0.0 0.0 0.0 0.0 0.0 0.0 0.0 0.0 0.30287269634477154 -0.08946605394700143 0.4809 -1.2443957632211988 1.1526696209329967 -1.152669620932997 0.024544425164963985 0.08309113794544708 0.0 0.0 0.0 0.2743434418098265 
0.424 0.07868945729533561 -1.5707963267948966 -1.5707963267948966 0.0 1.5707963267948966 0.0 0.2743434418098265 0.0 0.0 0.0 0.0 0.0 0.0 0.0 0.0 0.0 0.0 0.0 0.30306832213246565 -0.08880110990191523 0.4809 -1.2453770927184455 1.1510419534244667 -1.151041953424467 0.02436200212702409 0.08314480659734984 0.0 0.0 0.0 0.2743434418098265 
0.432 0.08088420482981422 -1.5707963267948966 -1.5707963267948966 0.0 1.5707963267948966 0.0 0.2743434418098265 0.0 0.0 0.0 0.0 0.0 0.0 0.0 0.0 0.0 0.0 0.0 0.3032624880658714 -0.08813573810944789 0.4809 -1.2463568403328087 1.14941397386261 -1.1494139738626103 0.024179461739395426 0.0831980747478026 0.0 0.0 0.0 0.2743434418098265 
0.44 0.08307895236429283 -1.5707963267948966 -1.5707963267948966 0.0 1.5707963267948966 0.0 0.2743434418098265 0.0 0.0 0.0 0.0 0.0 0.0 0.0 0.0 0.0 0.0 0.0 0.30345519320970815 -0.08746994177463867 0.4809 -1.247335006705877 1.1477856828944681 -1.1477856828944684 0.023996804881359496 0.08325094214021722 0.0 0.0 0.0 0.2743434418098265 
0.448 0.08527369989877145 -1.5707963267948966 -1.5707963267948966 0.0 1.5707963267948966 0.0 0.2743434418098265 0.0 0.0 0.0 0.0 0.0 0.0 0.0 0.0 0.0 0.0 0.0 0.30364643663573165 -0.08680372410457177 0.4809 -1.2483115924781099 1.1461570811661337 -1.146157081166134 0.023814032432758817 0.08330340851993602 0.0 0.0 0.0 0.2743434418098265 
0.456 0.08746844743325007 -1.5707963267948966 -1.5707963267948966 0.0 1.5707963267948966 0.0 0.2743434418098265 0.0 0.0 0.0 0.0 0.0 0.0 0.0 0.0 0.0 0.0 0.0 0.3038362174227385 -0.08613708830836098 0.4809 -1.2492865982888384 1.1445281693227531 -1.1445281693227534 0.023631145273992717 0.08335547363423285 0.0 0.0 0.0 0.2743434418098265 
0.464 0.08966319496772868 -1.5707963267948966 -1.5707963267948966 0.0 1.5707963267948966 0.0 0.2743434418098265 0.0 0.0 0.0 0.0 0.0 0.0 0.0 0.0 0.0 0.0 0.0 0.30402453465657087 -0.0854700375971341 0.4809 -1.2502600247762625 1.142898948008527 -1.1428989480085274 0.023448144286013044 0.08340713723231453 0.0 0.0 0.0 0.2743434418098265 
0.472 0.09185794250220729 -1.5707963267948966 -1.5707963267948966 0.0 1.5707963267948966 0.0 0.2743434418098265 0.0 0.0 0.0 0.0 0.0 0.0 0.0 0.0 0.0 0.0 0.0 0.3042113874301207 -0.08480257518401764 0.4809 -1.2512318725774554 1.1412694178667149 -1.141269417866715 0.02326503035031998 0.0834583990653219 0.0 0.0 0.0 0.2743434418098265 
0.48 0.0940526900366859 -1.5707963267948966 -1.5707963267948966 0.0 1.5707963267948966 0.0 0.2743434418098265 0.0 0.0 0.0 0.0 0.0 0.0 0.0 0.0 0.0 0.0 0.0 0.30439677484333416 -0.08413470428412112 0.4809 -1.2522021423283651 1.1396395795396366 -1.1396395795396368 0.023081804348957742 0.08350925888633111 0.0 0.0 0.0 0.2743434418098265 
0.488 0.0962474375711645 -1.5707963267948966 -1.5707963267948966 0.0 1.5707963267948966 0.0 0.2743434418098265 0.0 0.0 0.0 0.0 0.0 0.0 0.0 0.0 0.0 0.0 0.0 0.3045806960032158 -0.08346642811452182 0.4809 -1.2531708346638095 1.138009433668674 -1.1380094336686741 0.022898467164510383 0.08355971645035469 0.0 0.0 0.0 0.2743434418098265 
0.496 0.09844218510564312 -1.5707963267948966 -1.5707963267948966 0.0 1.5707963267948966 0.0 0.2743434418098265 0.0 0.0 0.0 0.0 0.0 0.0 0.0 0.0 0.0 0.0 0.0 0.30476315002383303 -0.08279774989424907 0.4809 -1.254137950217483 1.136378980894273 -1.1363789808942732 0.022715019680097488 0.08360977151434286 0.0 0.0 0.0 0.2743434418098265 
0.504 0.10063693264012173 -1.5707963267948966 -1.5707963267948966 0.0 1.5707963267948966 0.0 0.2743434418098265 0.0 0.0 0.0 0.0 0.0 0.0 0.0 0.0 0.0 0.0 0.0 0.3049441360263204 -0.08212867284426889 0.4809 -1.2551034896219553 1.1347482218559497 -1.13474822185595 0.02253146277936996 0.08365942383718465 0.0 0.0 0.0 0.2743434418098265 
0.512 0.10283168017460034 -1.5707963267948966 -1.5707963267948966 0.0 1.5707963267948966 0.0 0.2743434418098265 0.0 0.0 0.0 0.0 0.0 0.0 0.0 0.0 0.0 0.0 0.0 0.3051236531388839 -0.08145920018746847 0.4809 -1.256067453508671 1.1331171571922867 -1.1331171571922871 0.022347797346505764 0.08370867317970908 0.0 0.0 0.0 0.2743434418098265 
0.52 0.10502642770907895 -1.5707963267948966 -1.5707963267948966 0.0 1.5707963267948966 0.0 0.2743434418098265 0.0 0.0 0.0 0.0 0.0 0.0 0.0 0.0 0.0 0.0 0.0 0.3053017004968047 -0.08078933514864052 0.4809 -1.2570298425079516 1.1314857875409394 -1.1314857875409396 0.02216402426620563 0.08375751930468622 0.0 0.0 0.0 0.2743434418098265 
0.528 0.10722117524355758 -1.5707963267948966 -1.5707963267948966 0.0 1.5707963267948966 0.0 0.2743434418098265 0.0 0.0 0.0 0.0 0.0 0.0 0.0 0.0 0.0 0.0 0.0 0.30547827724244386 -0.08011908095446786 0.4809 -1.257990657248995 1.1298541135386373 -1.1298541135386375 0.021980144423688834 0.08380596197682845 0.0 0.0 0.0 0.2743434418098265 
0.536 0.10941592277803619 -1.5707963267948966 -1.5707963267948966 0.0 1.5707963267948966 0.0 0.2743434418098265 0.0 0.0 0.0 0.0 0.0 0.0 0.0 0.0 0.0 0.0 0.0 0.3056533825252463 -0.07944844083350791 0.4809 -1.2589498983598797 1.1282221358211868 -1.1282221358211872 0.02179615870468892 0.08385400096279155 0.0 0.0 0.0 0.2743434418098265 
0.544 0.1116106703125148 -1.5707963267948966 -1.5707963267948966 0.0 1.5707963267948966 0.0 0.2743434418098265 0.0 0.0 0.0 0.0 0.0 0.0 0.0 0.0 0.0 0.0 0.0 0.30582701550174485 -0.07877741801617692 0.4809 -1.2599075664675594 1.1265898550234728 -1.126589855023473 0.021612067995449413 0.08390163603117584 0.0 0.0 0.0 0.2743434418098265 
0.552 0.11380541784699341 -1.5707963267948966 -1.5707963267948966 0.0 1.5707963267948966 0.0 0.2743434418098265 0.0 0.0 0.0 0.0 0.0 0.0 0.0 0.0 0.0 0.0 0.0 0.3059991753355642 -0.07810601573473468 0.4809 -1.2608636621978695 1.1249572717794598 -1.12495727177946 0.021427873182719576 0.08394886695252725 0.0 0.0 0.0 0.2743434418098265 
0.56 0.11600016538147202 -1.5707963267948966 -1.5707963267948966 0.0 1.5707963267948966 0.0 0.2743434418098265 0.0 0.0 0.0 0.0 0.0 0.0 0.0 0.0 0.0 0.0 0.0 0.30616986119742506 -0.07743423722326878 0.4809 -1.2618181861755264 1.1233243867221983 -1.1233243867221985 0.021243575153750142 0.08399569349933844 0.0 0.0 0.0 0.2743434418098265 
0.568 0.11819491291595065 -1.5707963267948966 -1.5707963267948966 0.0 1.5707963267948966 0.0 0.2743434418098265 0.0 0.0 0.0 0.0 0.0 0.0 0.0 0.0 0.0 0.0 0.0 0.30633907226514817 -0.07676208571767905 0.4809 -1.262771139024125 1.1216912004838213 -1.121691200483822 0.021059174796288996 0.08404211544604992 0.0 0.0 0.0 0.2743434418098265 
0.576 0.12038966045042926 -1.5707963267948966 -1.5707963267948966 0.0 1.5707963267948966 0.0 0.2743434418098265 0.0 0.0 0.0 0.0 0.0 0.0 0.0 0.0 0.0 0.0 0.0 0.30650680772365824 -0.07608956445566203 0.4809 -1.263722521366144 1.1200577136955525 -1.1200577136955527 0.02087467299857696 0.08408813256905111 0.0 0.0 0.0 0.2743434418098265 
0.584 0.12258440798490784 -1.5707963267948966 -1.5707963267948966 0.0 1.5707963267948966 0.0 0.2743434418098265 0.0 0.0 0.0 0.0 0.0 0.0 0.0 0.0 0.0 0.0 0.0 0.30667306676498796 -0.07541667667669538 0.4809 -1.2646723338229433 1.1184239269877032 -1.1184239269877034 0.02069007064934348 0.08413374464668151 0.0 0.0 0.0 0.2743434418098265 
0.592 0.12477915551938645 -1.5707963267948966 -1.5707963267948966 0.0 1.5707963267948966 0.0 0.2743434418098265 0.0 0.0 0.0 0.0 0.0 0.0 0.0 0.0 0.0 0.0 0.0 0.30683784858828156 -0.07474342562202219 0.4809 -1.265620577014768 1.1167898409896795 -1.11678984098968 0.020505368637802338 0.08417895145923157 0.0 0.0 0.0 0.2743434418098265 
0.6 0.12697390305386508 -1.5707963267948966 -1.5707963267948966 0.0 1.5707963267948966 0.0 0.2743434418098265 0.0 0.0 0.0 0.0 0.0 0.0 0.0 0.0 0.0 0.0 0.0 0.30700115239979914 -0.07406981453463542 0.4809 -1.2665672515607433 1.115155456329979 -1.1151554563299793 0.020320567853647394 0.08422375278894398 0.0 0.0 0.0 0.2743434418098265 
0.608 0.1291686505883437 -1.5707963267948966 -1.5707963267948966 0.0 1.5707963267948966 0.0 0.2743434418098265 0.0 0.0 0.0 0.0 0.0 0.0 0.0 0.0 0.0 0.0 0.0 0.30716297741292004 -0.07339584665926231 0.4809 -1.2675123580788836 1.1135207736361994 -1.1135207736361996 0.020135669187048278 0.08426814842001448 0.0 0.0 0.0 0.2743434418098265 
0.616 0.1313633981228223 -1.5707963267948966 -1.5707963267948966 0.0 1.5707963267948966 0.0 0.2743434418098265 0.0 0.0 0.0 0.0 0.0 0.0 0.0 0.0 0.0 0.0 0.0 0.30732332284814706 -0.07272152524234868 0.4809 -1.268455897186085 1.111885793535035 -1.1118857935350352 0.019950673528646115 0.08431213813859316 0.0 0.0 0.0 0.2743434418098265 
0.624 0.1335581456573009 -1.5707963267948966 -1.5707963267948966 0.0 1.5707963267948966 0.0 0.2743434418098265 0.0 0.0 0.0 0.0 0.0 0.0 0.0 0.0 0.0 0.0 0.0 0.3074821879331099 -0.07204685353204335 0.4809 -1.2693978694981323 1.1102505166522831 -1.1102505166522834 0.019765581769549227 0.08435572173278527 0.0 0.0 0.0 0.2743434418098265 
0.632 0.13575289319177952 -1.5707963267948966 -1.5707963267948966 0.0 1.5707963267948966 0.0 0.2743434418098265 0.0 0.0 0.0 0.0 0.0 0.0 0.0 0.0 0.0 0.0 0.0 0.3076395719025688 -0.07137183477818249 0.4809 -1.270338275629696 1.1086149436128434 -1.1086149436128436 0.01958039480132886 0.08439889899265232 0.0 0.0 0.0 0.2743434418098265 
0.64 0.13794764072625815 -1.5707963267948966 -1.5707963267948966 0.0 1.5707963267948966 0.0 0.2743434418098265 0.0 0.0 0.0 0.0 0.0 0.0 0.0 0.0 0.0 0.0 0.0 0.3077954739984188 -0.0706964722322739 0.4809 -1.2712771161943337 1.1069790750407225 -1.106979075040723 0.01939511351601485 0.08444166971021316 0.0 0.0 0.0 0.2743434418098265 
0.648 0.14014238826073677 -1.5707963267948966 -1.5707963267948966 0.0 1.5707963267948966 0.0 0.2743434418098265 0.0 0.0 0.0 0.0 0.0 0.0 0.0 0.0 0.0 0.0 0.0 0.3079498934696927 -0.07002076914748145 0.4809 -1.2722143918044935 1.1053429115590345 -1.1053429115590347 0.019209738806091375 0.08448403367944492 0.0 0.0 0.0 0.2743434418098265 
0.656 0.14233713579521537 -1.5707963267948966 -1.5707963267948966 0.0 1.5707963267948966 0.0 0.2743434418098265 0.0 0.0 0.0 0.0 0.0 0.0 0.0 0.0 0.0 0.0 0.0 0.3081028295725651 -0.06934472877860937 0.4809 -1.2731501030715109 1.1037064537900043 -1.1037064537900045 0.01902427156449262 0.0845259906962839 0.0 0.0 0.0 0.2743434418098265 
0.664 0.14453188332969397 -1.5707963267948966 -1.5707963267948966 0.0 1.5707963267948966 0.0 0.2743434418098265 0.0 0.0 0.0 0.0 0.0 0.0 0.0 0.0 0.0 0.0 0.0 0.3082542815703558 -0.06866835438208642 0.4809 -1.2740842506056107 1.102069702354968 -1.1020697023549682 0.01883871268459847 0.08456754055862678 0.0 0.0 0.0 0.2743434418098265 
0.672 0.1467266308641726 -1.5707963267948966 -1.5707963267948966 0.0 1.5707963267948966 0.0 0.2743434418098265 0.0 0.0 0.0 0.0 0.0 0.0 0.0 0.0 0.0 0.0 0.0 0.30840424873353334 -0.06799164921595052 0.4809 -1.275016835015909 1.1004326578743768 -1.100432657874377 0.01865306306023026 0.08460868306633136 0.0 0.0 0.0 0.2743434418098265 
0.68 0.14892137839865122 -1.5707963267948966 -1.5707963267948966 0.0 1.5707963267948966 0.0 0.2743434418098265 0.0 0.0 0.0 0.0 0.0 0.0 0.0 0.0 0.0 0.0 0.0 0.30855273033971886 -0.0673146165398328 0.4809 -1.2759478569104148 1.0987953209678005 -1.0987953209678007 0.018467323585646404 0.08464941802121775 0.0 0.0 0.0 0.2743434418098265 
0.688 0.15111612593312984 -1.5707963267948966 -1.5707963267948966 0.0 1.5707963267948966 0.0 0.2743434418098265 0.0 0.0 0.0 0.0 0.0 0.0 0.0 0.0 0.0 0.0 0.0 0.308699725673689 -0.06663725961494198 0.4809 -1.2768773168960266 1.0971576922539263 -1.0971576922539266 0.018281495155538136 0.0846897452270691 0.0 0.0 0.0 0.2743434418098265 
0.696 0.15331087346760844 -1.5707963267948966 -1.5707963267948966 0.0 1.5707963267948966 0.0 0.2743434418098265 0.0 0.0 0.0 0.0 0.0 0.0 0.0 0.0 0.0 0.0 0.0 0.3088452340273797 -0.06595958170404861 0.4809 -1.277805215578536 1.0955197723505625 -1.0955197723505627 0.018095578665025158 0.08472966448963269 0.0 0.0 0.0 0.2743434418098265 
0.704 0.15550562100208704 -1.5707963267948966 -1.5707963267948966 0.0 1.5707963267948966 0.0 0.2743434418098265 0.0 0.0 0.0 0.0 0.0 0.0 0.0 0.0 0.0 0.0 0.0 0.3089892546998897 -0.06528158607146957 0.4809 -1.2787315535626307 1.093881561874643 -1.0938815618746431 0.01790957500965139 0.08476917561662085 0.0 0.0 0.0 0.2743434418098265 
0.712 0.15770036853656563 -1.5707963267948966 -1.5707963267948966 0.0 1.5707963267948966 0.0 0.2743434418098265 0.0 0.0 0.0 0.0 0.0 0.0 0.0 0.0 0.0 0.0 0.0 0.30913178699748367 -0.06460327598305196 0.4809 -1.2796563314518898 1.0922430614422252 -1.0922430614422254 0.017723485085380578 0.08480827841771184 0.0 0.0 0.0 0.2743434418098265 
0.72 0.15989511607104423 -1.5707963267948966 -1.5707963267948966 0.0 1.5707963267948966 0.0 0.2743434418098265 0.0 0.0 0.0 0.0 0.0 0.0 0.0 0.0 0.0 0.0 0.0 0.30927283023359564 -0.06392465470615769 0.4809 -1.280579549848788 1.0906042716684956 -1.0906042716684958 0.017537309788592022 0.0848469727045508 0.0 0.0 0.0 0.2743434418098265 
0.728 0.16208986360552285 -1.5707963267948966 -1.5707963267948966 0.0 1.5707963267948966 0.0 0.2743434418098265 0.0 0.0 0.0 0.0 0.0 0.0 0.0 0.0 0.0 0.0 0.0 0.3094123837288325 -0.06324572550964769 0.4809 -1.2815012093546962 1.0889651931677702 -1.0889651931677704 0.01735105001607629 0.08488525829075066 0.0 0.0 0.0 0.2743434418098265 
0.736 0.16428461114000148 -1.5707963267948966 -1.5707963267948966 0.0 1.5707963267948966 0.0 0.2743434418098265 0.0 0.0 0.0 0.0 0.0 0.0 0.0 0.0 0.0 0.0 0.0 0.30955044681097676 -0.06256649166386602 0.4809 -1.2824213105698825 1.087325826553498 -1.0873258265534984 0.017164706665030824 0.084923134991893 0.0 0.0 0.0 0.2743434418098265 
0.744 0.1664793586744801 -1.5707963267948966 -1.5707963267948966 0.0 1.5707963267948966 0.0 0.2743434418098265 0.0 0.0 0.0 0.0 0.0 0.0 0.0 0.0 0.0 0.0 0.0 0.30968701881499044 -0.06188695644062424 0.4809 -1.2833398540935097 1.0856861724382614 -1.0856861724382616 0.016978280633055662 0.08496060262552897 0.0 0.0 0.0 0.2743434418098265 
0.752 0.16867410620895873 -1.5707963267948966 -1.5707963267948966 0.0 1.5707963267948966 0.0 0.2743434418098265 0.0 0.0 0.0 0.0 0.0 0.0 0.0 0.0 0.0 0.0 0.0 0.30982209908301783 -0.06120712311318567 0.4809 -1.2842568405236416 1.0840462314337809 -1.084046231433781 0.01679177281814914 0.0849976610111802 0.0 0.0 0.0 0.2743434418098265 
0.76 0.1708688537434373 -1.5707963267948966 -1.5707963267948966 0.0 1.5707963267948966 0.0 0.2743434418098265 0.0 0.0 0.0 0.0 0.0 0.0 0.0 0.0 0.0 0.0 0.0 0.30995568696438874 -0.06052699495624953 0.4809 -1.2851722704572377 1.082406004150914 -1.0824060041509143 0.016605184118703507 0.08503430997033959 0.0 0.0 0.0 0.2743434418098265 
0.768 0.17306360127791592 -1.5707963267948966 -1.5707963267948966 0.0 1.5707963267948966 0.0 0.2743434418098265 0.0 0.0 0.0 0.0 0.0 0.0 0.0 0.0 0.0 0.0 0.0 0.3100877818156217 -0.05984657524593516 0.4809 -1.286086144490159 1.0807654911996603 -1.0807654911996605 0.016418515433500615 0.08507054932647219 0.0 0.0 0.0 0.2743434418098265 
0.776 0.17525834881239455 -1.5707963267948966 -1.5707963267948966 0.0 1.5707963267948966 0.0 0.2743434418098265 0.0 0.0 0.0 0.0 0.0 0.0 0.0 0.0 0.0 0.0 0.0 0.31021838300042714 -0.059165867259766365 0.4809 -1.2869984632171658 1.079124693189163 -1.0791246931891632 0.016231767661707634 0.08510637890501616 0.0 0.0 0.0 0.2743434418098265 
0.784 0.17745309634687317 -1.5707963267948966 -1.5707963267948966 0.0 1.5707963267948966 0.0 0.2743434418098265 0.0 0.0 0.0 0.0 0.0 0.0 0.0 0.0 0.0 0.0 0.0 0.3103474898897102 -0.05848487427665554 0.4809 -1.2879092272319188 1.0774836107277088 -1.077483610727709 0.016044941702872666 0.08514179853338344 0.0 0.0 0.0 0.2743434418098265 
0.792 0.1796478438813518 -1.5707963267948966 -1.5707963267948966 0.0 1.5707963267948966 0.0 0.2743434418098265 0.0 0.0 0.0 0.0 0.0 0.0 0.0 0.0 0.0 0.0 0.0 0.31047510186157407 -0.05780359957688784 0.4809 -1.288818437126981 1.0758422444227336 -1.075842244422734 0.01585803845692044 0.0851768080409607 0.0 0.0 0.0 0.2743434418098265 
0.8 0.18184259141583037 -1.5707963267948966 -1.5707963267948966 0.0 1.5707963267948966 0.0 0.2743434418098265 0.0 0.0 0.0 0.0 0.0 0.0 0.0 0.0 0.0 0.0 0.0 0.3106012183013227 -0.05712204644210549 0.4809 -1.289726093493817 1.0742005948808218 -1.074200594880822 0.015671058824147974 0.08521140725911014 0.0 0.0 0.0 0.2743434418098265 
0.808 0.184037338950309 -1.5707963267948966 -1.5707963267948966 0.0 1.5707963267948966 0.0 0.2743434418098265 0.0 0.0 0.0 0.0 0.0 0.0 0.0 0.0 0.0 0.0 0.0 0.310725838601464 -0.056440218155291856 0.4809 -1.2906321969227945 1.0725586627077093 -1.0725586627077095 0.015484003705220226 0.08524559602117028 0.0 0.0 0.0 0.2743434418098265 
0.816 0.18623208648478762 -1.5707963267948966 -1.5707963267948966 0.0 1.5707963267948966 0.0 0.2743434418098265 0.0 0.0 0.0 0.0 0.0 0.0 0.0 0.0 0.0 0.0 0.0 0.31084896216171254 -0.055758118000755655 0.4809 -1.2915367480031854 1.070916448508287 -1.0709164485082872 0.015296874001165748 0.08527937416245675 0.0 0.0 0.0 0.2743434418098265 
0.824 0.18842683401926624 -1.5707963267948966 -1.5707963267948966 0.0 1.5707963267948966 0.0 0.2743434418098265 0.0 0.0 0.0 0.0 0.0 0.0 0.0 0.0 0.0 0.0 0.0 0.31097058838899266 -0.05507574926411532 0.4809 -1.2924397473231664 1.0692739528866007 -1.0692739528866009 0.015109670613372416 0.08531274152026312 0.0 0.0 0.0 0.2743434418098265 
0.832 0.19062158155374487 -1.5707963267948966 -1.5707963267948966 0.0 1.5707963267948966 0.0 0.2743434418098265 0.0 0.0 0.0 0.0 0.0 0.0 0.0 0.0 0.0 0.0 0.0 0.3110907166974411 -0.05439311523228283 0.4809 -1.2933411954698175 1.0676311764458544 -1.0676311764458546 0.014922394443582973 0.08534569793386165 0.0 0.0 0.0 0.2743434418098265 
0.84 0.19281632908822344 -1.5707963267948966 -1.5707963267948966 0.0 1.5707963267948966 0.0 0.2743434418098265 0.0 0.0 0.0 0.0 0.0 0.0 0.0 0.0 0.0 0.0 0.0 0.3112093465084102 -0.05371021919344827 0.4809 -1.2942410930291255 1.0659881197884125 -1.0659881197884127 0.014735046393890802 0.08537824324450417 0.0 0.0 0.0 0.2743434418098265 
0.848 0.19501107662270206 -1.5707963267948966 -1.5707963267948966 0.0 1.5707963267948966 0.0 0.2743434418098265 0.0 0.0 0.0 0.0 0.0 0.0 0.0 0.0 0.0 0.0 0.0 0.31132647725047013 -0.053027064437063565 0.4809 -1.295139440585986 1.064344783515802 -1.0643447835158024 0.014547627366735469 0.08541037729542263 0.0 0.0 0.0 0.2743434418098265 
0.856 0.19720582415718063 -1.5707963267948966 -1.5707963267948966 0.0 1.5707963267948966 0.0 0.2743434418098265 0.0 0.0 0.0 0.0 0.0 0.0 0.0 0.0 0.0 0.0 0.0 0.3114421083594121 -0.05234365425382703 0.4809 -1.2960362387241984 1.0627011682287142 -1.0627011682287144 0.014360138264898474 0.08544209993183005 0.0 0.0 0.0 0.2743434418098265 
0.864 0.19940057169165926 -1.5707963267948966 -1.5707963267948966 0.0 1.5707963267948966 0.0 0.2743434418098265 0.0 0.0 0.0 0.0 0.0 0.0 0.0 0.0 0.0 0.0 0.0 0.311556239278251 -0.05165999193566731 0.4809 -1.2969314880264724 1.0610572745270062 -1.0610572745270064 0.014172579991498851 0.08547341100092123 0.0 0.0 0.0 0.2743434418098265 
0.872 0.20159531922613788 -1.5707963267948966 -1.5707963267948966 0.0 1.5707963267948966 0.0 0.2743434418098265 0.0 0.0 0.0 0.0 0.0 0.0 0.0 0.0 0.0 0.0 0.0 0.31166886945722777 -0.05097608077572752 0.4809 -1.2978251890744257 1.0594131030097045 -1.0594131030097047 0.013984953449988818 0.08550431035187338 0.0 0.0 0.0 0.2743434418098265 
0.88 0.2037900667606165 -1.5707963267948966 -1.5707963267948966 0.0 1.5707963267948966 0.0 0.2743434418098265 0.0 0.0 0.0 0.0 0.0 0.0 0.0 0.0 0.0 0.0 0.0 0.31177999835381254 -0.05029192406834945 0.4809 -1.2987173424485858 1.0577686542750064 -1.0577686542750067 0.013797259544149442 0.08553479783584697 0.0 0.0 0.0 0.2743434418098265 
0.888 0.20598481429509513 -1.5707963267948966 -1.5707963267948966 0.0 1.5707963267948966 0.0 0.2743434418098265 0.0 0.0 0.0 0.0 0.0 0.0 0.0 0.0 0.0 0.0 0.0 0.3118896254327069 -0.04960752510905769 0.4809 -1.2996079487283898 1.0561239289202813 -1.0561239289202815 0.013609499178086277 0.0855648733059864 0.0 0.0 0.0 0.2743434418098265 
0.896 0.2081795618295737 -1.5707963267948966 -1.5707963267948966 0.0 1.5707963267948966 0.0 0.2743434418098265 0.0 0.0 0.0 0.0 0.0 0.0 0.0 0.0 0.0 0.0 0.0 0.3119977501658464 -0.04892288719454371 0.4809 -1.300497008492187 1.0544789275420743 -1.0544789275420745 0.013421673256225009 0.08559453661742067 0.0 0.0 0.0 0.2743434418098265 
0.904 0.21037430936405233 -1.5707963267948966 -1.5707963267948966 0.0 1.5707963267948966 0.0 0.2743434418098265 0.0 0.0 0.0 0.0 0.0 0.0 0.0 0.0 0.0 0.0 0.0 0.3121043720324036 -0.04823801362265005 0.4809 -1.301384522317237 1.052833650736107 -1.0528336507361074 0.013233782683307114 0.08562378762726416 0.0 0.0 0.0 0.2743434418098265 
0.912 0.21256905689853095 -1.5707963267948966 -1.5707963267948966 0.0 1.5707963267948966 0.0 0.2743434418098265 0.0 0.0 0.0 0.0 0.0 0.0 0.0 0.0 0.0 0.0 0.0 0.31220949051879 -0.047552907692354325 0.4809 -1.302270490779713 1.0511880990972808 -1.051188099097281 0.01304582836438546 0.08565262619461723 0.0 0.0 0.0 0.2743434418098265 
0.92 0.21476380443300958 -1.5707963267948966 -1.5707963267948966 0.0 1.5707963267948966 0.0 0.2743434418098265 0.0 0.0 0.0 0.0 0.0 0.0 0.0 0.0 0.0 0.0 0.0 0.31231310511865873 -0.04686757270375342 0.4809 -1.3031549144546994 1.049542273219677 -1.0495422732196773 0.01285781120481999 0.08568105218056699 0.0 0.0 0.0 0.2743434418098265 
0.928 0.2169585519674882 -1.5707963267948966 -1.5707963267948966 0.0 1.5707963267948966 0.0 0.2743434418098265 0.0 0.0 0.0 0.0 0.0 0.0 0.0 0.0 0.0 0.0 0.0 0.3124152153329071 -0.04618201195804762 0.4809 -1.3040377939161971 1.0478961736965613 -1.0478961736965615 0.012669732110273349 0.08570906544818782 0.0 0.0 0.0 0.2743434418098265 
0.936 0.21915329950196677 -1.5707963267948966 -1.5707963267948966 0.0 1.5707963267948966 0.0 0.2743434418098265 0.0 0.0 0.0 0.0 0.0 0.0 0.0 0.0 0.0 0.0 0.0 0.312515820669679 -0.04549622875752464 0.4809 -1.3049191297371197 1.0462498011203851 -1.0462498011203853 0.012481591986706517 0.08573666586254225 0.0 0.0 0.0 0.2743434418098265 
0.944 0.2213480470364454 -1.5707963267948966 -1.5707963267948966 0.0 1.5707963267948966 0.0 0.2743434418098265 0.0 0.0 0.0 0.0 0.0 0.0 0.0 0.0 0.0 0.0 0.0 0.312614920644367 -0.0448102264055437 0.4809 -1.3057989224892959 1.0446031560827849 -1.044603156082785 0.01229339174037443 0.08576385329068144 0.0 0.0 0.0 0.2743434418098265 
0.952 0.22354279457092402 -1.5707963267948966 -1.5707963267948966 0.0 1.5707963267948966 0.0 0.2743434418098265 0.0 0.0 0.0 0.0 0.0 0.0 0.0 0.0 0.0 0.0 0.0 0.31271251477961504 -0.04412400820651971 0.4809 -1.3066771727434714 1.0429562391745892 -1.0429562391745895 0.012105132277821647 0.08579062760164582 0.0 0.0 0.0 0.2743434418098265 
0.96 0.2257375421054026 -1.5707963267948966 -1.5707963267948966 0.0 1.5707963267948966 0.0 0.2743434418098265 0.0 0.0 0.0 0.0 0.0 0.0 0.0 0.0 0.0 0.0 0.0 0.31280860260532045 -0.04343757746590726 0.4809 -1.3075538810693084 1.0413090509858163 -1.0413090509858165 0.01191681450587796 0.08581698866646588 0.0 0.0 0.0 0.2743434418098265 
0.968 0.2279322896398812 -1.5707963267948966 -1.5707963267948966 0.0 1.5707963267948966 0.0 0.2743434418098265 0.0 0.0 0.0 0.0 0.0 0.0 0.0 0.0 0.0 0.0 0.0 0.3129031836586363 -0.04275093749018477 0.4809 -1.3084290480353855 1.0396615921056793 -1.0396615921056795 0.011728439331654036 0.08584293635816254 0.0 0.0 0.0 0.2743434418098265 
0.976 0.23012703717435984 -1.5707963267948966 -1.5707963267948966 0.0 1.5707963267948966 0.0 0.2743434418098265 0.0 0.0 0.0 0.0 0.0 0.0 0.0 0.0 0.0 0.0 0.0 0.31299625748397386 -0.04206409158683848 0.4809 -1.3093026742092009 1.0380138631225864 -1.0380138631225866 0.011540007662537035 0.08586847055174805 0.0 0.0 0.0 0.2743434418098265 
0.984 0.23232178470883846 -1.5707963267948966 -1.5707963267948966 0.0 1.5707963267948966 0.0 0.2743434418098265 0.0 0.0 0.0 0.0 0.0 0.0 0.0 0.0 0.0 0.0 0.0 0.31308782363300425 -0.0413770430643466 0.4809 -1.31017476015717 1.0363658646241425 -1.0363658646241427 0.011351520406186257 0.08589359112422633 0.0 0.0 0.0 0.2743434418098265 
0.992 0.2345165322433171 -1.5707963267948966 -1.5707963267948966 0.0 1.5707963267948966 0.0 0.2743434418098265 0.0 0.0 0.0 0.0 0.0 0.0 0.0 0.0 0.0 0.0 0.0 0.3131778816646613 -0.04068979523216332 0.4809 -1.3110453064446292 1.0347175971971536 -1.034717597197154 0.011162978470528754 0.08591829795459374 0.0 0.0 0.0 0.2743434418098265 
1.0 0.23671127977779566 -1.5707963267948966 -1.5707963267948966 0.0 1.5707963267948966 0.0 0.2743434418098265 0.0 0.0 0.0 0.0 0.0 0.0 0.0 0.0 0.0 0.0 0.0 0.3132664311451431 -0.04000235140070293 0.4809 -1.3119143136358347 1.033069061427627 -1.0330690614276272 0.010974382763754975 0.08594259092383959 0.0 0.0 0.0 0.2743434418098265 
1.008 0.23890602731227428 -1.5707963267948966 -1.5707963267948966 0.0 1.5707963267948966 0.0 0.2743434418098265 0.0 0.0 0.0 0.0 0.0 0.0 0.0 0.0 0.0 0.0 0.0 0.3133534716479142 -0.03931471488132377 0.4809 -1.3127817822939627 1.0314202579007736 -1.0314202579007739 0.010785734194314368 0.08596646991494668 0.0 0.0 0.0 0.2743434418098265 
1.016 0.2411007748467529 -1.5707963267948966 -1.5707963267948966 0.0 1.5707963267948966 0.0 0.2743434418098265 0.0 0.0 0.0 0.0 0.0 0.0 0.0 0.0 0.0 0.0 0.0 0.3134390027537082 -0.03862688898631238 0.4809 -1.3136477129811124 1.0297711872010096 -1.0297711872010098 0.010597033670911018 0.085989934812892 0.0 0.0 0.0 0.2743434418098265 
1.024 0.24329552238123153 -1.5707963267948966 -1.5707963267948966 0.0 1.5707963267948966 0.0 0.2743434418098265 0.0 0.0 0.0 0.0 0.0 0.0 0.0 0.0 0.0 0.0 0.0 0.3135230240505288 -0.037938877028867515 0.4809 -1.3145121062583056 1.0281218499119602 -1.0281218499119604 0.01040828210249928 0.08601298550464707 0.0 0.0 0.0 0.2743434418098265 
1.032 0.24549026991571016 -1.5707963267948966 -1.5707963267948966 0.0 1.5707963267948966 0.0 0.2743434418098265 0.0 0.0 0.0 0.0 0.0 0.0 0.0 0.0 0.0 0.0 0.0 0.31360553513365264 -0.037250682323084136 0.4809 -1.3153749626854847 1.026472246616459 -1.0264722466164593 0.010219480398279366 0.08603562187917874 0.0 0.0 0.0 0.2743434418098265 
1.04 0.24768501745018873 -1.5707963267948966 -1.5707963267948966 0.0 1.5707963267948966 0.0 0.2743434418098265 0.0 0.0 0.0 0.0 0.0 0.0 0.0 0.0 0.0 0.0 0.0 0.3136865356056309 -0.036562308183937534 0.4809 -1.316236282821519 1.0248223778965526 -1.0248223778965528 0.01003062946769301 0.08605784382744948 0.0 0.0 0.0 0.2743434418098265 
1.048 0.24987976498466735 -1.5707963267948966 -1.5707963267948966 0.0 1.5707963267948966 0.0 0.2743434418098265 0.0 0.0 0.0 0.0 0.0 0.0 0.0 0.0 0.0 0.0 0.0 0.31376602507629126 -0.03587375792726727 0.4809 -1.3170960672242 1.0231722443335012 -1.0231722443335014 0.009841730220419051 0.08607965124241808 0.0 0.0 0.0 0.2743434418098265 
1.056 0.252074512519146 -1.5707963267948966 -1.5707963267948966 0.0 1.5707963267948966 0.0 0.2743434418098265 0.0 0.0 0.0 0.0 0.0 0.0 0.0 0.0 0.0 0.0 0.0 0.3138440031627395 -0.035185034869761274 0.4809 -1.3179543164502467 1.0215218465077807 -1.0215218465077809 0.009652783566369068 0.08610104401904004 0.0 0.0 0.0 0.2743434418098265 
1.064 0.2542692600536246 -1.5707963267948966 -1.5707963267948966 0.0 1.5707963267948966 0.0 0.2743434418098265 0.0 0.0 0.0 0.0 0.0 0.0 0.0 0.0 0.0 0.0 0.0 0.3139204694893621 -0.03449614232893984 0.4809 -1.3188110310553012 1.0198711849990842 -1.0198711849990845 0.009463790415683 0.08612202205426822 0.0 0.0 0.0 0.2743434418098265 
1.072 0.2564640075881032 -1.5707963267948966 -1.5707963267948966 0.0 1.5707963267948966 0.0 0.2743434418098265 0.0 0.0 0.0 0.0 0.0 0.0 0.0 0.0 0.0 0.0 0.0 0.31399542368782707 -0.03380708362313965 0.4809 -1.3196662115939342 1.018220260386326 -1.0182202603863262 0.009274751678724751 0.0861425852470532 0.0 0.0 0.0 0.2743434418098265 
1.08 0.2586587551225818 -1.5707963267948966 -1.5707963267948966 0.0 1.5707963267948966 0.0 0.2743434418098265 0.0 0.0 0.0 0.0 0.0 0.0 0.0 0.0 0.0 0.0 0.0 0.31406886539708645 -0.03311786207149784 0.4809 -1.3205198586196436 1.0165690732476416 -1.0165690732476418 0.009085668266077828 0.08616273349834382 0.0 0.0 0.0 0.2743434418098265 
1.088 0.2608535026570604 -1.5707963267948966 -1.5707963267948966 0.0 1.5707963267948966 0.0 0.2743434418098265 0.0 0.0 0.0 0.0 0.0 0.0 0.0 0.0 0.0 0.0 0.0 0.31414079426337793 -0.032428480993935804 0.4809 -1.3213719726848552 1.0149176241603903 -1.0149176241603906 0.008896541088540892 0.0861824667110877 0.0 0.0 0.0 0.2743434418098265 
1.096 0.26304825019153905 -1.5707963267948966 -1.5707963267948966 0.0 1.5707963267948966 0.0 0.2743434418098265 0.0 0.0 0.0 0.0 0.0 0.0 0.0 0.0 0.0 0.0 0.0 0.3142112099402261 -0.03173894371114354 0.4809 -1.3222225543409218 1.0132659137011564 -1.0132659137011568 0.008707371057123466 0.0862017847902316 0.0 0.0 0.0 0.2743434418098265 
1.104 0.26524299772601767 -1.5707963267948966 -1.5707963267948966 0.0 1.5707963267948966 0.0 0.2743434418098265 0.0 0.0 0.0 0.0 0.0 0.0 0.0 0.0 0.0 0.0 0.0 0.31428011208844475 -0.031049253544563348 0.4809 -1.3230716041381292 1.0116139424457546 -1.0116139424457549 0.008518159083041463 0.08622068764272199 0.0 0.0 0.0 0.2743434418098265 
1.112 0.2674377452604963 -1.5707963267948966 -1.5707963267948966 0.0 1.5707963267948966 0.0 0.2743434418098265 0.0 0.0 0.0 0.0 0.0 0.0 0.0 0.0 0.0 0.0 0.0 0.3143475003761381 -0.030359413816374043 0.4809 -1.32391912262569 1.0099617109692265 -1.0099617109692267 0.008328906077712856 0.08623917517750547 0.0 0.0 0.0 0.2743434418098265 
1.12 0.26963249279497487 -1.5707963267948966 -1.5707963267948966 0.0 1.5707963267948966 0.0 0.2743434418098265 0.0 0.0 0.0 0.0 0.0 0.0 0.0 0.0 0.0 0.0 0.0 0.31441337447870243 -0.02966942784947482 0.4809 -1.3247651103517493 1.008309219845847 -1.0083092198458472 0.00813961295275324 0.0862572473055291 0.0 0.0 0.0 0.2743434418098265 
1.128 0.2718272403294535 -1.5707963267948966 -1.5707963267948966 0.0 1.5707963267948966 0.0 0.2743434418098265 0.0 0.0 0.0 0.0 0.0 0.0 0.0 0.0 0.0 0.0 0.0 0.31447773407882795 -0.02897929896746927 0.4809 -1.3256095678633832 1.0066564696491247 -1.006656469649125 0.00795028061997147 0.08627490393974103 0.0 0.0 0.0 0.2743434418098265 
1.136 0.2740219878639321 -1.5707963267948966 -1.5707963267948966 0.0 1.5707963267948966 0.0 0.2743434418098265 0.0 0.0 0.0 0.0 0.0 0.0 0.0 0.0 0.0 0.0 0.0 0.3145405788664998 -0.028289030494649422 0.4809 -1.3264524957066002 1.005003460951803 -1.0050034609518033 0.0077609099913652614 0.08629214499509072 0.0 0.0 0.0 0.2743434418098265 
1.144 0.27621673539841074 -1.5707963267948966 -1.5707963267948966 0.0 1.5707963267948966 0.0 0.2743434418098265 0.0 0.0 0.0 0.0 0.0 0.0 0.0 0.0 0.0 0.0 0.0 0.31460190853900005 -0.027598625755979746 0.4809 -1.3272938944263428 1.0033501943258647 -1.003350194325865 0.007571501979116808 0.08630897038852953 0.0 0.0 0.0 0.2743434418098265 
1.152 0.27841148293288936 -1.5707963267948966 -1.5707963267948966 0.0 1.5707963267948966 0.0 0.2743434418098265 0.0 0.0 0.0 0.0 0.0 0.0 0.0 0.0 0.0 0.0 0.0 0.31466172280090887 -0.026908088077081022 0.4809 -1.328133764566485 1.001696670342531 -1.0016966703425312 0.007382057495588364 0.0863253800390109 0.0 0.0 0.0 0.2743434418098265 
1.16 0.2806062304673679 -1.5707963267948966 -1.5707963267948966 0.0 1.5707963267948966 0.0 0.2743434418098265 0.0 0.0 0.0 0.0 0.0 0.0 0.0 0.0 0.0 0.0 0.0 0.31472002136410615 -0.026217420784214435 0.4809 -1.328972106669837 1.0000428895722642 -1.0000428895722644 0.007192577453317869 0.08634137386749101 0.0 0.0 0.0 0.2743434418098265 
1.168 0.2828009780018465 -1.5707963267948966 -1.5707963267948966 0.0 1.5707963267948966 0.0 0.2743434418098265 0.0 0.0 0.0 0.0 0.0 0.0 0.0 0.0 0.0 0.0 0.0 0.3147768039477725 -0.02552662720426548 0.4809 -1.3298089212781428 0.9983888525847718 -0.9983888525847721 0.00700306276501454 0.0863569517969289 0.0 0.0 0.0 0.2743434418098265 
1.176 0.28499572553632513 -1.5707963267948966 -1.5707963267948966 0.0 1.5707963267948966 0.0 0.2743434418098265 0.0 0.0 0.0 0.0 0.0 0.0 0.0 0.0 0.0 0.0 0.0 0.3148320702783913 -0.024835710664727957 0.4809 -1.330644208932083 0.9967345599490053 -0.9967345599490055 0.006813514343554481 0.08637211375228704 0.0 0.0 0.0 0.2743434418098265 
1.184 0.28719047307080375 -1.5707963267948966 -1.5707963267948966 0.0 1.5707963267948966 0.0 0.2743434418098265 0.0 0.0 0.0 0.0 0.0 0.0 0.0 0.0 0.0 0.0 0.0 0.3148858200897491 -0.024144674493688022 0.4809 -1.3314779701712742 0.9950800122331642 -0.9950800122331644 0.006623933101976302 0.08638685966053157 0.0 0.0 0.0 0.2743434418098265 
1.192 0.2893852206052824 -1.5707963267948966 -1.5707963267948966 0.0 1.5707963267948966 0.0 0.2743434418098265 0.0 0.0 0.0 0.0 0.0 0.0 0.0 0.0 0.0 0.0 0.0 0.31493805312293777 -0.023453522019808007 0.4809 -1.3323102055342704 0.9934252100046977 -0.993425210004698 0.006434319953476682 0.08640118945063273 0.0 0.0 0.0 0.2743434418098265 
1.2 0.291579968139761 -1.5707963267948966 -1.5707963267948966 0.0 1.5707963267948966 0.0 0.2743434418098265 0.0 0.0 0.0 0.0 0.0 0.0 0.0 0.0 0.0 0.0 0.0 0.3149887691263552 -0.022762256572310523 0.4809 -1.3331409155585632 0.991770153830306 -0.9917701538303062 0.006244675811406013 0.0864151030535651 0.0 0.0 0.0 0.2743434418098265 
1.208 0.2937747156742396 -1.5707963267948966 -1.5707963267948966 0.0 1.5707963267948966 0.0 0.2743434418098265 0.0 0.0 0.0 0.0 0.0 0.0 0.0 0.0 0.0 0.0 0.0 0.3150379678557067 -0.022070881480962323 0.4809 -1.333970100780583 0.9901148442759429 -0.9901148442759431 0.006055001589263964 0.08642860040230807 0.0 0.0 0.0 0.2743434418098265 
1.216 0.2959694632087182 -1.5707963267948966 -1.5707963267948966 0.0 1.5707963267948966 0.0 0.2743434418098265 0.0 0.0 0.0 0.0 0.0 0.0 0.0 0.0 0.0 0.0 0.0 0.31508564907400627 -0.021379400076058316 0.4809 -1.3347977617356992 0.9884592819068165 -0.9884592819068168 0.005865298200695105 0.08644168143184605 0.0 0.0 0.0 0.2743434418098265 
1.224 0.2981642107431968 -1.5707963267948966 -1.5707963267948966 0.0 1.5707963267948966 0.0 0.2743434418098265 0.0 0.0 0.0 0.0 0.0 0.0 0.0 0.0 0.0 0.0 0.0 0.31513181255157746 -0.020687815688405525 0.4809 -1.3356238989582205 0.986803467287393 -0.9868034672873932 0.005675566559484497 0.08645434607916884 0.0 0.0 0.0 0.2743434418098265 
1.232 0.30035895827767545 -1.5707963267948966 -1.5707963267948966 0.0 1.5707963267948966 0.0 0.2743434418098265 0.0 0.0 0.0 0.0 0.0 0.0 0.0 0.0 0.0 0.0 0.0 0.3151764580660547 -0.01999613164930703 0.4809 -1.3364485129813979 0.9851474009813974 -0.9851474009813976 0.005485807579553293 0.0864665942832719 0.0 0.0 0.0 0.2743434418098265 
1.24 0.3025537058121541 -1.5707963267948966 -1.5707963267948966 0.0 1.5707963267948966 0.0 0.2743434418098265 0.0 0.0 0.0 0.0 0.0 0.0 0.0 0.0 0.0 0.0 0.0 0.3152195854023845 -0.01930435129054592 0.4809 -1.337271604337422 0.9834910835518155 -0.9834910835518157 0.005296022174954334 0.0864784259851567 0.0 0.0 0.0 0.2743434418098265 
1.248 0.30474845334663264 -1.5707963267948966 -1.5707963267948966 0.0 1.5707963267948966 0.0 0.2743434418098265 0.0 0.0 0.0 0.0 0.0 0.0 0.0 0.0 0.0 0.0 0.0 0.31526119435282607 -0.018612477944369276 0.4809 -1.3380931735574255 0.9818345155608953 -0.9818345155608954 0.005106211259867752 0.08648984112783094 0.0 0.0 0.0 0.2743434418098265 
1.256 0.30694320088111127 -1.5707963267948966 -1.5707963267948966 0.0 1.5707963267948966 0.0 0.2743434418098265 0.0 0.0 0.0 0.0 0.0 0.0 0.0 0.0 0.0 0.0 0.0 0.31530128471695257 -0.017920514943472004 0.4809 -1.338913221171485 0.9801776975701509 -0.9801776975701512 0.004916375748596538 0.08650083965630882 0.0 0.0 0.0 0.2743434418098265 
1.264 0.3091379484155899 -1.5707963267948966 -1.5707963267948966 0.0 1.5707963267948966 0.0 0.2743434418098265 0.0 0.0 0.0 0.0 0.0 0.0 0.0 0.0 0.0 0.0 0.0 0.3153398563016522 -0.017228465620980973 0.4809 -1.33973174770862 0.9785206301403627 -0.978520630140363 0.00472651655556219 0.08651142151761136 0.0 0.0 0.0 0.2743434418098265 
1.272 0.3113326959500685 -1.5707963267948966 -1.5707963267948966 0.0 1.5707963267948966 0.0 0.2743434418098265 0.0 0.0 0.0 0.0 0.0 0.0 0.0 0.0 0.0 0.0 0.0 0.3153769089211289 -0.016536333310438796 0.4809 -1.3405487536967926 0.9768633138315787 -0.9768633138315789 0.004536634595300262 0.08652158666076668 0.0 0.0 0.0 0.2743434418098265 
1.28 0.31352744348454714 -1.5707963267948966 -1.5707963267948966 0.0 1.5707963267948966 0.0 0.2743434418098265 0.0 0.0 0.0 0.0 0.0 0.0 0.0 0.0 0.0 0.0 0.0 0.3154124423969034 -0.01584412134578784 0.4809 -1.3413642396629117 0.9752057492031183 -0.9752057492031185 0.004346730782455976 0.08653133503681013 0.0 0.0 0.0 0.2743434418098265 
1.288 0.3157221910190257 -1.5707963267948966 -1.5707963267948966 0.0 1.5707963267948966 0.0 0.2743434418098265 0.0 0.0 0.0 0.0 0.0 0.0 0.0 0.0 0.0 0.0 0.0 0.315446456557814 -0.015151833061354206 0.4809 -1.3421782061328302 0.9735479368135735 -0.9735479368135738 0.004156806031779833 0.08654066659878461 0.0 0.0 0.0 0.2743434418098265 
1.296 0.31791693855350434 -1.5707963267948966 -1.5707963267948966 0.0 1.5707963267948966 0.0 0.2743434418098265 0.0 0.0 0.0 0.0 0.0 0.0 0.0 0.0 0.0 0.0 0.0 0.31547895124001735 -0.014459471791831529 0.4809 -1.342990653631348 0.9718898772208099 -0.9718898772208101 0.003966861258123161 0.08654958130174079 0.0 0.0 0.0 0.2743434418098265 
1.304 0.32011168608798296 -1.5707963267948966 -1.5707963267948966 0.0 1.5707963267948966 0.0 0.2743434418098265 0.0 0.0 0.0 0.0 0.0 0.0 0.0 0.0 0.0 0.0 0.0 0.3155099262869892 -0.01376704087226507 0.4809 -1.3438015826822112 0.9702315709819694 -0.9702315709819697 0.0037768973764337557 0.08655807910273727 0.0 0.0 0.0 0.2743434418098265 
1.312 0.3223064336224616 -1.5707963267948966 -1.5707963267948966 0.0 1.5707963267948966 0.0 0.2743434418098265 0.0 0.0 0.0 0.0 0.0 0.0 0.0 0.0 0.0 0.0 0.0 0.3155393815495256 -0.013074543638035604 0.4809 -1.3446109938081137 0.9685730186534722 -0.9685730186534725 0.003586915301751458 0.08656615996084092 0.0 0.0 0.0 0.2743434418098265 
1.32 0.3245011811569402 -1.5707963267948966 -1.5707963267948966 0.0 1.5707963267948966 0.0 0.2743434418098265 0.0 0.0 0.0 0.0 0.0 0.0 0.0 0.0 0.0 0.0 0.0 0.3155673168857429 -0.012381983424843316 0.4809 -1.3454188875306972 0.9669142207910185 -0.9669142207910187 0.0033969159492037385 0.08657382383712689 0.0 0.0 0.0 0.2743434418098265 
1.328 0.3266959286914188 -1.5707963267948966 -1.5707963267948966 0.0 1.5707963267948966 0.0 0.2743434418098265 0.0 0.0 0.0 0.0 0.0 0.0 0.0 0.0 0.0 0.0 0.0 0.3155937321610791 -0.011689363568691713 0.4809 -1.3462252643705528 0.96525517794959 -0.9652551779495904 0.003206900234001281 0.08658107069467898 0.0 0.0 0.0 0.2743434418098265 
1.336 0.3288906762258974 -1.5707963267948966 -1.5707963267948966 0.0 1.5707963267948966 0.0 0.2743434418098265 0.0 0.0 0.0 0.0 0.0 0.0 0.0 0.0 0.0 0.0 0.0 0.3156186272482939 -0.010996687405871664 0.4809 -1.3470301248472198 0.9635958906834521 -0.9635958906834523 0.003016869071433605 0.08658790049858965 0.0 0.0 0.0 0.2743434418098265 
1.344 0.33108542376037603 -1.5707963267948966 -1.5707963267948966 0.0 1.5707963267948966 0.0 0.2743434418098265 0.0 0.0 0.0 0.0 0.0 0.0 0.0 0.0 0.0 0.0 0.0 0.31564200202747 -0.010303958272945238 0.4809 -1.3478334694791898 0.9619363595461559 -0.9619363595461561 0.0028268233768646324 0.08659431321596035 0.0 0.0 0.0 0.2743434418098265 
1.352 0.33328017129485465 -1.5707963267948966 -1.5707963267948966 0.0 1.5707963267948966 0.0 0.2743434418098265 0.0 0.0 0.0 0.0 0.0 0.0 0.0 0.0 0.0 0.0 0.0 0.3156638563860129 -0.009611179506729614 0.4809 -1.3486352987839034 0.9602765850905395 -0.9602765850905396 0.002636764065728273 0.08660030881590157 0.0 0.0 0.0 0.2743434418098265 
1.36 0.3354749188293333 -1.5707963267948966 -1.5707963267948966 0.0 1.5707963267948966 0.0 0.2743434418098265 0.0 0.0 0.0 0.0 0.0 0.0 0.0 0.0 0.0 0.0 0.0 0.3156841902186521 -0.008918354444281136 0.4809 -1.3494356132777543 0.9586165678687315 -0.9586165678687317 0.0024466920535240497 0.08660588726953299 0.0 0.0 0.0 0.2743434418098265 
1.368 0.33766966636381185 -1.5707963267948966 -1.5707963267948966 0.0 1.5707963267948966 0.0 0.2743434418098265 0.0 0.0 0.0 0.0 0.0 0.0 0.0 0.0 0.0 0.0 0.0 0.3157030034274413 -0.008225486422879093 0.4809 -1.3502344134760862 0.9569563084321495 -0.9569563084321497 0.0022566082558126486 0.0866110485499837 0.0 0.0 0.0 0.2743434418098265 
1.376 0.3398644138982905 -1.5707963267948966 -1.5707963267948966 0.0 1.5707963267948966 0.0 0.2743434418098265 0.0 0.0 0.0 0.0 0.0 0.0 0.0 0.0 0.0 0.0 0.0 0.31572029592175876 -0.007532578780009704 0.4809 -1.3510316998931982 0.9552958073315062 -0.9552958073315065 0.0020665135882115262 0.08661579263239223 0.0 0.0 0.0 0.2743434418098265 
1.384 0.3420591614327691 -1.5707963267948966 -1.5707963267948966 0.0 1.5707963267948966 0.0 0.2743434418098265 0.0 0.0 0.0 0.0 0.0 0.0 0.0 0.0 0.0 0.0 0.0 0.3157360676183081 -0.0068396348533500545 0.4809 -1.3518274730423416 0.9536350651168082 -0.9536350651168084 0.001876408966390502 0.08662011949390674 0.0 0.0 0.0 0.2743434418098265 
1.392 0.3442539089672477 -1.5707963267948966 -1.5707963267948966 0.0 1.5707963267948966 0.0 0.2743434418098265 0.0 0.0 0.0 0.0 0.0 0.0 0.0 0.0 0.0 0.0 0.0 0.31575031844111834 -0.00614665798075199 0.4809 -1.352621733435722 0.9519740823373586 -0.9519740823373588 0.0016862953060673392 0.08662402911368514 0.0 0.0 0.0 0.2743434418098265 
1.4 0.34644865650172635 -1.5707963267948966 -1.5707963267948966 0.0 1.5707963267948966 0.0 0.2743434418098265 0.0 0.0 0.0 0.0 0.0 0.0 0.0 0.0 0.0 0.0 0.0 0.3157630483215445 -0.005453651500226114 0.4809 -1.3534144815845006 0.9503128595417594 -0.9503128595417596 0.001496173523003356 0.08662752147289508 0.0 0.0 0.0 0.2743434418098265 
1.408 0.34864340403620486 -1.5707963267948966 -1.5707963267948966 0.0 1.5707963267948966 0.0 0.2743434418098265 0.0 0.0 0.0 0.0 0.0 0.0 0.0 0.0 0.0 0.0 0.0 0.3157742571982679 -0.0047606187499255985 0.4809 -1.3542057179987936 0.9486513972779129 -0.948651397277913 0.0013060445329989825 0.0866305965547142 0.0 0.0 0.0 0.2743434418098265 
1.416 0.3508381515706835 -1.5707963267948966 -1.5707963267948966 0.0 1.5707963267948966 0.0 0.2743434418098265 0.0 0.0 0.0 0.0 0.0 0.0 0.0 0.0 0.0 0.0 0.0 0.31578394501729623 -0.004067563068130092 0.4809 -1.3549954431876736 0.9469896960930235 -0.9469896960930237 0.001115909251889347 0.08663325434433006 0.0 0.0 0.0 0.2743434418098265 
1.424 0.3530328991051621 -1.5707963267948966 -1.5707963267948966 0.0 1.5707963267948966 0.0 0.2743434418098265 0.0 0.0 0.0 0.0 0.0 0.0 0.0 0.0 0.0 0.0 0.0 0.31579211173196414 -0.003374487793229835 0.4809 -1.35578365765917 0.9453277565335997 -0.9453277565335998 0.000925768595539919 0.08663549482894034 0.0 0.0 0.0 0.2743434418098265 
1.432 0.35522764663964074 -1.5707963267948966 -1.5707963267948966 0.0 1.5707963267948966 0.0 0.2743434418098265 0.0 0.0 0.0 0.0 0.0 0.0 0.0 0.0 0.0 0.0 0.0 0.3157987573029333 -0.002681396263709338 0.4809 -1.3565703619202707 0.9436655791454558 -0.943665579145456 0.000735623479842029 0.0866373179977528 0.0 0.0 0.0 0.2743434418098265 
1.44 0.35742239417411936 -1.5707963267948966 -1.5707963267948966 0.0 1.5707963267948966 0.0 0.2743434418098265 0.0 0.0 0.0 0.0 0.0 0.0 0.0 0.0 0.0 0.0 0.0 0.31580388169819246 -0.0019882918181314928 0.4809 -1.3573555564769202 0.9420031644737138 -0.942003164473714 0.0005454748207085114 0.0866387238419854 0.0 0.0 0.0 0.2743434418098265 
1.448 0.35961714170859793 -1.5707963267948966 -1.5707963267948966 0.0 1.5707963267948966 0.0 0.2743434418098265 0.0 0.0 0.0 0.0 0.0 0.0 0.0 0.0 0.0 0.0 0.0 0.31580748489305793 -0.0012951777951213592 0.4809 -1.3581392418340243 0.940340513062806 -0.9403405130628062 0.000355323534069256 0.0866397123548663 0.0 0.0 0.0 0.2743434418098265 
1.456 0.36181188924307656 -1.5707963267948966 -1.5707963267948966 0.0 1.5707963267948966 0.0 0.2743434418098265 0.0 0.0 0.0 0.0 0.0 0.0 0.0 0.0 0.0 0.0 0.0 0.31580956687017336 -0.0006020575333501171 0.4809 -1.358921418495446 0.9386776254564742 -0.9386776254564744 0.00016517053586680554 0.08664028353163392 0.0 0.0 0.0 0.2743434418098265 
1.464 0.3640066367775552 -1.5707963267948966 -1.5707963267948966 0.0 1.5707963267948966 0.0 0.2743434418098265 0.0 0.0 0.0 0.0 0.0 0.0 0.0 0.0 0.0 0.0 0.0 0.31581012761951016 9.106562848095953e-05 0.4809 -1.3597020869640102 0.9370145021977755 -0.9370145021977757 -2.49832579480414e-05 0.08664043736953697 0.0 0.0 0.0 0.2743434418098265 
1.472 0.3662013843120338 -1.5707963267948966 -1.5707963267948966 0.0 1.5707963267948966 0.0 0.2743434418098265 0.0 0.0 0.0 0.0 0.0 0.0 0.0 0.0 0.0 0.0 0.0 0.31580916713836715 0.0007841883516566638 0.4809 -1.360481247741502 0.9353511438290805 -0.9353511438290807 -0.0002151369314206637 0.0866401738678344 0.0 0.0 0.0 0.2743434418098265 
1.48 0.36839613184651243 -1.5707963267948966 -1.5707963267948966 0.0 1.5707963267948966 0.0 0.2743434418098265 0.0 0.0 0.0 0.0 0.0 0.0 0.0 0.0 0.0 0.0 0.0 0.31580668543137086 0.0014773072974639083 0.4809 -1.3612589013286691 0.9336875508920771 -0.9336875508920773 -0.00040528956859702176 0.08663949302779547 0.0 0.0 0.0 0.2743434418098265 
1.488 0.370590879380991 -1.5707963267948966 -1.5707963267948966 0.0 1.5707963267948966 0.0 0.2743434418098265 0.0 0.0 0.0 0.0 0.0 0.0 0.0 0.0 0.0 0.0 0.0 0.31580268251047555 0.0021704191272077372 0.4809 -1.3620350482252197 0.9320237239277716 -0.9320237239277718 -0.0005954402535280503 0.08663839485269977 0.0 0.0 0.0 0.2743434418098265 
1.496 0.3727856269154696 -1.5707963267948966 -1.5707963267948966 0.0 1.5707963267948966 0.0 0.2743434418098265 0.0 0.0 0.0 0.0 0.0 0.0 0.0 0.0 0.0 0.0 0.0 0.3157971583949629 0.002863520502227542 0.4809 -1.3628096889298271 0.9303596634764909 -0.9303596634764912 -0.0007855880702741069 0.08663687934783708 0.0 0.0 0.0 0.2743434418098265 
1.504 0.37498037444994825 -1.5707963267948966 -1.5707963267948966 0.0 1.5707963267948966 0.0 0.2743434418098265 0.0 0.0 0.0 0.0 0.0 0.0 0.0 0.0 0.0 0.0 0.0 0.31579011311144217 0.0035566080839130494 0.4809 -1.3635828239401266 0.9286953700778842 -0.9286953700778843 -0.0009757321029093582 0.08663494652050746 0.0 0.0 0.0 0.2743434418098265 
1.512 0.3771751219844269 -1.5707963267948966 -1.5707963267948966 0.0 1.5707963267948966 0.0 0.2743434418098265 0.0 0.0 0.0 0.0 0.0 0.0 0.0 0.0 0.0 0.0 0.0 0.31578154669384983 0.0042496785337203975 0.4809 -1.3643544537527184 0.9270308442709241 -0.9270308442709243 -0.0011658714355261906 0.0866325963800212 0.0 0.0 0.0 0.2743434418098265 
1.52 0.3793698695189055 -1.5707963267948966 -1.5707963267948966 0.0 1.5707963267948966 0.0 0.2743434418098265 0.0 0.0 0.0 0.0 0.0 0.0 0.0 0.0 0.0 0.0 0.0 0.31577145918344945 0.004942728513188315 0.4809 -1.3651245788631672 0.925366086593909 -0.9253660865939092 -0.0013560051522396488 0.08662982893769867 0.0 0.0 0.0 0.2743434418098265 
1.528 0.38156461705338407 -1.5707963267948966 -1.5707963267948966 0.0 1.5707963267948966 0.0 0.2743434418098265 0.0 0.0 0.0 0.0 0.0 0.0 0.0 0.0 0.0 0.0 0.0 0.315759850628832 0.005635754683954056 0.4809 -1.3658931997660047 0.9237010975844664 -0.9237010975844666 -0.0015461323371918068 0.08662664420687048 0.0 0.0 0.0 0.2743434418098265 
1.536 0.3837593645878627 -1.5707963267948966 -1.5707963267948966 0.0 1.5707963267948966 0.0 0.2743434418098265 0.0 0.0 0.0 0.0 0.0 0.0 0.0 0.0 0.0 0.0 0.0 0.3157467210859146 0.006328753707769613 0.4809 -1.3666603169547273 0.9220358777795512 -0.9220358777795514 -0.0017362520745562166 0.08662304220287714 0.0 0.0 0.0 0.2743434418098265 
1.544 0.3859541121223413 -1.5707963267948966 -1.5707963267948966 0.0 1.5707963267948966 0.0 0.2743434418098265 0.0 0.0 0.0 0.0 0.0 0.0 0.0 0.0 0.0 0.0 0.0 0.3157320706179414 0.007021722246517755 0.4809 -1.3674259309217989 0.9203704277154497 -0.92037042771545 -0.001926363448542308 0.08661902294306924 0.0 0.0 0.0 0.2743434418098265 
1.552 0.38814885965681994 -1.5707963267948966 -1.5707963267948966 0.0 1.5707963267948966 0.0 0.2743434418098265 0.0 0.0 0.0 0.0 0.0 0.0 0.0 0.0 0.0 0.0 0.0 0.3157158992954823 0.0077146569622279955 0.4809 -1.3681900421586508 0.9187047479277822 -0.9187047479277825 -0.002116465543399769 0.0866145864468072 0.0 0.0 0.0 0.2743434418098265 
1.56 0.39034360719129857 -1.5707963267948966 -1.5707963267948966 0.0 1.5707963267948966 0.0 0.2743434418098265 0.0 0.0 0.0 0.0 0.0 0.0 0.0 0.0 0.0 0.0 0.0 0.3156982071964332 0.008407554517092936 0.4809 -1.3689526511556835 0.9170388389515032 -0.9170388389515034 -0.00230655744342303 0.08660973273546123 0.0 0.0 0.0 0.2743434418098265 
1.568 0.39253835472577714 -1.5707963267948966 -1.5707963267948966 0.0 1.5707963267948966 0.0 0.2743434418098265 0.0 0.0 0.0 0.0 0.0 0.0 0.0 0.0 0.0 0.0 0.0 0.3156789944060155 0.009100411573484003 0.4809 -1.3697137584022643 0.915372701320903 -0.9153727013209032 -0.00249663823295558 0.08660446183241126 0.0 0.0 0.0 0.2743434418098265 
1.576 0.39473310226025576 -1.5707963267948966 -1.5707963267948966 0.0 1.5707963267948966 0.0 0.2743434418098265 0.0 0.0 0.0 0.0 0.0 0.0 0.0 0.0 0.0 0.0 0.0 0.3156582610167755 0.009793224793967815 0.4809 -1.3704733643867324 0.9137063355696106 -0.9137063355696108 -0.002686706996394459 0.08659877376304678 0.0 0.0 0.0 0.2743434418098265 
1.584 0.3969278497947344 -1.5707963267948966 -1.5707963267948966 0.0 1.5707963267948966 0.0 0.2743434418098265 0.0 0.0 0.0 0.0 0.0 0.0 0.0 0.0 0.0 0.0 0.0 0.3156360071285843 0.010485990841322127 0.4809 -1.3712314695963959 0.9120397422305955 -0.9120397422305957 -0.0028767628181946307 0.08659266855476676 0.0 0.0 0.0 0.2743434418098265 
1.592 0.399122597329213 -1.5707963267948966 -1.5707963267948966 0.0 1.5707963267948966 0.0 0.2743434418098265 0.0 0.0 0.0 0.0 0.0 0.0 0.0 0.0 0.0 0.0 0.0 0.3156122328486367 0.011178706378551891 0.4809 -1.3719880745175337 0.9103729218361677 -0.9103729218361679 -0.003066804782873387 0.08658614623697938 0.0 0.0 0.0 0.2743434418098265 
1.6 0.40131734486369164 -1.5707963267948966 -1.5707963267948966 0.0 1.5707963267948966 0.0 0.2743434418098265 0.0 0.0 0.0 0.0 0.0 0.0 0.0 0.0 0.0 0.0 0.0 0.31558693829145174 0.011871368068905378 0.4809 -1.372743179635397 0.908705874917982 -0.9087058749179823 -0.003256831975014775 0.0865792068411022 0.0 0.0 0.0 0.2743434418098265 
1.608 0.4035120923981702 -1.5707963267948966 -1.5707963267948966 0.0 1.5707963267948966 0.0 0.2743434418098265 0.0 0.0 0.0 0.0 0.0 0.0 0.0 0.0 0.0 0.0 0.0 0.31556012357887087 0.012563972575890248 0.4809 -1.3734967854342084 0.9070386020070377 -0.9070386020070379 -0.003446843479274002 0.08657185040056162 0.0 0.0 0.0 0.2743434418098265 
1.616 0.40570683993264883 -1.5707963267948966 -1.5707963267948966 0.0 1.5707963267948966 0.0 0.2743434418098265 0.0 0.0 0.0 0.0 0.0 0.0 0.0 0.0 0.0 0.0 0.0 0.3155317888400584 0.013256516563289567 0.4809 -1.3742488923971634 0.9053711036336813 -0.9053711036336816 -0.0036368383803818327 0.08656407695079302 0.0 0.0 0.0 0.2743434418098265 
1.624 0.40790158746712746 -1.5707963267948966 -1.5707963267948966 0.0 1.5707963267948966 0.0 0.2743434418098265 0.0 0.0 0.0 0.0 0.0 0.0 0.0 0.0 0.0 0.0 0.0 0.31550193421150036 0.013948996695177986 0.4809 -1.3749995010064315 0.903703380327608 -0.9037033803276082 -0.003826815763149024 0.08655588652924046 0.0 0.0 0.0 0.2743434418098265 
1.632 0.4100963350016061 -1.5707963267948966 -1.5707963267948966 0.0 1.5707963267948966 0.0 0.2743434418098265 0.0 0.0 0.0 0.0 0.0 0.0 0.0 0.0 0.0 0.0 0.0 0.3154705598370039 0.014641409635937703 0.4809 -1.3757486117431568 0.9020354326178639 -0.9020354326178641 -0.004016774712470708 0.08654727917535647 0.0 0.0 0.0 0.2743434418098265 
1.64 0.4122910825360847 -1.5707963267948966 -1.5707963267948966 0.0 1.5707963267948966 0.0 0.2743434418098265 0.0 0.0 0.0 0.0 0.0 0.0 0.0 0.0 0.0 0.0 0.0 0.3154376658676967 0.015333752050274544 0.4809 -1.3764962250874553 0.9003672610328461 -0.9003672610328464 -0.0042067143133308026 0.08653825493060195 0.0 0.0 0.0 0.2743434418098265 
1.648 0.4144858300705633 -1.5707963267948966 -1.5707963267948966 0.0 1.5707963267948966 0.0 0.2743434418098265 0.0 0.0 0.0 0.0 0.0 0.0 0.0 0.0 0.0 0.0 0.0 0.3154032524620263 0.016026020603234072 0.4809 -1.3772423415184216 0.8986988661003074 -0.8986988661003076 -0.0043966336508064275 0.08652881383844592 0.0 0.0 0.0 0.2743434418098265 
1.656 0.4166805776050419 -1.5707963267948966 -1.5707963267948966 0.0 1.5707963267948966 0.0 0.2743434418098265 0.0 0.0 0.0 0.0 0.0 0.0 0.0 0.0 0.0 0.0 0.0 0.31536731978575905 0.01671821196021769 0.4809 -1.3779869615141251 0.8970302483473551 -0.8970302483473553 -0.004586531810072327 0.08651895594436533 0.0 0.0 0.0 0.2743434418098265 
1.664 0.4188753251395205 -1.5707963267948966 -1.5707963267948966 0.0 1.5707963267948966 0.0 0.2743434418098265 0.0 0.0 0.0 0.0 0.0 0.0 0.0 0.0 0.0 0.0 0.0 0.31532986801197965 0.01741032278699858 0.4809 -1.378730085551612 0.8953614083004543 -0.8953614083004545 -0.004776407876405242 0.08650868129584481 0.0 0.0 0.0 0.2743434418098265 
1.672 0.4210700726739991 -1.5707963267948966 -1.5707963267948966 0.0 1.5707963267948966 0.0 0.2743434418098265 0.0 0.0 0.0 0.0 0.0 0.0 0.0 0.0 0.0 0.0 0.0 0.31529089732109006 0.018102349749737828 0.4809 -1.3794717141069055 0.8936923464854296 -0.8936923464854298 -0.004966260935188327 0.08649798994237645 0.0 0.0 0.0 0.2743434418098265 
1.68 0.4232648202084777 -1.5707963267948966 -1.5707963267948966 0.0 1.5707963267948966 0.0 0.2743434418098265 0.0 0.0 0.0 0.0 0.0 0.0 0.0 0.0 0.0 0.0 0.0 0.31525040790080877 0.01879428951500056 0.4809 -1.3802118476550078 0.892023063427466 -0.8920230634274661 -0.005156090071915588 0.0864868819354596 0.0 0.0 0.0 0.2743434418098265 
1.688 0.4254595677429563 -1.5707963267948966 -1.5707963267948966 0.0 1.5707963267948966 0.0 0.2743434418098265 0.0 0.0 0.0 0.0 0.0 0.0 0.0 0.0 0.0 0.0 0.0 0.31520839994616995 0.01948613874977181 0.4809 -1.3809504866698976 0.890353559651111 -0.8903535596511112 -0.005345894372196228 0.0864753573286006 0.0 0.0 0.0 0.2743434418098265 
1.696 0.4276543152774349 -1.5707963267948966 -1.5707963267948966 0.0 1.5707963267948966 0.0 0.2743434418098265 0.0 0.0 0.0 0.0 0.0 0.0 0.0 0.0 0.0 0.0 0.0 0.3151648736595222 0.020177894121472823 0.4809 -1.381687631624536 0.8886838356802771 -0.8886838356802773 -0.00553567292175912 0.08646341617731246 0.0 0.0 0.0 0.2743434418098265 
1.704 0.42984906281191354 -1.5707963267948966 -1.5707963267948966 0.0 1.5707963267948966 0.0 0.2743434418098265 0.0 0.0 0.0 0.0 0.0 0.0 0.0 0.0 0.0 0.0 0.0 0.31511982925052806 0.020869552297976872 0.4809 -1.3824232829908605 0.8870138920382423 -0.8870138920382425 -0.005725424806457149 0.08645105853911471 0.0 0.0 0.0 0.2743434418098265 
1.712 0.43204381034639217 -1.5707963267948966 -1.5707963267948966 0.0 1.5707963267948966 0.0 0.2743434418098265 0.0 0.0 0.0 0.0 0.0 0.0 0.0 0.0 0.0 0.0 0.0 0.31507326693616267 0.021561109947625473 0.4809 -1.3831574412397922 0.8853437292476527 -0.8853437292476529 -0.0059151491122716605 0.08643828447353308 0.0 0.0 0.0 0.2743434418098265 
1.72 0.4342385578808708 -1.5707963267948966 -1.5707963267948966 0.0 1.5707963267948966 0.0 0.2743434418098265 0.0 0.0 0.0 0.0 0.0 0.0 0.0 0.0 0.0 0.0 0.0 0.31502518694071246 0.0222525637392443 0.4809 -1.383890106841232 0.883673347830524 -0.8836733478305242 -0.006104844925316824 0.08642509404209907 0.0 0.0 0.0 0.2743434418098265 
1.728 0.43643330541534936 -1.5707963267948966 -1.5707963267948966 0.0 1.5707963267948966 0.0 0.2743434418098265 0.0 0.0 0.0 0.0 0.0 0.0 0.0 0.0 0.0 0.0 0.0 0.314975589495775 0.022943910342159347 0.4809 -1.3846212802640616 0.8820027483082423 -0.8820027483082424 -0.00629451133184407 0.08641148730834994 0.0 0.0 0.0 0.2743434418098265 
1.736 0.438628052949828 -1.5707963267948966 -1.5707963267948966 0.0 1.5707963267948966 0.0 0.2743434418098265 0.0 0.0 0.0 0.0 0.0 0.0 0.0 0.0 0.0 0.0 0.0 0.31492447484025665 0.023635146426212977 0.4809 -1.3853509619761473 0.8803319312015673 -0.8803319312015674 -0.006484147418246489 0.08639746433782812 0.0 0.0 0.0 0.2743434418098265 
1.744 0.4408228004843066 -1.5707963267948966 -1.5707963267948966 0.0 1.5707963267948966 0.0 0.2743434418098265 0.0 0.0 0.0 0.0 0.0 0.0 0.0 0.0 0.0 0.0 0.0 0.3148718432203726 0.024326268661779844 0.4809 -1.386079152444337 0.8786608970306329 -0.878660897030633 -0.006673752271063205 0.08638302519808111 0.0 0.0 0.0 0.2743434418098265 
1.752 0.44301754801878523 -1.5707963267948966 -1.5707963267948966 0.0 1.5707963267948966 0.0 0.2743434418098265 0.0 0.0 0.0 0.0 0.0 0.0 0.0 0.0 0.0 0.0 0.0 0.31481769488964473 0.02501727371978299 0.4809 -1.386805852134463 0.8769896463149499 -0.87698964631495 -0.006863324976983787 0.08636816995866096 0.0 0.0 0.0 0.2743434418098265 
1.76 0.44521229555326386 -1.5707963267948966 -1.5707963267948966 0.0 1.5707963267948966 0.0 0.2743434418098265 0.0 0.0 0.0 0.0 0.0 0.0 0.0 0.0 0.0 0.0 0.0 0.314762030108901 0.025708158271709906 0.4809 -1.3875310615113414 0.8753181795734065 -0.8753181795734066 -0.0070528646228526564 0.08635289869112414 0.0 0.0 0.0 0.2743434418098265 
1.768 0.44740704308774243 -1.5707963267948966 -1.5707963267948966 0.0 1.5707963267948966 0.0 0.2743434418098265 0.0 0.0 0.0 0.0 0.0 0.0 0.0 0.0 0.0 0.0 0.0 0.3147048491462739 0.02639891898962863 0.4809 -1.3882547810387738 0.8736464973242704 -0.8736464973242704 -0.007242370295673506 0.08633721146903102 0.0 0.0 0.0 0.2743434418098265 
1.776 0.44960179062222105 -1.5707963267948966 -1.5707963267948966 0.0 1.5707963267948966 0.0 0.2743434418098265 0.0 0.0 0.0 0.0 0.0 0.0 0.0 0.0 0.0 0.0 0.0 0.3146461522771993 0.027089552546203585 0.4809 -1.3889770111795472 0.8719746000851913 -0.8719746000851913 -0.0074318410826136405 0.08632110836794563 0.0 0.0 0.0 0.2743434418098265 
1.784 0.4517965381566997 -1.5707963267948966 -1.5707963267948966 0.0 1.5707963267948966 0.0 0.2743434418098265 0.0 0.0 0.0 0.0 0.0 0.0 0.0 0.0 0.0 0.0 0.0 0.31458593978441485 0.027780055614711766 0.4809 -1.389697752395435 0.8703024883732012 -0.8703024883732013 -0.007621276071008421 0.0863045894654352 0.0 0.0 0.0 0.2743434418098265 
1.792 0.4539912856911783 -1.5707963267948966 -1.5707963267948966 0.0 1.5707963267948966 0.0 0.2743434418098265 0.0 0.0 0.0 0.0 0.0 0.0 0.0 0.0 0.0 0.0 0.0 0.3145242119579592 0.02847042486905876 0.4809 -1.390417005147197 0.8686301627047175 -0.8686301627047176 -0.007810674348365659 0.08628765484106991 0.0 0.0 0.0 0.2743434418098265 
1.8 0.45618603322565693 -1.5707963267948966 -1.5707963267948966 0.0 1.5707963267948966 0.0 0.2743434418098265 0.0 0.0 0.0 0.0 0.0 0.0 0.0 0.0 0.0 0.0 0.0 0.31446096909517 0.02916065698379464 0.4809 -1.3911347698945813 0.8669576235955438 -0.8669576235955441 -0.008000035002369975 0.08627030457642243 0.0 0.0 0.0 0.2743434418098265 
1.808 0.4583807807601355 -1.5707963267948966 -1.5707963267948966 0.0 1.5707963267948966 0.0 0.2743434418098265 0.0 0.0 0.0 0.0 0.0 0.0 0.0 0.0 0.0 0.0 0.0 0.3143962115006826 0.029850748634130116 0.4809 -1.3918510470963232 0.8652848715608714 -0.8652848715608715 -0.008189357120887234 0.08625253875506741 0.0 0.0 0.0 0.2743434418098265 
1.816 0.4605755282946141 -1.5707963267948966 -1.5707963267948966 0.0 1.5707963267948966 0.0 0.2743434418098265 0.0 0.0 0.0 0.0 0.0 0.0 0.0 0.0 0.0 0.0 0.0 0.31432993948642896 0.03054069649595253 0.4809 -1.392565837210148 0.8636119071152818 -0.8636119071152819 -0.008378639791968926 0.08623435746258142 0.0 0.0 0.0 0.2743434418098265 
1.824 0.46277027582909275 -1.5707963267948966 -1.5707963267948966 0.0 1.5707963267948966 0.0 0.2743434418098265 0.0 0.0 0.0 0.0 0.0 0.0 0.0 0.0 0.0 0.0 0.0 0.31426215337163566 0.031230497245841777 0.4809 -1.3932791406927685 0.8619387307727474 -0.8619387307727475 -0.00856788210385654 0.0862157607865421 0.0 0.0 0.0 0.2743434418098265 
1.832 0.4649650233635714 -1.5707963267948966 -1.5707963267948966 0.0 1.5707963267948966 0.0 0.2743434418098265 0.0 0.0 0.0 0.0 0.0 0.0 0.0 0.0 0.0 0.0 0.0 0.31419285348282266 0.031920147561086416 0.4809 -1.3939909579998897 0.8602653430466344 -0.8602653430466345 -0.008757083144985987 0.0861967488165281 0.0 0.0 0.0 0.2743434418098265 
1.84 0.46715977089805 -1.5707963267948966 -1.5707963267948966 0.0 1.5707963267948966 0.0 0.2743434418098265 0.0 0.0 0.0 0.0 0.0 0.0 0.0 0.0 0.0 0.0 0.0 0.3141220401538015 0.03260964411969965 0.4809 -1.3947012895862052 0.8585917444497028 -0.8585917444497029 -0.008946242003991974 0.08617732164411843 0.0 0.0 0.0 0.2743434418098265 
1.848 0.46935451843252857 -1.5707963267948966 -1.5707963267948966 0.0 1.5707963267948966 0.0 0.2743434418098265 0.0 0.0 0.0 0.0 0.0 0.0 0.0 0.0 0.0 0.0 0.0 0.31404971372567425 0.03329898360043528 0.4809 -1.3954101359054019 0.8569179354941098 -0.8569179354941099 -0.009135357769712384 0.08615747936289218 0.0 0.0 0.0 0.2743434418098265 
1.856 0.4715492659670072 -1.5707963267948966 -1.5707963267948966 0.0 1.5707963267948966 0.0 0.2743434418098265 0.0 0.0 0.0 0.0 0.0 0.0 0.0 0.0 0.0 0.0 0.0 0.3139758745468308 0.03398816268280379 0.4809 -1.396117497410157 0.8552439166914104 -0.8552439166914105 -0.009324429531192698 0.08613722206842786 0.0 0.0 0.0 0.2743434418098265 
1.864 0.4737440135014858 -1.5707963267948966 -1.5707963267948966 0.0 1.5707963267948966 0.0 0.2743434418098265 0.0 0.0 0.0 0.0 0.0 0.0 0.0 0.0 0.0 0.0 0.0 0.31390052297294846 0.03467717804708819 0.4809 -1.3968233745521403 0.8535696885525592 -0.8535696885525593 -0.009513456377690332 0.08611654985830319 0.0 0.0 0.0 0.2743434418098265 
1.872 0.47593876103596444 -1.5707963267948966 -1.5707963267948966 0.0 1.5707963267948966 0.0 0.2743434418098265 0.0 0.0 0.0 0.0 0.0 0.0 0.0 0.0 0.0 0.0 0.0 0.3138236593669892 0.03536602637436023 0.4809 -1.397527767782016 0.8518952515879121 -0.8518952515879122 -0.009702437398679086 0.08609546283209442 0.0 0.0 0.0 0.2743434418098265 
1.88 0.47813350857044307 -1.5707963267948966 -1.5707963267948966 0.0 1.5707963267948966 0.0 0.2743434418098265 0.0 0.0 0.0 0.0 0.0 0.0 0.0 0.0 0.0 0.0 0.0 0.31374528409919844 0.036054704346496186 0.4809 -1.3982306775494406 0.8502206063072285 -0.8502206063072286 -0.009891371683853475 0.08607396109137594 0.0 0.0 0.0 0.2743434418098265 
1.888 0.48032825610492164 -1.5707963267948966 -1.5707963267948966 0.0 1.5707963267948966 0.0 0.2743434418098265 0.0 0.0 0.0 0.0 0.0 0.0 0.0 0.0 0.0 0.0 0.0 0.31366539754710326 0.03674320864619289 0.4809 -1.3989321043030651 0.8485457532196713 -0.8485457532196714 -0.010080258323133133 0.08605204473971982 0.0 0.0 0.0 0.2743434418098265 
1.896 0.48252300363940026 -1.5707963267948966 -1.5707963267948966 0.0 1.5707963267948966 0.0 0.2743434418098265 0.0 0.0 0.0 0.0 0.0 0.0 0.0 0.0 0.0 0.0 0.0 0.3135840000955103 0.03743153595698386 0.4809 -1.3996320484905371 0.8468706928338113 -0.8468706928338114 -0.010269096406667231 0.08602971388269526 0.0 0.0 0.0 0.2743434418098265 
1.904 0.4847177511738789 -1.5707963267948966 -1.5707963267948966 0.0 1.5707963267948966 0.0 0.2743434418098265 0.0 0.0 0.0 0.0 0.0 0.0 0.0 0.0 0.0 0.0 0.0 0.31350109213650423 0.038119682963255054 0.4809 -1.4003305105584973 0.8451954256576257 -0.8451954256576258 -0.010457885024838798 0.08600696862786811 0.0 0.0 0.0 0.2743434418098265 
1.912 0.4869124987083575 -1.5707963267948966 -1.5707963267948966 0.0 1.5707963267948966 0.0 0.2743434418098265 0.0 0.0 0.0 0.0 0.0 0.0 0.0 0.0 0.0 0.0 0.0 0.31341667406944557 0.03880764635026093 0.4809 -1.401027490952585 0.8435199521985025 -0.8435199521985026 -0.010646623268269135 0.0859838090848003 0.0 0.0 0.0 0.2743434418098265 
1.92 0.4891072462428361 -1.5707963267948966 -1.5707963267948966 0.0 1.5707963267948966 0.0 0.2743434418098265 0.0 0.0 0.0 0.0 0.0 0.0 0.0 0.0 0.0 0.0 0.0 0.31333074630096897 0.039495422804140506 0.4809 -1.401722990117434 0.8418442729632398 -0.8418442729632399 -0.010835310227822215 0.08596023536504939 0.0 0.0 0.0 0.2743434418098265 
1.928 0.49130199377731465 -1.5707963267948966 -1.5707963267948966 0.0 1.5707963267948966 0.0 0.2743434418098265 0.0 0.0 0.0 0.0 0.0 0.0 0.0 0.0 0.0 0.0 0.0 0.3132433092449811 0.040183009011933196 0.4809 -1.402417008496678 0.8401683884580494 -0.8401683884580495 -0.01102394499460903 0.08593624758216796 0.0 0.0 0.0 0.2743434418098265 
1.936 0.4934967413117933 -1.5707963267948966 -1.5707963267948966 0.0 1.5707963267948966 0.0 0.2743434418098265 0.0 0.0 0.0 0.0 0.0 0.0 0.0 0.0 0.0 0.0 0.0 0.31315436332265895 0.040870401661594793 0.4809 -1.4031095465329466 0.838492299188557 -0.8384922991885572 -0.011212526659991968 0.08591184585170315 0.0 0.0 0.0 0.2743434418098265 
1.944 0.4956914888462719 -1.5707963267948966 -1.5707963267948966 0.0 1.5707963267948966 0.0 0.2743434418098265 0.0 0.0 0.0 0.0 0.0 0.0 0.0 0.0 0.0 0.0 0.0 0.3130639089624474 0.04155759744201348 0.4809 -1.4038006046678686 0.8368160056598046 -0.8368160056598047 -0.01140105431558922 0.08588703029119601 0.0 0.0 0.0 0.2743434418098265 
1.952 0.4978862363807505 -1.5707963267948966 -1.5707963267948966 0.0 1.5707963267948966 0.0 0.2743434418098265 0.0 0.0 0.0 0.0 0.0 0.0 0.0 0.0 0.0 0.0 0.0 0.3129719466000573 0.04224459304302574 0.4809 -1.4044901833420733 0.8351395083762521 -0.8351395083762522 -0.011589527053279133 0.08586180102018094 0.0 0.0 0.0 0.2743434418098265 
1.96 0.5000809839152291 -1.5707963267948966 -1.5707963267948966 0.0 1.5707963267948966 0.0 0.2743434418098265 0.0 0.0 0.0 0.0 0.0 0.0 0.0 0.0 0.0 0.0 0.0 0.3128784766784636 0.042931385155432274 0.4809 -1.4051782829951882 0.8334628078417781 -0.8334628078417782 -0.011777943965204584 0.08583615816018524 0.0 0.0 0.0 0.2743434418098265 
1.968 0.5022757314497077 -1.5707963267948966 -1.5707963267948966 0.0 1.5707963267948966 0.0 0.2743434418098265 0.0 0.0 0.0 0.0 0.0 0.0 0.0 0.0 0.0 0.0 0.0 0.31278349964790303 0.04361797047101394 0.4809 -1.4058649040658422 0.8317859045596827 -0.8317859045596827 -0.011966304143777345 0.08581010183472837 0.0 0.0 0.0 0.2743434418098265 
1.976 0.5044704789841863 -1.5707963267948966 -1.5707963267948966 0.0 1.5707963267948966 0.0 0.2743434418098265 0.0 0.0 0.0 0.0 0.0 0.0 0.0 0.0 0.0 0.0 0.0 0.3126870159658717 0.04430434568254785 0.4809 -1.406550046991665 0.8301087990326881 -0.8301087990326882 -0.012154606681682504 0.0857836321693214 0.0 0.0 0.0 0.2743434418098265 
1.984 0.506665226518665 -1.5707963267948966 -1.5707963267948966 0.0 1.5707963267948966 0.0 0.2743434418098265 0.0 0.0 0.0 0.0 0.0 0.0 0.0 0.0 0.0 0.0 0.0 0.31258902609712336 0.04499050748382306 0.4809 -1.407233712209288 0.8284314917629411 -0.8284314917629412 -0.012342850671882774 0.0857567492914665 0.0 0.0 0.0 0.2743434418098265 
1.992 0.5088599740531435 -1.5707963267948966 -1.5707963267948966 0.0 1.5707963267948966 0.0 0.2743434418098265 0.0 0.0 0.0 0.0 0.0 0.0 0.0 0.0 0.0 0.0 0.0 0.3124895305136668 0.04567645256965658 0.4809 -1.4079159001543449 0.8267539832520141 -0.8267539832520142 -0.01253103520762288 0.08572945333065615 0.0 0.0 0.0 0.2743434418098265 
2.0 0.5110547215876222 -1.5707963267948966 -1.5707963267948966 0.0 1.5707963267948966 0.0 0.2743434418098265 0.0 0.0 0.0 0.0 0.0 0.0 0.0 0.0 0.0 0.0 0.0 0.31238852969476383 0.04636217763590945 0.4809 -1.4085966112614727 0.8250762740009066 -0.8250762740009067 -0.012719159382433964 0.0857017444183727 0.0 0.0 0.0 0.2743434418098265 
2.008 0.5132494691221008 -1.5707963267948966 -1.5707963267948966 0.0 1.5707963267948966 0.0 0.2743434418098265 0.0 0.0 0.0 0.0 0.0 0.0 0.0 0.0 0.0 0.0 0.0 0.31228602412692685 0.04704767937950238 0.4809 -1.409275845964311 0.8233983645100472 -0.8233983645100473 -0.012907222290137887 0.08567362268808763 0.0 0.0 0.0 0.2743434418098265 
2.016 0.5154442166565794 -1.5707963267948966 -1.5707963267948966 0.0 1.5707963267948966 0.0 0.2743434418098265 0.0 0.0 0.0 0.0 0.0 0.0 0.0 0.0 0.0 0.0 0.0 0.31218201430391634 0.047732954498431894 0.4809 -1.4099536046955043 0.8217202552792952 -0.8217202552792953 -0.013095223024851646 0.0856450882752609 0.0 0.0 0.0 0.2743434418098265 
2.024 0.517638964191058 -1.5707963267948966 -1.5707963267948966 0.0 1.5707963267948966 0.0 0.2743434418098265 0.0 0.0 0.0 0.0 0.0 0.0 0.0 0.0 0.0 0.0 0.0 0.31207650072673876 0.04841799969178613 0.4809 -1.4106298878867012 0.8200419468079417 -0.8200419468079418 -0.013283160680991727 0.08561614131734033 0.0 0.0 0.0 0.2743434418098265 
2.032 0.5198337117255366 -1.5707963267948966 -1.5707963267948966 0.0 1.5707963267948966 0.0 0.2743434418098265 0.0 0.0 0.0 0.0 0.0 0.0 0.0 0.0 0.0 0.0 0.0 0.3119694839036441 0.049102811659760735 0.4809 -1.411304695968556 0.8183634395947125 -0.8183634395947126 -0.01347103435327844 0.08558678195376099 0.0 0.0 0.0 0.2743434418098265 
2.04 0.5220284592600153 -1.5707963267948966 -1.5707963267948966 0.0 1.5707963267948966 0.0 0.2743434418098265 0.0 0.0 0.0 0.0 0.0 0.0 0.0 0.0 0.0 0.0 0.0 0.3118609643501232 0.049787387103674835 0.4809 -1.4119780293707287 0.8166847341377669 -0.816684734137767 -0.013658843136740324 0.08555701032594441 0.0 0.0 0.0 0.2743434418098265 
2.048 0.5242232067944939 -1.5707963267948966 -1.5707963267948966 0.0 1.5707963267948966 0.0 0.2743434418098265 0.0 0.0 0.0 0.0 0.0 0.0 0.0 0.0 0.0 0.0 0.0 0.31175094258890557 0.0504717227259868 0.4809 -1.412649888521886 0.8150058309347032 -0.8150058309347034 -0.013846586126718458 0.08552682657729797 0.0 0.0 0.0 0.2743434418098265 
2.056 0.5264179543289724 -1.5707963267948966 -1.5707963267948966 0.0 1.5707963267948966 0.0 0.2743434418098265 0.0 0.0 0.0 0.0 0.0 0.0 0.0 0.0 0.0 0.0 0.0 0.3116394191499566 0.05115581523031025 0.4809 -1.4133202738497015 0.8133267304825568 -0.8133267304825569 -0.014034262418870857 0.08549623085321424 0.0 0.0 0.0 0.2743434418098265 
2.064 0.5286127018634511 -1.5707963267948966 -1.5707963267948966 0.0 1.5707963267948966 0.0 0.2743434418098265 0.0 0.0 0.0 0.0 0.0 0.0 0.0 0.0 0.0 0.0 0.0 0.31152639457047526 0.05183966132142991 0.4809 -1.4139891857808564 0.8116474332778034 -0.8116474332778035 -0.014221871109176821 0.08546522330107023 0.0 0.0 0.0 0.2743434418098265 
2.072 0.5308074493979297 -1.5707963267948966 -1.5707963267948966 0.0 1.5707963267948966 0.0 0.2743434418098265 0.0 0.0 0.0 0.0 0.0 0.0 0.0 0.0 0.0 0.0 0.0 0.31141186939489124 0.05252325770531733 0.4809 -1.41465662474104 0.809967939816361 -0.8099679398163611 -0.014409411293941247 0.08543380407022663 0.0 0.0 0.0 0.2743434418098265 
2.08 0.5330021969324084 -1.5707963267948966 -1.5707963267948966 0.0 1.5707963267948966 0.0 0.2743434418098265 0.0 0.0 0.0 0.0 0.0 0.0 0.0 0.0 0.0 0.0 0.0 0.31129584417486267 0.05320660108914709 0.4809 -1.4153225911549516 0.8082882505935901 -0.8082882505935902 -0.014596882069799077 0.08540197331202726 0.0 0.0 0.0 0.2743434418098265 
2.088 0.5351969444668869 -1.5707963267948966 -1.5707963267948966 0.0 1.5707963267948966 0.0 0.2743434418098265 0.0 0.0 0.0 0.0 0.0 0.0 0.0 0.0 0.0 0.0 0.0 0.311178319469273 0.053889688181312186 0.4809 -1.4159870854462981 0.8066083661042965 -0.8066083661042966 -0.014784282533719514 0.0853697311797981 0.0 0.0 0.0 0.2743434418098265 
2.096 0.5373916920013655 -1.5707963267948966 -1.5707963267948966 0.0 1.5707963267948966 0.0 0.2743434418098265 0.0 0.0 0.0 0.0 0.0 0.0 0.0 0.0 0.0 0.0 0.0 0.3110592958442288 0.05457251569144039 0.4809 -1.4166501080377973 0.8049282868427317 -0.8049282868427318 -0.014971611783010522 0.0853370778288468 0.0 0.0 0.0 0.2743434418098265 
2.104 0.5395864395358442 -1.5707963267948966 -1.5707963267948966 0.0 1.5707963267948966 0.0 0.2743434418098265 0.0 0.0 0.0 0.0 0.0 0.0 0.0 0.0 0.0 0.0 0.0 0.3109387738730568 0.05525508033040975 0.4809 -1.4173116593511788 0.803248013302596 -0.8032480133025961 -0.015158868915323058 0.08530401341646175 0.0 0.0 0.0 0.2743434418098265 
2.112 0.5417811870703227 -1.5707963267948966 -1.5707963267948966 0.0 1.5707963267948966 0.0 0.2743434418098265 0.0 0.0 0.0 0.0 0.0 0.0 0.0 0.0 0.0 0.0 0.0 0.31081675413630094 0.05593737881036449 0.4809 -1.4179717398071818 0.8015675459770388 -0.8015675459770389 -0.015346053028655451 0.08527053810191143 0.0 0.0 0.0 0.2743434418098265 
2.12 0.5439759346048013 -1.5707963267948966 -1.5707963267948966 0.0 1.5707963267948966 0.0 0.2743434418098265 0.0 0.0 0.0 0.0 0.0 0.0 0.0 0.0 0.0 0.0 0.0 0.31069323722172004 0.05661940784473103 0.4809 -1.418630349825558 0.7998868853586607 -0.7998868853586607 -0.015533163221357803 0.08523665204644358 0.0 0.0 0.0 0.2743434418098265 
2.128 0.54617068213928 -1.5707963267948966 -1.5707963267948966 0.0 1.5707963267948966 0.0 0.2743434418098265 0.0 0.0 0.0 0.0 0.0 0.0 0.0 0.0 0.0 0.0 0.0 0.3105682237242844 0.05730116414823359 0.4809 -1.4192874898250707 0.7982060319395142 -0.7982060319395142 -0.015720198592136237 0.08520235541328439 0.0 0.0 0.0 0.2743434418098265 
2.136 0.5483654296737586 -1.5707963267948966 -1.5707963267948966 0.0 1.5707963267948966 0.0 0.2743434418098265 0.0 0.0 0.0 0.0 0.0 0.0 0.0 0.0 0.0 0.0 0.0 0.3104417142461735 0.05798264443691009 0.4809 -1.4199431602234973 0.7965249862111071 -0.7965249862111072 -0.015907158240057305 0.08516764836763789 0.0 0.0 0.0 0.2743434418098265 
2.144 0.5505601772082372 -1.5707963267948966 -1.5707963267948966 0.0 1.5707963267948966 0.0 0.2743434418098265 0.0 0.0 0.0 0.0 0.0 0.0 0.0 0.0 0.0 0.0 0.0 0.31031370939677266 0.05866384542812814 0.4809 -1.4205973614376288 0.7948437486644023 -0.7948437486644024 -0.01609404126455233 0.08513253107668492 0.0 0.0 0.0 0.2743434418098265 
2.152 0.5527549247427158 -1.5707963267948966 -1.5707963267948966 0.0 1.5707963267948966 0.0 0.2743434418098265 0.0 0.0 0.0 0.0 0.0 0.0 0.0 0.0 0.0 0.0 0.0 0.31018420979267036 0.05934476384060049 0.4809 -1.4212500938832688 0.79316231978982 -0.7931623197898201 -0.016280846765421676 0.08509700370958248 0.0 0.0 0.0 0.2743434418098265 
2.16 0.5549496722771944 -1.5707963267948966 -1.5707963267948966 0.0 1.5707963267948966 0.0 0.2743434418098265 0.0 0.0 0.0 0.0 0.0 0.0 0.0 0.0 0.0 0.0 0.0 0.3100532160576551 0.060025396394401215 0.4809 -1.4219013579752378 0.7914807000772395 -0.7914807000772396 -0.01646757384283918 0.08506106643746288 0.0 0.0 0.0 0.2743434418098265 
2.168 0.5571444198116731 -1.5707963267948966 -1.5707963267948966 0.0 1.5707963267948966 0.0 0.2743434418098265 0.0 0.0 0.0 0.0 0.0 0.0 0.0 0.0 0.0 0.0 0.0 0.3099207288227127 0.060705739810981305 0.4809 -1.4225511541273694 0.789798890016 -0.7897988900160001 -0.016654221597356418 0.0850247194334329 0.0 0.0 0.0 0.2743434418098265 
2.176 0.5593391673461516 -1.5707963267948966 -1.5707963267948966 0.0 1.5707963267948966 0.0 0.2743434418098265 0.0 0.0 0.0 0.0 0.0 0.0 0.0 0.0 0.0 0.0 0.0 0.3097867487260227 0.06138579081318441 0.4809 -1.4231994827525145 0.788116890094903 -0.7881168900949032 -0.01684078912990704 0.08498796287257294 0.0 0.0 0.0 0.2743434418098265 
2.184 0.5615339148806303 -1.5707963267948966 -1.5707963267948966 0.0 1.5707963267948966 0.0 0.2743434418098265 0.0 0.0 0.0 0.0 0.0 0.0 0.0 0.0 0.0 0.0 0.0 0.3096512764129559 0.06206554612526288 0.4809 -1.4238463442625409 0.7864347008022134 -0.7864347008022136 -0.01702727554181116 0.08495079693193627 0.0 0.0 0.0 0.2743434418098265 
2.192 0.5637286624151089 -1.5707963267948966 -1.5707963267948966 0.0 1.5707963267948966 0.0 0.2743434418098265 0.0 0.0 0.0 0.0 0.0 0.0 0.0 0.0 0.0 0.0 0.0 0.309514312536071 0.06274500247289325 0.4809 -1.4244917390683318 0.7847523226256614 -0.7847523226256615 -0.017213679934779607 0.08491322179054804 0.0 0.0 0.0 0.2743434418098265 
2.2 0.5659234099495875 -1.5707963267948966 -1.5707963267948966 0.0 1.5707963267948966 0.0 0.2743434418098265 0.0 0.0 0.0 0.0 0.0 0.0 0.0 0.0 0.0 0.0 0.0 0.30937585775511106 0.06342415658319212 0.4809 -1.4251356675797888 0.7830697560524431 -0.7830697560524432 -0.01740000141091829 0.08487523762940448 0.0 0.0 0.0 0.2743434418098265 
2.208 0.5681181574840661 -1.5707963267948966 -1.5707963267948966 0.0 1.5707963267948966 0.0 0.2743434418098265 0.0 0.0 0.0 0.0 0.0 0.0 0.0 0.0 0.0 0.0 0.0 0.30923591273700113 0.06410300518473208 0.4809 -1.4257781302058326 0.7813870015692227 -0.7813870015692228 -0.017586239072732553 0.08483684463147205 0.0 0.0 0.0 0.2743434418098265 
2.216 0.5703129050185447 -1.5707963267948966 -1.5707963267948966 0.0 1.5707963267948966 0.0 0.2743434418098265 0.0 0.0 0.0 0.0 0.0 0.0 0.0 0.0 0.0 0.0 0.0 0.30909447815584445 0.06478154500755723 0.4809 -1.426419127354401 0.7797040596621345 -0.7797040596621346 -0.017772392023131432 0.0847980429816866 0.0 0.0 0.0 0.2743434418098265 
2.224 0.5725076525530234 -1.5707963267948966 -1.5707963267948966 0.0 1.5707963267948966 0.0 0.2743434418098265 0.0 0.0 0.0 0.0 0.0 0.0 0.0 0.0 0.0 0.0 0.0 0.30895155469291935 0.06545977278319905 0.4809 -1.4270586594324521 0.7780209308167838 -0.7780209308167839 -0.01795845936543203 0.08475883286695235 0.0 0.0 0.0 0.2743434418098265 
2.232 0.574702400087502 -1.5707963267948966 -1.5707963267948966 0.0 1.5707963267948966 0.0 0.2743434418098265 0.0 0.0 0.0 0.0 0.0 0.0 0.0 0.0 0.0 0.0 0.0 0.3088071430366759 0.06613768524469207 0.4809 -1.427696726845964 0.7763376155182482 -0.7763376155182483 -0.0181444402033638 0.08471921447614106 0.0 0.0 0.0 0.2743434418098265 
2.24 0.5768971476219805 -1.5707963267948966 -1.5707963267948966 0.0 1.5707963267948966 0.0 0.2743434418098265 0.0 0.0 0.0 0.0 0.0 0.0 0.0 0.0 0.0 0.0 0.0 0.30866124388273286 0.06681527912658981 0.4809 -1.4283333299999352 0.7746541142510794 -0.7746541142510796 -0.018330333641072907 0.0846791880000912 0.0 0.0 0.0 0.2743434418098265 
2.248 0.5790918951564592 -1.5707963267948966 -1.5707963267948966 0.0 1.5707963267948966 0.0 0.2743434418098265 0.0 0.0 0.0 0.0 0.0 0.0 0.0 0.0 0.0 0.0 0.0 0.30851385793387387 0.06749255116498024 0.4809 -1.4289684692983846 0.7729704274993056 -0.7729704274993057 -0.018516138783126492 0.0846387536316068 0.0 0.0 0.0 0.2743434418098265 
2.256 0.5812866426909378 -1.5707963267948966 -1.5707963267948966 0.0 1.5707963267948966 0.0 0.2743434418098265 0.0 0.0 0.0 0.0 0.0 0.0 0.0 0.0 0.0 0.0 0.0 0.30836498590004463 0.0681694980975016 0.4809 -1.4296021451443541 0.7712865557464312 -0.7712865557464313 -0.01870185473451701 0.08459791156545686 0.0 0.0 0.0 0.2743434418098265 
2.264 0.5834813902254165 -1.5707963267948966 -1.5707963267948966 0.0 1.5707963267948966 0.0 0.2743434418098265 0.0 0.0 0.0 0.0 0.0 0.0 0.0 0.0 0.0 0.0 0.0 0.30821462849834896 0.06884611666335821 0.4809 -1.4302343579399057 0.7696024994754399 -0.76960249947544 -0.018887480600666542 0.0845566619983741 0.0 0.0 0.0 0.2743434418098265 
2.272 0.585676137759895 -1.5707963267948966 -1.5707963267948966 0.0 1.5707963267948966 0.0 0.2743434418098265 0.0 0.0 0.0 0.0 0.0 0.0 0.0 0.0 0.0 0.0 0.0 0.30806278645304563 0.06952240360333609 0.4809 -1.4308651080861263 0.7679182591687955 -0.7679182591687955 -0.019073015487431105 0.08451500512905413 0.0 0.0 0.0 0.2743434418098265 
2.28 0.5878708852943736 -1.5707963267948966 -1.5707963267948966 0.0 1.5707963267948966 0.0 0.2743434418098265 0.0 0.0 0.0 0.0 0.0 0.0 0.0 0.0 0.0 0.0 0.0 0.307909460495545 0.07019835565981868 0.4809 -1.4314943959831252 0.7662338353084432 -0.7662338353084434 -0.01925845850110497 0.08447294115815462 0.0 0.0 0.0 0.2743434418098265 
2.288 0.5900656328288523 -1.5707963267948966 -1.5707963267948966 0.0 1.5707963267948966 0.0 0.2743434418098265 0.0 0.0 0.0 0.0 0.0 0.0 0.0 0.0 0.0 0.0 0.0 0.30775465136440494 0.0708739695768025 0.4809 -1.4321222220300351 0.764549228375812 -0.7645492283758121 -0.019443808748424933 0.08443047028829408 0.0 0.0 0.0 0.2743434418098265 
2.296 0.5922603803633308 -1.5707963267948966 -1.5707963267948966 0.0 1.5707963267948966 0.0 0.2743434418098265 0.0 0.0 0.0 0.0 0.0 0.0 0.0 0.0 0.0 0.0 0.0 0.307598359805328 0.07154924209991288 0.4809 -1.432748586625014 0.7628644388518151 -0.7628644388518152 -0.019629065336574637 0.08438759272405108 0.0 0.0 0.0 0.2743434418098265 
2.304 0.5944551278978095 -1.5707963267948966 -1.5707963267948966 0.0 1.5707963267948966 0.0 0.2743434418098265 0.0 0.0 0.0 0.0 0.0 0.0 0.0 0.0 0.0 0.0 0.0 0.30744058657115725 0.07222416997641957 0.4809 -1.4333734901652446 0.7611794672168525 -0.7611794672168526 -0.019814227373188883 0.0843443086719632 0.0 0.0 0.0 0.2743434418098265 
2.312 0.596649875432288 -1.5707963267948966 -1.5707963267948966 0.0 1.5707963267948966 0.0 0.2743434418098265 0.0 0.0 0.0 0.0 0.0 0.0 0.0 0.0 0.0 0.0 0.0 0.30728133242187294 0.07289874995525249 0.4809 -1.4339969330469344 0.7594943139508115 -0.7594943139508116 -0.019999293966357905 0.08430061834052606 0.0 0.0 0.0 0.2743434418098265 
2.32 0.5988446229667665 -1.5707963267948966 -1.5707963267948966 0.0 1.5707963267948966 0.0 0.2743434418098265 0.0 0.0 0.0 0.0 0.0 0.0 0.0 0.0 0.0 0.0 0.0 0.30712059812458864 0.07357297878701738 0.4809 -1.4346189156653184 0.7578089795330685 -0.7578089795330686 -0.020184264224631703 0.08425652194019219 0.0 0.0 0.0 0.2743434418098265 
2.328 0.6010393705012452 -1.5707963267948966 -1.5707963267948966 0.0 1.5707963267948966 0.0 0.2743434418098265 0.0 0.0 0.0 0.0 0.0 0.0 0.0 0.0 0.0 0.0 0.0 0.30695838445354784 0.0742468532240114 0.4809 -1.4352394384146576 0.756123464442491 -0.7561234644424911 -0.0203691372570243 0.08421201968337025 0.0 0.0 0.0 0.2743434418098265 
2.336 0.6032341180357238 -1.5707963267948966 -1.5707963267948966 0.0 1.5707963267948966 0.0 0.2743434418098265 0.0 0.0 0.0 0.0 0.0 0.0 0.0 0.0 0.0 0.0 0.0 0.30679469219012 0.0749203700202388 0.4809 -1.4358585016882404 0.7544377691574387 -0.7544377691574388 -0.020553912173018052 0.08416711178442382 0.0 0.0 0.0 0.2743434418098265 
2.344 0.6054288655702024 -1.5707963267948966 -1.5707963267948966 0.0 1.5707963267948966 0.0 0.2743434418098265 0.0 0.0 0.0 0.0 0.0 0.0 0.0 0.0 0.0 0.0 0.0 0.3066295221227968 0.0755935259314265 0.4809 -1.436476105878382 0.7527518941557646 -0.7527518941557646 -0.020738588082567917 0.08412179845967041 0.0 0.0 0.0 0.2743434418098265 
2.352 0.607623613104681 -1.5707963267948966 -1.5707963267948966 0.0 1.5707963267948966 0.0 0.2743434418098265 0.0 0.0 0.0 0.0 0.0 0.0 0.0 0.0 0.0 0.0 0.0 0.3064628750471884 0.07626631771503993 0.4809 -1.437092251376428 0.7510658399148176 -0.7510658399148177 -0.020923164096105798 0.08407607992738046 0.0 0.0 0.0 0.2743434418098265 
2.36 0.6098183606391596 -1.5707963267948966 -1.5707963267948966 0.0 1.5707963267948966 0.0 0.2743434418098265 0.0 0.0 0.0 0.0 0.0 0.0 0.0 0.0 0.0 0.0 0.0 0.3062947517660194 0.07693874213029828 0.4809 -1.4377069385727508 0.7493796069114421 -0.7493796069114422 -0.021107639324544732 0.08402995640777619 0.0 0.0 0.0 0.2743434418098265 
2.368 0.6120131081736383 -1.5707963267948966 -1.5707963267948966 0.0 1.5707963267948966 0.0 0.2743434418098265 0.0 0.0 0.0 0.0 0.0 0.0 0.0 0.0 0.0 0.0 0.0 0.3061251530891255 0.07761079593819045 0.4809 -1.4383201678567537 0.7476931956219821 -0.7476931956219822 -0.02129201287928327 0.08398342812303074 0.0 0.0 0.0 0.2743434418098265 
2.376 0.6142078557081169 -1.5707963267948966 -1.5707963267948966 0.0 1.5707963267948966 0.0 0.2743434418098265 0.0 0.0 0.0 0.0 0.0 0.0 0.0 0.0 0.0 0.0 0.0 0.30595407983344913 0.07828247590149051 0.4809 -1.438931939616869 0.74600660652228 -0.7460066065222801 -0.02147628387220971 0.08393649529726686 0.0 0.0 0.0 0.2743434418098265 
2.384 0.6164026032425954 -1.5707963267948966 -1.5707963267948966 0.0 1.5707963267948966 0.0 0.2743434418098265 0.0 0.0 0.0 0.0 0.0 0.0 0.0 0.0 0.0 0.0 0.0 0.30578153282303533 0.07895377878477336 0.4809 -1.439542254240561 0.7443198400876802 -0.7443198400876803 -0.021660451415706383 0.08388915815655594 0.0 0.0 0.0 0.2743434418098265 
2.392 0.6185973507770741 -1.5707963267948966 -1.5707963267948966 0.0 1.5707963267948966 0.0 0.2743434418098265 0.0 0.0 0.0 0.0 0.0 0.0 0.0 0.0 0.0 0.0 0.0 0.30560751288902865 0.07962470135443012 0.4809 -1.4401511121143231 0.7426328967930288 -0.7426328967930289 -0.021844514622653913 0.08384141692891704 0.0 0.0 0.0 0.2743434418098265 
2.4 0.6207920983115527 -1.5707963267948966 -1.5707963267948966 0.0 1.5707963267948966 0.0 0.2743434418098265 0.0 0.0 0.0 0.0 0.0 0.0 0.0 0.0 0.0 0.0 0.0 0.30543202086966803 0.08029524037868395 0.4809 -1.440758513623682 0.740945777112677 -0.7409457771126771 -0.022028472606435513 0.08379327184431548 0.0 0.0 0.0 0.2743434418098265 
