Fleaurent/UniversalRobot/csv/ursim_movej_Dreieck.csv
timestamp target_q_0 target_q_1 target_q_2 target_q_3 target_q_4 target_q_5 target_qd_0 target_qd_1 target_qd_2 target_qd_3 target_qd_4 target_qd_5 target_qdd_0 target_qdd_1 target_qdd_2 target_qdd_3 target_qdd_4 target_qdd_5 target_current_0 target_current_1 target_current_2 target_current_3 target_current_4 target_current_5 target_moment_0 target_moment_1 target_moment_2 target_moment_3 target_moment_4 target_moment_5 actual_q_0 actual_q_1 actual_q_2 actual_q_3 actual_q_4 actual_q_5 actual_qd_0 actual_qd_1 actual_qd_2 actual_qd_3 actual_qd_4 actual_qd_5 actual_current_0 actual_current_1 actual_current_2 actual_current_3 actual_current_4 actual_current_5 joint_control_output_0 joint_control_output_1 joint_control_output_2 joint_control_output_3 joint_control_output_4 joint_control_output_5 actual_TCP_pose_0 actual_TCP_pose_1 actual_TCP_pose_2 actual_TCP_pose_3 actual_TCP_pose_4 actual_TCP_pose_5 actual_TCP_speed_0 actual_TCP_speed_1 actual_TCP_speed_2 actual_TCP_speed_3 actual_TCP_speed_4 actual_TCP_speed_5 actual_TCP_force_0 actual_TCP_force_1 actual_TCP_force_2 actual_TCP_force_3 actual_TCP_force_4 actual_TCP_force_5 target_TCP_pose_0 target_TCP_pose_1 target_TCP_pose_2 target_TCP_pose_3 target_TCP_pose_4 target_TCP_pose_5 target_TCP_speed_0 target_TCP_speed_1 target_TCP_speed_2 target_TCP_speed_3 target_TCP_speed_4 target_TCP_speed_5
5671.504 0.0 -1.5707963267948966 -1.5707963267948966 0.0 1.5707963267948966 2.974790577394575e-69 0.0 0.0 0.0 0.0 0.0 0.0 0.0 0.0 0.0 0.0 0.0 0.0 -1.6018983243994446e-26 0.4870342307692309 0.6867077006507593 0.06409467546754684 -8.567713817370151e-28 0.0 -2.1032924999364705e-25 6.394759450000002 6.3947594500000005 0.2913103000000004 -3.894025929994733e-27 0.0 0.0 -1.570796314870016 -1.570796314870016 0.0 1.5707963705062866 0.0 0.0 0.0 0.0 0.0 0.0 0.0 -1.6018983942199055e-26 0.48703423142433167 0.6867076754570007 0.064094677567482 -8.567714098795418e-28 0.0 -1.6018983942199055e-26 0.48703423142433167 0.6867076754570007 0.064094677567482 -8.567714098795418e-28 0.0 0.2951499950589256 -0.11234999647001062 0.4809000069994156 -1.2091995794109558 1.2091995265551612 -1.2091995551462715 0.0 0.0 0.0 0.0 0.0 0.0 9.98197363699075e-07 -5.258967243140419e-07 1.1449168978424651e-06 -1.810306069369398e-15 1.8116749963478e-08 4.307094529482943e-08 0.2951500000000001 -0.11235000004997346 0.4808999999601586 -1.2091995763071834 1.2091995763071837 -1.2091995760591723 0.0 0.0 0.0 0.0 0.0 0.0
5671.512 0.0 -1.5707963267948966 -1.5707963267948966 0.0 1.5707963267948966 2.974790577394575e-69 0.0 0.0 0.0 0.0 0.0 0.0 0.0 0.0 0.0 0.0 0.0 0.0 -1.6018983243994446e-26 0.4870342307692309 0.6867077006507593 0.06409467546754684 -8.567713817370151e-28 0.0 -2.1032924999364705e-25 6.394759450000002 6.3947594500000005 0.2913103000000004 -3.894025929994733e-27 0.0 0.0 -1.570796314870016 -1.570796314870016 0.0 1.5707963705062866 0.0 0.0 0.0 0.0 0.0 0.0 0.0 -1.6018983942199055e-26 0.48703423142433167 0.6867076754570007 0.064094677567482 -8.567714098795418e-28 0.0 -1.6018983942199055e-26 0.48703423142433167 0.6867076754570007 0.064094677567482 -8.567714098795418e-28 0.0 0.2951499950589256 -0.11234999647001062 0.4809000069994156 -1.2091995794109558 1.2091995265551612 -1.2091995551462715 0.0 0.0 0.0 0.0 0.0 0.0 9.98197363699075e-07 -5.258967243140419e-07 1.1449168978424651e-06 -1.810306069369398e-15 1.8116749963478e-08 4.307094529482943e-08 0.2951500000000001 -0.11235000004997346 0.4808999999601586 -1.2091995763071834 1.2091995763071837 -1.2091995760591723 0.0 0.0 0.0 0.0 0.0 0.0
5671.5199999999995 0.0 -1.5707963267948966 -1.5707963267948966 0.0 1.5707963267948966 2.974790577394575e-69 0.0 0.0 0.0 0.0 0.0 0.0 0.0 0.0 0.0 0.0 0.0 0.0 -1.6018983243994446e-26 0.4870342307692309 0.6867077006507593 0.06409467546754684 -8.567713817370151e-28 0.0 -2.1032924999364705e-25 6.394759450000002 6.3947594500000005 0.2913103000000004 -3.894025929994733e-27 0.0 0.0 -1.570796314870016 -1.570796314870016 0.0 1.5707963705062866 0.0 0.0 0.0 0.0 0.0 0.0 0.0 -1.6018983942199055e-26 0.48703423142433167 0.6867076754570007 0.064094677567482 -8.567714098795418e-28 0.0 -1.6018983942199055e-26 0.48703423142433167 0.6867076754570007 0.064094677567482 -8.567714098795418e-28 0.0 0.2951499950589256 -0.11234999647001062 0.4809000069994156 -1.2091995794109558 1.2091995265551612 -1.2091995551462715 0.0 0.0 0.0 0.0 0.0 0.0 9.98197363699075e-07 -5.258967243140419e-07 1.1449168978424651e-06 -1.810306069369398e-15 1.8116749963478e-08 4.307094529482943e-08 0.2951500000000001 -0.11235000004997346 0.4808999999601586 -1.2091995763071834 1.2091995763071837 -1.2091995760591723 0.0 0.0 0.0 0.0 0.0 0.0
5671.527999999999 0.0 -1.5707963267948966 -1.5707963267948966 0.0 1.5707963267948966 2.974790577394575e-69 0.0 0.0 0.0 0.0 0.0 0.0 0.0 0.0 0.0 0.0 0.0 0.0 -1.6018983243994446e-26 0.4870342307692309 0.6867077006507593 0.06409467546754684 -8.567713817370151e-28 0.0 -2.1032924999364705e-25 6.394759450000002 6.3947594500000005 0.2913103000000004 -3.894025929994733e-27 0.0 0.0 -1.570796314870016 -1.570796314870016 0.0 1.5707963705062866 0.0 0.0 0.0 0.0 0.0 0.0 0.0 -1.6018983942199055e-26 0.48703423142433167 0.6867076754570007 0.064094677567482 -8.567714098795418e-28 0.0 -1.6018983942199055e-26 0.48703423142433167 0.6867076754570007 0.064094677567482 -8.567714098795418e-28 0.0 0.2951499950589256 -0.11234999647001062 0.4809000069994156 -1.2091995794109558 1.2091995265551612 -1.2091995551462715 0.0 0.0 0.0 0.0 0.0 0.0 9.98197363699075e-07 -5.258967243140419e-07 1.1449168978424651e-06 -1.810306069369398e-15 1.8116749963478e-08 4.307094529482943e-08 0.2951500000000001 -0.11235000004997346 0.4808999999601586 -1.2091995763071834 1.2091995763071837 -1.2091995760591723 0.0 0.0 0.0 0.0 0.0 0.0
5671.536 0.0 -1.5707963267948966 -1.5707963267948966 0.0 1.5707963267948966 2.974790577394575e-69 0.0 0.0 0.0 0.0 0.0 0.0 0.0 0.0 0.0 0.0 0.0 0.0 -1.6018983243994446e-26 0.4870342307692309 0.6867077006507593 0.06409467546754684 -8.567713817370151e-28 0.0 -2.1032924999364705e-25 6.394759450000002 6.3947594500000005 0.2913103000000004 -3.894025929994733e-27 0.0 0.0 -1.570796314870016 -1.570796314870016 0.0 1.5707963705062866 0.0 0.0 0.0 0.0 0.0 0.0 0.0 -1.6018983942199055e-26 0.48703423142433167 0.6867076754570007 0.064094677567482 -8.567714098795418e-28 0.0 -1.6018983942199055e-26 0.48703423142433167 0.6867076754570007 0.064094677567482 -8.567714098795418e-28 0.0 0.2951499950589256 -0.11234999647001062 0.4809000069994156 -1.2091995794109558 1.2091995265551612 -1.2091995551462715 0.0 0.0 0.0 0.0 0.0 0.0 9.98197363699075e-07 -5.258967243140419e-07 1.1449168978424651e-06 -1.810306069369398e-15 1.8116749963478e-08 4.307094529482943e-08 0.2951500000000001 -0.11235000004997346 0.4808999999601586 -1.2091995763071834 1.2091995763071837 -1.2091995760591723 0.0 0.0 0.0 0.0 0.0 0.0
5671.544 0.0 -1.5707963267948966 -1.5707963267948966 0.0 1.5707963267948966 2.974790577394575e-69 0.0 0.0 0.0 0.0 0.0 0.0 0.0 0.0 0.0 0.0 0.0 0.0 -1.6018983243994446e-26 0.4870342307692309 0.6867077006507593 0.06409467546754684 -8.567713817370151e-28 0.0 -2.1032924999364705e-25 6.394759450000002 6.3947594500000005 0.2913103000000004 -3.894025929994733e-27 0.0 0.0 -1.570796314870016 -1.570796314870016 0.0 1.5707963705062866 0.0 0.0 0.0 0.0 0.0 0.0 0.0 -1.6018983942199055e-26 0.48703423142433167 0.6867076754570007 0.064094677567482 -8.567714098795418e-28 0.0 -1.6018983942199055e-26 0.48703423142433167 0.6867076754570007 0.064094677567482 -8.567714098795418e-28 0.0 0.2951499950589256 -0.11234999647001062 0.4809000069994156 -1.2091995794109558 1.2091995265551612 -1.2091995551462715 0.0 0.0 0.0 0.0 0.0 0.0 9.98197363699075e-07 -5.258967243140419e-07 1.1449168978424651e-06 -1.810306069369398e-15 1.8116749963478e-08 4.307094529482943e-08 0.2951500000000001 -0.11235000004997346 0.4808999999601586 -1.2091995763071834 1.2091995763071837 -1.2091995760591723 0.0 0.0 0.0 0.0 0.0 0.0
5671.552 0.0 -1.5707963267948966 -1.5707963267948966 0.0 1.5707963267948966 2.974790577394575e-69 0.0 0.0 0.0 0.0 0.0 0.0 0.0 0.0 0.0 0.0 0.0 0.0 -1.6018983243994446e-26 0.4870342307692309 0.6867077006507593 0.06409467546754684 -8.567713817370151e-28 0.0 -2.1032924999364705e-25 6.394759450000002 6.3947594500000005 0.2913103000000004 -3.894025929994733e-27 0.0 0.0 -1.570796314870016 -1.570796314870016 0.0 1.5707963705062866 0.0 0.0 0.0 0.0 0.0 0.0 0.0 -1.6018983942199055e-26 0.48703423142433167 0.6867076754570007 0.064094677567482 -8.567714098795418e-28 0.0 -1.6018983942199055e-26 0.48703423142433167 0.6867076754570007 0.064094677567482 -8.567714098795418e-28 0.0 0.2951499950589256 -0.11234999647001062 0.4809000069994156 -1.2091995794109558 1.2091995265551612 -1.2091995551462715 0.0 0.0 0.0 0.0 0.0 0.0 9.98197363699075e-07 -5.258967243140419e-07 1.1449168978424651e-06 -1.810306069369398e-15 1.8116749963478e-08 4.307094529482943e-08 0.2951500000000001 -0.11235000004997346 0.4808999999601586 -1.2091995763071834 1.2091995763071837 -1.2091995760591723 0.0 0.0 0.0 0.0 0.0 0.0
5671.5599999999995 0.0 -1.5707963267948966 -1.5707963267948966 0.0 1.5707963267948966 2.974790577394575e-69 0.0 0.0 0.0 0.0 0.0 0.0 0.0 0.0 0.0 0.0 0.0 0.0 -1.6018983243994446e-26 0.4870342307692309 0.6867077006507593 0.06409467546754684 -8.567713817370151e-28 0.0 -2.1032924999364705e-25 6.394759450000002 6.3947594500000005 0.2913103000000004 -3.894025929994733e-27 0.0 0.0 -1.570796314870016 -1.570796314870016 0.0 1.5707963705062866 0.0 0.0 0.0 0.0 0.0 0.0 0.0 -1.6018983942199055e-26 0.48703423142433167 0.6867076754570007 0.064094677567482 -8.567714098795418e-28 0.0 -1.6018983942199055e-26 0.48703423142433167 0.6867076754570007 0.064094677567482 -8.567714098795418e-28 0.0 0.2951499950589256 -0.11234999647001062 0.4809000069994156 -1.2091995794109558 1.2091995265551612 -1.2091995551462715 0.0 0.0 0.0 0.0 0.0 0.0 9.98197363699075e-07 -5.258967243140419e-07 1.1449168978424651e-06 -1.810306069369398e-15 1.8116749963478e-08 4.307094529482943e-08 0.2951500000000001 -0.11235000004997346 0.4808999999601586 -1.2091995763071834 1.2091995763071837 -1.2091995760591723 0.0 0.0 0.0 0.0 0.0 0.0
5671.567999999999 0.0 -1.5707963267948966 -1.5707963267948966 0.0 1.5707963267948966 2.974790577394575e-69 0.0 0.0 0.0 0.0 0.0 0.0 0.0 0.0 0.0 0.0 0.0 0.0 -1.6018983243994446e-26 0.4870342307692309 0.6867077006507593 0.06409467546754684 -8.567713817370151e-28 0.0 -2.1032924999364705e-25 6.394759450000002 6.3947594500000005 0.2913103000000004 -3.894025929994733e-27 0.0 0.0 -1.570796314870016 -1.570796314870016 0.0 1.5707963705062866 0.0 0.0 0.0 0.0 0.0 0.0 0.0 -1.6018983942199055e-26 0.48703423142433167 0.6867076754570007 0.064094677567482 -8.567714098795418e-28 0.0 -1.6018983942199055e-26 0.48703423142433167 0.6867076754570007 0.064094677567482 -8.567714098795418e-28 0.0 0.2951499950589256 -0.11234999647001062 0.4809000069994156 -1.2091995794109558 1.2091995265551612 -1.2091995551462715 0.0 0.0 0.0 0.0 0.0 0.0 9.98197363699075e-07 -5.258967243140419e-07 1.1449168978424651e-06 -1.810306069369398e-15 1.8116749963478e-08 4.307094529482943e-08 0.2951500000000001 -0.11235000004997346 0.4808999999601586 -1.2091995763071834 1.2091995763071837 -1.2091995760591723 0.0 0.0 0.0 0.0 0.0 0.0
5671.576 0.0 -1.5707963267948966 -1.5707963267948966 0.0 1.5707963267948966 2.974790577394575e-69 0.0 0.0 0.0 0.0 0.0 0.0 0.0 0.0 0.0 0.0 0.0 0.0 -1.6018983243994446e-26 0.4870342307692309 0.6867077006507593 0.06409467546754684 -8.567713817370151e-28 0.0 -2.1032924999364705e-25 6.394759450000002 6.3947594500000005 0.2913103000000004 -3.894025929994733e-27 0.0 0.0 -1.570796314870016 -1.570796314870016 0.0 1.5707963705062866 0.0 0.0 0.0 0.0 0.0 0.0 0.0 -1.6018983942199055e-26 0.48703423142433167 0.6867076754570007 0.064094677567482 -8.567714098795418e-28 0.0 -1.6018983942199055e-26 0.48703423142433167 0.6867076754570007 0.064094677567482 -8.567714098795418e-28 0.0 0.2951499950589256 -0.11234999647001062 0.4809000069994156 -1.2091995794109558 1.2091995265551612 -1.2091995551462715 0.0 0.0 0.0 0.0 0.0 0.0 9.98197363699075e-07 -5.258967243140419e-07 1.1449168978424651e-06 -1.810306069369398e-15 1.8116749963478e-08 4.307094529482943e-08 0.2951500000000001 -0.11235000004997346 0.4808999999601586 -1.2091995763071834 1.2091995763071837 -1.2091995760591723 0.0 0.0 0.0 0.0 0.0 0.0
5671.584 0.0 -1.5707963267948966 -1.5707963267948966 0.0 1.5707963267948966 2.974790577394575e-69 0.0 0.0 0.0 0.0 0.0 0.0 0.0 0.0 0.0 0.0 0.0 0.0 -1.6018983243994446e-26 0.4870342307692309 0.6867077006507593 0.06409467546754684 -8.567713817370151e-28 0.0 -2.1032924999364705e-25 6.394759450000002 6.3947594500000005 0.2913103000000004 -3.894025929994733e-27 0.0 0.0 -1.570796314870016 -1.570796314870016 0.0 1.5707963705062866 0.0 0.0 0.0 0.0 0.0 0.0 0.0 -1.6018983942199055e-26 0.48703423142433167 0.6867076754570007 0.064094677567482 -8.567714098795418e-28 0.0 -1.6018983942199055e-26 0.48703423142433167 0.6867076754570007 0.064094677567482 -8.567714098795418e-28 0.0 0.2951499950589256 -0.11234999647001062 0.4809000069994156 -1.2091995794109558 1.2091995265551612 -1.2091995551462715 0.0 0.0 0.0 0.0 0.0 0.0 9.98197363699075e-07 -5.258967243140419e-07 1.1449168978424651e-06 -1.810306069369398e-15 1.8116749963478e-08 4.307094529482943e-08 0.2951500000000001 -0.11235000004997346 0.4808999999601586 -1.2091995763071834 1.2091995763071837 -1.2091995760591723 0.0 0.0 0.0 0.0 0.0 0.0
5671.592 0.0 -1.5707963267948966 -1.5707963267948966 0.0 1.5707963267948966 2.974790577394575e-69 0.0 0.0 0.0 0.0 0.0 0.0 0.0 0.0 0.0 0.0 0.0 0.0 -1.6018983243994446e-26 0.4870342307692309 0.6867077006507593 0.06409467546754684 -8.567713817370151e-28 0.0 -2.1032924999364705e-25 6.394759450000002 6.3947594500000005 0.2913103000000004 -3.894025929994733e-27 0.0 0.0 -1.570796314870016 -1.570796314870016 0.0 1.5707963705062866 0.0 0.0 0.0 0.0 0.0 0.0 0.0 -1.6018983942199055e-26 0.48703423142433167 0.6867076754570007 0.064094677567482 -8.567714098795418e-28 0.0 -1.6018983942199055e-26 0.48703423142433167 0.6867076754570007 0.064094677567482 -8.567714098795418e-28 0.0 0.2951499950589256 -0.11234999647001062 0.4809000069994156 -1.2091995794109558 1.2091995265551612 -1.2091995551462715 0.0 0.0 0.0 0.0 0.0 0.0 9.98197363699075e-07 -5.258967243140419e-07 1.1449168978424651e-06 -1.810306069369398e-15 1.8116749963478e-08 4.307094529482943e-08 0.2951500000000001 -0.11235000004997346 0.4808999999601586 -1.2091995763071834 1.2091995763071837 -1.2091995760591723 0.0 0.0 0.0 0.0 0.0 0.0
5671.599999999999 0.0 -1.5707963267948966 -1.5707963267948966 0.0 1.5707963267948966 2.974790577394575e-69 0.0 0.0 0.0 0.0 0.0 0.0 0.0 0.0 0.0 0.0 0.0 0.0 -1.6018983243994446e-26 0.4870342307692309 0.6867077006507593 0.06409467546754684 -8.567713817370151e-28 0.0 -2.1032924999364705e-25 6.394759450000002 6.3947594500000005 0.2913103000000004 -3.894025929994733e-27 0.0 0.0 -1.570796314870016 -1.570796314870016 0.0 1.5707963705062866 0.0 0.0 0.0 0.0 0.0 0.0 0.0 -1.6018983942199055e-26 0.48703423142433167 0.6867076754570007 0.064094677567482 -8.567714098795418e-28 0.0 -1.6018983942199055e-26 0.48703423142433167 0.6867076754570007 0.064094677567482 -8.567714098795418e-28 0.0 0.2951499950589256 -0.11234999647001062 0.4809000069994156 -1.2091995794109558 1.2091995265551612 -1.2091995551462715 0.0 0.0 0.0 0.0 0.0 0.0 9.98197363699075e-07 -5.258967243140419e-07 1.1449168978424651e-06 -1.810306069369398e-15 1.8116749963478e-08 4.307094529482943e-08 0.2951500000000001 -0.11235000004997346 0.4808999999601586 -1.2091995763071834 1.2091995763071837 -1.2091995760591723 0.0 0.0 0.0 0.0 0.0 0.0
5671.608 0.0 -1.5707963267948966 -1.5707963267948966 0.0 1.5707963267948966 2.974790577394575e-69 0.0 0.0 0.0 0.0 0.0 0.0 0.0 0.0 0.0 0.0 0.0 0.0 -1.6018983243994446e-26 0.4870342307692309 0.6867077006507593 0.06409467546754684 -8.567713817370151e-28 0.0 -2.1032924999364705e-25 6.394759450000002 6.3947594500000005 0.2913103000000004 -3.894025929994733e-27 0.0 0.0 -1.570796314870016 -1.570796314870016 0.0 1.5707963705062866 0.0 0.0 0.0 0.0 0.0 0.0 0.0 -1.6018983942199055e-26 0.48703423142433167 0.6867076754570007 0.064094677567482 -8.567714098795418e-28 0.0 -1.6018983942199055e-26 0.48703423142433167 0.6867076754570007 0.064094677567482 -8.567714098795418e-28 0.0 0.2951499950589256 -0.11234999647001062 0.4809000069994156 -1.2091995794109558 1.2091995265551612 -1.2091995551462715 0.0 0.0 0.0 0.0 0.0 0.0 9.98197363699075e-07 -5.258967243140419e-07 1.1449168978424651e-06 -1.810306069369398e-15 1.8116749963478e-08 4.307094529482943e-08 0.2951500000000001 -0.11235000004997346 0.4808999999601586 -1.2091995763071834 1.2091995763071837 -1.2091995760591723 0.0 0.0 0.0 0.0 0.0 0.0
5671.616 0.0 -1.5707963267948966 -1.5707963267948966 0.0 1.5707963267948966 2.974790577394575e-69 0.0 0.0 0.0 0.0 0.0 0.0 0.0 0.0 0.0 0.0 0.0 0.0 -1.6018983243994446e-26 0.4870342307692309 0.6867077006507593 0.06409467546754684 -8.567713817370151e-28 0.0 -2.1032924999364705e-25 6.394759450000002 6.3947594500000005 0.2913103000000004 -3.894025929994733e-27 0.0 0.0 -1.570796314870016 -1.570796314870016 0.0 1.5707963705062866 0.0 0.0 0.0 0.0 0.0 0.0 0.0 -1.6018983942199055e-26 0.48703423142433167 0.6867076754570007 0.064094677567482 -8.567714098795418e-28 0.0 -1.6018983942199055e-26 0.48703423142433167 0.6867076754570007 0.064094677567482 -8.567714098795418e-28 0.0 0.2951499950589256 -0.11234999647001062 0.4809000069994156 -1.2091995794109558 1.2091995265551612 -1.2091995551462715 0.0 0.0 0.0 0.0 0.0 0.0 9.98197363699075e-07 -5.258967243140419e-07 1.1449168978424651e-06 -1.810306069369398e-15 1.8116749963478e-08 4.307094529482943e-08 0.2951500000000001 -0.11235000004997346 0.4808999999601586 -1.2091995763071834 1.2091995763071837 -1.2091995760591723 0.0 0.0 0.0 0.0 0.0 0.0
5671.624 0.0 -1.5707963267948966 -1.5707963267948966 0.0 1.5707963267948966 2.974790577394575e-69 0.0 0.0 0.0 0.0 0.0 0.0 0.0 0.0 0.0 0.0 0.0 0.0 -1.6018983243994446e-26 0.4870342307692309 0.6867077006507593 0.06409467546754684 -8.567713817370151e-28 0.0 -2.1032924999364705e-25 6.394759450000002 6.3947594500000005 0.2913103000000004 -3.894025929994733e-27 0.0 0.0 -1.570796314870016 -1.570796314870016 0.0 1.5707963705062866 0.0 0.0 0.0 0.0 0.0 0.0 0.0 -1.6018983942199055e-26 0.48703423142433167 0.6867076754570007 0.064094677567482 -8.567714098795418e-28 0.0 -1.6018983942199055e-26 0.48703423142433167 0.6867076754570007 0.064094677567482 -8.567714098795418e-28 0.0 0.2951499950589256 -0.11234999647001062 0.4809000069994156 -1.2091995794109558 1.2091995265551612 -1.2091995551462715 0.0 0.0 0.0 0.0 0.0 0.0 9.98197363699075e-07 -5.258967243140419e-07 1.1449168978424651e-06 -1.810306069369398e-15 1.8116749963478e-08 4.307094529482943e-08 0.2951500000000001 -0.11235000004997346 0.4808999999601586 -1.2091995763071834 1.2091995763071837 -1.2091995760591723 0.0 0.0 0.0 0.0 0.0 0.0
5671.632 0.0 -1.5707963267948966 -1.5707963267948966 0.0 1.5707963267948966 2.974790577394575e-69 0.0 0.0 0.0 0.0 0.0 0.0 0.0 0.0 0.0 0.0 0.0 0.0 -1.6018983243994446e-26 0.4870342307692309 0.6867077006507593 0.06409467546754684 -8.567713817370151e-28 0.0 -2.1032924999364705e-25 6.394759450000002 6.3947594500000005 0.2913103000000004 -3.894025929994733e-27 0.0 0.0 -1.570796314870016 -1.570796314870016 0.0 1.5707963705062866 0.0 0.0 0.0 0.0 0.0 0.0 0.0 -1.6018983942199055e-26 0.48703423142433167 0.6867076754570007 0.064094677567482 -8.567714098795418e-28 0.0 -1.6018983942199055e-26 0.48703423142433167 0.6867076754570007 0.064094677567482 -8.567714098795418e-28 0.0 0.2951499950589256 -0.11234999647001062 0.4809000069994156 -1.2091995794109558 1.2091995265551612 -1.2091995551462715 0.0 0.0 0.0 0.0 0.0 0.0 9.98197363699075e-07 -5.258967243140419e-07 1.1449168978424651e-06 -1.810306069369398e-15 1.8116749963478e-08 4.307094529482943e-08 0.2951500000000001 -0.11235000004997346 0.4808999999601586 -1.2091995763071834 1.2091995763071837 -1.2091995760591723 0.0 0.0 0.0 0.0 0.0 0.0
5671.639999999999 0.0 -1.5707963267948966 -1.5707963267948966 0.0 1.5707963267948966 2.974790577394575e-69 0.0 0.0 0.0 0.0 0.0 0.0 0.0 0.0 0.0 0.0 0.0 0.0 -1.6018983243994446e-26 0.4870342307692309 0.6867077006507593 0.06409467546754684 -8.567713817370151e-28 0.0 -2.1032924999364705e-25 6.394759450000002 6.3947594500000005 0.2913103000000004 -3.894025929994733e-27 0.0 0.0 -1.570796314870016 -1.570796314870016 0.0 1.5707963705062866 0.0 0.0 0.0 0.0 0.0 0.0 0.0 -1.6018983942199055e-26 0.48703423142433167 0.6867076754570007 0.064094677567482 -8.567714098795418e-28 0.0 -1.6018983942199055e-26 0.48703423142433167 0.6867076754570007 0.064094677567482 -8.567714098795418e-28 0.0 0.2951499950589256 -0.11234999647001062 0.4809000069994156 -1.2091995794109558 1.2091995265551612 -1.2091995551462715 0.0 0.0 0.0 0.0 0.0 0.0 9.98197363699075e-07 -5.258967243140419e-07 1.1449168978424651e-06 -1.810306069369398e-15 1.8116749963478e-08 4.307094529482943e-08 0.2951500000000001 -0.11235000004997346 0.4808999999601586 -1.2091995763071834 1.2091995763071837 -1.2091995760591723 0.0 0.0 0.0 0.0 0.0 0.0
5671.648 0.0 -1.5707963267948966 -1.5707963267948966 0.0 1.5707963267948966 2.974790577394575e-69 0.0 0.0 0.0 0.0 0.0 0.0 0.0 0.0 0.0 0.0 0.0 0.0 -1.6018983243994446e-26 0.4870342307692309 0.6867077006507593 0.06409467546754684 -8.567713817370151e-28 0.0 -2.1032924999364705e-25 6.394759450000002 6.3947594500000005 0.2913103000000004 -3.894025929994733e-27 0.0 0.0 -1.570796314870016 -1.570796314870016 0.0 1.5707963705062866 0.0 0.0 0.0 0.0 0.0 0.0 0.0 -1.6018983942199055e-26 0.48703423142433167 0.6867076754570007 0.064094677567482 -8.567714098795418e-28 0.0 -1.6018983942199055e-26 0.48703423142433167 0.6867076754570007 0.064094677567482 -8.567714098795418e-28 0.0 0.2951499950589256 -0.11234999647001062 0.4809000069994156 -1.2091995794109558 1.2091995265551612 -1.2091995551462715 0.0 0.0 0.0 0.0 0.0 0.0 9.98197363699075e-07 -5.258967243140419e-07 1.1449168978424651e-06 -1.810306069369398e-15 1.8116749963478e-08 4.307094529482943e-08 0.2951500000000001 -0.11235000004997346 0.4808999999601586 -1.2091995763071834 1.2091995763071837 -1.2091995760591723 0.0 0.0 0.0 0.0 0.0 0.0
5671.656 8e-08 -1.5707963267948966 -1.5707963267948966 0.0 1.5707963267948966 2.974790122880055e-69 4e-05 0.0 0.0 0.0 0.0 -2.2725726002665927e-73 0.005 0.0 0.0 0.0 0.0 -2.840715750333241e-71 0.000312071466391219 0.4869894543697434 0.6867012971019987 0.064081555307671 8.522690667234414e-06 -4.4630800788568914e-73 0.004097498353716706 6.39417153587473 6.394699818873232 0.29125066887336465 3.873562908258041e-05 -2.0284698958404572e-72 7.999999951380232e-08 -1.570796314870016 -1.570796314870016 0.0 1.5707963705062866 0.0 3.9999998989515007e-05 0.0 0.0 0.0 0.0 -0.0 0.00031207146821543574 0.48698946833610535 0.6867012977600098 0.06408155709505081 8.52269022288965e-06 -0.0 0.00031207146821543574 0.48698946833610535 0.6867012977600098 0.06408155709505081 8.52269022288965e-06 -0.0 0.2951500040469243 -0.11234997285801081 0.4809000069994156 -1.20919961723493 1.2091994676431734 -1.209199496234282 4.493998800792471e-06 1.1805999863632322e-05 0.0 0.0 0.0 3.9999998989515007e-05 7.274812602220042e-07 -3.833926244896113e-07 9.3604410932199e-09 5.838991678621323e-15 -5.320026299161448e-08 3.140188286346024e-08 0.29515000898799915 -0.11234997643797309 0.4808999999601586 -1.2091996141311598 1.2091995173951946 -1.2091995171471832 4.493999057518924e-06 1.1806000359519967e-05 -7.091705494249841e-91 -2.2725726002665855e-73 -1.8180580788217228e-80 4e-05
5671.664 7.200000000000001e-07 -1.5707963267948966 -1.5707963267948966 0.0 1.5707963267948966 2.9747864867638943e-69 0.00018000000000000004 0.0 0.0 0.0 0.0 -1.0226576701199669e-72 0.017500000000000005 0.0 0.0 0.0 0.0 -9.942505126166345e-71 0.0010922501323692667 0.4868775137462518 0.6866852883025323 0.06404875505639221 2.9829436987844485e-05 -1.5620780275999125e-72 0.014341244238008474 6.392701755488286 6.394550741730841 0.29110159173130257 0.0001355747911097532 -7.099644635441602e-72 7.200000027296483e-07 -1.570796314870016 -1.570796314870016 0.0 1.5707963705062866 0.0 0.00018000000272877514 0.0 0.0 0.0 0.0 -0.0 0.0010922501096501946 0.4868775010108948 0.6866852641105652 0.06404875218868256 2.9829436243744567e-05 -0.0 0.0010922501096501946 0.4868775010108948 0.6866852641105652 0.06404875218868256 2.9829436243744567e-05 -0.0 0.29515007595084686 -0.11234978396198425 0.4809000069994156 -1.209199919826651 1.2091989963472476 -1.209199024938345 2.0222961419734464e-05 5.312701447655062e-05 0.0 0.0 0.0 0.00018000000272877514 2.3831404416867076e-07 -1.241717109986445e-07 9.95295178555825e-07 -3.700624358818076e-14 4.814083622379143e-08 1.0173059970970621e-08 0.29515008089192357 -0.11234978754194433 0.4808999999601586 -1.2091999167228937 1.2091990460992672 -1.2091990458512558 2.0222961757549984e-05 5.312701456054625e-05 -1.890347760484632e-90 -1.0226576701197017e-72 -7.363135224236928e-79 0.00018000000000000004
5671.672 2.8800000000000004e-06 -1.5707963267948966 -1.5707963267948966 0.0 1.5707963267948966 2.974774214871853e-69 0.00048000000000000007 0.0 0.0 0.0 0.0 -2.7270871203199113e-72 0.037500000000000006 0.0 0.0 0.0 0.0 -2.1305368127499305e-70 0.002340535997934143 0.48669841083089455 0.6866596746253449 0.06399627547791553 6.392034015766294e-05 -3.347310059142669e-72 0.030731237652875297 6.390350134209645 6.394312222046138 0.2908630720471261 0.00029051794601657807 -1.5213524218803428e-71 2.880000010918593e-06 -1.570796314870016 -1.570796314870016 0.0 1.5707963705062866 0.0 0.0004799999878741801 0.0 0.0 0.0 0.0 -0.0 0.0023405360989272594 0.4866984188556671 0.6866596937179565 0.06399627774953842 6.392034265445545e-05 -0.0 0.0023405360989272594 0.4866984188556671 0.6866596937179565 0.06399627774953842 6.392034265445545e-05 -0.0 0.2951503186256926 -0.11234914643755568 0.4809000069994156 -1.2092009410727 1.2091974057232895 -1.2091974343143497 5.392758892770121e-05 0.00014167214936139282 0.0 0.0 0.0 0.0004799999878741801 -2.972668057901227e-07 1.5044784731371996e-07 -7.853209530550791e-07 8.39728310608333e-14 -2.8621572953940303e-08 -1.2333097798034834e-08 0.2951503235667762 -0.1123491500175075 0.4808999999601586 -1.2092009379689879 1.209197455475301 -1.2091974552272902 5.392759200840361e-05 0.00014167215531205257 -1.781475132831034e-89 -2.727087120308601e-72 -7.854010906343502e-78 0.00048000000000000007
5671.679999999999 8e-06 -1.5707963267948966 -1.5707963267948966 0.0 1.5707963267948966 2.97474512594257e-69 0.001 0.0 0.0 0.0 0.0 -5.681431500666481e-72 0.06499999999999999 0.0 0.0 0.0 0.0 -3.692930475433212e-70 0.004056929063085847 0.48645215128567815 0.6866244571634452 0.06392411881169417 0.00011079569672447778 -5.802004102513958e-72 0.053267478598317174 6.387116746380954 6.393984269997436 0.29053511999915005 0.0005035664416127515 -2.6370108645925934e-71 7.999999979801942e-06 -1.570796314870016 -1.570796314870016 0.0 1.5707963705062866 0.0 0.0010000000474974513 0.0 0.0 0.0 0.0 -0.0 0.004056929145008326 0.4864521622657776 0.6866244673728943 0.06392411887645721 0.00011079569958383217 -0.0 0.004056929145008326 0.4864521622657776 0.6866244673728943 0.06392411887645721 0.00011079569958383217 -0.0 0.29515089384945026 -0.11234763526646094 0.4809000069994156 -1.2092033617978395 1.2091936353541268 -1.2091936639450978 0.00011234764060268727 0.0002951509078683655 0.0 0.0 0.0 0.0010000000474974513 2.0150417408865446e-07 -1.1114277717182736e-07 -4.44445873512919e-07 4.2854766143656223e-13 -5.330407386753997e-08 9.08973043126253e-09 0.29515089879055567 -0.11234763884637829 0.4808999999601586 -1.2092033586942572 1.209193685106082 -1.2091936848580715 0.00011234763884637829 0.0002951508987905557 -1.6918280425733125e-89 -5.681431500484675e-72 -4.545145200449914e-77 0.001
5671.688 1.8e-05 -1.5707963267948966 -1.5707963267948966 0.0 1.5707963267948966 2.974688311627563e-69 0.0018 0.0 0.0 0.0 0.0 -1.0226576701199665e-71 0.09999999999999999 0.0 0.0 0.0 0.0 -5.68143150066648e-70 0.006241429327824379 0.4861387476947064 0.6865796383461019 0.06383229003502912 0.0001704561657811474 -8.926160157713781e-72 0.0819499670743341 6.383001757231495 6.39356690820657 0.2901177582092073 0.0007747232734753148 -4.056939791680914e-71 1.8000000636675395e-05 -1.570796314870016 -1.570796314870016 0.0 1.5707963705062866 0.0 0.0017999999690800905 0.0 0.0 0.0 0.0 -0.0 0.006241429131478071 0.4861387610435486 0.6865796446800232 0.06383229047060013 0.00017045617278199643 -0.0 0.006241429131478071 0.4861387610435486 0.6865796446800232 0.06383229047060013 0.00017045617278199643 -0.0 0.2951520173111192 -0.11234468375171124 0.4809000069994156 -1.2092080897517665 1.2091862713460553 -1.2091862999368521 0.00020222042727939277 0.0005312736220339408 0.0 0.0 0.0 0.0017999999690800905 4.772772674730224e-07 -2.392025348329273e-07 -2.6730630271117904e-07 1.0938519110195233e-12 -6.0647963608033e-08 1.9559574051558026e-08 0.29515202225218656 -0.11234468733177305 0.4808999999601586 -1.209208086648099 1.2091863210984286 -1.20918632085042 0.00020222043719719148 0.0005312736400539358 -5.453960754072656e-89 -1.022657669954296e-71 -1.840783806110275e-76 0.0018
5671.696 3.5279999999999994e-05 -1.5707963267948966 -1.5707963267948966 0.0 1.5707963267948966 2.9745901364912315e-69 0.0029399999999999995 0.0 0.0 0.0 0.0 -1.6703408611959453e-71 0.14249999999999993 0.0 0.0 0.0 0.0 -8.096039888449734e-70 0.008894036792149737 0.4857582237644812 0.6865252227496799 0.06372079852438442 0.00024290298895654093 -1.2719778224742139e-71 0.11677870308092607 6.378005478027639 6.393060179289568 0.28961102929332716 0.0011039940848074784 -5.781139203145302e-71 3.5280001611681655e-05 -1.570796314870016 -1.570796314870016 0.0 1.5707963705062866 0.0 0.002940000034868717 0.0 0.0 0.0 0.0 -0.0 0.008894036523997784 0.4857582151889801 0.6865252256393433 0.06372079998254776 0.0002429029846098274 -0.0 0.008894036523997784 0.4857582151889801 0.6865252256393433 0.06372079998254776 0.0002429029846098274 -0.0 0.2951539585832979 -0.1123395835077916 0.4809000069994156 -1.209216259577511 1.2091735463237903 -1.2091735749142865 0.00033027837943004444 0.0008677526485265357 0.0 0.0 0.0 0.002940000034868717 -5.72576181133762e-07 3.1805133165721247e-07 -9.510796720876376e-08 -1.6845527812535316e-12 4.770643046853914e-08 -2.603030470330983e-08 0.2951539635243176 -0.1123395870880558 0.4808999999601586 -1.2092162564737712 1.209173596076768 -1.2091735958287617 0.000330278386038884 0.0008677526527614936 -8.220821686734354e-89 -1.6703408601564268e-71 -5.892962557066592e-76 0.0029399999999999995
5671.704 6.272e-05 -1.5707963267948966 -1.5707963267948966 0.0 1.5707963267948966 2.9744342380108533e-69 0.00448 0.0 0.0 0.0 0.0 -2.545281312298583e-71 0.1925 0.0 0.0 0.0 0.0 -1.0936755638782972e-69 0.012014751456061934 0.4853106195322774 0.6864612181030798 0.06358966011541858 0.0003281382632043053 -1.7182858303599024e-71 0.1577536866180932 6.372128434458803 6.3924641552195 0.28901500522457746 0.0014913884062635677 -7.809609098985757e-71 6.271999882301316e-05 -1.570796314870016 -1.570796314870016 0.0 1.5707963705062866 0.0 0.004480000119656324 0.0 0.0 0.0 0.0 -0.0 0.012014751322567463 0.4853106141090393 0.6864612102508545 0.0635896623134613 0.00032813826692290604 -0.0 0.012014751322567463 0.4853106141090393 0.6864612102508545 0.0635896623134613 0.00032813826692290604 -0.0 0.29515704107003704 -0.11233148444169895 0.4809000069994156 -1.2092292327516385 1.2091533394201401 -1.2091533680101583 0.0005032450637399838 0.0013223035793111725 0.0 0.0 0.0 0.004480000119656324 7.856810490871279e-09 4.159655705399584e-09 3.897378512339739e-07 -2.5883062190452917e-12 4.1239032247603917e-08 -3.575364551853816e-10 0.2951570460114683 -0.11233148802100447 0.4808999999601586 -1.2092292296498353 1.2091533891708843 -1.2091533889228823 0.0005032450663340999 0.0013223035661313778 -7.207040971066187e-90 -2.5452813072922712e-71 -1.5964004380254597e-75 0.00448
5671.7119999999995 0.00010368 -1.5707963267948966 -1.5707963267948966 0.0 1.5707963267948966 2.9742015265765857e-69 0.006479999999999999 0.0 0.0 0.0 0.0 -3.681567612431879e-71 0.2499999999999999 0.0 0.0 0.0 0.0 -1.4203578751666202e-69 0.015603573319560946 0.4847959975825887 0.6863876364877767 0.06343889956173109 0.0004261652663894564 -2.2315400394284455e-71 0.20487491768583524 6.365371448259389 6.391778948501474 0.2883297985080678 0.0019369211357400794 -1.0142349479202285e-70 0.00010368000221205875 -1.570796314870016 -1.570796314870016 0.0 1.5707963705062866 0.0 0.006479999981820583 0.0 0.0 0.0 0.0 -0.0 0.015603573061525822 0.4847959876060486 0.6863876581192017 0.06343889981508255 0.0004261652647983283 -0.0 0.015603573061525822 0.4847959876060486 0.6863876581192017 0.06343889981508255 0.0004261652647983283 -0.0 0.2951616419204235 -0.1123193947140693 0.4809000069994156 -1.2092485974927993 1.2091231762420647 -1.2091232048313696 0.000727829675705268 0.0019126474342784777 0.0 0.0 0.0 0.006479999981820583 -1.3644435933294974e-06 7.345242079542012e-07 -9.392013141418339e-07 -4.218022839460396e-12 4.0679659309832454e-08 -6.016189154088851e-08 0.29516164686162066 -0.11231939829417274 0.4808999999601586 -1.2092485943903162 1.2091232259950353 -1.2091232257470395 0.0007278297009462392 0.0019126474716633015 1.6790467593019464e-88 -3.681567592644295e-71 -3.817049293728529e-75 0.006479999999999999
5671.719999999999 0.00016199999999999998 -1.5707963267948966 -1.5707963267948966 0.0 1.5707963267948966 2.973870185491467e-69 0.008999999999999998 0.0 0.0 0.0 0.0 -5.1132883505998315e-71 0.31499999999999984 0.0 0.0 0.0 0.0 -1.7896509227099405e-69 0.01966050238264679 0.48421445027164584 0.6863044957324593 0.06326855339232505 0.0005369888356727987 -2.8117404496798403e-71 0.25814239628415236 6.35773573206671 6.391004725159808 0.2875555751681173 0.00244061425813287 -1.2779360343794872e-70 0.00016199999663513154 -1.570796314870016 -1.570796314870016 0.0 1.5707963705062866 0.0 0.008999999612569809 0.0 0.0 0.0 0.0 -0.0 0.019660502672195435 0.4842144548892975 0.68630450963974 0.06326854974031448 0.0005369888385757804 -0.0 0.019660502672195435 0.4842144548892975 0.68630450963974 0.06326854974031448 0.0005369888385757804 -0.0 0.29516819188493804 -0.11230218069775676 0.4809000069994156 -1.2092761685859985 1.2090802288665838 -1.2090802574548731 0.0010107195827705555 0.0026565136126073734 0.0 0.0 0.0 0.008999999612569809 -2.8271203491821213e-07 1.311229300441169e-07 -6.851384217297681e-07 7.872915139735072e-12 -4.858356332931483e-08 -1.0755913860071927e-08 0.29516819682697026 -0.11230218427592592 0.4808999999601586 -1.2092761654874655 1.2090802786150647 -1.2090802783670775 0.001010719658483333 0.002656513771442732 2.232116926089121e-88 -5.113288283503262e-71 -8.283527091736447e-75 0.008999999999999998
5671.728 0.00024199999999999997 -1.5707963267948966 -1.5707963267948966 0.0 1.5707963267948966 2.9734156709714136e-69 0.012099999999999998 0.0 0.0 0.0 0.0 -6.8745321158064406e-71 0.3875 0.0 0.0 0.0 0.0 -2.2015547065082613e-69 0.024185538645319478 0.4835661079600093 0.6862118210022727 0.06307867316778538 0.0006606157986931673 -3.45888706111409e-71 0.31755612241304476 6.349222997514922 6.390141719537365 0.28669256954758454 0.0030024988050604455 -1.572064169276354e-70 0.00024199999461416155 -1.570796314870016 -1.570796314870016 0.0 1.5707963705062866 0.0 0.01209999993443489 0.0 0.0 0.0 0.0 -0.0 0.024185538291931152 0.4835661053657532 0.6862118244171143 0.06307867169380188 0.0006606157985515893 -0.0 0.024185538291931152 0.4835661053657532 0.6862118244171143 0.06307867169380188 0.0006606157985515893 -0.0 0.2951771751146191 -0.11227856688366071 0.4809000069994156 -1.2093139871740826 1.2090213157531116 -1.209021344340008 0.001358570651930738 0.0035716437995335676 0.0 0.0 0.0 0.01209999993443489 -2.703548036901517e-07 1.6410454650841402e-07 -1.805343193679731e-07 -3.8365476052727103e-13 1.586377348692995e-09 -1.3444877838945094e-08 0.29517718005716453 -0.11227857046083795 0.4808999999601586 -1.209313984078306 1.209021365499579 -1.2090213652516042 0.001358570702576139 0.0035716438786916904 -2.8643037013391026e-88 -6.874531914506392e-71 -1.6636367557865336e-74 0.012099999999999998
5671.736 0.00034847999999999997 -1.5707963267948966 -1.5707963267948966 0.0 1.5707963267948966 2.972810712145223e-69 0.01584 0.0 0.0 0.0 0.0 -8.999387497055706e-71 0.46750000000000025 0.0 0.0 0.0 0.0 -2.656069226561581e-69 0.029178682107578995 0.48285114825323044 0.6861096465826579 0.06286932913517257 0.0007970554575474988 -4.172979873731195e-71 0.38311609607251224 6.339835576564917 6.389190250907028 0.28574110091935934 0.0036226170545533816 -1.896619352610828e-70 0.0003484800108708441 -1.570796314870016 -1.570796314870016 0.0 1.5707963705062866 0.0 0.01583999954164028 0.0 0.0 0.0 0.0 -0.0 0.0291786827147007 0.48285114765167236 0.6861096620559692 0.06286933273077011 0.0007970554288476706 -0.0 0.0291786827147007 0.48285114765167236 0.6861096620559692 0.06286933273077011 0.0007970554288476706 -0.0 0.2951891288648651 -0.11224713577680846 0.4809000069994156 -1.2093643204145406 1.2089429016929638 -1.2089429302780061 0.0017779945792550805 0.004675795665916657 0.0 0.0 0.0 0.01583999954164028 -6.239018869394844e-07 2.904370172318689e-07 -5.990554832808755e-07 -7.15140254249751e-12 2.0520732344695432e-08 -2.367415826041832e-08 0.29518913380596656 -0.11224713935825817 0.4808999999601586 -1.2093643173134774 1.2089429514507037 -1.208942951202745 0.0017779946874348094 0.0046757958794865105 5.064159620913387e-89 -8.999386950620505e-71 -3.1361064914995072e-74 0.01584
5671.744 0.00048671999999999995 -1.5707963267948966 -1.5707963267948966 0.0 1.5707963267948966 2.972025311054571e-69 0.02028 0.0 0.0 0.0 0.0 -1.1521943083351624e-70 0.5549999999999999 0.0 0.0 0.0 0.0 -3.1531944828698973e-69 0.034639932769425306 0.48206980625059004 0.685998017857797 0.06264061428163248 0.0009463201255687239 -4.95401888753115e-71 0.4548223172625543 6.329576556070248 6.3881507418953785 0.28470159191001965 0.00430102497070985 -2.2516015843829075e-70 0.000486720004118979 -1.570796314870016 -1.570796314870016 0.0 1.5707963705062866 0.0 0.02027999982237816 0.0 0.0 0.0 0.0 -0.0 0.034639932215213776 0.48206982016563416 0.6859980225563049 0.06264061480760574 0.0009463201276957989 -0.0 0.034639932215213776 0.48206982016563416 0.6859980225563049 0.06264061480760574 0.0009463201276957989 -0.0 0.2952046430875318 -0.11220632776121924 0.4809000069994156 -1.209429660998962 1.2088410977575201 -1.2088411263401555 0.0022755443070672315 0.005986750109380353 0.0 0.0 0.0 0.02027999982237816 5.704192352718884e-07 -2.6600883890323523e-07 -1.9396433312084256e-07 3.026127040287742e-11 -6.216934928215122e-08 2.1799194072191703e-08 0.295204648029886 -0.11220633133999271 0.4808999999601586 -1.2094296579042034 1.20884114750938 -1.2088411472614422 0.002275544399575052 0.005986750262046088 7.770047944354624e-88 -1.1521941718598472e-70 -5.607959916110643e-74 0.02028
5671.7519999999995 0.00066248 -1.5707963267948966 -1.5707963267948966 0.0 1.5707963267948966 2.9710267426540137e-69 0.025480000000000003 0.0 0.0 0.0 0.0 -1.4476287463698195e-70 0.6500000000000004 0.0 0.0 0.0 0.0 -3.6929304754332136e-69 0.0405692906308585 0.48122238580190413 0.6858769934836556 0.06239264878672139 0.001108425716901495 -5.802004102513961e-71 0.5326747859831721 6.318449925579002 6.387023738718499 0.2835745887356487 0.005037794883317295 -2.6370108645925948e-70 0.0006624800153076649 -1.570796314870016 -1.570796314870016 0.0 1.5707963705062866 0.0 0.02548000030219555 0.0 0.0 0.0 0.0 -0.0 0.04056929051876068 0.48122239112854004 0.6858769655227661 0.06239264830946922 0.0011084256693720818 -0.0 0.04056929051876068 0.48122239112854004 0.6858769655227661 0.06239264830946922 0.0011084256693720818 -0.0 0.2952243599131839 -0.11215444085699891 0.4809000069994156 -1.2095127266166315 1.2087116610706676 -1.2087116896502428 0.002857695186928905 0.007522316779803414 0.0 0.0 0.0 0.02548000030219555 1.3561682196853255e-06 -7.074580662002669e-07 1.2108243418161984e-06 1.2395456953807367e-11 -1.8711529080399455e-08 5.823041071159912e-08 0.2952243648549121 -0.11215444443820681 0.4808999999601586 -1.2095127235205427 1.2087117108296133 -1.2087117105817018 0.0028576952442855097 0.007522316816503161 5.755258118935136e-88 -1.4476284287023597e-70 -9.59025021745542e-74 0.025480000000000003
5671.759999999999 0.0008820000000000001 -1.5707963267948966 -1.5707963267948966 0.0 1.5707963267948966 2.969779554810987e-69 0.03150000000000001 0.0 0.0 0.0 0.0 -1.789650922709942e-70 0.7525000000000005 0.0 0.0 0.0 0.0 -4.275277204251531e-69 0.04696675569187849 0.4803092717724066 0.6857466477556283 0.062125584873447215 0.0012833923888757235 -6.716935518679628e-71 0.6166735022343646 6.306460738371699 6.385809933229963 0.28236078324981756 0.005833018407440163 -3.052847193239891e-70 0.0008820000221021473 -1.570796314870016 -1.570796314870016 0.0 1.5707963705062866 0.0 0.03150000050663948 0.0 0.0 0.0 0.0 -0.0 0.04696675390005112 0.48030927777290344 0.6857466697692871 0.06212558597326279 0.001283392426557839 -0.0 0.04696675390005112 0.48030927777290344 0.6857466697692871 0.06212558597326279 0.001283392426557839 -0.0 0.29524897294331687 -0.11208963050171834 0.4809000069994156 -1.2096164591057679 1.2085499947530405 -1.2085500233287927 0.00353082341759316 0.009300342797299268 0.0 0.0 0.0 0.03150000050663948 -5.183318125679488e-07 3.8357349744233936e-07 -9.378519773899976e-07 2.4345755085723913e-11 -2.760067344027798e-08 -3.1623366399795953e-08 0.29524897788506954 -0.11208963408384741 0.4808999999601586 -1.2096164560114122 1.208550044515548 -1.2085500442676695 0.003530823473641194 0.009300342803379692 -8.356421006683694e-88 -1.789650226603785e-70 -1.5784719091748438e-73 0.03150000000000001
5671.768 0.001152 -1.5707963267948966 -1.5707963267948966 0.0 1.5707963267948966 2.968245568305807e-69 0.03840000000000001 0.0 0.0 0.0 0.0 -2.1816696962559292e-70 0.8625000000000004 0.0 0.0 0.0 0.0 -4.90023466932484e-69 0.053832327952485305 0.4793309433157 0.685607073170783 0.061839612058025926 0.0014712452371779608 -7.698813136028137e-71 0.7068184660161321 6.293615285735141 6.3845101867809655 0.28106103680372785 0.006686809602973831 -3.499110570324788e-70 0.0011520000407472253 -1.570796314870016 -1.570796314870016 0.0 1.5707963705062866 0.0 0.03840000182390213 0.0 0.0 0.0 0.0 -0.0 0.05383232980966568 0.47933095693588257 0.6856070756912231 0.06183961033821106 0.0014712451957166195 -0.0 0.05383232980966568 0.47933095693588257 0.6856070756912231 0.06183961033821106 0.0014712451957166195 -0.0 0.29527922638344806 -0.11200990918881969 0.4809000069994156 -1.2097440235112957 1.2083511476402429 -1.2083511762112935 0.004301180717145788 0.011338722831684815 0.0 0.0 0.0 0.03840000182390213 6.381641247193268e-07 -4.5043800755683954e-07 -1.4671699171436212e-07 8.554487731244273e-11 -7.425561525729177e-08 3.7139502427050626e-08 0.2952792313240793 -0.11200991277511986 0.4808999999601586 -1.2097440204142125 1.208351197414708 -1.2083511971668706 0.004301180650564604 0.011338722482844649 1.3897045628604207e-87 -2.181668248604799e-70 -2.5132829341886384e-73 0.03840000000000001
5671.776 0.0014796800000000001 -1.5707963267948966 -1.5707963267948966 0.0 1.5707963267948966 2.966383876831669e-69 0.04624000000000002 0.0 0.0 0.0 0.0 -2.6270939259081816e-70 0.9800000000000009 0.0 0.0 0.0 0.0 -5.567802870653156e-69 0.06116600741267899 0.4782879881547834 0.6854583831847094 0.0615349627983542 0.0016720150438205923 -8.747636954559514e-71 0.803109677328475 6.279921284472306 6.383125555892652 0.27967640591851983 0.0075993083741645925 -3.975800995847299e-70 0.0014796799514442682 -1.570796314870016 -1.570796314870016 0.0 1.5707963705062866 0.0 0.04623999819159508 0.0 0.0 0.0 0.0 -0.0 0.061166007071733475 0.4782879948616028 0.6854583621025085 0.06153496354818344 0.0016720150597393513 -0.0 0.061166007071733475 0.4782879948616028 0.6854583621025085 0.06153496354818344 0.0016720150597393513 -0.0 0.29531591392715745 -0.11191314610653634 0.4809000069994156 -1.2098988067667726 1.208109814153686 -1.2081098427190302 0.005174863673581956 0.013655407325941008 0.0 0.0 0.0 0.04623999819159508 1.1680521193982301e-06 -5.918627256155006e-07 9.365985968860717e-07 2.8857888912157055e-11 -1.950297636704024e-08 4.854270884662087e-08 0.2953159188789577 -0.11191314966484478 0.4808999999601586 -1.2098988037192484 1.2081098638602263 -1.2081098636124386 0.005174864040502425 0.01365540808896301 -5.733961494938258e-88 -2.627091049959496e-70 -3.8872569217929706e-73 0.04624000000000002
5671.784 0.0018727200000000002 -1.5707963267948966 -1.5707963267948966 0.0 1.5707963267948966 2.964150846994647e-69 0.05508000000000002 0.0 0.0 0.0 0.0 -3.129332470567099e-70 1.105 0.0 0.0 0.0 0.0 -6.277981808236467e-69 0.0689677940724594 0.4771811178711483 0.6853007151629656 0.06121191854119722 0.0018857390779088608 -9.863406974273737e-71 0.905547136171392 6.265388077648177 6.381657319740569 0.2782081697697414 0.008570684109095771 -4.4829184698074136e-70 0.0018727199640125036 -1.570796314870016 -1.570796314870016 0.0 1.5707963705062866 0.0 0.055080000311136246 0.0 0.0 0.0 0.0 -0.0 0.0689677968621254 0.4771811068058014 0.6853007078170776 0.06121191754937172 0.0018857390386983752 -0.0 0.0689677968621254 0.4771811068058014 0.6853007078170776 0.06121191754937172 0.0018857390386983752 -0.0 0.2953598774601096 -0.11179706649480668 0.4809000069994156 -1.2100844163961155 1.2078203336411633 -1.2078203621996633 0.006157782457318072 0.0162684221424 0.0 0.0 0.0 0.055080000311136246 -3.15528801483799e-07 -6.947138075859377e-09 2.99641405852462e-07 -8.795287025130156e-11 4.696414825845816e-08 6.987856948757945e-10 0.295359882411903 -0.11179707005488075 0.4808999999601586 -1.2100844133514965 1.207820383354375 -1.2078203831066465 0.006157782618622834 0.01626842232324762 1.9544343774527137e-87 -3.129326983158732e-70 -5.860360078820027e-73 0.05508000000000002
5671.7919999999995 0.00233928 -1.5707963267948966 -1.5707963267948966 0.0 1.5707963267948966 2.961500118313696e-69 0.06498000000000002 0.0 0.0 0.0 0.0 -3.6917941891330804e-70 1.2375000000000007 0.0 0.0 0.0 0.0 -7.030771482074769e-69 0.07723768793182674 0.4760111842019492 0.6851342335271258 0.06087081616809271 0.002112461949205724 -1.1046123195170802e-70 1.0141308425448852 6.2500268485715935 6.380107009451301 0.27665785948398136 0.009601139559140014 -5.02046299220513e-70 0.002339279977604747 -1.570796314870016 -1.570796314870016 0.0 1.5707963705062866 0.0 0.06498000025749207 0.0 0.0 0.0 0.0 -0.0 0.07723768800497055 0.47601118683815 0.68513423204422 0.06087081506848335 0.0021124619524925947 -0.0 0.07723768800497055 0.47601118683815 0.68513423204422 0.06087081506848335 0.0021124619524925947 -0.0 0.29541200535237117 -0.11165925122346929 0.4809000069994156 -1.2103046783702152 1.2074766904650855 -1.2074767190154598 0.007255618173252406 0.019195872183863327 0.0 0.0 0.0 0.06498000025749207 1.9899242405593577e-07 -1.0867250825817624e-07 4.131953979504252e-08 4.3454825822153897e-11 -1.8575863507275776e-08 8.923440290744888e-09 0.29541201030430725 -0.11165925478524796 0.4808999999601586 -1.2103046753296742 1.2074767401852387 -1.2074767399375803 0.0072556183759454156 0.019195872429573893 7.76598388405653e-88 -3.6917840879625336e-70 -8.636132434264825e-73 0.06498000000000002
5671.8 0.002888000000000001 -1.5707963267948966 -1.5707963267948966 0.0 1.5707963267948966 2.95838260322065e-69 0.07600000000000001 0.0 0.0 0.0 0.0 -4.317887940506526e-70 1.3774999999999984 0.0 0.0 0.0 0.0 -7.826171892168069e-69 0.08597568899078074 0.47477919634524696 0.6849591330954311 0.06051205483997012 0.002352236514494512 -1.229578561725072e-70 1.1288607964489512 6.233850848013093 6.3784764392112745 0.2750272892476642 0.010690914958377555 -5.588434563040453e-70 0.0028880001045763493 -1.570796314870016 -1.570796314870016 0.0 1.5707963705062866 0.0 0.07599999755620956 0.0 0.0 0.0 0.0 -0.0 0.08597569167613983 0.4747791886329651 0.6849591135978699 0.060512054711580276 0.0023522365372627974 -0.0 0.08597569167613983 0.4747791886329651 0.6849591135978699 0.060512054711580276 0.0023522365372627974 -0.0 0.2954732305544482 -0.11149713590856541 0.4809000069994156 -1.210563635148069 1.20707251315782 -1.2070725416986376 0.008473782056575337 0.022455964800063406 0.0 0.0 0.0 0.07599999755620956 3.305593126585268e-07 -3.375412332594957e-07 8.486830459238578e-07 -1.1781444845789538e-10 4.079351816031773e-08 2.7619217203415863e-08 0.295473235494181 -0.11149713950514305 0.4808999999601586 -1.2105636320599604 1.2070725629678887 -1.2070725627203134 0.008473782602390872 0.02245596589755776 2.9739408249318747e-87 -4.317869933751864e-70 -1.2470043037675278e-72 0.07600000000000001
5671.808 0.0035280000000000016 -1.5707963267948966 -1.5707963267948966 0.0 1.5707963267948966 2.9547464870602235e-69 0.08400000000000002 0.0 0.0 0.0 0.0 -4.772402460559845e-70 1.0000000000000009 0.0 0.0 0.0 0.0 -5.681431500666486e-69 0.06241429327824387 0.47817773748462233 0.6854460609255535 0.06150971585861126 0.0017097120857149548 -8.926160157713792e-71 0.819499670743342 6.278473693173091 6.3830108085509405 0.27956165857738813 0.00777064142957447 -4.056939791680918e-70 0.0035280000884085894 -1.570796314870016 -1.570796314870016 0.0 1.5707963705062866 0.0 0.08399999886751175 0.0 0.0 0.0 0.0 -0.0 0.06241429224610329 0.4781777262687683 0.6854460835456848 0.061509717255830765 0.0017097120871767402 -0.0 0.06241429224610329 0.4781777262687683 0.6854460835456848 0.061509717255830765 0.0017097120871767402 -0.0 0.29554452820184307 -0.11130801022408564 0.4809000069994156 -1.2108655427852375 1.206601074307056 -1.2066011028367267 0.00934987273276818 0.024825740034254112 0.0 0.0 0.0 0.08399999886751175 -1.4718859844822241e-06 8.322994413560565e-07 -9.579968660617655e-07 -1.879174557295874e-10 5.326416242803905e-08 -6.859683967585206e-08 0.29554453314567636 -0.1113080138127228 0.4808999999601586 -1.2108655397191737 1.2066011241010057 -1.2066011238535275 0.009349873160268718 0.02482574078423682 1.1144089562745873e-87 -4.7723727600593577e-70 -1.6837000953051783e-72 0.08400000000000002
5671.816 0.004232000000000002 -1.5707963267948966 -1.5707963267948966 0.0 1.5707963267948966 2.9507467592837543e-69 0.09200000000000003 0.0 0.0 0.0 0.0 -5.226916980613164e-70 1.0000000000000009 0.0 0.0 0.0 0.0 -5.681431500666486e-69 0.06241429327824387 0.478197450900047 0.685449866454981 0.0615175129655747 0.0017107445765299355 -8.926160157713792e-71 0.819499670743342 6.278732530317617 6.383046246402074 0.27959709642853703 0.007775334100328556 -4.056939791680918e-70 0.004232000093907118 -1.570796314870016 -1.570796314870016 0.0 1.5707963705062866 0.0 0.09200000017881393 0.0 0.0 0.0 0.0 -0.0 0.06241429224610329 0.47819745540618896 0.6854498386383057 0.061517514288425446 0.0017107445746660233 -0.0 0.06241429224610329 0.47819745540618896 0.6854498386383057 0.061517514288425446 0.0017107445746660233 -0.0 0.29562281579688354 -0.11109991930877838 0.4809000069994156 -1.2111974836094705 1.2060824586725076 -1.2060824871899158 0.010221192596273824 0.027197299106174765 0.0 0.0 0.0 0.09200000017881393 1.3086033616355562e-06 -6.190041309434608e-07 1.2428924124251773e-06 1.5485790904079593e-11 -3.6594394535802347e-09 5.115802212744757e-08 0.295622820742631 -0.11109992289555969 0.4808999999601586 -1.2111974805566692 1.2060825084658744 -1.2060825082185023 0.010221192906391494 0.027197299508322063 1.0319371424533902e-87 -5.2268701741014294e-70 -2.2120246633529294e-72 0.09200000000000003
5671.824 0.005000000000000004 -1.5707963267948966 -1.5707963267948966 0.0 1.5707963267948966 2.9463834198912424e-69 0.10000000000000003 0.0 0.0 0.0 0.0 -5.681431500666483e-70 1.0000000000000009 0.0 0.0 0.0 0.0 -5.681431500666486e-69 0.062414293278243854 0.4782189564441467 0.6854540179416292 0.061526018900443895 0.0017118709301462778 -8.926160157713792e-71 0.8194996707433418 6.2790148981116465 6.383084905876039 0.2796357559025175 0.0077804533775148324 -4.056939791680918e-70 0.004999999888241291 -1.570796314870016 -1.570796314870016 0.0 1.5707963705062866 0.0 0.10000000149011612 0.0 0.0 0.0 0.0 -0.0 0.06241429224610329 0.4782189428806305 0.6854540109634399 0.061526019126176834 0.0017118708929046988 -0.0 0.06241429224610329 0.4782189428806305 0.6854540109634399 0.061526019126176834 0.0017118708929046988 -0.0 0.2957080533210106 -0.11087284830468438 0.4809000069994156 -1.2115594125116576 1.2055166570566243 -1.2055166855606543 0.011087284995681857 0.029570805772740395 0.0 0.0 0.0 0.10000000149011612 -4.657486606244454e-07 3.050027113224179e-07 3.095345734250871e-07 -3.2999006120905436e-10 6.599700498675485e-08 -2.5000871774528335e-08 0.29570805829231406 -0.11087285182684926 0.4808999999601586 -1.2115594095730446 1.2055167066934092 -1.205516706446153 0.01108728518268493 0.029570805829231415 7.599016689250722e-89 -5.6813604829206784e-70 -2.8407039140323774e-72 0.10000000000000003
5671.831999999999 0.005832000000000005 -1.5707963267948966 -1.5707963267948966 0.0 1.5707963267948966 2.941656468882688e-69 0.10800000000000004 0.0 0.0 0.0 0.0 -6.135946020719802e-70 1.0000000000000009 0.0 0.0 0.0 0.0 -5.681431500666486e-69 0.06241429327824387 0.4782422541169213 0.685458515385498 0.061535233663218857 0.0017130911465639824 -8.926160157713792e-71 0.819499670743342 6.279320796555177 6.383126786972833 0.2796776369993297 0.0077859992611333 -4.056939791680918e-70 0.00583200016990304 -1.570796314870016 -1.570796314870016 0.0 1.5707963705062866 0.0 0.1080000028014183 0.0 0.0 0.0 0.0 -0.0 0.06241429224610329 0.47824224829673767 0.6854585409164429 0.06153523549437523 0.0017130911583080888 -0.0 0.06241429224610329 0.47824224829673767 0.6854585409164429 0.06153523549437523 0.0017130911583080888 -0.0 0.2958001972032171 -0.1106267807749692 0.4809000069994156 -1.2119512807422426 1.2049036587356103 -1.2049036872251462 0.01194769263360856 0.03194642212660753 0.0 0.0 0.0 0.1080000028014183 -1.2937364483138688e-06 7.355963258050132e-07 -1.0758577539925576e-06 -1.7648826587413263e-10 3.026172450857088e-08 -6.091563395393428e-08 0.29580020214628994 -0.11062678437631233 0.4808999999601586 -1.2119512776896786 1.2049037085744296 -1.2049037083272993 0.011947692712641737 0.031946421831799326 1.297566763717799e-87 -6.135841672430307e-70 -3.5784634339532775e-72 0.10800000000000004
5671.84 0.006728000000000006 -1.5707963267948966 -1.5707963267948966 0.0 1.5707963267948966 2.936565906258091e-69 0.11600000000000005 0.0 0.0 0.0 0.0 -6.59046054077312e-70 1.0000000000000009 0.0 0.0 0.0 0.0 -5.681431500666486e-69 0.06241429327824387 0.47826734391837084 0.6854633587865873 0.061545157253899585 0.001714405225783049 -8.926160157713792e-71 0.819499670743342 6.27965022564821 6.383171889692458 0.2797227397189736 0.007791971751183957 -4.056939791680918e-70 0.00672800000756979 -1.570796314870016 -1.570796314870016 0.0 1.5707963705062866 0.0 0.11599999666213989 0.0 0.0 0.0 0.0 -0.0 0.06241429224610329 0.4782673418521881 0.6854633688926697 0.06154515594244003 0.0017144052544608712 -0.0 0.06241429224610329 0.4782673418521881 0.6854633688926697 0.06154515594244003 0.0017144052544608712 -0.0 0.29589920003105574 -0.11036169947530018 0.4809000069994156 -1.2123730347077437 1.2042434533493922 -1.2042434818233179 0.012801956770762906 0.03432430621593233 0.0 0.0 0.0 0.11599999666213989 -4.997784288284442e-07 3.2296164589354915e-07 -4.6926352566917306e-07 1.2942571594753698e-11 -1.92355190419712e-09 -2.6855690061066416e-08 0.2958992049952688 -0.11036170302417861 0.4808999999601586 -1.212373031751753 1.2042435030626877 -1.2042435028156928 0.012801957550804724 0.03432430777945119 1.1721861464561949e-87 -6.590311379495087e-70 -4.434028399879024e-72 0.11600000000000005
5671.848 0.0076880000000000065 -1.5707963267948966 -1.5707963267948966 0.0 1.5707963267948966 2.931111732017451e-69 0.12400000000000005 0.0 0.0 0.0 0.0 -7.04497506082644e-70 1.0000000000000009 0.0 0.0 0.0 0.0 -5.681431500666486e-69 0.06241429327824387 0.47829422584849546 0.6854685481448974 0.061555789672486094 0.0017158131678034773 -8.926160157713792e-71 0.819499670743342 6.280003185390745 6.383220214034914 0.2797710640614493 0.007798370847666804 -4.056939791680918e-70 0.007687999866902828 -1.570796314870016 -1.570796314870016 0.0 1.5707963705062866 0.0 0.12399999797344208 0.0 0.0 0.0 0.0 -0.0 0.06241429224610329 0.4782942235469818 0.6854685544967651 0.06155578792095184 0.0017158131813630462 -0.0 0.06241429224610329 0.4782942235469818 0.6854685544967651 0.06155578792095184 0.0017158131813630462 -0.0 0.29600501088045333 -0.1100775854738734 0.4809000069994156 -1.2128246173997996 1.2035360286748518 -1.2035360571320506 0.013649620375681699 0.03670462074930492 0.0 0.0 0.0 0.12399999797344208 -3.687570296183018e-07 2.542541520389755e-07 -3.147038096446927e-07 1.8676986998666827e-11 -2.4292421775372488e-09 -2.111661376085187e-08 0.2960050158635553 -0.11007758897634641 0.4808999999601586 -1.2128246145315247 1.2035360782781417 -1.2035360780312918 0.013649621033066961 0.036704621967080873 3.15764784292227e-87 -7.044766864014684e-70 -5.416123472755252e-72 0.12400000000000005
5671.856 0.008712000000000008 -1.5707963267948966 -1.5707963267948966 0.0 1.5707963267948966 2.9252939461607687e-69 0.13200000000000006 0.0 0.0 0.0 0.0 -7.499489580879758e-70 1.0000000000000009 0.0 0.0 0.0 0.0 -5.681431500666486e-69 0.06241429327824387 0.47832289990729493 0.6854740834604282 0.061567130918978356 0.001717314972625267 -8.926160157713792e-71 0.819499670743342 6.2803796757827826 6.383271760000199 0.2798226100267566 0.007805196550581838 -4.056939791680918e-70 0.008712000213563442 -1.570796314870016 -1.570796314870016 0.0 1.5707963705062866 0.0 0.13199999928474426 0.0 0.0 0.0 0.0 -0.0 0.06241429224610329 0.4783228933811188 0.6854740977287292 0.06156713142991066 0.0017173149390146136 -0.0 0.06241429224610329 0.4783228933811188 0.6854740977287292 0.06156713142991066 0.0017173149390146136 -0.0 0.2961175751544723 -0.10977441858069958 0.4809000069994156 -1.2133059677400613 1.2027813716584785 -1.2027814000978336 0.014490223174135562 0.03908751970859055 0.0 0.0 0.0 0.13199999928474426 -9.016465736990817e-07 5.275882028781665e-07 -6.121786198719261e-07 -2.50424221245239e-10 2.874399175540483e-08 -4.3698405090346756e-08 0.29611758010310374 -0.10977442218072035 0.4808999999601586 -1.2133059647318418 1.2027814215104764 -1.2027814212637815 0.014490223727855094 0.03908752057360971 -4.22405110532241e-87 -7.499204981009971e-70 -6.533472674851123e-72 0.13200000000000006
5671.864 0.00980000000000001 -1.5707963267948966 -1.5707963267948966 0.0 1.5707963267948966 2.9191125486880435e-69 0.14000000000000007 0.0 0.0 0.0 0.0 -7.954004100933077e-70 1.0000000000000009 0.0 0.0 0.0 0.0 -5.681431500666486e-69 0.06241429327824387 0.4783533660947694 0.6854799647331796 0.061579180993376385 0.0017189106402484189 -8.926160157713792e-71 0.819499670743342 6.280779696824323 6.3833265275883155 0.2798773776148957 0.007812448859929064 -4.056939791680918e-70 0.009800000116229057 -1.570796314870016 -1.570796314870016 0.0 1.5707963705062866 0.0 0.14000000059604645 0.0 0.0 0.0 0.0 -0.0 0.06241429224610329 0.478353351354599 0.6854799389839172 0.061579182744026184 0.0017189106438308954 -0.0 0.06241429224610329 0.478353351354599 0.6854799389839172 0.061579182744026184 0.0017189106438308954 -0.0 0.2962368344239872 -0.10945217777892957 0.4809000069994156 -1.2138170199279235 1.2019794694498058 -1.2019794978702 0.015323304954288722 0.04147315699592912 0.0 0.0 0.0 0.14000000059604645 1.9014346339943977e-07 -3.450551778489061e-08 1.1617302955098276e-06 -8.516426599773647e-10 8.689913438931414e-08 2.9621950322047295e-09 0.2962368393871859 -0.10945218134473009 0.4808999999601586 -1.2138170169899078 1.2019795192228733 -1.201979518976343 0.01532330538826222 0.04147315751420605 1.305773641587694e-88 -7.953622152713025e-70 -7.79479924876306e-72 0.14000000000000007
5671.871999999999 0.010952000000000012 -1.5707963267948966 -1.5707963267948966 0.0 1.5707963267948966 2.9125675395992756e-69 0.14800000000000008 0.0 0.0 0.0 0.0 -8.408518620986396e-70 1.0000000000000009 0.0 0.0 0.0 0.0 -5.681431500666486e-69 0.06241429327824387 0.47838562441091886 0.6854861919631517 0.06159193989568019 0.0017206001706729331 -8.926160157713792e-71 0.819499670743342 6.281203248515365 6.383384516799262 0.27993536682586645 0.007820127775708481 -4.056939791680918e-70 0.010951999574899673 -1.570796314870016 -1.570796314870016 0.0 1.5707963705062866 0.0 0.14800000190734863 0.0 0.0 0.0 0.0 -0.0 0.06241429224610329 0.4783856272697449 0.6854861974716187 0.06159193813800812 0.0017206001793965697 -0.0 0.06241429224610329 0.4783856272697449 0.6854861974716187 0.06159193813800812 0.0017206001793965697 -0.0 0.29636272667731256 -0.10911084055438189 0.4809000069994156 -1.2143577045394376 1.2011303076896236 -1.20113033608994 0.01614840461016093 0.0438616841135093 0.0 0.0 0.0 0.14800000190734863 -5.7493117254305646e-08 9.286410741774604e-08 -2.7800499579959094e-07 2.840608046616129e-10 -2.593573251376539e-08 -7.696331902123903e-09 0.2963627317036807 -0.10911084395403256 0.4808999999601586 -1.2143577018812848 1.2011303570560197 -1.2011303568096634 0.01614840490519683 0.04386168429214477 -1.0349581012353747e-88 -8.408014340661622e-70 -9.208825497030972e-72 0.14800000000000008
5671.88 0.012168000000000012 -1.5707963267948966 -1.5707963267948966 0.0 1.5707963267948966 2.905658918894465e-69 0.15600000000000008 0.0 0.0 0.0 0.0 -8.863033141039715e-70 1.0000000000000009 0.0 0.0 0.0 0.0 -5.681431500666486e-69 0.06241429327824387 0.47841967485574327 0.6854927651503444 0.061605407625889744 0.0017223835638988086 -8.926160157713792e-71 0.819499670743342 6.28165033085591 6.383445727633038 0.27999657765966884 0.007828233297920085 -4.056939791680918e-70 0.01216800045222044 -1.570796314870016 -1.570796314870016 0.0 1.5707963705062866 0.0 0.15600000321865082 0.0 0.0 0.0 0.0 -0.0 0.06241429224610329 0.4784196615219116 0.685492753982544 0.061605408787727356 0.0017223835457116365 -0.0 0.06241429224610329 0.4784196615219116 0.685492753982544 0.061605408787727356 0.0017223835457116365 -0.0 0.2964951864129029 -0.10875038263874359 0.4809000069994156 -1.2149279489664322 1.2002338698272728 -1.2002338982063931 0.01696506004167351 0.04625325003472733 0.0 0.0 0.0 0.15600000321865082 -2.943322325664637e-07 2.1328581025909461e-07 5.124377113119852e-07 -8.778669719371844e-10 7.214175521168467e-08 -1.7677467324533414e-08 0.2964951913479924 -0.10875038629240107 0.4808999999601586 -1.2149279459241413 1.2002339198323655 -1.2002339195861929 0.016965060261614574 0.04625324985028684 -2.3611337416382386e-87 -8.862377017799164e-70 -1.0784272601117297e-71 0.15600000000000008
5671.888 0.013448000000000015 -1.5707963267948966 -1.5707963267948966 0.0 1.5707963267948966 2.898386686573612e-69 0.1640000000000001 0.0 0.0 0.0 0.0 -9.317547661093034e-70 1.0000000000000009 0.0 0.0 0.0 0.0 -5.681431500666486e-69 0.06241429327824387 0.4784555174292427 0.6854996842947579 0.061619584184005094 0.0017242608199260464 -8.926160157713792e-71 0.819499670743342 6.282120943845957 6.383510160089646 0.28006101011630313 0.00783676542656388 -4.056939791680918e-70 0.013447999954223633 -1.570796314870016 -1.570796314870016 0.0 1.5707963705062866 0.0 0.164000004529953 0.0 0.0 0.0 0.0 -0.0 0.06241429224610329 0.478455513715744 0.6854996681213379 0.061619583517313004 0.0017242608591914177 -0.0 0.06241429224610329 0.478455513715744 0.6854996681213379 0.061619583517313004 0.0017242608591914177 -0.0 0.2966341439218777 -0.10837077996318921 0.4809000069994156 -1.2155276743639174 1.1992901419311788 -1.199290170287985 0.01777280840487757 0.04864800094692667 0.0 0.0 0.0 0.164000004529953 4.200833625693856e-07 -1.5021293475374473e-07 6.920516236164061e-07 -2.416603353232007e-10 1.79688195164916e-08 1.258552948841178e-08 0.2966341489156081 -0.10837078346280392 0.4808999999601586 -1.2155276715837424 1.1992901915606204 -1.1992901913146414 0.017772808487899854 0.04864800042215975 -5.917525285074015e-87 -9.316705140581061e-70 -1.2529860418499627e-71 0.1640000000000001
5671.896 0.014792000000000017 -1.5707963267948966 -1.5707963267948966 0.0 1.5707963267948966 2.8907508426367165e-69 0.1720000000000001 0.0 0.0 0.0 0.0 -9.772062181146353e-70 1.0000000000000009 0.0 0.0 0.0 0.0 -5.681431500666486e-69 0.06241429327824387 0.478493152131417 0.6855069493963921 0.06163446957002616 0.001726231938754646 -8.926160157713792e-71 0.819499670743342 6.282615087485506 6.383577814169083 0.28012866419576893 0.007845724161639867 -4.056939791680918e-70 0.014791999943554401 -1.570796314870016 -1.570796314870016 0.0 1.5707963705062866 0.0 0.1720000058412552 0.0 0.0 0.0 0.0 -0.0 0.06241429224610329 0.4784931540489197 0.6855069398880005 0.06163446977734566 0.0017262318870052695 -0.0 0.06241429224610329 0.4784931540489197 0.6855069398880005 0.06163446977734566 0.0017262318870052695 -0.0 0.29677952629472115 -0.10797200591994262 0.4809000069994156 -1.2161568000222573 1.198299105827862 -1.1982991341612355 0.01857118564892217 0.05104608025625699 0.0 0.0 0.0 0.1720000058412552 4.694010439201752e-07 -1.7652882121990565e-07 4.196310152561701e-07 6.694734330890748e-11 -4.525596518958478e-09 1.5259973478977882e-08 0.29677953129430246 -0.10797200940967619 0.4808999999601586 -1.2161567972771756 1.198299155440495 -1.198299155194719 0.018571185618464315 0.051046079382620055 -7.106026533896794e-87 -9.770993121088762e-70 -1.4454307256628047e-71 0.1720000000000001
5671.9039999999995 0.01620000000000002 -1.5707963267948966 -1.5707963267948966 0.0 1.5707963267948966 2.882751387083778e-69 0.1800000000000001 0.0 0.0 0.0 0.0 -1.0226576701199672e-69 1.0000000000000009 0.0 0.0 0.0 0.0 -5.681431500666486e-69 0.06241429327824387 0.47853257896226636 0.6855145604552468 0.06165006378395304 0.001728296920384607 -8.926160157713792e-71 0.819499670743342 6.283132761774557 6.38364868987135 0.28019953989806656 0.007855109503148038 -4.056939791680918e-70 0.016200000420212746 -1.570796314870016 -1.570796314870016 0.0 1.5707963705062866 0.0 0.18000000715255737 0.0 0.0 0.0 0.0 -0.0 0.06241429224610329 0.4785325825214386 0.6855145692825317 0.06165006384253502 0.0017282969783991575 -0.0 0.06241429224610329 0.4785325825214386 0.6855145692825317 0.06165006384253502 0.0017282969783991575 -0.0 0.29693125670277754 -0.1075540333181624 0.4809000069994156 -1.216815240314677 1.1972607439128744 -1.1972607722216964 0.01935972676655563 0.053447628330317805 0.0 0.0 0.0 0.18000000715255737 -1.478484731010782e-07 1.3910554886862022e-07 -3.842212807090772e-07 3.041684651941734e-10 -1.877412019551051e-08 -1.1851080004990929e-08 0.29693126165600103 -0.10755403694238791 0.4808999999601586 -1.2168152373783163 1.1972607938676736 -1.197260793622111 0.019359726649629833 0.053447627098080215 7.399833122566007e-87 -1.0225234799152724e-69 -1.6566329622498975e-71 0.1800000000000001
5671.911999999999 0.01767200000000002 -1.5707963267948966 -1.5707963267948966 0.0 1.5707963267948966 2.874388319914797e-69 0.1880000000000001 0.0 0.0 0.0 0.0 -1.0681091221252991e-69 1.0000000000000009 0.0 0.0 0.0 0.0 -5.681431500666486e-69 0.06241429327824387 0.4785737979217907 0.6855225174713225 0.06166636682578567 0.0017304557648159307 -8.926160157713792e-71 0.819499670743342 6.2836739667131125 6.383722787196449 0.28027363722319587 0.007864921451088405 -4.056939791680918e-70 0.01767200045287609 -1.570796314870016 -1.570796314870016 0.0 1.5707963705062866 0.0 0.18799999356269836 0.0 0.0 0.0 0.0 -0.0 0.06241429224610329 0.4785737991333008 0.6855224967002869 0.06166636571288109 0.0017304557841271162 -0.0 0.06241429224610329 0.4785737991333008 0.6855224967002869 0.06166636571288109 0.0017304557841271162 -0.0 0.29708925449325674 -0.10711683413327777 0.4809000069994156 -1.217502905141476 1.196175038469913 -1.196175066753064 0.02013796412751285 0.05585277793227912 0.0 0.0 0.0 0.18799999356269836 8.658811770347651e-07 -3.7343434924180824e-07 8.833101589256642e-07 1.0679023507012616e-10 -6.0423043071808184e-09 3.1744887831808084e-08 0.29708925944831077 -0.1071168377599121 0.4808999999601586 -1.2175029022230284 1.196175088439035 -1.196175088193695 0.020137965498863486 0.05585278077628246 -7.016697107547795e-87 -1.067942341448575e-69 -1.8874641946597818e-71 0.1880000000000001
5671.92 0.019208000000000024 -1.5707963267948966 -1.5707963267948966 0.0 1.5707963267948966 2.865661641129773e-69 0.19600000000000012 0.0 0.0 0.0 0.0 -1.113560574130631e-69 1.0000000000000009 0.0 0.0 0.0 0.0 -5.681431500666486e-69 0.06241429327824387 0.47861680900999 0.6855308204446185 0.061683378695524045 0.001732708472048616 -8.926160157713792e-71 0.819499670743342 6.2842387023011685 6.383800106144378 0.2803509561711568 0.007875160005460959 -4.056939791680918e-70 0.019207999110221863 -1.570796314870016 -1.570796314870016 0.0 1.5707963705062866 0.0 0.19599999487400055 0.0 0.0 0.0 0.0 -0.0 0.06241429224610329 0.4786168038845062 0.6855308413505554 0.061683379113674164 0.0017327084206044674 -0.0 0.06241429224610329 0.4786168038845062 0.6855308413505554 0.061683379113674164 0.0017327084206044674 -0.0 0.29725343528190507 -0.10666037925678627 0.4809000069994156 -1.2182197003722162 1.1950419709896984 -1.195041999246058 0.020905433787589064 0.058261671791532445 0.0 0.0 0.0 0.19599999487400055 -1.0871035060298075e-06 6.081627422249082e-07 -9.040083398705922e-07 -3.7707595118552513e-10 1.9628797795508368e-08 -5.127558625935118e-08 0.29725344038573187 -0.1066603824766968 0.4808999999601586 -1.2182196981145987 1.1950420199581016 -1.1950420197129938 0.020905434965432585 0.05826167431560348 -3.229475920246369e-87 -1.1133551578828325e-69 -2.138795627996354e-71 0.19600000000000012
5671.928 0.020808000000000024 -1.5707963267948966 -1.5707963267948966 0.0 1.5707963267948966 2.8565713507287066e-69 0.20400000000000013 0.0 0.0 0.0 0.0 -1.1590120261359629e-69 1.0000000000000009 0.0 0.0 0.0 0.0 -5.681431500666486e-69 0.06241429327824387 0.4786616122268642 0.6855394693751354 0.06170109939316824 0.0017350550420826628 -8.926160157713792e-71 0.819499670743342 6.284826968538727 6.383880646715136 0.28043149674194967 0.007885825166265702 -4.056939791680918e-70 0.02080800011754036 -1.570796314870016 -1.570796314870016 0.0 1.5707963705062866 0.0 0.20399999618530273 0.0 0.0 0.0 0.0 -0.0 0.06241429224610329 0.4786616265773773 0.6855394840240479 0.06170110031962395 0.001735055004246533 -0.0 0.06241429224610329 0.4786616265773773 0.6855394840240479 0.06170110031962395 0.001735055004246533 -0.0 0.2974237114385482 -0.10618463713840348 0.4809000069994156 -1.2189655300209952 1.193861518739881 -1.193861546968329 0.021661665571172065 0.060674435998882406 0.0 0.0 0.0 0.20399999618530273 2.144445297249275e-07 -4.526321875638921e-08 -6.19943071263422e-07 1.3478704715313566e-09 -6.476707018097667e-08 4.243645771968493e-09 0.29742371644055854 -0.10618464064974416 0.4808999999601586 -1.218965527329405 1.193861568440728 -1.1938615681958624 0.02166166669254782 0.06067443815387398 -4.776319907074563e-87 -1.1587611248107643e-69 -2.4114981963129047e-71 0.20400000000000013
5671.936 0.022472000000000027 -1.5707963267948966 -1.5707963267948966 0.0 1.5707963267948966 2.8471174487115974e-69 0.21200000000000013 0.0 0.0 0.0 0.0 -1.2044634781412946e-69 1.0000000000000009 0.0 0.0 0.0 0.0 -5.681431500666471e-69 0.06241429327824387 0.47870820757241345 0.6855484642628729 0.06171952891871815 0.001737495474918072 -8.926160157713766e-71 0.819499670743342 6.285438765425789 6.383964408908725 0.280515258935574 0.007896916933502637 -4.056939791680906e-70 0.022471999749541283 -1.570796314870016 -1.570796314870016 0.0 1.5707963705062866 0.0 0.21199999749660492 0.0 0.0 0.0 0.0 -0.0 0.06241429224610329 0.4787082076072693 0.6855484843254089 0.06171952933073044 0.001737495418637991 -0.0 0.06241429224610329 0.4787082076072693 0.6855484843254089 0.06171952933073044 0.001737495418637991 -0.0 0.2975999907867454 -0.10568957741340544 0.4809000069994156 -1.219740290605898 1.1926336637028632 -1.1926336919022793 0.022406190147059187 0.06309119730177967 0.0 0.0 0.0 0.21199999749660492 -7.751663436942571e-07 4.4803198178512734e-07 -8.673095263212677e-07 8.708519566307225e-11 -3.874576027740708e-09 -3.785530452833519e-08 0.2975999958334854 -0.1056895808069014 0.4808999999601586 -1.2197402881228097 1.1926337131210196 -1.192633712876406 0.02240619113106311 0.06309119911669894 6.712029023106476e-87 -1.2041593694612281e-69 -2.706442526569238e-71 0.21200000000000013
5671.9439999999995 0.02420000000000003 -1.5707963267948966 -1.5707963267948966 0.0 1.5707963267948966 2.837299935078446e-69 0.22000000000000014 0.0 0.0 0.0 0.0 -1.2499149301466265e-69 1.0000000000000009 0.0 0.0 0.0 0.0 -5.681431500666486e-69 0.06241429327824387 0.4787565950466376 0.6855578051078309 0.061738667272173864 0.001740029770554843 -8.926160157713792e-71 0.819499670743342 6.286074092962352 6.384051392725144 0.2806022427520302 0.00790843530717176 -4.056939791680918e-70 0.02419999986886978 -1.570796314870016 -1.570796314870016 0.0 1.5707963705062866 0.0 0.2199999988079071 0.0 0.0 0.0 0.0 -0.0 0.06241429224610329 0.4787566065788269 0.6855577826499939 0.06173866614699364 0.0017400297801941633 -0.0 0.06241429224610329 0.4787566065788269 0.6855577826499939 0.06173866614699364 0.0017400297801941633 -0.0 0.2977821779838822 -0.10517516705606278 0.4809000069994156 -1.2205438772353714 1.1913583829628693 -1.191358411132132 0.023138536626955242 0.06551207880147006 0.0 0.0 0.0 0.2199999988079071 1.49667350709144e-06 -6.798470369601459e-07 9.56707776771737e-07 1.2839081421556653e-09 -5.304365988389855e-08 5.8585451058100365e-08 0.2977821830239281 -0.10517517047636682 0.4808999999601586 -1.2205438747352868 1.1913584324574837 -1.1913584322131314 0.023138537504800716 0.06551208026526423 -7.36153877050286e-87 -1.2495489479184567e-69 -3.024498899527456e-71 0.22000000000000014
5671.951999999999 0.025992000000000032 -1.5707963267948966 -1.5707963267948966 0.0 1.5707963267948966 2.8271188098292517e-69 0.22800000000000015 0.0 0.0 0.0 0.0 -1.2953663821519584e-69 1.0000000000000009 0.0 0.0 0.0 0.0 -5.681431500666486e-69 0.06241429327824387 0.4788067746495368 0.6855674919100099 0.06175851445353533 0.001742657928992975 -8.926160157713792e-71 0.819499670743342 6.2867329511484185 6.384141598164395 0.28069244819131806 0.007920380287273071 -4.056939791680918e-70 0.025992000475525856 -1.570796314870016 -1.570796314870016 0.0 1.5707963705062866 0.0 0.2280000001192093 0.0 0.0 0.0 0.0 -0.0 0.06241429224610329 0.4788067638874054 0.6855674982070923 0.06175851449370384 0.0017426579724997282 -0.0 0.06241429224610329 0.4788067638874054 0.6855674982070923 0.06175851449370384 0.0017426579724997282 -0.0 0.29797017371738865 -0.10464137262538374 0.4809000069994156 -1.2213761801405063 1.1900356542090162 -1.1900356823470033 0.023858232971061717 0.06793719964308542 0.0 0.0 0.0 0.2280000001192093 -8.332646855788971e-07 4.753278277670882e-07 -2.741248726029664e-07 -1.2415642351656547e-09 4.775636675228375e-08 -4.088754912028856e-08 0.2979701787000745 -0.10464137621741593 0.4808999999601586 -1.2213761773987715 1.1900357041394096 -1.1900357038953286 0.023858233777570848 0.06793720074361702 7.2356041303344045e-87 -1.294928842343289e-69 -3.366537207462148e-71 0.22800000000000015
5671.96 0.027848000000000036 -1.5707963267948966 -1.5707963267948966 0.0 1.5707963267948966 2.8165740729640146e-69 0.23600000000000015 0.0 0.0 0.0 0.0 -1.3408178341572903e-69 1.0000000000000009 0.0 0.0 0.0 0.0 -5.681431500666486e-69 0.06241429327824387 0.478858746381111 0.6855775246694095 0.06177907046280255 0.0017453799502324702 -8.926160157713792e-71 0.819499670743342 6.287415339983987 6.3842350252264755 0.28078587525343757 0.007932751873806576 -4.056939791680918e-70 0.027847999706864357 -1.570796314870016 -1.570796314870016 0.0 1.5707963705062866 0.0 0.23600000143051147 0.0 0.0 0.0 0.0 -0.0 0.06241429224610329 0.47885873913764954 0.6855775117874146 0.061779070645570755 0.0017453799955546856 -0.0 0.06241429224610329 0.47885873913764954 0.6855775117874146 0.061779070645570755 0.0017453799955546856 -0.0 0.29816387469932515 -0.10408816029875992 0.4809000069994156 -1.2222370846869535 1.1886654557430216 -1.1886654838486106 0.024564805979406648 0.07036667485556758 0.0 0.0 0.0 0.23600000143051147 1.0166353422315589e-07 1.3611858156475906e-08 5.664262370600027e-07 -1.0724293467762195e-09 3.8500088292042874e-08 -1.0885287836054873e-09 0.29816387976867764 -0.10408816365235099 0.4808999999601586 -1.222237082343233 1.1886655050934765 -1.1886655048496766 0.02456480662195485 0.07036667562540797 4.450590530543472e-87 -1.340297958196643e-69 -3.73342690856084e-71 0.23600000000000015
5671.968 0.02976800000000004 -1.5707963267948966 -1.5707963267948966 0.0 1.5707963267948966 2.805665724482735e-69 0.24400000000000016 0.0 0.0 0.0 0.0 -1.3862692861626222e-69 1.0000000000000009 0.0 0.0 0.0 0.0 -5.681431500666486e-69 0.06241429327824387 0.47891251024136 0.6855879033860296 0.06180033529997555 0.0017481958342733268 -8.926160157713792e-71 0.819499670743342 6.288121259469057 6.384331673911386 0.28088252393838886 0.007945550066772271 -4.056939791680918e-70 0.029767999425530434 -1.570796314870016 -1.570796314870016 0.0 1.5707963705062866 0.0 0.24400000274181366 0.0 0.0 0.0 0.0 -0.0 0.06241429224610329 0.47891250252723694 0.6855878829956055 0.061800334602594376 0.0017481958493590355 -0.0 0.06241429224610329 0.47891250252723694 0.6855878829956055 0.061800334602594376 0.0017481958493590355 -0.0 0.29836317423970393 -0.10351549423976714 0.4809000069994156 -1.2231264739743324 1.1872477623608548 -1.187247790432923 0.025257780878323376 0.07280061533254399 0.0 0.0 0.0 0.24400000274181366 3.672482988791285e-07 -1.168157142336403e-07 8.755456598563859e-07 -1.1162436705871815e-09 3.748696834273531e-08 1.038962396558567e-08 0.29836317934460843 -0.10351549749967917 0.4808999999601586 -1.2231264718034711 1.187247811490587 -1.187247811247078 0.025257781389921734 0.07280061576008451 -6.003178068636179e-87 -1.3856551214654872e-69 -4.126036977890731e-71 0.24400000000000016
5671.976 0.031752000000000044 -1.5707963267948966 -1.5707963267948966 0.0 1.5707963267948966 2.794393764385413e-69 0.25200000000000017 0.0 0.0 0.0 0.0 -1.431720738167954e-69 1.0000000000000009 0.0 0.0 0.0 0.0 -5.681431500666486e-69 0.06241429327824387 0.4789680662302841 0.6855986280598706 0.06182230896505432 0.0017511055811155446 -8.926160157713792e-71 0.819499670743342 6.28885070960363 6.384431544219127 0.2809823942461719 0.00795877486617015 -4.056939791680918e-70 0.031752001494169235 -1.570796314870016 -1.570796314870016 0.0 1.5707963705062866 0.0 0.25200000405311584 0.0 0.0 0.0 0.0 -0.0 0.06241429224610329 0.4789680540561676 0.685598611831665 0.061822310090065 0.001751105533912778 -0.0 0.06241429224610329 0.4789680540561676 0.685598611831665 0.061822310090065 0.001751105533912778 -0.0 0.2985679618417275 -0.10292333774111652 0.4809000069994156 -1.22404422710938 1.1857825481087971 -1.185782576146221 0.025936681527921574 0.07523912759424586 0.0 0.0 0.0 0.25200000405311584 -3.837957761686853e-08 8.023382949921237e-08 7.326305705017554e-07 -2.164244882501728e-09 6.813789937464612e-08 -6.453090881968819e-09 0.29856796674017844 -0.10292334160852327 0.4808999999601586 -1.2240442240261296 1.1857825987529225 -1.185782598509714 0.025936682085347884 0.07523912761852501 -1.08174145575399e-87 -1.4309990758915984e-69 -4.545235854807915e-71 0.25200000000000017
5671.9839999999995 0.033800000000000045 -1.5707963267948966 -1.5707963267948966 0.0 1.5707963267948966 2.782758192672048e-69 0.2600000000000002 0.0 0.0 0.0 0.0 -1.477172190173286e-69 1.0000000000000009 0.0 0.0 0.0 0.0 -5.681431500666486e-69 0.06241429327824387 0.47902541434788315 0.6856096986909322 0.06184499145803886 0.0017541091907591249 -8.926160157713792e-71 0.819499670743342 6.289603690387706 6.384534636149699 0.2810854861767866 0.007972426272000222 -4.056939791680918e-70 0.033799998462200165 -1.570796314870016 -1.570796314870016 0.0 1.5707963705062866 0.0 0.25999999046325684 0.0 0.0 0.0 0.0 -0.0 0.06241429224610329 0.4790254235267639 0.6856096982955933 0.06184498965740204 0.0017541091656312346 -0.0 0.06241429224610329 0.4790254235267639 0.6856096982955933 0.06184498965740204 0.0017541091656312346 -0.0 0.2987781222376853 -0.102311656042789 0.4809000069994156 -1.2249902149140897 1.1842697931705097 -1.184269821172165 0.026601029595405154 0.07768230893242796 0.0 0.0 0.0 0.25999999046325684 5.164032684712848e-07 -1.8820117617454113e-07 -2.1113322764719012e-08 1.805257326013799e-09 -5.338958446912504e-08 1.6948326270092316e-08 0.2987781274542522 -0.10231165899426961 0.4808999999601586 -1.2249902132769248 1.184269841561221 -1.1842698413183226 0.026601031338510116 0.07768231313810563 1.0556801219685083e-86 -1.4763284802034053e-69 -4.991891386685478e-71 0.2600000000000002
5671.992 0.03591200000000005 -1.5707963267948966 -1.5707963267948966 0.0 1.5707963267948966 2.77075900934264e-69 0.2680000000000002 0.0 0.0 0.0 0.0 -1.522623642178618e-69 1.0000000000000009 0.0 0.0 0.0 0.0 -5.681431500666486e-69 0.06241429327824387 0.4790845545941571 0.6856211152792143 0.06186838277892914 0.0017572066632040673 -8.926160157713792e-71 0.819499670743342 6.290380201821283 6.3846409497031 0.28119179973023295 0.007986504284262485 -4.056939791680918e-70 0.03591199964284897 -1.570796314870016 -1.570796314870016 0.0 1.5707963705062866 0.0 0.2680000066757202 0.0 0.0 0.0 0.0 -0.0 0.06241429224610329 0.4790845513343811 0.6856211423873901 0.06186838448047638 0.001757206628099084 -0.0 0.06241429224610329 0.4790845513343811 0.6856211423873901 0.06186838448047638 0.001757206628099084 -0.0 0.2989935380584233 -0.10168040858199455 0.4809000069994156 -1.225964311983459 1.182709464613749 -1.1827094925785109 0.0272503501787645 0.08013027019565466 0.0 0.0 0.0 0.2680000066757202 -1.236123012985403e-06 6.572380762668875e-07 -1.147494624941364e-06 -6.166461260769126e-10 1.7163667368746397e-08 -5.726843891884144e-08 0.2989935431611632 -0.10168041187545758 0.4808999999601586 -1.2259643098480912 1.1827095138622747 -1.1827095136196966 0.02725035038262265 0.0801302695671918 8.770366688214495e-87 -1.5216419053512436e-69 -5.4668707688371025e-71 0.2680000000000002
5672.0 0.03808800000000005 -1.5707963267948966 -1.5707963267948966 0.0 1.5707963267948966 2.7583962143971896e-69 0.2760000000000002 0.0 0.0 0.0 0.0 -1.5680750941839498e-69 1.0000000000000009 0.0 0.0 0.0 0.0 -5.681431500666486e-69 0.06241429327824387 0.4791454869691062 0.6856328778247174 0.06189248292772521 0.0017603979984503711 -8.926160157713792e-71 0.819499670743342 6.291180243904365 6.3847504848793335 0.28130133490651105 0.008001008902956937 -4.056939791680918e-70 0.03808800131082535 -1.570796314870016 -1.570796314870016 0.0 1.5707963705062866 0.0 0.2759999930858612 0.0 0.0 0.0 0.0 -0.0 0.06241429224610329 0.47914549708366394 0.6856328845024109 0.06189248338341713 0.0017603980377316475 -0.0 0.06241429224610329 0.47914549708366394 0.6856328845024109 0.06189248338341713 0.0017603980377316475 -0.0 0.29921408675807115 -0.10102955793048218 0.4809000069994156 -1.2269663829207935 1.1811015384102854 -1.1811015663370283 0.0278841572902807 0.08258308587641991 0.0 0.0 0.0 0.2759999930858612 2.929952397645016e-07 -7.721453163498892e-08 -2.818893141503313e-07 1.742246469498917e-09 -4.5720489513063356e-08 7.0545018514174395e-09 0.2992140916994507 -0.10102956171191588 0.4808999999601586 -1.2269663800660362 1.1811015888766456 -1.1811015886343972 0.027884159032488802 0.08258308930904844 -1.8282828111490205e-87 -1.5669378317463685e-69 -5.971040480512998e-71 0.2760000000000002
5672.008 0.04032800000000006 -1.5707963267948966 -1.5707963267948966 0.0 1.5707963267948966 2.745669807835697e-69 0.2840000000000002 0.0 0.0 0.0 0.0 -1.6135265461892817e-69 1.0000000000000009 0.0 0.0 0.0 0.0 -5.681431500666486e-69 0.06241429327824387 0.47920821147273 0.6856449863274406 0.06191729190442705 0.0017636831964980369 -8.926160157713792e-71 0.819499670743342 6.292003816636945 6.384863241678394 0.28141409170562093 0.008015940128083578 -4.056939791680918e-70 0.040327999740839005 -1.570796314870016 -1.570796314870016 0.0 1.5707963705062866 0.0 0.2840000092983246 0.0 0.0 0.0 0.0 -0.0 0.06241429224610329 0.47920820116996765 0.6856449842453003 0.06191729009151459 0.0017636831616982818 -0.0 0.06241429224610329 0.47920820116996765 0.6856449842453003 0.06191729009151459 0.0017636831616982818 -0.0 0.29943964195303385 -0.10035906594391017 0.4809000069994156 -1.22799628838195 1.1794459898157303 -1.1794460177033284 0.028501975661241657 0.0850408610989486 0.0 0.0 0.0 0.2840000092983246 -4.878729456388677e-07 2.939587532604451e-07 5.228425695192538e-08 -1.4770960187694992e-09 3.660717580011581e-08 -2.5508424868701852e-08 0.2994396470604337 -0.10035906924414953 0.4808999999601586 -1.227996286299203 1.17944603910659 -1.179446038864681 0.028501975665338485 0.08504085976516322 2.6743100779737e-87 -1.6122146465040906e-69 -6.5052662168453034e-71 0.2840000000000002
5672.016 0.04263200000000006 -1.5707963267948966 -1.5707963267948966 0.0 1.5707963267948966 2.7325797896581613e-69 0.2920000000000002 0.0 0.0 0.0 0.0 -1.6589779981946136e-69 1.0000000000000009 0.0 0.0 0.0 0.0 -5.681431500666486e-69 0.06241429327824387 0.47927272810502897 0.6856574407873851 0.061942809709034645 0.001767062257347065 -8.926160157713792e-71 0.819499670743342 6.29285092001903 6.384979220100287 0.2815300701275625 0.008031297959642409 -4.056939791680918e-70 0.04263199865818024 -1.570796314870016 -1.570796314870016 0.0 1.5707963705062866 0.0 0.2919999957084656 0.0 0.0 0.0 0.0 -0.0 0.06241429224610329 0.479272723197937 0.6856574416160583 0.06194280833005905 0.0017670622328296304 -0.0 0.06241429224610329 0.479272723197937 0.6856574416160583 0.06194280833005905 0.0017670622328296304 -0.0 0.2996700741537445 -0.09966889156996006 0.4809000069994156 -1.22905388850137 1.1777427878695013 -1.1777428157168275 0.02910331591069586 0.08750366036684896 0.0 0.0 0.0 0.2919999957084656 -3.0517457441463125e-07 2.062122376375091e-07 -6.55766308309775e-08 -5.810990222078011e-10 1.3622320712073799e-08 -1.7827219144056152e-08 0.299670079376642 -0.0996688945339828 0.4808999999601586 -1.2290538869661392 1.177742836344203 -1.1777428361026434 0.029103317203922997 0.08750366317797952 -9.559285682851507e-87 -1.6574706406914314e-69 -7.070412816620365e-71 0.2920000000000002
5672.023999999999 0.04500000000000006 -1.5707963267948966 -1.5707963267948966 0.0 1.5707963267948966 2.719126159864583e-69 0.3000000000000002 0.0 0.0 0.0 0.0 -1.7044294501999455e-69 1.0000000000000009 0.0 0.0 0.0 0.0 -5.681431500666486e-69 0.06241429327824387 0.47933903686600277 0.6856702412045499 0.06196903634154801 0.0017705351809974546 -8.926160157713792e-71 0.819499670743342 6.293721554050617 6.38509842014501 0.2816492701723357 0.00804708239763343 -4.056939791680918e-70 0.04500000178813934 -1.570796314870016 -1.570796314870016 0.0 1.5707963705062866 0.0 0.30000001192092896 0.0 0.0 0.0 0.0 -0.0 0.06241429224610329 0.47933903336524963 0.6856702566146851 0.06196903809905052 0.0017705351347103715 -0.0 0.06241429224610329 0.47933903336524963 0.6856702566146851 0.06196903809905052 0.0017705351347103715 -0.0 0.29990524998995594 -0.09895899311612473 0.4809000069994156 -1.2301390394606122 1.1759919009069195 -1.1759919287128469 0.029687699114520544 0.08997157857213596 0.0 0.0 0.0 0.30000001192092896 -7.980770013554136e-07 4.367905654641648e-07 -6.354720550055033e-07 -1.0037268947621547e-09 2.2289981820335875e-08 -3.846688141257164e-08 0.29990525491011993 -0.09895899700646253 0.4808999999601586 -1.2301390365437679 1.175991951679768 -1.1759919514385677 0.029687699101938782 0.08997157647303604 7.484181756657971e-87 -1.7027040065797122e-69 -7.667344185755601e-71 0.3000000000000002
5672.032 0.047432000000000064 -1.5707963267948966 -1.5707963267948966 0.0 1.5707963267948966 2.705308918454962e-69 0.3080000000000002 0.0 0.0 0.0 0.0 -1.7498809022052774e-69 1.0000000000000009 0.0 0.0 0.0 0.0 -5.681431500666486e-69 0.062414293278243854 0.4794071377556517 0.6856833875789357 0.061995971801967115 0.001774101967449206 -8.926160157713792e-71 0.8194996707433418 6.294615718731707 6.385220841812564 0.2817716918399405 0.00806329344205664 -4.056939791680918e-70 0.04743200168013573 -1.570796314870016 -1.570796314870016 0.0 1.5707963705062866 0.0 0.30799999833106995 0.0 0.0 0.0 0.0 -0.0 0.06241429224610329 0.4794071316719055 0.6856833696365356 0.0619959719479084 0.001774101983755827 -0.0 0.06241429224610329 0.4794071316719055 0.6856833696365356 0.0619959719479084 0.001774101983755827 -0.0 0.3001450311004041 -0.09822933164708322 0.4809000069994156 -1.2312515883879958 1.1741933048336937 -1.1741933325970937 0.030254633983363748 0.09244466907800339 0.0 0.0 0.0 0.30799999833106995 3.6341360860825146e-07 -1.0755373194648413e-07 7.866190965455508e-07 -1.637697713441179e-09 3.4501340020566775e-08 1.0135847985728635e-08 0.3001450360406239 -0.09822933549302694 0.4808999999601586 -1.2312515855758612 1.174193355510318 -1.1741933552694863 0.03025463533185232 0.09244467110051223 1.0910524092408612e-86 -1.747912834902513e-69 -8.296923216359045e-71 0.3080000000000002
5672.04 0.04992800000000007 -1.5707963267948966 -1.5707963267948966 0.0 1.5707963267948966 2.6911280654292987e-69 0.3160000000000002 0.0 0.0 0.0 0.0 -1.7953323542106092e-69 1.0000000000000009 0.0 0.0 0.0 0.0 -5.681431500666486e-69 0.06241429327824387 0.47947703077397563 0.685696879910542 0.062023616090292034 0.0017777626167023192 -8.926160157713792e-71 0.819499670743342 6.2955334140623 6.385346485102949 0.2818973351303773 0.00807993109291204 -4.056939791680918e-70 0.04992799833416939 -1.570796314870016 -1.570796314870016 0.0 1.5707963705062866 0.0 0.3160000145435333 0.0 0.0 0.0 0.0 -0.0 0.06241429224610329 0.47947701811790466 0.6856968998908997 0.06202361732721329 0.001777762663550675 -0.0 0.06241429224610329 0.47947701811790466 0.6856968998908997 0.06202361732721329 0.001777762663550675 -0.0 0.3003892759777636 -0.09747986544743559 0.4809000069994156 -1.2323913819106214 1.172346969363948 -1.172346997083692 0.030803638899091317 0.09492301557769474 0.0 0.0 0.0 0.3160000145435333 -1.4850923333304373e-06 7.530111402941526e-07 -8.461396821170398e-07 -2.9799701238602498e-09 5.963572834131957e-08 -6.787786457313615e-08 0.30038928125373193 -0.09747986827594414 0.4808999999601586 -1.2323913806817055 1.172347017548395 -1.172347017307942 0.03080363837519837 0.09492301287617935 -8.067343501302913e-88 -1.7930951121194755e-69 -8.960011701249991e-71 0.3160000000000002
5672.048 0.052488000000000076 -1.5707963267948966 -1.5707963267948966 0.0 1.5707963267948966 2.6765836007875923e-69 0.32400000000000023 0.0 0.0 0.0 0.0 -1.8407838062159411e-69 1.0000000000000009 0.0 0.0 0.0 0.0 -5.681431500666486e-69 0.06241429327824387 0.4795487159209744 0.6857107181993689 0.062051969206522686 0.0017815171287567945 -8.926160157713792e-71 0.819499670743342 6.296474640042394 6.385475350016163 0.2820262000436456 0.00809699535019963 -4.056939791680918e-70 0.05248799920082092 -1.570796314870016 -1.570796314870016 0.0 1.5707963705062866 0.0 0.3240000009536743 0.0 0.0 0.0 0.0 -0.0 0.06241429224610329 0.47954872250556946 0.6857107281684875 0.06205197051167488 0.0017815171740949154 -0.0 0.06241429224610329 0.47954872250556946 0.6857107281684875 0.06205197051167488 0.0017815171740949154 -0.0 0.3006378399295081 -0.09671055005848464 0.4809000069994156 -1.2335582661333033 1.1704528580231404 -1.1704528856980991 0.03133421831117939 0.09740666042387121 0.0 0.0 0.0 0.3240000009536743 -3.025206913290929e-08 7.682750906826462e-08 -4.075147011504017e-07 1.3225687941103485e-09 -2.5174378476057126e-08 -6.619556294251589e-09 0.3006378451288857 -0.0967105531340257 0.4808999999601586 -1.233558264564963 1.1704529068310208 -1.1704529065909564 0.03133421921542435 0.09740666182175904 -5.080667969597917e-87 -1.8382487176864347e-69 -9.657470243819656e-71 0.32400000000000023
5672.056 0.05511200000000008 -1.5707963267948966 -1.5707963267948966 0.0 1.5707963267948966 2.6616755245298433e-69 0.33200000000000024 0.0 0.0 0.0 0.0 -1.886235258221273e-69 1.0000000000000009 0.0 0.0 0.0 0.0 -5.681431500666486e-69 0.06241429327824387 0.479622193196648 0.6857249024454163 0.06208103115065914 0.0017853655036126322 -8.926160157713792e-71 0.819499670743342 6.297439396671988 6.385607436552205 0.2821582865797458 0.008114486213919412 -4.056939791680918e-70 0.055112000554800034 -1.570796314870016 -1.570796314870016 0.0 1.5707963705062866 0.0 0.3319999873638153 0.0 0.0 0.0 0.0 -0.0 0.06241429224610329 0.4796221852302551 0.6857249140739441 0.06208103150129318 0.0017853655153885484 -0.0 0.06241429224610329 0.4796221852302551 0.6857249140739441 0.06208103150129318 0.0017853655153885484 -0.0 0.3008905732498319 -0.09592134392033264 0.4809000069994156 -1.2347520781491625 1.1685109419370383 -1.168510969566081 0.03184588496947062 0.09989566651683535 0.0 0.0 0.0 0.3319999873638153 -9.012809876501282e-07 4.752010602692046e-07 -5.003214506194519e-07 -1.938450050584067e-09 3.513729385244653e-08 -4.297943001513864e-08 0.3008905783273864 -0.0959213473896195 0.4808999999601586 -1.2347520760227253 1.168510991728862 -1.168510991489196 0.031845887333353695 0.09989567200469236 1.2275155298923522e-86 -1.8833714213324006e-69 -1.0390158163111093e-70 0.33200000000000024
5672.063999999999 0.05780000000000008 -1.5707963267948966 -1.5707963267948966 0.0 1.5707963267948966 2.646403836656052e-69 0.34000000000000025 0.0 0.0 0.0 0.0 -1.931686710226605e-69 1.0000000000000009 0.0 0.0 0.0 0.0 -5.681431500666486e-69 0.06241429327824387 0.4796974626009967 0.6857394326486845 0.06211080192270134 0.001789307741269831 -8.926160157713792e-71 0.819499670743342 6.298427683951087 6.38574274471108 0.28229359473867754 0.008132403684071381 -4.056939791680918e-70 0.05779999867081642 -1.570796314870016 -1.570796314870016 0.0 1.5707963705062866 0.0 0.3400000035762787 0.0 0.0 0.0 0.0 -0.0 0.06241429224610329 0.47969746589660645 0.6857394576072693 0.06211080029606819 0.0017893076874315739 -0.0 0.06241429224610329 0.47969746589660645 0.6857394576072693 0.06211080029606819 0.0017893076874315739 -0.0 0.30114732231431246 -0.09511220506861759 0.4809000069994156 -1.2359726511666724 1.166521191576971 -1.166521219158967 0.03233815006347773 0.10239009066385299 0.0 0.0 0.0 0.3400000035762787 -8.022454436214843e-07 4.2576568522659613e-07 -1.1245598336897403e-06 1.9199979553928484e-09 -3.318091741708598e-08 -3.83628570572719e-08 0.3011473275803639 -0.09511220795688684 0.4808999999601586 -1.235972649954751 1.1665212399555938 -1.1665212397163358 0.032338150705341545 0.1023900913773238 4.318755937421273e-87 -1.9284608803439376e-69 -1.1158933393998216e-70 0.34000000000000025
5672.072 0.060552000000000085 -1.5707963267948966 -1.5707963267948966 0.0 1.5707963267948966 2.630768537166218e-69 0.34800000000000025 0.0 0.0 0.0 0.0 -1.9771381622319368e-69 1.0000000000000009 0.0 0.0 0.0 0.0 -5.681431500666486e-69 0.06241429327824387 0.4797745241340206 0.6857543088091735 0.06214128152264929 0.0017933438417283916 -8.926160157713792e-71 0.819499670743342 6.29943950187969 6.385881274492787 0.28243212452044103 0.00815074776065554 -4.056939791680918e-70 0.060552000999450684 -1.570796314870016 -1.570796314870016 0.0 1.5707963705062866 0.0 0.3479999899864197 0.0 0.0 0.0 0.0 -0.0 0.06241429224610329 0.479774534702301 0.6857542991638184 0.06214128062129021 0.0017933438066393137 -0.0 0.06241429224610329 0.479774534702301 0.6857542991638184 0.06214128062129021 0.0017933438066393137 -0.0 0.3014079306223144 -0.09428308781573355 0.4809000069994156 -1.2372198195795303 1.164483568493739 -1.1644835960275557 0.032810513615764 0.10488995683839289 0.0 0.0 0.0 0.3479999899864197 9.625435531576148e-07 -3.7389752553513477e-07 4.019826693159391e-07 3.101133023236882e-09 -5.115174554121251e-08 3.549610692046659e-08 0.3014079356767435 -0.09428309139136853 0.4808999999601586 -1.2372198173728859 1.1644836185774603 -1.16448361833862 0.03281051580419627 0.10488996161550682 5.863128777559624e-87 -1.9735146368575144e-69 -1.196465238234421e-70 0.34800000000000025
5672.08 0.06336800000000009 -1.5707963267948966 -1.5707963267948966 0.0 1.5707963267948966 2.614769626060341e-69 0.35600000000000026 0.0 0.0 0.0 0.0 -2.0225896142372687e-69 1.0000000000000009 0.0 0.0 0.0 0.0 -5.681431500666486e-69 0.06241429327824387 0.4798533777957193 0.6857695309268834 0.062172469950503004 0.0017974738049883142 -8.926160157713792e-71 0.819499670743342 6.300474850457794 6.386023025897323 0.28257387592503613 0.008169518443671888 -4.056939791680918e-70 0.06336800009012222 -1.570796314870016 -1.570796314870016 0.0 1.5707963705062866 0.0 0.35600000619888306 0.0 0.0 0.0 0.0 -0.0 0.06241429224610329 0.47985339164733887 0.6857695579528809 0.06217246875166893 0.001797473756596446 -0.0 0.06241429224610329 0.47985339164733887 0.6857695579528809 0.06217246875166893 0.001797473756596446 -0.0 0.30167223630178996 -0.09343395065377573 0.4809000069994156 -1.2384934071434648 1.1623980446321627 -1.1623980721166678 0.03326248701193029 0.10739531799346815 0.0 0.0 0.0 0.35600000619888306 -2.994170545911129e-07 1.948773764149243e-07 -1.2057219023357522e-06 5.050008212764709e-09 -7.958659034586481e-08 -1.7261369811205796e-08 0.30167224145123017 -0.09343395394084414 0.4808999999601586 -1.2384934054106707 1.1623980940230243 -1.1623980937846121 0.03326248760294054 0.10739531795663802 1.009503124768141e-86 -2.018530115160426e-69 -1.2808169975020191e-70 0.35600000000000026
5672.088 0.0662480000000001 -1.5707963267948966 -1.5707963267948966 0.0 1.5707963267948966 2.5984071033384216e-69 0.36400000000000027 0.0 0.0 0.0 0.0 -2.0680410662426006e-69 1.0000000000000009 0.0 0.0 0.0 0.0 -5.681431500666486e-69 0.062414293278243854 0.4799340235860929 0.6857850990018135 0.06220436720626251 0.0018016976310495994 -8.926160157713792e-71 0.8194996707433418 6.301533729685399 6.386167998924688 0.2827188489524631 0.008188715733120428 -4.056939791680918e-70 0.06624799966812134 -1.570796314870016 -1.570796314870016 0.0 1.5707963705062866 0.0 0.36399999260902405 0.0 0.0 0.0 0.0 -0.0 0.06241429224610329 0.47993403673171997 0.6857851147651672 0.06220436841249466 0.0018016976537182927 -0.0 0.06241429224610329 0.47993403673171997 0.6857851147651672 0.06220436841249466 0.0018016976537182927 -0.0 0.3019400745743872 -0.09256474845268402 0.4809000069994156 -1.2397932388121293 1.160264583034887 -1.1602646104689474 0.03369356775263315 0.10990618491344512 0.0 0.0 0.0 0.36399999260902405 1.0515632727599315e-07 1.5217232731802384e-08 -6.626456130394192e-07 3.8283050058255874e-09 -5.7702878363761527e-08 -7.764557176367414e-10 0.3019400797723352 -0.09256475159748945 0.4808999999601586 -1.2397932373331149 1.1602646320931096 -1.160264631855135 0.033693569581486185 0.1099061890371301 5.696524885831551e-87 -2.0635046190009231e-69 -1.3690339304665627e-70 0.36400000000000027
5672.096 0.0691920000000001 -1.5707963267948966 -1.5707963267948966 0.0 1.5707963267948966 2.5816809690004593e-69 0.3720000000000003 0.0 0.0 0.0 0.0 -2.1134925182479325e-69 1.0000000000000009 0.0 0.0 0.0 0.0 -5.681431500666486e-69 0.06241429327824387 0.4800164615051414 0.6858010130339645 0.06223697328992778 0.0018060153199122464 -8.926160157713792e-71 0.819499670743342 6.302616139562507 6.386316193574884 0.28286704360272175 0.008208339629001159 -4.056939791680918e-70 0.06919199973344803 -1.570796314870016 -1.570796314870016 0.0 1.5707963705062866 0.0 0.3720000088214874 0.0 0.0 0.0 0.0 -0.0 0.06241429224610329 0.48001646995544434 0.6858010292053223 0.0622369721531868 0.00180601526517421 -0.0 0.06241429224610329 0.48001646995544434 0.6858010292053223 0.0622369721531868 0.00180601526517421 -0.0 0.30221127632927314 -0.09167543700210483 0.4809000069994156 -1.2411191339906007 1.1580831488848544 -1.1580831762673356 0.034103263373496714 0.11242259746044259 0.0 0.0 0.0 0.3720000088214874 -1.725354281226787e-07 1.364917988633104e-07 -7.303981559412397e-07 3.532951693427124e-09 -5.0978571935685826e-08 -1.1880094138522458e-08 0.30221128153046806 -0.09167544015133636 0.4808999999601586 -1.2411191325466522 1.1580831979709267 -1.1580831977333996 0.03410326373629715 0.1124225967293342 1.3650258200077378e-87 -2.108435328908211e-69 -1.4612011669072596e-70 0.3720000000000003
