Fleaurent/UniversalRobot/csv/ursim_movej_Synchron.csv
timestamp target_q_0 target_q_1 target_q_2 target_q_3 target_q_4 target_q_5 target_qd_0 target_qd_1 target_qd_2 target_qd_3 target_qd_4 target_qd_5 target_qdd_0 target_qdd_1 target_qdd_2 target_qdd_3 target_qdd_4 target_qdd_5 target_current_0 target_current_1 target_current_2 target_current_3 target_current_4 target_current_5 target_moment_0 target_moment_1 target_moment_2 target_moment_3 target_moment_4 target_moment_5 actual_q_0 actual_q_1 actual_q_2 actual_q_3 actual_q_4 actual_q_5 actual_qd_0 actual_qd_1 actual_qd_2 actual_qd_3 actual_qd_4 actual_qd_5 actual_current_0 actual_current_1 actual_current_2 actual_current_3 actual_current_4 actual_current_5 joint_control_output_0 joint_control_output_1 joint_control_output_2 joint_control_output_3 joint_control_output_4 joint_control_output_5 actual_TCP_pose_0 actual_TCP_pose_1 actual_TCP_pose_2 actual_TCP_pose_3 actual_TCP_pose_4 actual_TCP_pose_5 actual_TCP_speed_0 actual_TCP_speed_1 actual_TCP_speed_2 actual_TCP_speed_3 actual_TCP_speed_4 actual_TCP_speed_5 actual_TCP_force_0 actual_TCP_force_1 actual_TCP_force_2 actual_TCP_force_3 actual_TCP_force_4 actual_TCP_force_5 target_TCP_pose_0 target_TCP_pose_1 target_TCP_pose_2 target_TCP_pose_3 target_TCP_pose_4 target_TCP_pose_5 target_TCP_speed_0 target_TCP_speed_1 target_TCP_speed_2 target_TCP_speed_3 target_TCP_speed_4 target_TCP_speed_5
5929.504 0.0 -1.5707963267948966 -1.5707963267948966 0.0 1.5707963267948966 0.0 0.0 0.0 0.0 0.0 0.0 0.0 0.0 0.0 0.0 0.0 0.0 0.0 -1.6018983243994446e-26 0.4870342307692309 0.6867077006507593 0.06409467546754684 -8.567713817370151e-28 0.0 -2.1032924999364705e-25 6.394759450000002 6.3947594500000005 0.2913103000000004 -3.894025929994733e-27 0.0 0.0 -1.570796314870016 -1.570796314870016 0.0 1.5707963705062866 0.0 0.0 0.0 0.0 0.0 0.0 0.0 -1.6018983942199055e-26 0.48703423142433167 0.6867076754570007 0.064094677567482 -8.567714098795418e-28 0.0 -1.6018983942199055e-26 0.48703423142433167 0.6867076754570007 0.064094677567482 -8.567714098795418e-28 0.0 0.2951499950589256 -0.11234999647001062 0.4809000069994156 -1.2091995794109558 1.2091995265551612 -1.2091995551462715 0.0 0.0 0.0 0.0 0.0 0.0 9.98197363699075e-07 -5.258967243140419e-07 1.1449168978424651e-06 -1.810306069369398e-15 1.8116749963478e-08 4.307094529482943e-08 0.2951500000000001 -0.11235000004997346 0.4808999999601586 -1.2091995763071834 1.2091995763071837 -1.2091995760591723 0.0 0.0 0.0 0.0 0.0 0.0
5929.512 0.0 -1.5707963267948966 -1.5707963267948966 0.0 1.5707963267948966 0.0 0.0 0.0 0.0 0.0 0.0 0.0 0.0 0.0 0.0 0.0 0.0 0.0 -1.6018983243994446e-26 0.4870342307692309 0.6867077006507593 0.06409467546754684 -8.567713817370151e-28 0.0 -2.1032924999364705e-25 6.394759450000002 6.3947594500000005 0.2913103000000004 -3.894025929994733e-27 0.0 0.0 -1.570796314870016 -1.570796314870016 0.0 1.5707963705062866 0.0 0.0 0.0 0.0 0.0 0.0 0.0 -1.6018983942199055e-26 0.48703423142433167 0.6867076754570007 0.064094677567482 -8.567714098795418e-28 0.0 -1.6018983942199055e-26 0.48703423142433167 0.6867076754570007 0.064094677567482 -8.567714098795418e-28 0.0 0.2951499950589256 -0.11234999647001062 0.4809000069994156 -1.2091995794109558 1.2091995265551612 -1.2091995551462715 0.0 0.0 0.0 0.0 0.0 0.0 9.98197363699075e-07 -5.258967243140419e-07 1.1449168978424651e-06 -1.810306069369398e-15 1.8116749963478e-08 4.307094529482943e-08 0.2951500000000001 -0.11235000004997346 0.4808999999601586 -1.2091995763071834 1.2091995763071837 -1.2091995760591723 0.0 0.0 0.0 0.0 0.0 0.0
5929.5199999999995 0.0 -1.5707963267948966 -1.5707963267948966 0.0 1.5707963267948966 0.0 0.0 0.0 0.0 0.0 0.0 0.0 0.0 0.0 0.0 0.0 0.0 0.0 -1.6018983243994446e-26 0.4870342307692309 0.6867077006507593 0.06409467546754684 -8.567713817370151e-28 0.0 -2.1032924999364705e-25 6.394759450000002 6.3947594500000005 0.2913103000000004 -3.894025929994733e-27 0.0 0.0 -1.570796314870016 -1.570796314870016 0.0 1.5707963705062866 0.0 0.0 0.0 0.0 0.0 0.0 0.0 -1.6018983942199055e-26 0.48703423142433167 0.6867076754570007 0.064094677567482 -8.567714098795418e-28 0.0 -1.6018983942199055e-26 0.48703423142433167 0.6867076754570007 0.064094677567482 -8.567714098795418e-28 0.0 0.2951499950589256 -0.11234999647001062 0.4809000069994156 -1.2091995794109558 1.2091995265551612 -1.2091995551462715 0.0 0.0 0.0 0.0 0.0 0.0 9.98197363699075e-07 -5.258967243140419e-07 1.1449168978424651e-06 -1.810306069369398e-15 1.8116749963478e-08 4.307094529482943e-08 0.2951500000000001 -0.11235000004997346 0.4808999999601586 -1.2091995763071834 1.2091995763071837 -1.2091995760591723 0.0 0.0 0.0 0.0 0.0 0.0
5929.527999999999 0.0 -1.5707963267948966 -1.5707963267948966 0.0 1.5707963267948966 0.0 0.0 0.0 0.0 0.0 0.0 0.0 0.0 0.0 0.0 0.0 0.0 0.0 -1.6018983243994446e-26 0.4870342307692309 0.6867077006507593 0.06409467546754684 -8.567713817370151e-28 0.0 -2.1032924999364705e-25 6.394759450000002 6.3947594500000005 0.2913103000000004 -3.894025929994733e-27 0.0 0.0 -1.570796314870016 -1.570796314870016 0.0 1.5707963705062866 0.0 0.0 0.0 0.0 0.0 0.0 0.0 -1.6018983942199055e-26 0.48703423142433167 0.6867076754570007 0.064094677567482 -8.567714098795418e-28 0.0 -1.6018983942199055e-26 0.48703423142433167 0.6867076754570007 0.064094677567482 -8.567714098795418e-28 0.0 0.2951499950589256 -0.11234999647001062 0.4809000069994156 -1.2091995794109558 1.2091995265551612 -1.2091995551462715 0.0 0.0 0.0 0.0 0.0 0.0 9.98197363699075e-07 -5.258967243140419e-07 1.1449168978424651e-06 -1.810306069369398e-15 1.8116749963478e-08 4.307094529482943e-08 0.2951500000000001 -0.11235000004997346 0.4808999999601586 -1.2091995763071834 1.2091995763071837 -1.2091995760591723 0.0 0.0 0.0 0.0 0.0 0.0
5929.536 0.0 -1.5707963267948966 -1.5707963267948966 0.0 1.5707963267948966 0.0 0.0 0.0 0.0 0.0 0.0 0.0 0.0 0.0 0.0 0.0 0.0 0.0 -1.6018983243994446e-26 0.4870342307692309 0.6867077006507593 0.06409467546754684 -8.567713817370151e-28 0.0 -2.1032924999364705e-25 6.394759450000002 6.3947594500000005 0.2913103000000004 -3.894025929994733e-27 0.0 0.0 -1.570796314870016 -1.570796314870016 0.0 1.5707963705062866 0.0 0.0 0.0 0.0 0.0 0.0 0.0 -1.6018983942199055e-26 0.48703423142433167 0.6867076754570007 0.064094677567482 -8.567714098795418e-28 0.0 -1.6018983942199055e-26 0.48703423142433167 0.6867076754570007 0.064094677567482 -8.567714098795418e-28 0.0 0.2951499950589256 -0.11234999647001062 0.4809000069994156 -1.2091995794109558 1.2091995265551612 -1.2091995551462715 0.0 0.0 0.0 0.0 0.0 0.0 9.98197363699075e-07 -5.258967243140419e-07 1.1449168978424651e-06 -1.810306069369398e-15 1.8116749963478e-08 4.307094529482943e-08 0.2951500000000001 -0.11235000004997346 0.4808999999601586 -1.2091995763071834 1.2091995763071837 -1.2091995760591723 0.0 0.0 0.0 0.0 0.0 0.0
5929.544 0.0 -1.5707963267948966 -1.5707963267948966 0.0 1.5707963267948966 0.0 0.0 0.0 0.0 0.0 0.0 0.0 0.0 0.0 0.0 0.0 0.0 0.0 -1.6018983243994446e-26 0.4870342307692309 0.6867077006507593 0.06409467546754684 -8.567713817370151e-28 0.0 -2.1032924999364705e-25 6.394759450000002 6.3947594500000005 0.2913103000000004 -3.894025929994733e-27 0.0 0.0 -1.570796314870016 -1.570796314870016 0.0 1.5707963705062866 0.0 0.0 0.0 0.0 0.0 0.0 0.0 -1.6018983942199055e-26 0.48703423142433167 0.6867076754570007 0.064094677567482 -8.567714098795418e-28 0.0 -1.6018983942199055e-26 0.48703423142433167 0.6867076754570007 0.064094677567482 -8.567714098795418e-28 0.0 0.2951499950589256 -0.11234999647001062 0.4809000069994156 -1.2091995794109558 1.2091995265551612 -1.2091995551462715 0.0 0.0 0.0 0.0 0.0 0.0 9.98197363699075e-07 -5.258967243140419e-07 1.1449168978424651e-06 -1.810306069369398e-15 1.8116749963478e-08 4.307094529482943e-08 0.2951500000000001 -0.11235000004997346 0.4808999999601586 -1.2091995763071834 1.2091995763071837 -1.2091995760591723 0.0 0.0 0.0 0.0 0.0 0.0
5929.552 0.0 -1.5707963267948966 -1.5707963267948966 0.0 1.5707963267948966 0.0 0.0 0.0 0.0 0.0 0.0 0.0 0.0 0.0 0.0 0.0 0.0 0.0 -1.6018983243994446e-26 0.4870342307692309 0.6867077006507593 0.06409467546754684 -8.567713817370151e-28 0.0 -2.1032924999364705e-25 6.394759450000002 6.3947594500000005 0.2913103000000004 -3.894025929994733e-27 0.0 0.0 -1.570796314870016 -1.570796314870016 0.0 1.5707963705062866 0.0 0.0 0.0 0.0 0.0 0.0 0.0 -1.6018983942199055e-26 0.48703423142433167 0.6867076754570007 0.064094677567482 -8.567714098795418e-28 0.0 -1.6018983942199055e-26 0.48703423142433167 0.6867076754570007 0.064094677567482 -8.567714098795418e-28 0.0 0.2951499950589256 -0.11234999647001062 0.4809000069994156 -1.2091995794109558 1.2091995265551612 -1.2091995551462715 0.0 0.0 0.0 0.0 0.0 0.0 9.98197363699075e-07 -5.258967243140419e-07 1.1449168978424651e-06 -1.810306069369398e-15 1.8116749963478e-08 4.307094529482943e-08 0.2951500000000001 -0.11235000004997346 0.4808999999601586 -1.2091995763071834 1.2091995763071837 -1.2091995760591723 0.0 0.0 0.0 0.0 0.0 0.0
5929.5599999999995 0.0 -1.5707963267948966 -1.5707963267948966 0.0 1.5707963267948966 0.0 0.0 0.0 0.0 0.0 0.0 0.0 0.0 0.0 0.0 0.0 0.0 0.0 -1.6018983243994446e-26 0.4870342307692309 0.6867077006507593 0.06409467546754684 -8.567713817370151e-28 0.0 -2.1032924999364705e-25 6.394759450000002 6.3947594500000005 0.2913103000000004 -3.894025929994733e-27 0.0 0.0 -1.570796314870016 -1.570796314870016 0.0 1.5707963705062866 0.0 0.0 0.0 0.0 0.0 0.0 0.0 -1.6018983942199055e-26 0.48703423142433167 0.6867076754570007 0.064094677567482 -8.567714098795418e-28 0.0 -1.6018983942199055e-26 0.48703423142433167 0.6867076754570007 0.064094677567482 -8.567714098795418e-28 0.0 0.2951499950589256 -0.11234999647001062 0.4809000069994156 -1.2091995794109558 1.2091995265551612 -1.2091995551462715 0.0 0.0 0.0 0.0 0.0 0.0 9.98197363699075e-07 -5.258967243140419e-07 1.1449168978424651e-06 -1.810306069369398e-15 1.8116749963478e-08 4.307094529482943e-08 0.2951500000000001 -0.11235000004997346 0.4808999999601586 -1.2091995763071834 1.2091995763071837 -1.2091995760591723 0.0 0.0 0.0 0.0 0.0 0.0
5929.567999999999 0.0 -1.5707963267948966 -1.5707963267948966 0.0 1.5707963267948966 0.0 0.0 0.0 0.0 0.0 0.0 0.0 0.0 0.0 0.0 0.0 0.0 0.0 -1.6018983243994446e-26 0.4870342307692309 0.6867077006507593 0.06409467546754684 -8.567713817370151e-28 0.0 -2.1032924999364705e-25 6.394759450000002 6.3947594500000005 0.2913103000000004 -3.894025929994733e-27 0.0 0.0 -1.570796314870016 -1.570796314870016 0.0 1.5707963705062866 0.0 0.0 0.0 0.0 0.0 0.0 0.0 -1.6018983942199055e-26 0.48703423142433167 0.6867076754570007 0.064094677567482 -8.567714098795418e-28 0.0 -1.6018983942199055e-26 0.48703423142433167 0.6867076754570007 0.064094677567482 -8.567714098795418e-28 0.0 0.2951499950589256 -0.11234999647001062 0.4809000069994156 -1.2091995794109558 1.2091995265551612 -1.2091995551462715 0.0 0.0 0.0 0.0 0.0 0.0 9.98197363699075e-07 -5.258967243140419e-07 1.1449168978424651e-06 -1.810306069369398e-15 1.8116749963478e-08 4.307094529482943e-08 0.2951500000000001 -0.11235000004997346 0.4808999999601586 -1.2091995763071834 1.2091995763071837 -1.2091995760591723 0.0 0.0 0.0 0.0 0.0 0.0
5929.576 0.0 -1.5707963267948966 -1.5707963267948966 0.0 1.5707963267948966 0.0 0.0 0.0 0.0 0.0 0.0 0.0 0.0 0.0 0.0 0.0 0.0 0.0 -1.6018983243994446e-26 0.4870342307692309 0.6867077006507593 0.06409467546754684 -8.567713817370151e-28 0.0 -2.1032924999364705e-25 6.394759450000002 6.3947594500000005 0.2913103000000004 -3.894025929994733e-27 0.0 0.0 -1.570796314870016 -1.570796314870016 0.0 1.5707963705062866 0.0 0.0 0.0 0.0 0.0 0.0 0.0 -1.6018983942199055e-26 0.48703423142433167 0.6867076754570007 0.064094677567482 -8.567714098795418e-28 0.0 -1.6018983942199055e-26 0.48703423142433167 0.6867076754570007 0.064094677567482 -8.567714098795418e-28 0.0 0.2951499950589256 -0.11234999647001062 0.4809000069994156 -1.2091995794109558 1.2091995265551612 -1.2091995551462715 0.0 0.0 0.0 0.0 0.0 0.0 9.98197363699075e-07 -5.258967243140419e-07 1.1449168978424651e-06 -1.810306069369398e-15 1.8116749963478e-08 4.307094529482943e-08 0.2951500000000001 -0.11235000004997346 0.4808999999601586 -1.2091995763071834 1.2091995763071837 -1.2091995760591723 0.0 0.0 0.0 0.0 0.0 0.0
5929.584 0.0 -1.5707963267948966 -1.5707963267948966 0.0 1.5707963267948966 0.0 0.0 0.0 0.0 0.0 0.0 0.0 0.0 0.0 0.0 0.0 0.0 0.0 -1.6018983243994446e-26 0.4870342307692309 0.6867077006507593 0.06409467546754684 -8.567713817370151e-28 0.0 -2.1032924999364705e-25 6.394759450000002 6.3947594500000005 0.2913103000000004 -3.894025929994733e-27 0.0 0.0 -1.570796314870016 -1.570796314870016 0.0 1.5707963705062866 0.0 0.0 0.0 0.0 0.0 0.0 0.0 -1.6018983942199055e-26 0.48703423142433167 0.6867076754570007 0.064094677567482 -8.567714098795418e-28 0.0 -1.6018983942199055e-26 0.48703423142433167 0.6867076754570007 0.064094677567482 -8.567714098795418e-28 0.0 0.2951499950589256 -0.11234999647001062 0.4809000069994156 -1.2091995794109558 1.2091995265551612 -1.2091995551462715 0.0 0.0 0.0 0.0 0.0 0.0 9.98197363699075e-07 -5.258967243140419e-07 1.1449168978424651e-06 -1.810306069369398e-15 1.8116749963478e-08 4.307094529482943e-08 0.2951500000000001 -0.11235000004997346 0.4808999999601586 -1.2091995763071834 1.2091995763071837 -1.2091995760591723 0.0 0.0 0.0 0.0 0.0 0.0
5929.592 0.0 -1.5707963267948966 -1.5707963267948966 0.0 1.5707963267948966 0.0 0.0 0.0 0.0 0.0 0.0 0.0 0.0 0.0 0.0 0.0 0.0 0.0 -1.6018983243994446e-26 0.4870342307692309 0.6867077006507593 0.06409467546754684 -8.567713817370151e-28 0.0 -2.1032924999364705e-25 6.394759450000002 6.3947594500000005 0.2913103000000004 -3.894025929994733e-27 0.0 0.0 -1.570796314870016 -1.570796314870016 0.0 1.5707963705062866 0.0 0.0 0.0 0.0 0.0 0.0 0.0 -1.6018983942199055e-26 0.48703423142433167 0.6867076754570007 0.064094677567482 -8.567714098795418e-28 0.0 -1.6018983942199055e-26 0.48703423142433167 0.6867076754570007 0.064094677567482 -8.567714098795418e-28 0.0 0.2951499950589256 -0.11234999647001062 0.4809000069994156 -1.2091995794109558 1.2091995265551612 -1.2091995551462715 0.0 0.0 0.0 0.0 0.0 0.0 9.98197363699075e-07 -5.258967243140419e-07 1.1449168978424651e-06 -1.810306069369398e-15 1.8116749963478e-08 4.307094529482943e-08 0.2951500000000001 -0.11235000004997346 0.4808999999601586 -1.2091995763071834 1.2091995763071837 -1.2091995760591723 0.0 0.0 0.0 0.0 0.0 0.0
5929.599999999999 0.0 -1.5707963267948966 -1.5707963267948966 0.0 1.5707963267948966 0.0 0.0 0.0 0.0 0.0 0.0 0.0 0.0 0.0 0.0 0.0 0.0 0.0 -1.6018983243994446e-26 0.4870342307692309 0.6867077006507593 0.06409467546754684 -8.567713817370151e-28 0.0 -2.1032924999364705e-25 6.394759450000002 6.3947594500000005 0.2913103000000004 -3.894025929994733e-27 0.0 0.0 -1.570796314870016 -1.570796314870016 0.0 1.5707963705062866 0.0 0.0 0.0 0.0 0.0 0.0 0.0 -1.6018983942199055e-26 0.48703423142433167 0.6867076754570007 0.064094677567482 -8.567714098795418e-28 0.0 -1.6018983942199055e-26 0.48703423142433167 0.6867076754570007 0.064094677567482 -8.567714098795418e-28 0.0 0.2951499950589256 -0.11234999647001062 0.4809000069994156 -1.2091995794109558 1.2091995265551612 -1.2091995551462715 0.0 0.0 0.0 0.0 0.0 0.0 9.98197363699075e-07 -5.258967243140419e-07 1.1449168978424651e-06 -1.810306069369398e-15 1.8116749963478e-08 4.307094529482943e-08 0.2951500000000001 -0.11235000004997346 0.4808999999601586 -1.2091995763071834 1.2091995763071837 -1.2091995760591723 0.0 0.0 0.0 0.0 0.0 0.0
5929.608 0.0 -1.5707963267948966 -1.5707963267948966 0.0 1.5707963267948966 0.0 0.0 0.0 0.0 0.0 0.0 0.0 0.0 0.0 0.0 0.0 0.0 0.0 -1.6018983243994446e-26 0.4870342307692309 0.6867077006507593 0.06409467546754684 -8.567713817370151e-28 0.0 -2.1032924999364705e-25 6.394759450000002 6.3947594500000005 0.2913103000000004 -3.894025929994733e-27 0.0 0.0 -1.570796314870016 -1.570796314870016 0.0 1.5707963705062866 0.0 0.0 0.0 0.0 0.0 0.0 0.0 -1.6018983942199055e-26 0.48703423142433167 0.6867076754570007 0.064094677567482 -8.567714098795418e-28 0.0 -1.6018983942199055e-26 0.48703423142433167 0.6867076754570007 0.064094677567482 -8.567714098795418e-28 0.0 0.2951499950589256 -0.11234999647001062 0.4809000069994156 -1.2091995794109558 1.2091995265551612 -1.2091995551462715 0.0 0.0 0.0 0.0 0.0 0.0 9.98197363699075e-07 -5.258967243140419e-07 1.1449168978424651e-06 -1.810306069369398e-15 1.8116749963478e-08 4.307094529482943e-08 0.2951500000000001 -0.11235000004997346 0.4808999999601586 -1.2091995763071834 1.2091995763071837 -1.2091995760591723 0.0 0.0 0.0 0.0 0.0 0.0
5929.616 0.0 -1.5707963267948966 -1.5707963267948966 0.0 1.5707963267948966 0.0 0.0 0.0 0.0 0.0 0.0 0.0 0.0 0.0 0.0 0.0 0.0 0.0 -1.6018983243994446e-26 0.4870342307692309 0.6867077006507593 0.06409467546754684 -8.567713817370151e-28 0.0 -2.1032924999364705e-25 6.394759450000002 6.3947594500000005 0.2913103000000004 -3.894025929994733e-27 0.0 0.0 -1.570796314870016 -1.570796314870016 0.0 1.5707963705062866 0.0 0.0 0.0 0.0 0.0 0.0 0.0 -1.6018983942199055e-26 0.48703423142433167 0.6867076754570007 0.064094677567482 -8.567714098795418e-28 0.0 -1.6018983942199055e-26 0.48703423142433167 0.6867076754570007 0.064094677567482 -8.567714098795418e-28 0.0 0.2951499950589256 -0.11234999647001062 0.4809000069994156 -1.2091995794109558 1.2091995265551612 -1.2091995551462715 0.0 0.0 0.0 0.0 0.0 0.0 9.98197363699075e-07 -5.258967243140419e-07 1.1449168978424651e-06 -1.810306069369398e-15 1.8116749963478e-08 4.307094529482943e-08 0.2951500000000001 -0.11235000004997346 0.4808999999601586 -1.2091995763071834 1.2091995763071837 -1.2091995760591723 0.0 0.0 0.0 0.0 0.0 0.0
5929.624 0.0 -1.5707963267948966 -1.5707963267948966 0.0 1.5707963267948966 0.0 0.0 0.0 0.0 0.0 0.0 0.0 0.0 0.0 0.0 0.0 0.0 0.0 -1.6018983243994446e-26 0.4870342307692309 0.6867077006507593 0.06409467546754684 -8.567713817370151e-28 0.0 -2.1032924999364705e-25 6.394759450000002 6.3947594500000005 0.2913103000000004 -3.894025929994733e-27 0.0 0.0 -1.570796314870016 -1.570796314870016 0.0 1.5707963705062866 0.0 0.0 0.0 0.0 0.0 0.0 0.0 -1.6018983942199055e-26 0.48703423142433167 0.6867076754570007 0.064094677567482 -8.567714098795418e-28 0.0 -1.6018983942199055e-26 0.48703423142433167 0.6867076754570007 0.064094677567482 -8.567714098795418e-28 0.0 0.2951499950589256 -0.11234999647001062 0.4809000069994156 -1.2091995794109558 1.2091995265551612 -1.2091995551462715 0.0 0.0 0.0 0.0 0.0 0.0 9.98197363699075e-07 -5.258967243140419e-07 1.1449168978424651e-06 -1.810306069369398e-15 1.8116749963478e-08 4.307094529482943e-08 0.2951500000000001 -0.11235000004997346 0.4808999999601586 -1.2091995763071834 1.2091995763071837 -1.2091995760591723 0.0 0.0 0.0 0.0 0.0 0.0
5929.632 0.0 -1.5707963267948966 -1.5707963267948966 0.0 1.5707963267948966 0.0 0.0 0.0 0.0 0.0 0.0 0.0 0.0 0.0 0.0 0.0 0.0 0.0 -1.6018983243994446e-26 0.4870342307692309 0.6867077006507593 0.06409467546754684 -8.567713817370151e-28 0.0 -2.1032924999364705e-25 6.394759450000002 6.3947594500000005 0.2913103000000004 -3.894025929994733e-27 0.0 0.0 -1.570796314870016 -1.570796314870016 0.0 1.5707963705062866 0.0 0.0 0.0 0.0 0.0 0.0 0.0 -1.6018983942199055e-26 0.48703423142433167 0.6867076754570007 0.064094677567482 -8.567714098795418e-28 0.0 -1.6018983942199055e-26 0.48703423142433167 0.6867076754570007 0.064094677567482 -8.567714098795418e-28 0.0 0.2951499950589256 -0.11234999647001062 0.4809000069994156 -1.2091995794109558 1.2091995265551612 -1.2091995551462715 0.0 0.0 0.0 0.0 0.0 0.0 9.98197363699075e-07 -5.258967243140419e-07 1.1449168978424651e-06 -1.810306069369398e-15 1.8116749963478e-08 4.307094529482943e-08 0.2951500000000001 -0.11235000004997346 0.4808999999601586 -1.2091995763071834 1.2091995763071837 -1.2091995760591723 0.0 0.0 0.0 0.0 0.0 0.0
5929.639999999999 0.0 -1.5707963267948966 -1.5707963267948966 0.0 1.5707963267948966 0.0 0.0 0.0 0.0 0.0 0.0 0.0 0.0 0.0 0.0 0.0 0.0 0.0 -1.6018983243994446e-26 0.4870342307692309 0.6867077006507593 0.06409467546754684 -8.567713817370151e-28 0.0 -2.1032924999364705e-25 6.394759450000002 6.3947594500000005 0.2913103000000004 -3.894025929994733e-27 0.0 0.0 -1.570796314870016 -1.570796314870016 0.0 1.5707963705062866 0.0 0.0 0.0 0.0 0.0 0.0 0.0 -1.6018983942199055e-26 0.48703423142433167 0.6867076754570007 0.064094677567482 -8.567714098795418e-28 0.0 -1.6018983942199055e-26 0.48703423142433167 0.6867076754570007 0.064094677567482 -8.567714098795418e-28 0.0 0.2951499950589256 -0.11234999647001062 0.4809000069994156 -1.2091995794109558 1.2091995265551612 -1.2091995551462715 0.0 0.0 0.0 0.0 0.0 0.0 9.98197363699075e-07 -5.258967243140419e-07 1.1449168978424651e-06 -1.810306069369398e-15 1.8116749963478e-08 4.307094529482943e-08 0.2951500000000001 -0.11235000004997346 0.4808999999601586 -1.2091995763071834 1.2091995763071837 -1.2091995760591723 0.0 0.0 0.0 0.0 0.0 0.0
5929.648 0.0 -1.5707963267948966 -1.5707963267948966 0.0 1.5707963267948966 0.0 0.0 0.0 0.0 0.0 0.0 0.0 0.0 0.0 0.0 0.0 0.0 0.0 -1.6018983243994446e-26 0.4870342307692309 0.6867077006507593 0.06409467546754684 -8.567713817370151e-28 0.0 -2.1032924999364705e-25 6.394759450000002 6.3947594500000005 0.2913103000000004 -3.894025929994733e-27 0.0 0.0 -1.570796314870016 -1.570796314870016 0.0 1.5707963705062866 0.0 0.0 0.0 0.0 0.0 0.0 0.0 -1.6018983942199055e-26 0.48703423142433167 0.6867076754570007 0.064094677567482 -8.567714098795418e-28 0.0 -1.6018983942199055e-26 0.48703423142433167 0.6867076754570007 0.064094677567482 -8.567714098795418e-28 0.0 0.2951499950589256 -0.11234999647001062 0.4809000069994156 -1.2091995794109558 1.2091995265551612 -1.2091995551462715 0.0 0.0 0.0 0.0 0.0 0.0 9.98197363699075e-07 -5.258967243140419e-07 1.1449168978424651e-06 -1.810306069369398e-15 1.8116749963478e-08 4.307094529482943e-08 0.2951500000000001 -0.11235000004997346 0.4808999999601586 -1.2091995763071834 1.2091995763071837 -1.2091995760591723 0.0 0.0 0.0 0.0 0.0 0.0
5929.656 0.0 -1.5707963267948966 -1.5707963267948966 0.0 1.5707963267948966 0.0 0.0 0.0 0.0 0.0 0.0 0.0 0.0 0.0 0.0 0.0 0.0 0.0 -1.6018983243994446e-26 0.4870342307692309 0.6867077006507593 0.06409467546754684 -8.567713817370151e-28 0.0 -2.1032924999364705e-25 6.394759450000002 6.3947594500000005 0.2913103000000004 -3.894025929994733e-27 0.0 0.0 -1.570796314870016 -1.570796314870016 0.0 1.5707963705062866 0.0 0.0 0.0 0.0 0.0 0.0 0.0 -1.6018983942199055e-26 0.48703423142433167 0.6867076754570007 0.064094677567482 -8.567714098795418e-28 0.0 -1.6018983942199055e-26 0.48703423142433167 0.6867076754570007 0.064094677567482 -8.567714098795418e-28 0.0 0.2951499950589256 -0.11234999647001062 0.4809000069994156 -1.2091995794109558 1.2091995265551612 -1.2091995551462715 0.0 0.0 0.0 0.0 0.0 0.0 9.98197363699075e-07 -5.258967243140419e-07 1.1449168978424651e-06 -1.810306069369398e-15 1.8116749963478e-08 4.307094529482943e-08 0.2951500000000001 -0.11235000004997346 0.4808999999601586 -1.2091995763071834 1.2091995763071837 -1.2091995760591723 0.0 0.0 0.0 0.0 0.0 0.0
5929.664 0.0 -1.5707963267948966 -1.5707963267948966 0.0 1.5707963267948966 0.0 0.0 0.0 0.0 0.0 0.0 0.0 0.0 0.0 0.0 0.0 0.0 0.0 -1.6018983243994446e-26 0.4870342307692309 0.6867077006507593 0.06409467546754684 -8.567713817370151e-28 0.0 -2.1032924999364705e-25 6.394759450000002 6.3947594500000005 0.2913103000000004 -3.894025929994733e-27 0.0 0.0 -1.570796314870016 -1.570796314870016 0.0 1.5707963705062866 0.0 0.0 0.0 0.0 0.0 0.0 0.0 -1.6018983942199055e-26 0.48703423142433167 0.6867076754570007 0.064094677567482 -8.567714098795418e-28 0.0 -1.6018983942199055e-26 0.48703423142433167 0.6867076754570007 0.064094677567482 -8.567714098795418e-28 0.0 0.2951499950589256 -0.11234999647001062 0.4809000069994156 -1.2091995794109558 1.2091995265551612 -1.2091995551462715 0.0 0.0 0.0 0.0 0.0 0.0 9.98197363699075e-07 -5.258967243140419e-07 1.1449168978424651e-06 -1.810306069369398e-15 1.8116749963478e-08 4.307094529482943e-08 0.2951500000000001 -0.11235000004997346 0.4808999999601586 -1.2091995763071834 1.2091995763071837 -1.2091995760591723 0.0 0.0 0.0 0.0 0.0 0.0
5929.672 0.0 -1.5707963267948966 -1.5707963267948966 0.0 1.5707963267948966 0.0 0.0 0.0 0.0 0.0 0.0 0.0 0.0 0.0 0.0 0.0 0.0 0.0 -1.6018983243994446e-26 0.4870342307692309 0.6867077006507593 0.06409467546754684 -8.567713817370151e-28 0.0 -2.1032924999364705e-25 6.394759450000002 6.3947594500000005 0.2913103000000004 -3.894025929994733e-27 0.0 0.0 -1.570796314870016 -1.570796314870016 0.0 1.5707963705062866 0.0 0.0 0.0 0.0 0.0 0.0 0.0 -1.6018983942199055e-26 0.48703423142433167 0.6867076754570007 0.064094677567482 -8.567714098795418e-28 0.0 -1.6018983942199055e-26 0.48703423142433167 0.6867076754570007 0.064094677567482 -8.567714098795418e-28 0.0 0.2951499950589256 -0.11234999647001062 0.4809000069994156 -1.2091995794109558 1.2091995265551612 -1.2091995551462715 0.0 0.0 0.0 0.0 0.0 0.0 9.98197363699075e-07 -5.258967243140419e-07 1.1449168978424651e-06 -1.810306069369398e-15 1.8116749963478e-08 4.307094529482943e-08 0.2951500000000001 -0.11235000004997346 0.4808999999601586 -1.2091995763071834 1.2091995763071837 -1.2091995760591723 0.0 0.0 0.0 0.0 0.0 0.0
5929.679999999999 0.0 -1.5707963267948966 -1.5707963267948966 0.0 1.5707963267948966 0.0 0.0 0.0 0.0 0.0 0.0 0.0 0.0 0.0 0.0 0.0 0.0 0.0 -1.6018983243994446e-26 0.4870342307692309 0.6867077006507593 0.06409467546754684 -8.567713817370151e-28 0.0 -2.1032924999364705e-25 6.394759450000002 6.3947594500000005 0.2913103000000004 -3.894025929994733e-27 0.0 0.0 -1.570796314870016 -1.570796314870016 0.0 1.5707963705062866 0.0 0.0 0.0 0.0 0.0 0.0 0.0 -1.6018983942199055e-26 0.48703423142433167 0.6867076754570007 0.064094677567482 -8.567714098795418e-28 0.0 -1.6018983942199055e-26 0.48703423142433167 0.6867076754570007 0.064094677567482 -8.567714098795418e-28 0.0 0.2951499950589256 -0.11234999647001062 0.4809000069994156 -1.2091995794109558 1.2091995265551612 -1.2091995551462715 0.0 0.0 0.0 0.0 0.0 0.0 9.98197363699075e-07 -5.258967243140419e-07 1.1449168978424651e-06 -1.810306069369398e-15 1.8116749963478e-08 4.307094529482943e-08 0.2951500000000001 -0.11235000004997346 0.4808999999601586 -1.2091995763071834 1.2091995763071837 -1.2091995760591723 0.0 0.0 0.0 0.0 0.0 0.0
5929.688 0.0 -1.5707963267948966 -1.5707963267948966 0.0 1.5707963267948966 0.0 0.0 0.0 0.0 0.0 0.0 0.0 0.0 0.0 0.0 0.0 0.0 0.0 -1.6018983243994446e-26 0.4870342307692309 0.6867077006507593 0.06409467546754684 -8.567713817370151e-28 0.0 -2.1032924999364705e-25 6.394759450000002 6.3947594500000005 0.2913103000000004 -3.894025929994733e-27 0.0 0.0 -1.570796314870016 -1.570796314870016 0.0 1.5707963705062866 0.0 0.0 0.0 0.0 0.0 0.0 0.0 -1.6018983942199055e-26 0.48703423142433167 0.6867076754570007 0.064094677567482 -8.567714098795418e-28 0.0 -1.6018983942199055e-26 0.48703423142433167 0.6867076754570007 0.064094677567482 -8.567714098795418e-28 0.0 0.2951499950589256 -0.11234999647001062 0.4809000069994156 -1.2091995794109558 1.2091995265551612 -1.2091995551462715 0.0 0.0 0.0 0.0 0.0 0.0 9.98197363699075e-07 -5.258967243140419e-07 1.1449168978424651e-06 -1.810306069369398e-15 1.8116749963478e-08 4.307094529482943e-08 0.2951500000000001 -0.11235000004997346 0.4808999999601586 -1.2091995763071834 1.2091995763071837 -1.2091995760591723 0.0 0.0 0.0 0.0 0.0 0.0
5929.696 0.0 -1.5707963267948966 -1.5707963267948966 0.0 1.5707963267948966 0.0 0.0 0.0 0.0 0.0 0.0 0.0 0.0 0.0 0.0 0.0 0.0 0.0 -1.6018983243994446e-26 0.4870342307692309 0.6867077006507593 0.06409467546754684 -8.567713817370151e-28 0.0 -2.1032924999364705e-25 6.394759450000002 6.3947594500000005 0.2913103000000004 -3.894025929994733e-27 0.0 0.0 -1.570796314870016 -1.570796314870016 0.0 1.5707963705062866 0.0 0.0 0.0 0.0 0.0 0.0 0.0 -1.6018983942199055e-26 0.48703423142433167 0.6867076754570007 0.064094677567482 -8.567714098795418e-28 0.0 -1.6018983942199055e-26 0.48703423142433167 0.6867076754570007 0.064094677567482 -8.567714098795418e-28 0.0 0.2951499950589256 -0.11234999647001062 0.4809000069994156 -1.2091995794109558 1.2091995265551612 -1.2091995551462715 0.0 0.0 0.0 0.0 0.0 0.0 9.98197363699075e-07 -5.258967243140419e-07 1.1449168978424651e-06 -1.810306069369398e-15 1.8116749963478e-08 4.307094529482943e-08 0.2951500000000001 -0.11235000004997346 0.4808999999601586 -1.2091995763071834 1.2091995763071837 -1.2091995760591723 0.0 0.0 0.0 0.0 0.0 0.0
5929.704 0.0 -1.5707963267948966 -1.5707963267948966 0.0 1.5707963267948966 0.0 0.0 0.0 0.0 0.0 0.0 0.0 0.0 0.0 0.0 0.0 0.0 0.0 -1.6018983243994446e-26 0.4870342307692309 0.6867077006507593 0.06409467546754684 -8.567713817370151e-28 0.0 -2.1032924999364705e-25 6.394759450000002 6.3947594500000005 0.2913103000000004 -3.894025929994733e-27 0.0 0.0 -1.570796314870016 -1.570796314870016 0.0 1.5707963705062866 0.0 0.0 0.0 0.0 0.0 0.0 0.0 -1.6018983942199055e-26 0.48703423142433167 0.6867076754570007 0.064094677567482 -8.567714098795418e-28 0.0 -1.6018983942199055e-26 0.48703423142433167 0.6867076754570007 0.064094677567482 -8.567714098795418e-28 0.0 0.2951499950589256 -0.11234999647001062 0.4809000069994156 -1.2091995794109558 1.2091995265551612 -1.2091995551462715 0.0 0.0 0.0 0.0 0.0 0.0 9.98197363699075e-07 -5.258967243140419e-07 1.1449168978424651e-06 -1.810306069369398e-15 1.8116749963478e-08 4.307094529482943e-08 0.2951500000000001 -0.11235000004997346 0.4808999999601586 -1.2091995763071834 1.2091995763071837 -1.2091995760591723 0.0 0.0 0.0 0.0 0.0 0.0
5929.7119999999995 0.0 -1.5707963267948966 -1.5707963267948966 0.0 1.5707963267948966 0.0 0.0 0.0 0.0 0.0 0.0 0.0 0.0 0.0 0.0 0.0 0.0 0.0 -1.6018983243994446e-26 0.4870342307692309 0.6867077006507593 0.06409467546754684 -8.567713817370151e-28 0.0 -2.1032924999364705e-25 6.394759450000002 6.3947594500000005 0.2913103000000004 -3.894025929994733e-27 0.0 0.0 -1.570796314870016 -1.570796314870016 0.0 1.5707963705062866 0.0 0.0 0.0 0.0 0.0 0.0 0.0 -1.6018983942199055e-26 0.48703423142433167 0.6867076754570007 0.064094677567482 -8.567714098795418e-28 0.0 -1.6018983942199055e-26 0.48703423142433167 0.6867076754570007 0.064094677567482 -8.567714098795418e-28 0.0 0.2951499950589256 -0.11234999647001062 0.4809000069994156 -1.2091995794109558 1.2091995265551612 -1.2091995551462715 0.0 0.0 0.0 0.0 0.0 0.0 9.98197363699075e-07 -5.258967243140419e-07 1.1449168978424651e-06 -1.810306069369398e-15 1.8116749963478e-08 4.307094529482943e-08 0.2951500000000001 -0.11235000004997346 0.4808999999601586 -1.2091995763071834 1.2091995763071837 -1.2091995760591723 0.0 0.0 0.0 0.0 0.0 0.0
5929.719999999999 0.0 -1.5707963267948966 -1.5707963267948966 0.0 1.5707963267948966 0.0 0.0 0.0 0.0 0.0 0.0 0.0 0.0 0.0 0.0 0.0 0.0 0.0 -1.6018983243994446e-26 0.4870342307692309 0.6867077006507593 0.06409467546754684 -8.567713817370151e-28 0.0 -2.1032924999364705e-25 6.394759450000002 6.3947594500000005 0.2913103000000004 -3.894025929994733e-27 0.0 0.0 -1.570796314870016 -1.570796314870016 0.0 1.5707963705062866 0.0 0.0 0.0 0.0 0.0 0.0 0.0 -1.6018983942199055e-26 0.48703423142433167 0.6867076754570007 0.064094677567482 -8.567714098795418e-28 0.0 -1.6018983942199055e-26 0.48703423142433167 0.6867076754570007 0.064094677567482 -8.567714098795418e-28 0.0 0.2951499950589256 -0.11234999647001062 0.4809000069994156 -1.2091995794109558 1.2091995265551612 -1.2091995551462715 0.0 0.0 0.0 0.0 0.0 0.0 9.98197363699075e-07 -5.258967243140419e-07 1.1449168978424651e-06 -1.810306069369398e-15 1.8116749963478e-08 4.307094529482943e-08 0.2951500000000001 -0.11235000004997346 0.4808999999601586 -1.2091995763071834 1.2091995763071837 -1.2091995760591723 0.0 0.0 0.0 0.0 0.0 0.0
5929.728 0.0 -1.5707963267948966 -1.5707963267948966 0.0 1.5707963267948966 0.0 0.0 0.0 0.0 0.0 0.0 0.0 0.0 0.0 0.0 0.0 0.0 0.0 -1.6018983243994446e-26 0.4870342307692309 0.6867077006507593 0.06409467546754684 -8.567713817370151e-28 0.0 -2.1032924999364705e-25 6.394759450000002 6.3947594500000005 0.2913103000000004 -3.894025929994733e-27 0.0 0.0 -1.570796314870016 -1.570796314870016 0.0 1.5707963705062866 0.0 0.0 0.0 0.0 0.0 0.0 0.0 -1.6018983942199055e-26 0.48703423142433167 0.6867076754570007 0.064094677567482 -8.567714098795418e-28 0.0 -1.6018983942199055e-26 0.48703423142433167 0.6867076754570007 0.064094677567482 -8.567714098795418e-28 0.0 0.2951499950589256 -0.11234999647001062 0.4809000069994156 -1.2091995794109558 1.2091995265551612 -1.2091995551462715 0.0 0.0 0.0 0.0 0.0 0.0 9.98197363699075e-07 -5.258967243140419e-07 1.1449168978424651e-06 -1.810306069369398e-15 1.8116749963478e-08 4.307094529482943e-08 0.2951500000000001 -0.11235000004997346 0.4808999999601586 -1.2091995763071834 1.2091995763071837 -1.2091995760591723 0.0 0.0 0.0 0.0 0.0 0.0
5929.736 0.0 -1.5707963267948966 -1.5707963267948966 0.0 1.5707963267948966 0.0 0.0 0.0 0.0 0.0 0.0 0.0 0.0 0.0 0.0 0.0 0.0 0.0 -1.6018983243994446e-26 0.4870342307692309 0.6867077006507593 0.06409467546754684 -8.567713817370151e-28 0.0 -2.1032924999364705e-25 6.394759450000002 6.3947594500000005 0.2913103000000004 -3.894025929994733e-27 0.0 0.0 -1.570796314870016 -1.570796314870016 0.0 1.5707963705062866 0.0 0.0 0.0 0.0 0.0 0.0 0.0 -1.6018983942199055e-26 0.48703423142433167 0.6867076754570007 0.064094677567482 -8.567714098795418e-28 0.0 -1.6018983942199055e-26 0.48703423142433167 0.6867076754570007 0.064094677567482 -8.567714098795418e-28 0.0 0.2951499950589256 -0.11234999647001062 0.4809000069994156 -1.2091995794109558 1.2091995265551612 -1.2091995551462715 0.0 0.0 0.0 0.0 0.0 0.0 9.98197363699075e-07 -5.258967243140419e-07 1.1449168978424651e-06 -1.810306069369398e-15 1.8116749963478e-08 4.307094529482943e-08 0.2951500000000001 -0.11235000004997346 0.4808999999601586 -1.2091995763071834 1.2091995763071837 -1.2091995760591723 0.0 0.0 0.0 0.0 0.0 0.0
5929.744 0.0 -1.5707963267948966 -1.5707963267948966 0.0 1.5707963267948966 0.0 0.0 0.0 0.0 0.0 0.0 0.0 0.0 0.0 0.0 0.0 0.0 0.0 -1.6018983243994446e-26 0.4870342307692309 0.6867077006507593 0.06409467546754684 -8.567713817370151e-28 0.0 -2.1032924999364705e-25 6.394759450000002 6.3947594500000005 0.2913103000000004 -3.894025929994733e-27 0.0 0.0 -1.570796314870016 -1.570796314870016 0.0 1.5707963705062866 0.0 0.0 0.0 0.0 0.0 0.0 0.0 -1.6018983942199055e-26 0.48703423142433167 0.6867076754570007 0.064094677567482 -8.567714098795418e-28 0.0 -1.6018983942199055e-26 0.48703423142433167 0.6867076754570007 0.064094677567482 -8.567714098795418e-28 0.0 0.2951499950589256 -0.11234999647001062 0.4809000069994156 -1.2091995794109558 1.2091995265551612 -1.2091995551462715 0.0 0.0 0.0 0.0 0.0 0.0 9.98197363699075e-07 -5.258967243140419e-07 1.1449168978424651e-06 -1.810306069369398e-15 1.8116749963478e-08 4.307094529482943e-08 0.2951500000000001 -0.11235000004997346 0.4808999999601586 -1.2091995763071834 1.2091995763071837 -1.2091995760591723 0.0 0.0 0.0 0.0 0.0 0.0
5929.7519999999995 0.0 -1.5707963267948966 -1.5707963267948966 0.0 1.5707963267948966 0.0 0.0 0.0 0.0 0.0 0.0 0.0 0.0 0.0 0.0 0.0 0.0 0.0 -1.6018983243994446e-26 0.4870342307692309 0.6867077006507593 0.06409467546754684 -8.567713817370151e-28 0.0 -2.1032924999364705e-25 6.394759450000002 6.3947594500000005 0.2913103000000004 -3.894025929994733e-27 0.0 0.0 -1.570796314870016 -1.570796314870016 0.0 1.5707963705062866 0.0 0.0 0.0 0.0 0.0 0.0 0.0 -1.6018983942199055e-26 0.48703423142433167 0.6867076754570007 0.064094677567482 -8.567714098795418e-28 0.0 -1.6018983942199055e-26 0.48703423142433167 0.6867076754570007 0.064094677567482 -8.567714098795418e-28 0.0 0.2951499950589256 -0.11234999647001062 0.4809000069994156 -1.2091995794109558 1.2091995265551612 -1.2091995551462715 0.0 0.0 0.0 0.0 0.0 0.0 9.98197363699075e-07 -5.258967243140419e-07 1.1449168978424651e-06 -1.810306069369398e-15 1.8116749963478e-08 4.307094529482943e-08 0.2951500000000001 -0.11235000004997346 0.4808999999601586 -1.2091995763071834 1.2091995763071837 -1.2091995760591723 0.0 0.0 0.0 0.0 0.0 0.0
5929.759999999999 0.0 -1.5707963267948966 -1.5707963267948966 0.0 1.5707963267948966 0.0 0.0 0.0 0.0 0.0 0.0 0.0 0.0 0.0 0.0 0.0 0.0 0.0 -1.6018983243994446e-26 0.4870342307692309 0.6867077006507593 0.06409467546754684 -8.567713817370151e-28 0.0 -2.1032924999364705e-25 6.394759450000002 6.3947594500000005 0.2913103000000004 -3.894025929994733e-27 0.0 0.0 -1.570796314870016 -1.570796314870016 0.0 1.5707963705062866 0.0 0.0 0.0 0.0 0.0 0.0 0.0 -1.6018983942199055e-26 0.48703423142433167 0.6867076754570007 0.064094677567482 -8.567714098795418e-28 0.0 -1.6018983942199055e-26 0.48703423142433167 0.6867076754570007 0.064094677567482 -8.567714098795418e-28 0.0 0.2951499950589256 -0.11234999647001062 0.4809000069994156 -1.2091995794109558 1.2091995265551612 -1.2091995551462715 0.0 0.0 0.0 0.0 0.0 0.0 9.98197363699075e-07 -5.258967243140419e-07 1.1449168978424651e-06 -1.810306069369398e-15 1.8116749963478e-08 4.307094529482943e-08 0.2951500000000001 -0.11235000004997346 0.4808999999601586 -1.2091995763071834 1.2091995763071837 -1.2091995760591723 0.0 0.0 0.0 0.0 0.0 0.0
5929.768 0.0 -1.5707963267948966 -1.5707963267948966 0.0 1.5707963267948966 0.0 0.0 0.0 0.0 0.0 0.0 0.0 0.0 0.0 0.0 0.0 0.0 0.0 -1.6018983243994446e-26 0.4870342307692309 0.6867077006507593 0.06409467546754684 -8.567713817370151e-28 0.0 -2.1032924999364705e-25 6.394759450000002 6.3947594500000005 0.2913103000000004 -3.894025929994733e-27 0.0 0.0 -1.570796314870016 -1.570796314870016 0.0 1.5707963705062866 0.0 0.0 0.0 0.0 0.0 0.0 0.0 -1.6018983942199055e-26 0.48703423142433167 0.6867076754570007 0.064094677567482 -8.567714098795418e-28 0.0 -1.6018983942199055e-26 0.48703423142433167 0.6867076754570007 0.064094677567482 -8.567714098795418e-28 0.0 0.2951499950589256 -0.11234999647001062 0.4809000069994156 -1.2091995794109558 1.2091995265551612 -1.2091995551462715 0.0 0.0 0.0 0.0 0.0 0.0 9.98197363699075e-07 -5.258967243140419e-07 1.1449168978424651e-06 -1.810306069369398e-15 1.8116749963478e-08 4.307094529482943e-08 0.2951500000000001 -0.11235000004997346 0.4808999999601586 -1.2091995763071834 1.2091995763071837 -1.2091995760591723 0.0 0.0 0.0 0.0 0.0 0.0
5929.776 1.5707963267948965e-08 -1.5707963163229213 -1.570796321558909 0.0 1.5707963267948966 0.0 7.853981633974484e-06 5.235987755982988e-06 2.617993877991496e-06 0.0 0.0 0.0 0.0009817477042468104 0.0006544984694978734 0.000327249234748937 0.0 0.0 0.0 5.511662053754323e-05 0.4870816883741235 0.6867309683801428 0.06409932051354944 1.6734259893662038e-06 0.0 0.0007236812276579426 6.395382568352241 6.394976123749566 0.29133141173408217 7.605721121669396e-06 0.0 1.5707962930378017e-08 -1.570796314870016 -1.570796314870016 0.0 1.5707963705062866 0.0 7.853981514927e-06 5.23598782820045e-06 2.617993914100225e-06 0.0 0.0 0.0 5.511661947821267e-05 0.4870816767215729 0.6867309808731079 0.06409931927919388 1.6734260270823142e-06 0.0 5.511661947821267e-05 0.4870816767215729 0.6867309808731079 0.06409931927919388 1.6734260270823142e-06 0.0 0.2951499968237151 -0.11234999183380541 0.4809000069994156 -1.2091995868376757 1.2091995149878196 -1.2091995435789296 -1.0636910721357596e-06 2.3181025881397265e-06 2.3181026800395097e-06 1.2337005406392476e-13 -7.853981742300674e-06 7.853981513316121e-06 -1.1054175260651871e-06 5.824512904377172e-07 -5.718506039622735e-07 -1.3619102607710824e-15 4.1902677878727287e-08 -4.7702937486024676e-08 0.2951499978726183 -0.11234999541376815 0.4809000045963638 -1.2091995721665625 1.2091995531725002 -1.2091995719185507 -1.0636909849288635e-06 2.3181026315146574e-06 2.3181026553783297e-06 1.2337005501361698e-13 -7.853981633974482e-06 7.853981632363605e-06
5929.784 1.4137166941154072e-07 -1.5707962325471172 -1.5707962796710069 0.0 1.5707963267948966 0.0 3.5342917352885184e-05 2.3561944901923446e-05 1.1780972450961733e-05 0.0 0.0 0.0 0.003436116964863837 0.0022907446432425572 0.0011453723216212795 0.0 0.0 0.0 0.00019290813652924962 0.4872002751161902 0.6867891280266364 0.0641109133236967 5.856987680112935e-06 0.0 0.0025328838326290474 6.3969396122755775 6.395517718009644 0.2913841010562015 2.6620009006113285e-05 0.0 1.4137167170247267e-07 -1.570796314870016 -1.570796314870016 0.0 1.5707963705062866 0.0 3.53429168171715e-05 2.3561944544781e-05 1.17809722723905e-05 0.0 0.0 0.0 0.00019290813361294568 0.4872002899646759 0.6867891550064087 0.06411091238260269 5.856987627339549e-06 0.0 0.00019290813361294568 0.4872002899646759 0.6867891550064087 0.06411091238260269 5.856987627339549e-06 0.0 0.2951500109420294 -0.11234995474416129 0.4809000069994156 -1.2091996462514356 1.2091994224490825 -1.20919945104019 -4.786610881939698e-06 1.0431461045125579e-05 1.0431461758185766e-05 4.9964872332849524e-12 -3.534291681717115e-05 3.5342916809922544e-05 -2.3098879084473006e-07 1.218740144497644e-07 -1.198210124722532e-06 1.554159269007758e-14 -8.269578676798102e-08 -9.981245429795412e-09 0.2951499808535578 -0.11234995832412907 0.48090004168600475 -1.2091995390415813 1.209199368095036 -1.2091995387935697 -4.786612053891974e-06 1.043146013982694e-05 1.0431461089189725e-05 4.996487228051473e-12 -3.5342917352884825e-05 3.534291734563623e-05
5929.7919999999995 5.654866776461629e-07 -1.5707959498037782 -1.5707961382993378 0.0 1.5707963267948966 0.0 9.424777960769381e-05 6.283185307179586e-05 3.1415926535897955e-05 0.0 0.0 0.0 0.0073631077818510785 0.004908738521234052 0.0024543692606170276 0.0 0.0 0.0 0.0004133743531661783 0.48738986611038354 0.6868821584580294 0.06412941071677479 1.2550667312957168e-05 0.0 0.005427605257071921 6.399428942029336 6.396384035992861 0.2914681717077414 5.704278293739032e-05 0.0 5.654866868098907e-07 -1.5707958380328577 -1.570796314870016 0.0 1.5707963705062866 0.0 9.4247778179124e-05 6.2831852119416e-05 3.1415926059708e-05 0.0 0.0 0.0 0.00041337436414323747 0.48738986253738403 0.6868821382522583 0.06412941217422485 1.255066763405921e-05 0.0 0.00041337436414323747 0.48738986253738403 0.6868821382522583 0.06412941217422485 1.255066763405921e-05 0.0 0.2951499017118437 -0.11234982956668857 0.48090014773786305 -1.2091994956299292 1.2091987589881201 -1.2091993641702883 -1.2764320747154597e-05 2.781720925458802e-05 2.7817220219566756e-05 5.3295863821703497e-11 -9.424777817910893e-05 9.424777815979346e-05 5.797111885778528e-07 -3.060876043193763e-07 9.134084579234209e-07 -3.2011883171213073e-14 3.195386527481549e-08 2.506714430868706e-08 0.29514992341416013 -0.11234983314664188 0.4809001668635204 -1.2091994272446447 1.2091987434586715 -1.209199426996633 -1.2764322405778739e-05 2.7817211721624392e-05 2.7817221831054554e-05 5.329586376587971e-11 -9.424777960767874e-05 9.424777958836327e-05
5929.8 1.5707963267948967e-06 -1.5707952795973457 -1.5707958031961207 0.0 1.5707963267948966 0.0 0.00019634954084936208 0.00013089969389957468 6.544984694978739e-05 0.0 0.0 0.0 0.012762720155208533 0.008508480103472353 0.00425424005173618 0.0 0.0 0.0 0.0007165146770906438 0.48765027419880075 0.6870100279282443 0.06415474799374467 2.175441133852051e-05 0.0 0.009407837710200153 6.402848100230255 6.397574782073396 0.2915833296315695 9.887379953357571e-05 0.0 1.5707963711975026e-06 -1.5707953611956995 -1.5707958380328577 0.0 1.5707963705062866 0.0 0.0001963495451491326 0.0001308996870648116 6.54498435324058e-05 0.0 0.0 0.0 0.000716514652594924 0.4876502752304077 0.6870100498199463 0.06415475159883499 2.1754411136498675e-05 0.0 0.000716514652594924 0.4876502752304077 0.6870100498199463 0.06415475159883499 2.1754411136498675e-05 0.0 0.2951498170803147 -0.11234953284988768 0.4809004292146735 -1.2091992686533444 1.2091973163932397 -1.2091990747562873 -2.659244579759249e-05 5.7952455899944e-05 5.795250878635335e-05 3.0842513014831525e-10 -0.00019634953059697514 0.00019634954510886065 -7.810993605534493e-07 4.1302245117206445e-07 -8.791325399336518e-07 3.134570394405076e-14 1.1051157701776804e-08 -3.3825723845034885e-08 0.2951497872610895 -0.11234953642991048 0.4809004635804555 -1.20919916224373 1.20919726283962 -1.2091991619957194 -2.659245486575567e-05 5.795244877586391e-05 5.795250725851681e-05 3.0842513753391564e-10 -0.00019634954084911984 0.00019634954080909012
5929.808 3.5342917352885176e-06 -1.5707939706004064 -1.570795148697652 0.0 1.5707963267948966 0.0 0.0003534291735288517 0.00023561944901923443 0.00011780972450961731 0.0 0.0 0.0 0.019634954084936204 0.013089969389957469 0.00654498469497874 0.0 0.0 0.0 0.0011023277591546107 0.4879812501472048 0.6871726940207361 0.06418683902160166 3.346809870370031e-05 0.0 0.01447356347770004 6.407193814432799 6.3990895612599 0.29172918335317954 0.0001521125086083179 0.0 3.534291636242415e-06 -1.570793930684225 -1.5707953611956995 0.0 1.5707963705062866 0.0 0.0003534291754476726 0.00023561944544781 0.000117809722723905 0.0 0.0 0.0 0.001102327718399465 0.48798125982284546 0.6871727108955383 0.06418684124946594 3.346809899085201e-05 0.0 0.001102327718399465 0.48798125982284546 0.6871727108955383 0.06418684124946594 3.346809899085201e-05 0.0 0.2951495263398393 -0.11234895332621013 0.4809009921676446 -1.2091987924169019 1.2091944659075267 -1.209198530627495 -4.786681011898816e-05 0.00010431414419387421 0.0001043143800211649 1.2491217530708057e-09 -0.0003534291681695076 0.00035342917537518307 -1.2353797203664369e-07 6.760070453106866e-08 -6.894066994260954e-07 1.4668146096315673e-13 -3.5792588182875786e-08 -5.5378390069027085e-09 0.29514952133540295 -0.11234895690616144 0.4809010431051547 -1.2091986446607017 1.209194371007479 -1.2091986444126912 -4.786682839952032e-05 0.00010431414185874433 0.00010431437868783038 1.2491218070102716e-09 -0.0003534291735266444 0.00035342917345636217
5929.816 6.927211801165493e-06 -1.5707917086536956 -1.570794017724296 0.0 1.5707963267948966 0.0 0.0005772676500971244 0.0003848451000647495 0.0001924225500323749 0.0 0.0 0.0 0.027979809571034082 0.01865320638068938 0.0093266031903447 0.0 0.0 0.0 0.0015708110199608618 0.48838248290334446 0.6873701035726192 0.06422557634354864 4.769149882623963e-05 0.0 0.020624748692086116 6.412462000520913 6.400927878488944 0.29190524448142857 0.0002167578621652591 0.0 6.9272118707885966e-06 -1.5707915464984339 -1.570793930684225 0.0 1.5707963705062866 0.0 0.0005772676668129861 0.0003848451015073806 0.0001924225507536903 0.0 0.0 0.0 0.001570811029523611 0.488382488489151 0.6873701214790344 0.06422557681798935 4.769149745698087e-05 0.0 0.001570811029523611 0.488382488489151 0.6873701214790344 0.06422557681798935 4.769149745698087e-05 0.0 0.2951490010319655 -0.11234795191304303 0.4809021180717426 -1.2091975874261927 1.2091891582316054 -1.2091978356488131 -7.818368573540363e-05 0.00017037898429478693 0.00017037974574387422 3.998855333333172e-09 -0.0005772676522472204 0.0005772676666945866 -3.833610548539978e-07 2.0135271835630136e-07 -7.718282468835452e-07 3.158259049012059e-13 -2.8335955349573345e-08 -1.648478321947536e-08 0.2951490618104524 -0.11234795549260539 0.4809020445220758 -1.2091977502675075 1.209189373927596 -1.2091977500194986 -7.818364255295738e-05 0.00017037901444687912 0.00017037977258818547 3.99885527815189e-09 -0.0005772676500832739 0.0005772676499787248
5929.824 1.2315043202071989e-05 -1.5707881167660949 -1.5707922217804962 0.0 1.5707963267948966 0.0 0.000879645943005142 0.0005864306286700945 0.00029321531433504746 0.0 0.0 0.0 0.03779728661350221 0.025198191075668123 0.012599095537834068 0.0 0.0 0.0 0.002121960058191534 0.48885359991646155 0.6876021925786747 0.06427083131540787 6.442421925473644e-05 0.0 0.027861335564054842 6.41864776690314 6.4030891377311345 0.29211092832852875 0.00029280807651277716 0.0 1.2315043022681493e-05 -1.5707882086383265 -1.570792023335592 0.0 1.5707963705062866 0.0 0.000879645929671824 0.0005864306003786623 0.0002932153001893312 0.0 0.0 0.0 0.0021219600457698107 0.4888536036014557 0.6876022219657898 0.06427083164453506 6.442421727115288e-05 0.0 0.0021219600457698107 0.4888536036014557 0.6876022219657898 0.06427083164453506 6.442421727115288e-05 0.0 0.29514834537612583 -0.11234636171395931 0.4809036661854704 -1.2091962721649947 1.2091813280969217 -1.2091963479288346 -0.00011913979855173156 0.00025962335636011726 0.00025962539499211165 1.0832877109946427e-08 -0.0008796459005012898 0.0008796459294914056 -9.245789420106985e-07 4.878260496953623e-07 -1.2762731957558797e-06 7.942190915019769e-13 -2.411629799662359e-08 -3.994487391883795e-08 0.29514833208788754 -0.11234636529403286 0.48090363473047587 -1.2091963299789377 1.20918143876559 -1.20919632973093 -0.00011913977675075353 0.00025962334860665125 0.00025962540239186146 1.0832877790361858e-08 -0.0008796459429384382 0.0008796459428247236
5929.831999999999 2.0357520395261858e-05 -1.5707827551146334 -1.570789540954765 0.0 1.5707963267948966 0.0 0.001272345024703866 0.0008482300164692438 0.00042411500823462227 0.0 0.0 0.0 0.04908738521234048 0.03272492347489366 0.016362461737446852 0.0 0.0 0.0 0.002755767941732602 0.4893941675172306 0.6878688860741996 0.06432245426816223 8.366564300893401e-05 0.0 0.03618323307494906 6.425745419501238 6.405572640900162 0.2923455546487973 0.0003802603474756051 0.0 2.0357520043035038e-05 -1.5707829634295862 -1.570789639149801 0.0 1.5707963705062866 0.0 0.0012723450781777501 0.0008482300327159464 0.0004241150163579732 0.0 0.0 0.0 0.002755767898634076 0.4893941581249237 0.6878688931465149 0.06432245671749115 8.366563997697085e-05 0.0 0.002755767898634076 0.4893941581249237 0.6878688931465149 0.06432245671749115 8.366563997697085e-05 0.0 0.29514731970911956 -0.1123439880258149 0.48090591797696686 -1.2091944562233155 1.209169787417948 -1.2091940324900596 -0.0001723331068641032 0.0003755228213071192 0.00037552770190284277 2.5901789836389646e-08 -0.0012723450488102714 0.0012723450779167879 -7.764457621688359e-07 4.116460371980322e-07 -2.566468203321963e-07 -4.745534671422785e-13 5.638347014534167e-08 -3.370132749305163e-08 0.29514724279083854 -0.11234399160723967 0.4809060084421779 -1.2091942098402688 1.209169593895044 -1.2091942095922628 -0.00017233321737937827 0.0003755227076555221 0.000375527618369736 2.5901789788429833e-08 -0.0012723450244402179 0.0012723450244429037
5929.84 3.180862561759665e-05 -1.570775121044485 -1.5707857239196912 0.0 1.5707963267948966 0.0 0.0017671458676442582 0.0011780972450961718 0.0005890486225480864 0.0 0.0 0.0 0.061850105367549035 0.041233403578366 0.020616701789183022 0.0 0.0 0.0 0.0034722243816088737 0.49000369135720007 0.6881700979954253 0.06438027469650602 0.00010541485559160995 0.0 0.04559030613052451 6.433748467520037 6.408377586553 0.2926083484956199 0.00047911051866386716 0.0 3.180862404406071e-05 -1.570775334035055 -1.5707858244525355 0.0 1.5707963705062866 0.0 0.0017671458190307021 0.0011780972126871347 0.0005890486063435674 0.0 0.0 0.0 0.0034722243435680866 0.49000370502471924 0.6881700754165649 0.06438027322292328 0.00010541485244175419 0.0 0.0034722243435680866 0.49000370502471924 0.6881700754165649 0.06438027322292328 0.00010541485244175419 0.0 0.2951457704101949 -0.11234060834599738 0.48090929564355334 -1.2091914425565045 1.2091529275968074 -1.2091910103452128 -0.00023936347178795476 0.0005215516855361283 0.0005215623121183667 5.621047697910249e-08 -0.001767145818136713 0.0017671458186682544 1.5994870532724306e-06 -8.403747532449685e-07 9.546174548003402e-07 -9.675862320673962e-14 -6.503489425694976e-08 6.884518090821793e-08 0.29514569175318095 -0.11234061192799782 0.48090938817804707 -1.20919119100781 1.209152728909633 -1.2091911907598074 -0.00023936363556543495 0.0005215515608795229 0.0005215622180361985 5.621048130610036e-08 -0.0017671458667502691 0.0017671458672818105
5929.848 4.7516588885545617e-05 -1.5707646490689733 -1.570780487931935 0.0 1.5707963267948966 0.0 0.00237582944427728 0.0015838862961848534 0.0007919431480924272 0.0 0.0 0.0 0.07608544707912775 0.050723631386085204 0.025361815693042602 0.0 0.0 0.0 0.004271314788752135 0.49068161690668005 0.6885057310160725 0.06444410147325659 0.00012967056165850274 0.0 0.056082363176315535 6.44264962998471 6.41150306836787 0.2928984411959512 0.000589352702737895 0.0 4.751658707391471e-05 -1.5707648436175745 -1.5707805792437952 0.0 1.5707963705062866 0.0 0.0023758294992148876 0.001583886332809925 0.0007919431664049625 0.0 0.0 0.0 0.004271314945071936 0.49068161845207214 0.6885057091712952 0.06444410234689713 0.00012967055954504758 0.0 0.004271314945071936 0.49068161845207214 0.6885057091712952 0.06444410234689713 0.00012967055954504758 0.0 0.2951436358071789 -0.11233597237856616 0.48091393989369885 -1.2091872808991122 1.2091297729561856 -1.209186882139279 -0.0003218329540435588 0.0007011829821538063 0.0007012043488075793 1.128913092297379e-07 -0.0023758294965327826 0.002375829498727597 9.181702662111032e-07 -4.93375618269545e-07 9.725809113019924e-07 -2.1589590661381053e-12 5.253769371526319e-09 4.0420645145569174e-08 0.2951435640035987 -0.11233597596140621 0.4809140242627612 -1.2091870497200208 1.2091295946411291 -1.2091870494720232 -0.0003218331385371099 0.0007011827953363168 0.0007012041995388035 1.1289131092341635e-07 -0.0023758294415951757 0.0023758294437899894
5929.856 6.842388799518569e-05 -1.5707507108695662 -1.5707735188322314 0.0 1.5707963267948966 0.0 0.003110176727053895 0.002073451151369263 0.0010367255756846322 0.0 0.0 0.0 0.09179341034707686 0.06119560689805121 0.03059780344902562 0.0 0.0 0.0 0.005153019213636148 0.4914273300098183 0.6888756763583839 0.06451372308945472 0.00015643099132626922 0.0 0.06765914227504262 6.452440843028915 6.414948073384542 0.29321487144157166 0.0007109788555778935 0.0 6.842389120720327e-05 -1.5707505385028284 -1.5707734266864222 0.0 1.5707963705062866 0.0 0.0031101766508072615 0.002073451178148389 0.0010367255890741944 0.0 0.0 0.0 0.005153018981218338 0.49142733216285706 0.688875675201416 0.06451372057199478 0.00015643099322915077 0.0 0.005153018981218338 0.49142733216285706 0.688875675201416 0.06451372057199478 0.00015643099322915077 0.0 0.29514066716443643 -0.1123298020600841 0.4809202728848036 -1.2091813631307007 1.2090985762121271 -1.2091816298675007 -0.0004213474898688256 0.000917886876346499 0.0009179273050185453 2.128103965895522e-07 -0.0031101767599419254 0.0031101766501693533 1.6024838044175817e-07 -7.00676525724039e-08 -3.1211823438718404e-09 1.3437382457002787e-12 -2.5375153380314494e-08 5.730790714385882e-09 0.29514073174297417 -0.11232980563657619 0.4809201948173927 -1.2091815372565362 1.2090988031849432 -1.209181537008546 -0.0004213472174211543 0.0009178870997204166 0.0009179274504747919 2.12810383851112e-07 -0.003110176719773238 0.0031101767264159873
5929.864 9.55672485222015e-05 -1.5707326152958814 -1.570764471045389 0.0 1.5707963267948966 0.0 0.003981968688425062 0.0026546457922833745 0.0013273228961416883 0.0 0.0 0.0 0.10897399517139592 0.07264933011426393 0.03632466505713202 0.0 0.0 0.0 0.00611731116882592 0.49224015749549993 0.6892798135768116 0.06458890791996157 0.00018569379609021937 0.0 0.08032029564668433 6.463113267915914 6.418711479989985 0.29355658649622535 0.000843978303230047 0.0 9.556725126458332e-05 -1.5707324186908167 -1.5707643667804163 0.0 1.5707963705062866 0.0 0.003981968853622675 0.002654645824804902 0.001327322912402451 0.0 0.0 0.0 0.006117311306297779 0.49224016070365906 0.6892797946929932 0.06458890438079834 0.00018569380335975438 0.0 0.006117311306297779 0.49224016070365906 0.6892797946929932 0.06458890438079834 0.00018569380335975438 0.0 0.2951369807228468 -0.11232179155298819 0.48092829454553204 -1.2091741789781965 1.209058574192338 -1.2091744896765364 -0.0005395162756289971 0.0011751319608737704 0.0011752041495018965 3.805458062571502e-07 -0.003981968719023494 0.003981968852805959 8.946132743400673e-07 -4.795769279576416e-07 7.492740256042486e-07 -7.909285091597363e-13 -3.108443977094618e-08 3.925131530665153e-08 0.29513705431346204 -0.11232179512672753 0.48092820574925566 -1.209174379882116 1.2090588279350736 -1.209174379634134 -0.0005395159142769043 0.0011751322051910243 0.0011752043645575857 3.805457906750823e-07 -0.003981968670241206 0.003981968687608347
5929.871999999999 0.0001300776438218854 -1.5707096083656822 -1.5707529675802894 0.0 1.5707963267948966 0.0 0.005002986300841746 0.0033353242005611634 0.0016676621002805832 0.0 0.0 0.0 0.1276272015520854 0.0850848010347236 0.042542400517361856 0.0 0.0 0.0 0.007164156334506589 0.4931193678424898 0.6897180103123424 0.06466940451432789 0.00021745593431332565 0.0 0.09406537267207152 6.4746572997718905 6.422792055630595 0.2939224435176202 0.000988337221454065 0.0 0.00013007764937356114 -1.570709530507223 -1.5707529226886194 0.0 1.5707963705062866 0.0 0.005002986174076796 0.003335324116051197 0.0016676620580255985 0.0 0.0 0.0 0.0071641565300524235 0.49311935901641846 0.6897180080413818 0.0646694079041481 0.00021745593403466046 0.0 0.0071641565300524235 0.49311935901641846 0.6897180080413818 0.0646694079041481 0.00021745593403466046 0.0 0.29513234870591426 -0.11231160729812012 0.48093842696511163 -1.2091652090423317 1.209007881048738 -1.2091653043585446 -0.000677955413064208 0.0014763817831731662 0.001476505225408159 6.507766795371242e-07 -0.005002986131751045 0.005002986173050666 -3.8887097578539473e-07 1.927947852910829e-07 1.713649493922197e-07 -6.0935082772945434e-12 6.263176075181447e-08 -1.5792770289208323e-08 0.29513237815740806 -0.11231161087589042 0.4809383907384206 -1.20916527877219 1.2090080036305362 -1.2091652785242173 -0.0006779552310982283 0.0014763819679573964 0.001476505378529943 6.507766682514536e-07 -0.005002986258515999 0.005002986299815616
5929.88 0.00017318029502913737 -1.5706808732648767 -1.5707386000298866 0.0 1.5707963267948966 0.0 0.0061850105367549065 0.004123340357836603 0.002061670178918303 0.0 0.0 0.0 0.1477530294891451 0.09850201965942994 0.049251009829714996 0.0 0.0 0.0 0.008293511147078124 0.49406417189711527 0.6901901220152722 0.06475494191269049 0.0002517135462354989 0.0 0.10889380136113577 6.487062577009124 6.427188454230619 0.2943112109931783 0.0011440380676403425 0.0 0.0001731802913127467 -1.5706809202777308 -1.5707386175738733 0.0 1.5707963705062866 0.0 0.00618501054123044 0.004123340360820293 0.0020616701804101467 0.0 0.0 0.0 0.008293511345982552 0.49406418204307556 0.6901901364326477 0.06475494056940079 0.00025171355810016394 0.0 0.008293511345982552 0.49406418204307556 0.6901901364326477 0.06475494056940079 0.00025171355810016394 0.0 0.2951265537309743 -0.1122988880517285 0.48095109216855403 -1.209153978126004 1.208944541764101 -1.2091538469695835 -0.0008382887083418825 0.0018250953845619403 0.0018252985043367357 1.0711219219486202e-06 -0.006185010448481837 0.006185010539961873 -4.194971103222483e-09 -9.785554699143391e-09 -6.582081735187515e-07 1.0202468549845493e-11 -5.964452920394548e-08 7.474524899515951e-10 0.2951265367641047 -0.11229889163353299 0.4809511112202291 -1.2091539099163475 1.2089445264155607 -1.2091539096683894 -0.0008382888034193242 0.0018250952782749125 0.001825298421685023 1.071121944159461e-06 -0.006185010444006299 0.00618501053548634
5929.888 0.00022619467105846513 -1.570645530347524 -1.5707209285712107 0.0 1.5707963267948966 0.0 0.007539822368615505 0.005026548245743669 0.0025132741228718366 0.0 0.0 0.0 0.16935147898257483 0.11290098598838326 0.056450492994191685 0.0 0.0 0.0 0.009505321270928785 0.4950737236416062 0.6906959916340829 0.06484522998642374 0.0002884618184371957 0.0 0.12480486828729496 6.500317991414289 6.431899213294907 0.2947215702882959 0.0013110589647970545 0.0 0.00022619466471951455 -1.5706456343280237 -1.5707209745990198 0.0 1.5707963705062866 0.0 0.00753982225432992 0.00502654816955328 0.00251327408477664 0.0 0.0 0.0 0.009505321271717548 0.49507373571395874 0.6906960010528564 0.06484522670507431 0.00028846182976849377 0.0 0.009505321271717548 0.49507373571395874 0.6906960010528564 0.06484522670507431 0.00028846182976849377 0.0 0.2951193887487356 -0.11228324491183474 0.48096671209484226 -1.2091400551400007 1.2088665321850733 -1.2091398206654926 -0.0010221495388015788 0.002224725034303664 0.0022250484605400808 1.7054675523197927e-06 -0.0075398220614460885 0.007539822252783476 2.906898536815427e-07 -1.5291217870462868e-07 -4.811687126634463e-07 1.5080659945010562e-11 -7.912497175643976e-08 1.2477392217051384e-08 0.2951193506021894 -0.11228324849855562 0.48096675636307934 -1.2091399239958063 1.208866453916062 -1.2091399237478633 -0.001022149861035902 0.0022247247803196205 0.0022250482703102255 1.7054676259651424e-06 -0.00753982217573166 0.007539822367069062
5929.896 0.0002905344886039841 -1.5706026371358277 -1.5706994819653621 0.0 1.5707963267948966 0.0 0.009079202768874505 0.006052801845916335 0.00302640092295817 0.0 0.0 0.0 0.19242255003237504 0.1282817000215833 0.06414085001079164 0.0 0.0 0.0 0.010799519953530734 0.49614712101101616 0.6912354492678993 0.06493995980323364 0.0003276948376737831 0.0 0.14179769698985856 6.514411698874642 6.436922750672532 0.2951521173056969 0.001489373037227344 0.0 0.0002905344881583005 -1.5706027189837855 -1.5706995169269007 0.0 1.5707963705062866 0.0 0.009079203009605408 0.006052801851183176 0.003026400925591588 0.0 0.0 0.0 0.010799519717693329 0.49614712595939636 0.6912354230880737 0.0649399608373642 0.00032769484096206725 0.0 0.010799519717693329 0.49614712595939636 0.6912354230880737 0.0649399608373642 0.00032769484096206725 0.0 0.29511065695617433 -0.11226426138569491 0.48098570857114264 -1.2091230529300934 1.2087717591517484 -1.2091228585932132 -0.001231183192739857 0.0026787157299629715 0.002679216012954839 2.6378214945257976e-06 -0.009079202393585702 0.009079203007743232 1.2672080705588382e-06 -6.52785571905976e-07 1.1656289499507305e-06 -1.3196566585990526e-11 -8.033915194986805e-09 5.3478346043160486e-08 0.2951106270353066 -0.11226426497421946 0.4809857430407063 -1.2091229462305162 1.2087717053350724 -1.2091229459825918 -0.0012311834981939935 0.00267871538717173 0.002679215799309245 2.637821496276951e-06 -0.009079202385685442 0.00907920276701233
5929.9039999999995 0.00036770771213941736 -1.5705511883201364 -1.5706737575575165 0.0 1.5707963267948966 0.0 0.010814932709982867 0.007209955139988576 0.003604977569994291 0.0 0.0 0.0 0.2169662426385452 0.14464416175903008 0.07232208087951515 0.0 0.0 0.0 0.012176026264038015 0.49728340675652116 0.6918083117798791 0.06503880401636943 0.00036940543397659257 0.0 0.15987122484681915 6.529331130713123 6.44225736095659 0.29560136425439903 0.001678947697423613 0.0 0.00036770771839655936 -1.5705512205706995 -1.5706737677203577 0.0 1.5707963705062866 0.0 0.010814933106303215 0.007209955248981714 0.003604977624490857 0.0 0.0 0.0 0.012176026590168476 0.497283399105072 0.69180828332901 0.06503880769014359 0.000369405432138592 0.0 0.012176026590168476 0.497283399105072 0.69180828332901 0.06503880769014359 0.000369405432138592 0.0 0.295100171700309 -0.11224149344967184 0.48100850328303635 -1.209102628101619 1.2086580606021915 -1.20910252371244 -0.0014670491748683672 0.0031905028159880592 0.0031912572672799927 3.976734201901523e-06 -0.010814932142334633 0.010814933104085035 6.748673430808271e-07 -3.755104255314896e-07 1.3209397784285908e-06 -3.6042622944559035e-11 6.7232351719522e-08 3.078297962652149e-08 0.29510016021848784 -0.11224149703570312 0.48100851579809467 -1.2091025761913012 1.208658061570078 -1.209102575943402 -0.0014670492753979614 0.003190502574840639 0.0031912571231832473 3.976734074114533e-06 -0.010814931978844965 0.010814932707764686
5929.911999999999 0.0004593165539180957 -1.5704901157589513 -1.5706432212769244 0.0 1.5707963267948966 0.0 0.012758793164391552 0.008505862109594366 0.0042529310547971865 0.0 0.0 0.0 0.24298255680108558 0.16198837120072376 0.08099418560036194 0.0 0.0 0.0 0.013634743215610862 0.4984815693526904 0.692414382368727 0.06514141727758281 0.000413585012892999 0.0 0.17902417842097063 6.5450630056008245 6.44790121149406 0.29606774152661386 0.0018797438835986805 0.0 0.00045931656495667994 -1.5704901854144495 -1.5706432501422327 0.0 1.5707963705062866 0.0 0.01275879330933094 0.008505862206220627 0.004252931103110313 0.0 0.0 0.0 0.013634743168950081 0.4984815716743469 0.692414402961731 0.06514141708612442 0.0004135850176680833 0.0 0.013634743168950081 0.4984815716743469 0.692414402961731 0.06514141708612442 0.0004135850176680833 0.0 0.29508775636577955 -0.11221446961722839 0.48103551774076353 -1.2090784808143527 1.2085232056910273 -1.2090783085832437 -0.0017314238693642485 0.0037635108057720587 0.0037646229130394457 5.860324909773695e-06 -0.012758791963458763 0.012758793306714068 -6.618295688058176e-07 3.5145595200882156e-07 -9.036397009981488e-07 2.1666412629480114e-11 -1.8344587521331597e-08 -2.883083824274798e-08 0.29508773097252194 -0.11221447321211195 0.4810355468101183 -1.2090783875720652 1.208523165355399 -1.2090783873241917 -0.0017314241747409264 0.0037635104388959537 0.0037646226184598268 5.860324702361638e-06 -0.012758791818519456 0.01275879316177468
5929.92 0.0005670574739729578 -1.5704182884789146 -1.5706073076369051 0.0 1.5707963267948966 0.0 0.014922565104551519 0.009948376736367677 0.004974188368183843 0.0 0.0 0.0 0.2704714925199959 0.18031432834666386 0.09015716417333204 0.0 0.0 0.0 0.015175555771739544 0.49974054394612316 0.6930534500954071 0.0652474366734287 0.0004602233767108992 0.0 0.19925504728294022 6.561593342012598 6.45385233797845 0.2965495996807334 0.0020917152471510367 0.0 0.0005670574610121548 -1.5704181830035608 -1.5706074873553675 0.0 1.5707963705062866 0.0 0.01492256484925747 0.009948376566171646 0.004974188283085823 0.0 0.0 0.0 0.01517555583268404 0.4997405409812927 0.6930534243583679 0.06524743884801865 0.00046022338210605085 0.0 0.01517555583268404 0.4997405409812927 0.6930534243583679 0.06524743884801865 0.00046022338210605085 0.0 0.2950730872799284 -0.11218269111973146 0.4810673139129623 -1.2090500032686695 1.2083645439085318 -1.2090498604236073 -0.0020260056218591657 0.004401149132955723 0.004402755583304385 8.461951281713206e-06 -0.0149225624500511 0.0149225648461968 8.236931431334121e-07 -4.372880287253222e-07 1.1706990369245794e-06 -4.0382128959530804e-11 3.538781678628827e-08 3.582761398077247e-08 0.29507310663340425 -0.11218269468489679 0.4810673358319359 -1.2090499279167581 1.2083645214329357 -1.2090499276689186 -0.0020260059303573957 0.004401149496820329 0.00440275581954593 8.461951619887992e-06 -0.014922562705345 0.01492256510149085
5929.928 0.0006927211801165497 -1.570334512674819 -1.5705654197348577 0.0 1.5707963267948966 0.0 0.01649336143134642 0.010995574287564275 0.005497787143782142 0.0 0.0 0.0 0.19634954084936243 0.13089969389957481 0.06544984694978741 0.0 0.0 0.0 0.011013479148578647 0.4960743130715616 0.691282279614957 0.06486812769037151 0.0003337841234284642 0.0 0.14460698122083765 6.513455730629604 6.4373588442304035 0.2948256403527385 0.0015170488409823697 0.0 0.0006927211652509868 -1.5703347365008753 -1.5705655256854456 0.0 1.5707963705062866 0.0 0.016493361443281174 0.010995574295520782 0.005497787147760391 0.0 0.0 0.0 0.011013478972017765 0.4960743188858032 0.6912822723388672 0.06486812978982925 0.0003337841189932078 0.0 0.011013478972017765 0.4960743188858032 0.6912822723388672 0.06486812978982925 0.0003337841189932078 0.0 0.2950561236186903 -0.11214563177187846 0.48110431285120464 -1.2090169818968814 1.208179707343857 -1.2090165301136648 -0.0022404906046202765 0.0048636339586336985 0.004865803144551539 1.1425299644133025e-05 -0.016493357486007575 0.016493361439898328 5.914523344032338e-07 -3.005508551453182e-07 3.628874862652156e-07 -9.28331915879141e-12 -1.1255131142657374e-08 2.4668818948590324e-08 0.2950560408738057 -0.11214563540477632 0.4811044101400858 -1.2090167182955545 1.2081794967549155 -1.209016718047752 -0.0022404921478390203 0.004863632589200586 0.004865802076043576 1.1425299881048609e-05 -0.016493357474072653 0.016493361427963572
5929.936 0.0008309512568745007 -1.5702423592903134 -1.570519343042605 0.0 1.5707963267948966 0.0 0.018064157758141314 0.012042771838760874 0.006021385919380442 0.0 0.0 0.0 0.196349540849362 0.13089969389957481 0.06544984694978752 0.0 0.0 0.0 0.01101151482998043 0.49598378621507555 0.6912664129869385 0.06483693929490635 0.0003336041371212898 0.0 0.14458118971764305 6.512267113003943 6.437211091016969 0.2946838890953493 0.0015162308032162619 0.0 0.0008309512631967664 -1.5702422300921839 -1.5705192724811 0.0 1.5707963705062866 0.0 0.018064158037304878 0.012042772024869919 0.006021386012434959 0.0 0.0 0.0 0.011011514812707901 0.4959837794303894 0.6912664175033569 0.06483694165945053 0.00033360414090566337 0.0 0.011011514812707901 0.4959837794303894 0.6912664175033569 0.06483694165945053 0.00033360414090566337 0.0 0.2950372092019364 -0.11210487365968215 0.48114524727094105 -1.2089800417156242 1.2079758025339324 -1.2089802301195318 -0.002455346002074477 0.005325875756184831 0.005328727112360596 1.501043321228371e-05 -0.0180641518008353 0.018064158033599856 -5.38389094946323e-07 2.844958691739023e-07 -1.4727471624115383e-07 -1.7704364110498912e-11 4.46634397277961e-08 -2.3354037497470418e-08 0.295037257781782 -0.11210487720114344 0.4811451883435147 -1.2089801682132244 1.2079759817803257 -1.2089801679654641 -0.002455344835577085 0.0053258765523456625 0.005328727717975866 1.5010432866106058e-05 -0.01806415152167193 0.018064157754436292
5929.9439999999995 0.000981747704246811 -1.570141828325399 -1.5704690775601478 0.0 1.5707963267948966 0.0 0.019634954084936214 0.013089969389957472 0.0065449846949787414 0.0 0.0 0.0 0.19634954084936243 0.13089969389957481 0.06544984694978741 0.0 0.0 0.0 0.011009372044935484 0.4958850189540442 0.691249089189735 0.06480291415412516 0.0003334077228289619 0.0 0.14455305495000292 6.5109702988666 6.43704976835265 0.29452924483049886 0.0015153381002576318 0.0 0.0009817477548494935 -1.570141617451803 -1.5704692045794886 0.0 1.5707963705062866 0.0 0.019634954631328583 0.013089969754219055 0.006544984877109528 0.0 0.0 0.0 0.01100937183946371 0.4958850145339966 0.6912490725517273 0.06480291485786438 0.0003334077191539109 0.0 0.01100937183946371 0.4958850145339966 0.6912490725517273 0.06480291485786438 0.0003334077191539109 0.0 0.29501669572802597 -0.11206041854143872 0.4811896941400916 -1.2089402310116206 1.2077538860343715 -1.2089402792331039 -0.0026705994005381765 0.005787857437617974 0.005791520559563362 1.9276569529326474e-05 -0.019634945168963396 0.019634954627301388 3.9741414464581435e-07 -1.965364280062602e-07 7.41937609065785e-07 -4.527223967693382e-11 2.996621411065769e-08 1.6144976580416584e-08 0.29501675428643864 -0.11206042207883674 0.4811896694311799 -1.2089402721014426 1.207753979989476 -1.2089402718537272 -0.0026705987713873326 0.005787858427070918 0.005791521211957258 1.9276567999326213e-05 -0.019634944622572263 0.01963495408090902
5929.951999999999 0.0011451105222334804 -1.5700329197800738 -1.5704146232874852 0.0 1.5707963267948966 0.0 0.02120575041173111 0.014137166941154071 0.0070685834705770416 0.0 0.0 0.0 0.196349540849362 0.13089969389957481 0.06544984694978752 0.0 0.0 0.0 0.011007050822009274 0.49577800850081 0.6912303043762121 0.06476605189407571 0.0003331948634502811 0.0 0.1445225772929818 6.509565251615635 6.436874840412163 0.2943617058585741 0.0015143706543815274 0.0 0.0011451104655861855 -1.5700328985797327 -1.5704148451434534 0.0 1.5707963705062866 0.0 0.021205751225352287 0.014137166552245617 0.0070685832761228085 0.0 0.0 0.0 0.011007050983607769 0.49577799439430237 0.691230297088623 0.0647660493850708 0.0003331948537379503 0.0 0.011007050983607769 0.49577799439430237 0.691230297088623 0.0647660493850708 0.0003331948537379503 0.0 0.2949945390566351 -0.11201226864954318 0.48123779309191994 -1.2088971923857474 1.2075136107121025 -1.2088968967918396 -0.0028862872836041904 0.006249555700564535 0.006254171131515804 2.428292075212312e-05 -0.02120573592505356 0.021205751221002916 -4.821348119908125e-07 2.4348008118972197e-07 2.642084441877228e-07 -3.600723540099984e-11 5.138094300905834e-08 -1.99420684733996e-08 0.29499452703879125 -0.11201227222656678 0.4812378522997235 -1.2088970238869492 1.207513495180341 -1.2088970236392849 -0.0028862886991476654 0.006249555203801824 0.006254171011984295 2.4282922621385306e-05 -0.02120573650841449 0.02120575040738174
5929.96 0.001321039710834509 -1.5699156336543405 -1.570355980224618 0.0 1.5707963267948966 0.0 0.02277654673852601 0.01518436449235067 0.007592182246175341 0.0 0.0 0.0 0.19634954084936243 0.13089969389957481 0.06544984694978741 0.0 0.0 0.0 0.01100455119231436 0.495662751835885 0.6912100543787655 0.0647263521099878 0.0003329655404632003 0.0 0.14448975715508755 6.508051931605171 6.43668626838594 0.29418127033989455 0.0015133283814052455 0.0 0.0013210397446528077 -1.5699155966388147 -1.5703561941729944 0.0 1.5707963705062866 0.0 0.022776545956730843 0.015184364281594753 0.007592182140797377 0.0 0.0 0.0 0.011004551313817501 0.49566274881362915 0.6912100315093994 0.06472635269165039 0.0003329655446577817 0.0 0.011004551313817501 0.49566274881362915 0.6912100315093994 0.06472635269165039 0.0003329655446577817 0.0 0.29497057856246184 -0.1119604264192755 0.481289683543683 -1.2088505680660597 1.2072546294622244 -1.2088503010514935 -0.00310244822773894 0.006710943729178979 0.006716665673693958 3.0088714318374664e-05 -0.022776526548195498 0.022776545952059295 7.108050986908146e-07 -3.812594239911035e-07 1.0119954449090237e-06 -7.396567884077834e-11 2.4710885614483948e-08 3.128293468684881e-08 0.2949705724120516 -0.11196043001733684 0.48128973575336337 -1.2088504169918928 1.2072545314689025 -1.2088504167442804 -0.0031024493258083826 0.006710943818217119 0.006716665558340625 3.0088713965736572e-05 -0.022776526864330123 0.02277654673385446
5929.968 0.001509535270049897 -1.5697899699481965 -1.5702931483715465 0.0 1.5707963267948966 0.0 0.02434734306532091 0.016231562043547268 0.008115781021773641 0.0 0.0 0.0 0.19634954084936243 0.13089969389957481 0.06544984694978752 0.0 0.0 0.0 0.011001873189549859 0.49553924570805213 0.6911883347093444 0.06468381436635273 0.0003327197339258321 0.0 0.14445459497878965 6.506430296146725 6.436484010480357 0.29398793629507314 0.0015122111906929068 0.0 0.0015095352428033948 -1.5697901884662073 -1.5702932516681116 0.0 1.5707963705062866 0.0 0.024347342550754547 0.016231562942266464 0.008115781471133232 0.0 0.0 0.0 0.011001872830092907 0.49553924798965454 0.6911883354187012 0.06468381732702255 0.00033271973370574415 0.0 0.011001872830092907 0.49553924798965454 0.6911883354187012 0.06468381732702255 0.00033271973370574415 0.0 0.2949449673454817 -0.11190489431492669 0.4813452236153514 -1.2088007021724898 1.206977297933369 -1.2088002601094632 -0.0033191134898320537 0.007172002966602579 0.0071789952104277304 3.6753160502478196e-05 -0.024347316673298897 0.024347342545760823 9.585178302830818e-08 -2.825440817167956e-08 3.2269237797662575e-08 -1.5446187094864422e-11 7.905787735156174e-09 2.32688162631111e-09 0.2949448865019322 -0.11190489800889829 0.48134531850378304 -1.2088004443341813 1.2069770932894988 -1.2088004440866262 -0.0033191153183929527 0.007172001146898065 0.007178993276502497 3.6753159130885706e-05 -0.024347315325220643 0.024347343060327185
5929.976 0.001710597199879644 -1.5696559286616436 -1.5702261277282705 0.0 1.5707963267948966 0.0 0.025918139392115805 0.017278759594743866 0.00863937979737194 0.0 0.0 0.0 0.196349540849362 0.13089969389957481 0.06544984694978741 0.0 0.0 0.0 0.010999016850044828 0.4954074866344977 0.6911651405594886 0.0646384381970145 0.00033245742247755905 0.0 0.1444170912410886 6.504700299510954 6.43626802191807 0.2937817016054309 0.0015110189851605057 0.0 0.0017105971928685904 -1.569655720387594 -1.570226017628805 0.0 1.5707963705062866 0.0 0.02591813914477825 0.01727875880897045 0.008639379404485226 0.0 0.0 0.0 0.010999016463756561 0.49540749192237854 0.6911651492118835 0.06463843584060669 0.0003324574208818376 0.0 0.010999016463756561 0.49540749192237854 0.6911651492118835 0.06463843584060669 0.0003324574208818376 0.0 0.294917387040351 -0.11184567549991387 0.4814046930334486 -1.2087468843269464 1.2066809189324015 -1.208747216085522 -0.0035363235585379313 0.007632701902563674 0.007641140643283774 4.4335472850322924e-05 -0.02591810029337873 0.02591813913946235 -4.532665203165821e-08 4.760475877365468e-08 -4.2813292757527337e-07 7.824796728723697e-11 -4.1843309406669765e-08 -3.897916107890343e-09 0.2949174651269799 -0.1118456789442407 0.48140459917000566 -1.208747098327883 1.2066811853952204 -1.2087470980803872 -0.0035363213009882545 0.00763270400298457 0.007641142576044922 4.4335475048247845e-05 -0.025918101472036825 0.025918139386799904
5929.9839999999995 0.0019242255003237502 -1.5695135097946809 -1.5701549182947883 0.0 1.5707963267948966 0.0 0.027488935718910704 0.018325957145940465 0.00916297857297024 0.0 0.0 0.0 0.19634954084936243 0.13089969389957481 0.06544984694978741 0.0 0.0 0.0 0.010995982212804335 0.49526747090093276 0.6911404668003586 0.06459022310526286 0.0003321785833402119 0.0 0.14437724645412092 6.502861892929247 6.4360382549383 0.2935625640134197 0.001509751661281263 0.0 0.0019242254784330726 -1.5695136229144495 -1.5701549688922327 0.0 1.5707963705062866 0.0 0.027488935738801956 0.018325956538319588 0.009162978269159794 0.0 0.0 0.0 0.010995982214808464 0.49526748061180115 0.6911404728889465 0.064590223133564 0.00033217857708223164 0.0 0.010995982214808464 0.49526748061180115 0.6911404728889465 0.064590223133564 0.00033217857708223164 0.0 0.2948883454473415 -0.11178277209851455 0.4814675280194608 -1.2086905122340454 1.206366901129781 -1.2086902612957493 -0.0037541003966751396 0.008093030284888262 0.008103102472637676 5.289487608971024e-05 -0.027488883916629552 0.027488935733163883 2.912388988707628e-07 -1.5332341326023906e-07 -2.647139456722806e-07 6.495487407421687e-11 -4.6385707634448217e-08 1.2631481975606745e-08 0.29488830382893033 -0.11178277575211673 0.4814675762782653 -1.2086903708836323 1.2063668128583191 -1.2086903706362024 -0.003754101851723786 0.008093029131838465 0.008103101849548417 5.289487844525885e-05 -0.02748888482805803 0.02748893571327263
5929.991999999999 0.0021504201713822154 -1.5693627133473083 -1.5700795200711024 0.0 1.5707963267948966 0.0 0.0290597320457056 0.019373154697137063 0.009686577348568539 0.0 0.0 0.0 0.196349540849362 0.13089969389957481 0.06544984694978741 0.0 0.0 0.0 0.010992769319558419 0.4951191945617378 0.6911143079827752 0.0645391685639371 0.0003318831923193247 0.0 0.14433506116580205 6.500915024595617 6.435794658797199 0.2933305211230941 0.0015084091090913306 0.0 0.0021504200994968414 -1.5693629423724573 -1.5700796286212366 0.0 1.5707963705062866 0.0 0.02905973233282566 0.019373154267668724 0.009686577133834362 0.0 0.0 0.0 0.01099276915192604 0.4951191842556 0.6911143064498901 0.06453917175531387 0.00033188320230692625 0.0 0.01099276915192604 0.4951191842556 0.6911143064498901 0.06453917175531387 0.00033188320230692625 0.0 0.29485748268530765 -0.11171618780642709 0.4815341487686936 -1.208630522931098 1.206034197269374 -1.208630061935053 -0.003972488524337644 0.008552955763076596 0.008564861206192282 6.249058232914368e-05 -0.029059664210975056 0.02905973232686541 -4.975773796761004e-07 2.719856822745039e-07 1.3388760903270905e-07 -9.794636647664091e-11 6.795118348041554e-08 -2.240855247654348e-08 0.2948573978730882 -0.11171619154760175 0.481534248261863 -1.208630253409088 1.2060339810706542 -1.2086302531617263 -0.003972491499738809 0.008552953206714604 0.00856485947150647 6.249058580341352e-05 -0.029059664855171592 0.02905973203974535
5930.0 0.0023891812130550404 -1.5692035393195267 -1.5699999330572112 0.0 1.5707963267948966 0.0 0.0306305283725005 0.020420352248333662 0.01021017612416684 0.0 0.0 0.0 0.19634954084936243 0.13089969389957481 0.06544984694978762 0.0 0.0 0.0 0.010989378214814794 0.49496265344010926 0.691086658337257 0.06448527401553174 0.00033157122380548463 0.0 0.14429053596051825 6.498859639668634 6.435537179768205 0.29308557040059174 0.0015069912121959276 0.0 0.0023891811724752188 -1.5692036787616175 -1.5699999968158167 0.0 1.5707963705062866 0.0 0.030630528926849365 0.02042035199701786 0.01021017599850893 0.0 0.0 0.0 0.010989378206431866 0.4949626624584198 0.6910866498947144 0.06448527425527573 0.0003315712383482605 0.0 0.010989378206431866 0.4949626624584198 0.6910866498947144 0.06448527425527573 0.0003315712383482605 0.0 0.294824793696937 -0.11164592594174859 0.4816045535820537 -1.2085669072966252 1.2056828130451962 -1.2085666086879383 -0.004191522844957526 0.009012454568677771 0.009026404915544652 7.318181116726812e-05 -0.0306304405731825 0.03063052892056694 8.090744462955547e-07 -4.2414891370581606e-07 3.757100850616406e-07 6.011063558035134e-12 -3.734221617115651e-08 3.4829818112686375e-08 0.29482474224873123 -0.11164592963268787 0.4816046134610212 -1.2085667368093962 1.205682695744158 -1.2085667365621062 -0.004191524722137009 0.009012452824440216 0.009026403797233714 7.318181331090359e-05 -0.030630440950152167 0.030630528366218074
5930.008 0.002640508625342224 -1.5690359877113353 -1.5699161572531155 0.0 1.5707963267948966 0.0 0.032201324699295396 0.02146754979953026 0.010733774899765139 0.0 0.0 0.0 0.196349540849362 0.13089969389957481 0.06544984694978741 0.0 0.0 0.0 0.01098580894591378 0.49479784312821307 0.6910575117740614 0.06442853887231179 0.00033124265077574144 0.0 0.14424367145984793 6.4966956802734375 6.435265761142415 0.29282770917465706 0.0015054978477757447 0.0 0.0026405085809528828 -1.56903583208193 -1.569916073475973 0.0 1.5707963705062866 0.0 0.03220132365822792 0.021467549726366997 0.010733774863183498 0.0 0.0 0.0 0.01098580937832594 0.49479785561561584 0.6910575032234192 0.06442853808403015 0.000331242656102404 0.0 0.01098580937832594 0.49479785561561584 0.6910575032234192 0.06442853808403015 0.000331242656102404 0.0 0.29479027311642475 -0.11157199008462017 0.4816787406626101 -1.2084996555880616 1.2053127546509197 -1.208499891893055 -0.004411238411870855 0.009471502303146246 0.00948772165142388 8.502777509035529e-05 -0.0322012123312004 0.03220132365162332 1.0005628041327027e-06 -5.519473029101758e-07 3.5922837233745284e-07 3.78454971828955e-11 -5.973224509849704e-08 4.5396341249569064e-08 0.2947903316695386 -0.11157199349691264 0.48167867012272403 -1.2084998114876957 1.2053129629113342 -1.2084998112404814 -0.004411235940927574 0.009471504501103062 0.009487723161774882 8.502777680952791e-05 -0.032201212440941145 0.0322013246926908
5930.016 0.002904402408243767 -1.5688600585227341 -1.5698281926588153 0.0 1.5707963267948966 0.0 0.03377212102609029 0.022514747350726855 0.011257373675363438 0.0 0.0 0.0 0.196349540849362 0.13089969389957437 0.06544984694978741 0.0 0.0 0.0 0.010982061563087226 0.49462475898735425 0.6910268618832305 0.06436896251643305 0.00033089744479511987 0.0 0.14419446832333527 6.494423085503962 6.434980343229019 0.2925569346371882 0.00150392888659382 0.0 0.0029044023249298334 -1.568859879170553 -1.5698283354388636 0.0 1.5707963705062866 0.0 0.033772122114896774 0.022514747455716133 0.011257373727858067 0.0 0.0 0.0 0.010982061736285686 0.4946247637271881 0.6910268664360046 0.06436896324157715 0.0003308974555693567 0.0 0.010982061736285686 0.4946247637271881 0.6910268664360046 0.06436896324157715 0.0003308974555693567 0.0 0.29475411370270815 -0.11149438339870812 0.4817564271010879 -1.208429461007426 1.2049247298839714 -1.208429452233868 -0.004631659915523351 0.009930083405268185 0.009948804834857779 9.808768937926774e-05 -0.03377197874041753 0.033772122107969996 8.192910427751622e-08 -5.346015459347885e-08 -1.831187816741456e-07 4.155130033194416e-11 -1.8654938661728526e-08 4.348869731717043e-09 0.2947541605740437 -0.11149438681802232 0.48175641640055145 -1.2084294673456464 1.2049247889257775 -1.2084294670985116 -0.004631659519952163 0.009930084667748902 0.009948805878814568 9.808769173554814e-05 -0.03377197858292612 0.03377212101916351
5930.023999999999 0.003180862561759669 -1.568675751753723 -1.5697360392743098 0.0 1.5707963267948966 0.0 0.035342917352885195 0.023561944901923454 0.011780972450961737 0.0 0.0 0.0 0.19634954084936287 0.13089969389957481 0.06544984694978741 0.0 0.0 0.0 0.010978136119519807 0.4944433961481491 0.6909947019346349 0.06430654430006894 0.00033053557601819643 0.0 0.14414292724929506 6.492041791425198 6.434680863355707 0.2922732438438133 0.0015022841930027028 0.0 0.0031808626372367144 -1.5686758200274866 -1.5697358290301722 0.0 1.5707963705062866 0.0 0.03534291684627533 0.02356194518506527 0.011780972592532635 0.0 0.0 0.0 0.010978136211633682 0.4944433867931366 0.6909946799278259 0.06430654227733612 0.00033053557854145765 0.0 0.010978136211633682 0.4944433867931366 0.6909946799278259 0.06430654227733612 0.00033053557854145765 0.0 0.29471622750757803 -0.11141310984653377 0.48183789225357904 -1.2083556097671102 1.2045180438025822 -1.208355728161524 -0.004852831532089657 0.01038816966592798 0.010409640323664544 0.00011242077707267797 -0.035342738979922426 0.03534291683902638 3.355926296458388e-07 -1.817280671179188e-07 9.189530236278023e-07 -1.657197594514258e-10 3.713823424639526e-08 1.4959336676781177e-08 0.29471622312611256 -0.11141311346266917 0.48183785035450394 -1.2083556937839852 1.2045181804627263 -1.2083556935369346 -0.004852829761796916 0.010388169666088853 0.010409640239587892 0.00011242077305416198 -0.035342738555220354 0.03534291734563624
5930.032 0.0034698890858899305 -1.568483067404303 -1.5696396970995998 0.0 1.5707963267948966 0.0 0.03691371367968009 0.024609142453120052 0.012304571226560037 0.0 0.0 0.0 0.196349540849362 0.13089969389957481 0.06544984694978741 0.0 0.0 0.0 0.010974032671413624 0.4942537495107096 0.6909610248780258 0.0642412835455446 0.0003301570131907582 0.0 0.14408904897566088 6.4895517310756174 6.4343672558691525 0.2919766337145002 0.0015005636249519959 0.0 0.0034698890522122383 -1.5684831778155726 -1.5696395079242151 0.0 1.5707963705062866 0.0 0.03691371530294418 0.024609142914414406 0.012304571457207203 0.0 0.0 0.0 0.010974032804369926 0.4942537546157837 0.6909610033035278 0.06424128264188766 0.0003301570250187069 0.0 0.010974032804369926 0.4942537546157837 0.6909610033035278 0.06424128264188766 0.0003301570250187069 0.0 0.29467653329764465 -0.11132817384738677 0.48192299323680876 -1.2082784422525665 1.2040930544235178 -1.208278484400321 -0.005074781889291798 0.010845736960595407 0.010870215126449315 0.00012808623634506146 -0.03691349214888403 0.03691371529537305 1.0995693589490763e-06 -5.847304217266547e-07 9.266694020435003e-07 -8.908827059805194e-11 -2.2474094826829498e-08 4.8147568589617315e-08 0.294676513215446 -0.11132817748714344 0.48192296995081774 -1.2082784797031134 1.2040931445196403 -1.2082784794561496 -0.005074780904688739 0.010845735744217067 0.010870214511792044 0.00012808623518726717 -0.03691349145694236 0.03691371367210896
5930.04 0.003771481980634551 -1.5682820054744733 -1.5695391661346854 0.0 1.5707963267948966 0.0 0.03848451000647499 0.02565634000431665 0.012828170002158338 0.0 0.0 0.0 0.196349540849362 0.13089969389957481 0.06544984694978762 0.0 0.0 0.0 0.010969751278056432 0.4940558137448332 0.6909258233430838 0.0641731795454753 0.0003297617236515621 0.0 0.14403283428088096 6.486952834469661 6.434039452135465 0.2916671010341852 0.0014987670339963498 0.0 0.0037714820355176926 -1.5682819525348108 -1.5695393721209925 0.0 1.5707963705062866 0.0 0.03848451003432274 0.025656340643763542 0.012828170321881771 0.0 0.0 0.0 0.010969751514494419 0.4940558075904846 0.6909258365631104 0.06417317688465118 0.00032976173679344356 0.0 0.010969751514494419 0.4940558075904846 0.6909258365631104 0.06417317688465118 0.00032976173679344356 0.0 0.29463502478479825 -0.11123957954077139 0.4820117279072096 -1.2081979471433029 1.203649768674887 -1.2081977091061737 -0.005297545756126863 0.011302759078243073 0.011330517399219534 0.0001451432976638098 -0.03848423726265102 0.038484510026429435 -8.369217725279317e-07 4.2452879072128393e-07 -6.371570048364729e-07 1.0411029740772949e-10 7.480911155764122e-09 -3.5086655464020234e-08 0.29463502445810663 -0.11123958313813932 0.4820117730617734 -1.208197813503704 1.2036496884167986 -1.208197813256831 -0.005297547119375237 0.011302759052339345 0.01133051693849878 0.00014514329193418893 -0.03848423630349549 0.03848450999858168
5930.048 0.004085641245993531 -1.5680725659642345 -1.5694344463795655 0.0 1.5707963267948966 0.0 0.04005530633326989 0.02670353755551325 0.013351768777756637 0.0 0.0 0.0 0.19634954084936287 0.13089969389957481 0.06544984694978741 0.0 0.0 0.0 0.010965292001892092 0.4938495832902077 0.6908890896394757 0.0641022315629134 0.00032934967333415015 0.0 0.14397428398484316 6.484245028600428 6.433697380540726 0.2913446424534414 0.0014968942653037123 0.0 0.0040856413543224335 -1.5680726210223597 -1.5694344679461878 0.0 1.5707963705062866 0.0 0.040055304765701294 0.02670353837311268 0.01335176918655634 0.0 0.0 0.0 0.01096529234200716 0.49384957551956177 0.6908890604972839 0.06410223245620728 0.0003293496847618371 0.0 0.01096529234200716 0.49384957551956177 0.6908890604972839 0.06410223245620728 0.0003293496847618371 0.0 0.2945917702414468 -0.11114733115980414 0.4821042349131468 -1.2081137603696175 1.2031878438259915 -1.2081136146114562 -0.005521162229702818 0.011759215980968725 0.011790536721948115 0.0001636511657347675 -0.04005497324921877 0.04005530475748581 6.931033340282318e-07 -3.840381559372345e-07 1.2944559572426415e-06 -3.350337940067257e-10 5.0369894969573237e-08 3.163218355906447e-08 0.2945917501970713 -0.11114733485355507 0.4821042574654941 -1.208113683087346 1.203187819797933 -1.208113682840567 -0.005521162505987373 0.011759215638513188 0.011790535737067922 0.00016365115638504327 -0.04005497202284761 0.040055306325054406
5930.056 0.00441236688196687 -1.567854748873585 -1.5693255378342412 0.0 1.5707963267948966 0.0 0.041626102660064786 0.027750735106709848 0.013875367553354936 0.0 0.0 0.0 0.196349540849362 0.13089969389957481 0.06544984694978741 0.0 0.0 0.0 0.010960654908594535 0.49363505235661587 0.6908508157569088 0.0640284388315004 0.00032892082676875655 0.0 0.14391339894984626 6.481428237442367 6.433340966491485 0.2910092544891693 0.0014949451576639985 0.0 0.004412367008626461 -1.5678547064410608 -1.5693257490741175 0.0 1.5707963705062866 0.0 0.04162610322237015 0.027750734239816666 0.013875367119908333 0.0 0.0 0.0 0.01096065528690815 0.49363505840301514 0.6908507943153381 0.06402844190597534 0.00032892083982005715 0.0 0.01096065528690815 0.49363505840301514 0.6908507943153381 0.06402844190597534 0.00032892083982005715 0.0 0.2945466877897984 -0.11105143362716864 0.4822003710558889 -1.2080262212059205 1.2027076383823272 -1.2080259640760604 -0.005745658783786888 0.012215081797734565 0.012250259037358274 0.00018366904036114554 -0.04162569615146049 0.04162610321383249 1.1451241234679817e-06 -6.230449166807111e-07 1.0068868497457442e-06 -2.1851660606723963e-10 -1.856047117054836e-09 5.1380883197945e-08 0.2945466835028085 -0.11105143726332736 0.48220042084573544 -1.2080260758572092 1.2027075466308825 -1.2080260756105297 -0.0057456610908842454 0.01221508144439982 0.012250259098061945 0.00018366904082640952 -0.04162569745181088 0.04162610265152713
5930.063999999999 0.004751658888554568 -1.5676285542025266 -1.5692124404987116 0.0 1.5707963267948966 0.0 0.04319689898685968 0.028797932657906446 0.014398966328953235 0.0 0.0 0.0 0.196349540849362 0.13089969389957481 0.06544984694978741 0.0 0.0 0.0 0.010955840067145393 0.4934122149241618 0.6908109933651926 0.06395180055562646 0.0003284751470843162 0.0 0.143850180081619 6.478502381954244 6.432970132415347 0.2906609335253223 0.001492919543498217 0.0 0.004751658998429775 -1.5676286856280726 -1.5692122618304651 0.0 1.5707963705062866 0.0 0.0431968979537487 0.028797931969165802 0.014398965984582901 0.0 0.0 0.0 0.010955840349197388 0.49341222643852234 0.6908109784126282 0.06395179778337479 0.00032847514376044273 0.0 0.010955840349197388 0.49341222643852234 0.6908109784126282 0.06395179778337479 0.00032847514376044273 0.0 0.29449984509204635 -0.110951891445337 0.482300274817468 -1.207934964571479 1.202208810194867 -1.2079349684584157 -0.0059710774468418075 0.012670333199924501 0.01270967562531386 0.00020525615647622617 -0.04319641029919972 0.04319689794488887 1.1931480546321304e-06 -6.42350510278552e-07 5.995251452227134e-07 6.030460216006379e-11 -6.577844577082222e-08 5.3086749646877533e-08 0.2944998171738825 -0.11095189519029915 0.4823002607916662 -1.207934978718744 1.202208877208277 -1.2079349784721674 -0.0059710768234791396 0.012670332301028807 0.01270967518416165 0.00020525615663898413 -0.04319641133232159 0.04319689897799985
5930.072 0.005103517265756625 -1.5673939819510583 -1.5690951543729774 0.0 1.5707963267948966 0.0 0.04476769531365458 0.029845130209103045 0.014922565104551535 0.0 0.0 0.0 0.196349540849362 0.13089969389957481 0.06544984694978741 0.0 0.0 0.0 0.010950847549913637 0.4931810647434921 0.6907696138143008 0.06387231591059506 0.00032801259601052135 0.0 0.14378462833036607 6.475467380082051 6.432584797761533 0.2902996758136545 0.0014908172488678193 0.0 0.005103517323732376 -1.5673940817462366 -1.5690949598895472 0.0 1.5707963705062866 0.0 0.04476769641041756 0.02984512969851494 0.01492256484925747 0.0 0.0 0.0 0.010950847528874874 0.4931810796260834 0.690769612789154 0.0638723149895668 0.00032801259658299387 0.0 0.010950847528874874 0.4931810796260834 0.690769612789154 0.0638723149895668 0.00032801259658299387 0.0 0.2944511598163141 -0.11084870997201536 0.4824038027859974 -1.2078403288668587 1.2016917183184834 -1.2078403901237622 -0.006197444676974224 0.013124944961265766 0.013168772261298593 0.0002284717128736205 -0.04476711154183468 0.04476769640123555 8.433473700024661e-07 -4.401607874808407e-07 2.9429177884532047e-08 1.915248334802983e-10 -7.392632072374952e-08 3.639812531118332e-08 0.29445114373757997 -0.11084871365112185 0.4824037747976418 -1.207840378080401 1.2016918201482438 -1.2078403778339308 -0.006197443573046236 0.013124943924575631 0.013168772129082925 0.00022847171418688953 -0.044767112307720125 0.04476769530447257
5930.08 0.005467942013573042 -1.567151032119181 -1.5689736794570388 0.0 1.5707963267948966 0.0 0.04633849164044948 0.030892327760299643 0.015446163880149836 0.0 0.0 0.0 0.19634954084936287 0.13089969389957481 0.06544984694978762 0.0 0.0 0.0 0.010945677432739298 0.492941595336038 0.6907266681344356 0.06378998404279498 0.0003275331338799917 0.0 0.143716744691867 6.47232314676218 6.432184879001491 0.2899254774745032 0.0014886380934845623 0.0 0.005467941984534264 -1.567150894795553 -1.5689738432513636 0.0 1.5707963705062866 0.0 0.04633849114179611 0.030892327427864075 0.015446163713932037 0.0 0.0 0.0 0.010945677757263184 0.49294158816337585 0.6907266974449158 0.0637899860739708 0.00032753314008004963 0.0 0.010945677757263184 0.49294158816337585 0.6907266974449158 0.0637899860739708 0.00032753314008004963 0.0 0.2944006242715203 -0.11074189445619288 0.4825109523406421 -1.2077423000749663 1.2011563716383988 -1.2077422151013268 -0.006424794848748978 0.013578890323571841 0.013627536962900276 0.0002533749186261222 -0.046337798420392484 0.04633849113229193 -1.5064556386189497e-06 7.683161892942241e-07 -1.24487208006136e-06 1.4697719512535626e-10 3.674682678381195e-08 -6.362601304387067e-08 0.2944006554505651 -0.11074189785719091 0.4825109602629676 -1.2077422598543845 1.201156384395143 -1.2077422596080232 -0.006424795125507104 0.01357889191215301 0.013627538036494784 0.00025337492269830936 -0.04633779891903104 0.0463384916309453
5930.088 0.005844933132003818 -1.566899704706894 -1.5688480157508948 0.0 1.5707963267948966 0.0 0.04790928796724438 0.03193952531149624 0.015969762655748135 0.0 0.0 0.0 0.196349540849362 0.13089969389957481 0.06544984694978741 0.0 0.0 0.0 0.010940329795019544 0.4926937999942577 0.6906821470360953 0.06370480406987782 0.000327036719630505 0.0 0.1436465302086066 6.469069593924604 6.431770289629528 0.2895383344975947 0.0014863818907206452 0.0 0.005844932980835438 -1.56689960161318 -1.568847958241598 0.0 1.5707963705062866 0.0 0.047909289598464966 0.03193952515721321 0.015969762578606606 0.0 0.0 0.0 0.010940330103039742 0.49269381165504456 0.6906821727752686 0.06370480358600616 0.00032703671604394913 0.0 0.010940330103039742 0.49269381165504456 0.6906821727752686 0.06370480358600616 0.00032703671604394913 0.0 0.2943483051596883 -0.110631449908762 0.4826218617148248 -1.2076405114253381 1.2006024291524984 -1.207640652528029 -0.006653167364383728 0.014032150331511676 0.014085959438643065 0.0002800249815422256 -0.047908469369864946 0.047909289588638604 -3.518993850936893e-07 1.6492729160511727e-07 -1.136361474339585e-06 4.5730200508242245e-10 -6.457783301167757e-08 -1.3659234761915879e-08 0.2943483442995581 -0.11063145321561506 0.48262181449165525 -1.2076406094574292 1.2006025792203248 -1.2076406092111815 -0.006653165180196407 0.014032151737616278 0.014085960978938538 0.0002800249901371247 -0.04790846960124322 0.047909287957418015
5930.096 0.006234490621048952 -1.566639999714197 -1.5687181632545464 0.0 1.5707963267948966 0.0 0.04948008429403927 0.032986722862692844 0.016493361431346436 0.0 0.0 0.0 0.196349540849362 0.13089969389957523 0.06544984694978762 0.0 0.0 0.0 0.010934804719798864 0.4924376717818951 0.6906360409101479 0.06361677508094356 0.00032652331080733983 0.0 0.14357398597095908 6.465706630496284 6.431340940163479 0.28913824274288846 0.0014840484476193593 0.0 0.006234490778297186 -1.5666402021991175 -1.5687182585345667 0.0 1.5707963705062866 0.0 0.04948008432984352 0.03298672288656235 0.016493361443281174 0.0 0.0 0.0 0.010934804566204548 0.4924376606941223 0.6906360387802124 0.06361677497625351 0.00032652332447469234 0.0 0.010934804566204548 0.4924376606941223 0.6906360387802124 0.06361677497625351 0.00032652332447469234 0.0 0.29429427729231067 -0.1105173812346153 0.48273624717204244 -1.2075356525905379 1.2000306005325965 -1.20753523980276 -0.006882583220423944 0.014484702508310982 0.014544031919257879 0.00030848113106894686 -0.04947912271534531 0.049480084319694986 -5.182296217953324e-07 2.806850720553677e-07 8.756070204517283e-08 -1.7256794277938813e-10 5.0992115423028514e-08 -2.3313936378050765e-08 0.29429420200204237 -0.1105173853302192 0.48273633469216803 -1.20753541181161 1.20003041422292 -1.2075354115654802 -0.0068825873466058325 0.014484698747383676 0.014544028996748396 0.0003084811230652225 -0.04947912267959027 0.04948008428389074
5930.103999999999 0.006636614480708447 -1.5663719171410913 -1.5685841219679935 0.0 1.5707963267948966 0.0 0.051050880620834176 0.03403392041388944 0.017016960206944733 0.0 0.0 0.0 0.19634954084936287 0.13089969389957437 0.06544984694978719 0.0 0.0 0.0 0.010929102293861312 0.4921732035342433 0.6905883398279009 0.06352589613673087 0.00032599286356567296 0.0 0.14349911311839902 6.462234162404616 6.430896738145379 0.2887251979414418 0.0014816375649059836 0.0 0.006636614445596933 -1.5663717428790491 -1.5685842672931116 0.0 1.5707963705062866 0.0 0.051050879061222076 0.034033920615911484 0.017016960307955742 0.0 0.0 0.0 0.010929102078080177 0.4921731948852539 0.6905883550643921 0.06352589279413223 0.0003259928780607879 0.0 0.010929102078080177 0.4921731948852539 0.6905883550643921 0.06352589279413223 0.0003259928780607879 0.0 0.2942381749954271 -0.11039969673157307 0.48285452631345455 -1.2074266506288132 1.1994398458816788 -1.2074266325868845 -0.0071130959847172754 0.014936505396593996 0.0150017286120172 0.00033880252671381473 -0.051049756668869274 0.05105087905075137 -1.0488867366596775e-06 5.616697717660028e-07 -7.435403923812486e-07 2.1590012967990557e-10 1.410465179537682e-08 -4.6634704668430914e-08 0.29423822000699573 -0.11039970000258052 0.4828545179771592 -1.2074266513451755 1.1994398993306479 -1.207426651099166 -0.007113095141105825 0.014936508156271814 0.015001730096973273 0.0003388025264951502 -0.051049756365831 0.05105088061036347
