Fleaurent/UniversalRobot/csv/ursim_movel_x400.csv
timestamp target_q_0 target_q_1 target_q_2 target_q_3 target_q_4 target_q_5 target_qd_0 target_qd_1 target_qd_2 target_qd_3 target_qd_4 target_qd_5 target_qdd_0 target_qdd_1 target_qdd_2 target_qdd_3 target_qdd_4 target_qdd_5 target_current_0 target_current_1 target_current_2 target_current_3 target_current_4 target_current_5 target_moment_0 target_moment_1 target_moment_2 target_moment_3 target_moment_4 target_moment_5 actual_q_0 actual_q_1 actual_q_2 actual_q_3 actual_q_4 actual_q_5 actual_qd_0 actual_qd_1 actual_qd_2 actual_qd_3 actual_qd_4 actual_qd_5 actual_current_0 actual_current_1 actual_current_2 actual_current_3 actual_current_4 actual_current_5 joint_control_output_0 joint_control_output_1 joint_control_output_2 joint_control_output_3 joint_control_output_4 joint_control_output_5 actual_TCP_pose_0 actual_TCP_pose_1 actual_TCP_pose_2 actual_TCP_pose_3 actual_TCP_pose_4 actual_TCP_pose_5 actual_TCP_speed_0 actual_TCP_speed_1 actual_TCP_speed_2 actual_TCP_speed_3 actual_TCP_speed_4 actual_TCP_speed_5 actual_TCP_force_0 actual_TCP_force_1 actual_TCP_force_2 actual_TCP_force_3 actual_TCP_force_4 actual_TCP_force_5 target_TCP_pose_0 target_TCP_pose_1 target_TCP_pose_2 target_TCP_pose_3 target_TCP_pose_4 target_TCP_pose_5 target_TCP_speed_0 target_TCP_speed_1 target_TCP_speed_2 target_TCP_speed_3 target_TCP_speed_4 target_TCP_speed_5
91.0 -0.3527446235783671 -1.8721694061323095 -1.6035221024492134 0.3342271727141579 1.9237026850968153 0.00016474031218383087 0.0 0.0 0.0 0.0 0.0 0.0 0.0 0.0 0.0 0.0 0.0 0.0 -2.0424138718205872e-17 0.7198734422690871 0.6485245092712707 0.0601152284726053 -2.8425992629702087e-06 0.0 -2.681689413700431e-16 9.451938296993113 6.039189935235927 0.27322371340799106 -1.2919613650199598e-05 0.0 -0.3527444044696253 -1.872169319783346 -1.6035221258746546 0.33422717452049255 1.9237027168273926 0.00016474031144753098 0.0 0.0 0.0 0.0 0.0 0.0 -2.042413818895097e-17 0.7198734283447266 0.6485245227813721 0.060115229338407516 -2.842599315044936e-06 0.0 -2.042413818895097e-17 0.7198734283447266 0.6485245227813721 0.060115229338407516 -2.842599315044936e-06 0.0 0.3000000239117409 -0.1999999243390919 0.4000000238953417 -1.2090988127156799 1.2090484906990822 -1.2090485909104884 0.0 0.0 0.0 0.0 0.0 0.0 -1.0890554891596372e-06 9.98766185006256e-07 -1.3043891436449114e-07 -9.23571675495262e-12 1.1786325613286326e-07 -8.181886395111488e-08 0.30000000000000016 -0.2 0.4 -1.2090987223823242 1.2090487307044389 -1.2090487304564574 0.0 0.0 0.0 0.0 0.0 0.0
91.008 -0.3527446235783671 -1.8721694061323095 -1.6035221024492134 0.3342271727141579 1.9237026850968153 0.00016474031218383087 0.0 0.0 0.0 0.0 0.0 0.0 0.0 0.0 0.0 0.0 0.0 0.0 -2.0424138718205872e-17 0.7198734422690871 0.6485245092712707 0.0601152284726053 -2.8425992629702087e-06 0.0 -2.681689413700431e-16 9.451938296993113 6.039189935235927 0.27322371340799106 -1.2919613650199598e-05 0.0 -0.3527444044696253 -1.872169319783346 -1.6035221258746546 0.33422717452049255 1.9237027168273926 0.00016474031144753098 0.0 0.0 0.0 0.0 0.0 0.0 -2.042413818895097e-17 0.7198734283447266 0.6485245227813721 0.060115229338407516 -2.842599315044936e-06 0.0 -2.042413818895097e-17 0.7198734283447266 0.6485245227813721 0.060115229338407516 -2.842599315044936e-06 0.0 0.3000000239117409 -0.1999999243390919 0.4000000238953417 -1.2090988127156799 1.2090484906990822 -1.2090485909104884 0.0 0.0 0.0 0.0 0.0 0.0 -1.0890554891596372e-06 9.98766185006256e-07 -1.3043891436449114e-07 -9.23571675495262e-12 1.1786325613286326e-07 -8.181886395111488e-08 0.30000000000000016 -0.2 0.4 -1.2090987223823242 1.2090487307044389 -1.2090487304564574 0.0 0.0 0.0 0.0 0.0 0.0
91.01599999999999 -0.3527446235783671 -1.8721694061323095 -1.6035221024492134 0.3342271727141579 1.9237026850968153 0.00016474031218383087 0.0 0.0 0.0 0.0 0.0 0.0 0.0 0.0 0.0 0.0 0.0 0.0 -2.0424138718205872e-17 0.7198734422690871 0.6485245092712707 0.0601152284726053 -2.8425992629702087e-06 0.0 -2.681689413700431e-16 9.451938296993113 6.039189935235927 0.27322371340799106 -1.2919613650199598e-05 0.0 -0.3527444044696253 -1.872169319783346 -1.6035221258746546 0.33422717452049255 1.9237027168273926 0.00016474031144753098 0.0 0.0 0.0 0.0 0.0 0.0 -2.042413818895097e-17 0.7198734283447266 0.6485245227813721 0.060115229338407516 -2.842599315044936e-06 0.0 -2.042413818895097e-17 0.7198734283447266 0.6485245227813721 0.060115229338407516 -2.842599315044936e-06 0.0 0.3000000239117409 -0.1999999243390919 0.4000000238953417 -1.2090988127156799 1.2090484906990822 -1.2090485909104884 0.0 0.0 0.0 0.0 0.0 0.0 -1.0890554891596372e-06 9.98766185006256e-07 -1.3043891436449114e-07 -9.23571675495262e-12 1.1786325613286326e-07 -8.181886395111488e-08 0.30000000000000016 -0.2 0.4 -1.2090987223823242 1.2090487307044389 -1.2090487304564574 0.0 0.0 0.0 0.0 0.0 0.0
91.024 -0.3527446235783671 -1.8721694061323095 -1.6035221024492134 0.3342271727141579 1.9237026850968153 0.00016474031218383087 0.0 0.0 0.0 0.0 0.0 0.0 0.0 0.0 0.0 0.0 0.0 0.0 -2.0424138718205872e-17 0.7198734422690871 0.6485245092712707 0.0601152284726053 -2.8425992629702087e-06 0.0 -2.681689413700431e-16 9.451938296993113 6.039189935235927 0.27322371340799106 -1.2919613650199598e-05 0.0 -0.3527444044696253 -1.872169319783346 -1.6035221258746546 0.33422717452049255 1.9237027168273926 0.00016474031144753098 0.0 0.0 0.0 0.0 0.0 0.0 -2.042413818895097e-17 0.7198734283447266 0.6485245227813721 0.060115229338407516 -2.842599315044936e-06 0.0 -2.042413818895097e-17 0.7198734283447266 0.6485245227813721 0.060115229338407516 -2.842599315044936e-06 0.0 0.3000000239117409 -0.1999999243390919 0.4000000238953417 -1.2090988127156799 1.2090484906990822 -1.2090485909104884 0.0 0.0 0.0 0.0 0.0 0.0 -1.0890554891596372e-06 9.98766185006256e-07 -1.3043891436449114e-07 -9.23571675495262e-12 1.1786325613286326e-07 -8.181886395111488e-08 0.30000000000000016 -0.2 0.4 -1.2090987223823242 1.2090487307044389 -1.2090487304564574 0.0 0.0 0.0 0.0 0.0 0.0
91.032 -0.3527446235783671 -1.8721694061323095 -1.6035221024492134 0.3342271727141579 1.9237026850968153 0.00016474031218383087 0.0 0.0 0.0 0.0 0.0 0.0 0.0 0.0 0.0 0.0 0.0 0.0 -2.0424138718205872e-17 0.7198734422690871 0.6485245092712707 0.0601152284726053 -2.8425992629702087e-06 0.0 -2.681689413700431e-16 9.451938296993113 6.039189935235927 0.27322371340799106 -1.2919613650199598e-05 0.0 -0.3527444044696253 -1.872169319783346 -1.6035221258746546 0.33422717452049255 1.9237027168273926 0.00016474031144753098 0.0 0.0 0.0 0.0 0.0 0.0 -2.042413818895097e-17 0.7198734283447266 0.6485245227813721 0.060115229338407516 -2.842599315044936e-06 0.0 -2.042413818895097e-17 0.7198734283447266 0.6485245227813721 0.060115229338407516 -2.842599315044936e-06 0.0 0.3000000239117409 -0.1999999243390919 0.4000000238953417 -1.2090988127156799 1.2090484906990822 -1.2090485909104884 0.0 0.0 0.0 0.0 0.0 0.0 -1.0890554891596372e-06 9.98766185006256e-07 -1.3043891436449114e-07 -9.23571675495262e-12 1.1786325613286326e-07 -8.181886395111488e-08 0.30000000000000016 -0.2 0.4 -1.2090987223823242 1.2090487307044389 -1.2090487304564574 0.0 0.0 0.0 0.0 0.0 0.0
91.03999999999999 -0.3527446235783671 -1.8721694061323095 -1.6035221024492134 0.3342271727141579 1.9237026850968153 0.00016474031218383087 0.0 0.0 0.0 0.0 0.0 0.0 0.0 0.0 0.0 0.0 0.0 0.0 -2.0424138718205872e-17 0.7198734422690871 0.6485245092712707 0.0601152284726053 -2.8425992629702087e-06 0.0 -2.681689413700431e-16 9.451938296993113 6.039189935235927 0.27322371340799106 -1.2919613650199598e-05 0.0 -0.3527444044696253 -1.872169319783346 -1.6035221258746546 0.33422717452049255 1.9237027168273926 0.00016474031144753098 0.0 0.0 0.0 0.0 0.0 0.0 -2.042413818895097e-17 0.7198734283447266 0.6485245227813721 0.060115229338407516 -2.842599315044936e-06 0.0 -2.042413818895097e-17 0.7198734283447266 0.6485245227813721 0.060115229338407516 -2.842599315044936e-06 0.0 0.3000000239117409 -0.1999999243390919 0.4000000238953417 -1.2090988127156799 1.2090484906990822 -1.2090485909104884 0.0 0.0 0.0 0.0 0.0 0.0 -1.0890554891596372e-06 9.98766185006256e-07 -1.3043891436449114e-07 -9.23571675495262e-12 1.1786325613286326e-07 -8.181886395111488e-08 0.30000000000000016 -0.2 0.4 -1.2090987223823242 1.2090487307044389 -1.2090487304564574 0.0 0.0 0.0 0.0 0.0 0.0
91.048 -0.3527446235783671 -1.8721694061323095 -1.6035221024492134 0.3342271727141579 1.9237026850968153 0.00016474031218383087 0.0 0.0 0.0 0.0 0.0 0.0 0.0 0.0 0.0 0.0 0.0 0.0 -2.0424138718205872e-17 0.7198734422690871 0.6485245092712707 0.0601152284726053 -2.8425992629702087e-06 0.0 -2.681689413700431e-16 9.451938296993113 6.039189935235927 0.27322371340799106 -1.2919613650199598e-05 0.0 -0.3527444044696253 -1.872169319783346 -1.6035221258746546 0.33422717452049255 1.9237027168273926 0.00016474031144753098 0.0 0.0 0.0 0.0 0.0 0.0 -2.042413818895097e-17 0.7198734283447266 0.6485245227813721 0.060115229338407516 -2.842599315044936e-06 0.0 -2.042413818895097e-17 0.7198734283447266 0.6485245227813721 0.060115229338407516 -2.842599315044936e-06 0.0 0.3000000239117409 -0.1999999243390919 0.4000000238953417 -1.2090988127156799 1.2090484906990822 -1.2090485909104884 0.0 0.0 0.0 0.0 0.0 0.0 -1.0890554891596372e-06 9.98766185006256e-07 -1.3043891436449114e-07 -9.23571675495262e-12 1.1786325613286326e-07 -8.181886395111488e-08 0.30000000000000016 -0.2 0.4 -1.2090987223823242 1.2090487307044389 -1.2090487304564574 0.0 0.0 0.0 0.0 0.0 0.0
91.056 -0.3527446235783671 -1.8721694061323095 -1.6035221024492134 0.3342271727141579 1.9237026850968153 0.00016474031218383087 0.0 0.0 0.0 0.0 0.0 0.0 0.0 0.0 0.0 0.0 0.0 0.0 -2.0424138718205872e-17 0.7198734422690871 0.6485245092712707 0.0601152284726053 -2.8425992629702087e-06 0.0 -2.681689413700431e-16 9.451938296993113 6.039189935235927 0.27322371340799106 -1.2919613650199598e-05 0.0 -0.3527444044696253 -1.872169319783346 -1.6035221258746546 0.33422717452049255 1.9237027168273926 0.00016474031144753098 0.0 0.0 0.0 0.0 0.0 0.0 -2.042413818895097e-17 0.7198734283447266 0.6485245227813721 0.060115229338407516 -2.842599315044936e-06 0.0 -2.042413818895097e-17 0.7198734283447266 0.6485245227813721 0.060115229338407516 -2.842599315044936e-06 0.0 0.3000000239117409 -0.1999999243390919 0.4000000238953417 -1.2090988127156799 1.2090484906990822 -1.2090485909104884 0.0 0.0 0.0 0.0 0.0 0.0 -1.0890554891596372e-06 9.98766185006256e-07 -1.3043891436449114e-07 -9.23571675495262e-12 1.1786325613286326e-07 -8.181886395111488e-08 0.30000000000000016 -0.2 0.4 -1.2090987223823242 1.2090487307044389 -1.2090487304564574 0.0 0.0 0.0 0.0 0.0 0.0
91.064 -0.3527446235783671 -1.8721694061323095 -1.6035221024492134 0.3342271727141579 1.9237026850968153 0.00016474031218383087 0.0 0.0 0.0 0.0 0.0 0.0 0.0 0.0 0.0 0.0 0.0 0.0 -2.0424138718205872e-17 0.7198734422690871 0.6485245092712707 0.0601152284726053 -2.8425992629702087e-06 0.0 -2.681689413700431e-16 9.451938296993113 6.039189935235927 0.27322371340799106 -1.2919613650199598e-05 0.0 -0.3527444044696253 -1.872169319783346 -1.6035221258746546 0.33422717452049255 1.9237027168273926 0.00016474031144753098 0.0 0.0 0.0 0.0 0.0 0.0 -2.042413818895097e-17 0.7198734283447266 0.6485245227813721 0.060115229338407516 -2.842599315044936e-06 0.0 -2.042413818895097e-17 0.7198734283447266 0.6485245227813721 0.060115229338407516 -2.842599315044936e-06 0.0 0.3000000239117409 -0.1999999243390919 0.4000000238953417 -1.2090988127156799 1.2090484906990822 -1.2090485909104884 0.0 0.0 0.0 0.0 0.0 0.0 -1.0890554891596372e-06 9.98766185006256e-07 -1.3043891436449114e-07 -9.23571675495262e-12 1.1786325613286326e-07 -8.181886395111488e-08 0.30000000000000016 -0.2 0.4 -1.2090987223823242 1.2090487307044389 -1.2090487304564574 0.0 0.0 0.0 0.0 0.0 0.0
91.072 -0.3527446235783671 -1.8721694061323095 -1.6035221024492134 0.3342271727141579 1.9237026850968153 0.00016474031218383087 0.0 0.0 0.0 0.0 0.0 0.0 0.0 0.0 0.0 0.0 0.0 0.0 -2.0424138718205872e-17 0.7198734422690871 0.6485245092712707 0.0601152284726053 -2.8425992629702087e-06 0.0 -2.681689413700431e-16 9.451938296993113 6.039189935235927 0.27322371340799106 -1.2919613650199598e-05 0.0 -0.3527444044696253 -1.872169319783346 -1.6035221258746546 0.33422717452049255 1.9237027168273926 0.00016474031144753098 0.0 0.0 0.0 0.0 0.0 0.0 -2.042413818895097e-17 0.7198734283447266 0.6485245227813721 0.060115229338407516 -2.842599315044936e-06 0.0 -2.042413818895097e-17 0.7198734283447266 0.6485245227813721 0.060115229338407516 -2.842599315044936e-06 0.0 0.3000000239117409 -0.1999999243390919 0.4000000238953417 -1.2090988127156799 1.2090484906990822 -1.2090485909104884 0.0 0.0 0.0 0.0 0.0 0.0 -1.0890554891596372e-06 9.98766185006256e-07 -1.3043891436449114e-07 -9.23571675495262e-12 1.1786325613286326e-07 -8.181886395111488e-08 0.30000000000000016 -0.2 0.4 -1.2090987223823242 1.2090487307044389 -1.2090487304564574 0.0 0.0 0.0 0.0 0.0 0.0
91.08 -0.3527446235783671 -1.8721694061323095 -1.6035221024492134 0.3342271727141579 1.9237026850968153 0.00016474031218383087 0.0 0.0 0.0 0.0 0.0 0.0 0.0 0.0 0.0 0.0 0.0 0.0 -2.0424138718205872e-17 0.7198734422690871 0.6485245092712707 0.0601152284726053 -2.8425992629702087e-06 0.0 -2.681689413700431e-16 9.451938296993113 6.039189935235927 0.27322371340799106 -1.2919613650199598e-05 0.0 -0.3527444044696253 -1.872169319783346 -1.6035221258746546 0.33422717452049255 1.9237027168273926 0.00016474031144753098 0.0 0.0 0.0 0.0 0.0 0.0 -2.042413818895097e-17 0.7198734283447266 0.6485245227813721 0.060115229338407516 -2.842599315044936e-06 0.0 -2.042413818895097e-17 0.7198734283447266 0.6485245227813721 0.060115229338407516 -2.842599315044936e-06 0.0 0.3000000239117409 -0.1999999243390919 0.4000000238953417 -1.2090988127156799 1.2090484906990822 -1.2090485909104884 0.0 0.0 0.0 0.0 0.0 0.0 -1.0890554891596372e-06 9.98766185006256e-07 -1.3043891436449114e-07 -9.23571675495262e-12 1.1786325613286326e-07 -8.181886395111488e-08 0.30000000000000016 -0.2 0.4 -1.2090987223823242 1.2090487307044389 -1.2090487304564574 0.0 0.0 0.0 0.0 0.0 0.0
91.088 -0.3527446235783671 -1.8721694061323095 -1.6035221024492134 0.3342271727141579 1.9237026850968153 0.00016474031218383087 0.0 0.0 0.0 0.0 0.0 0.0 0.0 0.0 0.0 0.0 0.0 0.0 -2.0424138718205872e-17 0.7198734422690871 0.6485245092712707 0.0601152284726053 -2.8425992629702087e-06 0.0 -2.681689413700431e-16 9.451938296993113 6.039189935235927 0.27322371340799106 -1.2919613650199598e-05 0.0 -0.3527444044696253 -1.872169319783346 -1.6035221258746546 0.33422717452049255 1.9237027168273926 0.00016474031144753098 0.0 0.0 0.0 0.0 0.0 0.0 -2.042413818895097e-17 0.7198734283447266 0.6485245227813721 0.060115229338407516 -2.842599315044936e-06 0.0 -2.042413818895097e-17 0.7198734283447266 0.6485245227813721 0.060115229338407516 -2.842599315044936e-06 0.0 0.3000000239117409 -0.1999999243390919 0.4000000238953417 -1.2090988127156799 1.2090484906990822 -1.2090485909104884 0.0 0.0 0.0 0.0 0.0 0.0 -1.0890554891596372e-06 9.98766185006256e-07 -1.3043891436449114e-07 -9.23571675495262e-12 1.1786325613286326e-07 -8.181886395111488e-08 0.30000000000000016 -0.2 0.4 -1.2090987223823242 1.2090487307044389 -1.2090487304564574 0.0 0.0 0.0 0.0 0.0 0.0
91.09599999999999 -0.3527446235783671 -1.8721694061323095 -1.6035221024492134 0.3342271727141579 1.9237026850968153 0.00016474031218383087 0.0 0.0 0.0 0.0 0.0 0.0 0.0 0.0 0.0 0.0 0.0 0.0 -2.0424138718205872e-17 0.7198734422690871 0.6485245092712707 0.0601152284726053 -2.8425992629702087e-06 0.0 -2.681689413700431e-16 9.451938296993113 6.039189935235927 0.27322371340799106 -1.2919613650199598e-05 0.0 -0.3527444044696253 -1.872169319783346 -1.6035221258746546 0.33422717452049255 1.9237027168273926 0.00016474031144753098 0.0 0.0 0.0 0.0 0.0 0.0 -2.042413818895097e-17 0.7198734283447266 0.6485245227813721 0.060115229338407516 -2.842599315044936e-06 0.0 -2.042413818895097e-17 0.7198734283447266 0.6485245227813721 0.060115229338407516 -2.842599315044936e-06 0.0 0.3000000239117409 -0.1999999243390919 0.4000000238953417 -1.2090988127156799 1.2090484906990822 -1.2090485909104884 0.0 0.0 0.0 0.0 0.0 0.0 -1.0890554891596372e-06 9.98766185006256e-07 -1.3043891436449114e-07 -9.23571675495262e-12 1.1786325613286326e-07 -8.181886395111488e-08 0.30000000000000016 -0.2 0.4 -1.2090987223823242 1.2090487307044389 -1.2090487304564574 0.0 0.0 0.0 0.0 0.0 0.0
91.104 -0.3527446235783671 -1.8721694061323095 -1.6035221024492134 0.3342271727141579 1.9237026850968153 0.00016474031218383087 0.0 0.0 0.0 0.0 0.0 0.0 0.0 0.0 0.0 0.0 0.0 0.0 -2.0424138718205872e-17 0.7198734422690871 0.6485245092712707 0.0601152284726053 -2.8425992629702087e-06 0.0 -2.681689413700431e-16 9.451938296993113 6.039189935235927 0.27322371340799106 -1.2919613650199598e-05 0.0 -0.3527444044696253 -1.872169319783346 -1.6035221258746546 0.33422717452049255 1.9237027168273926 0.00016474031144753098 0.0 0.0 0.0 0.0 0.0 0.0 -2.042413818895097e-17 0.7198734283447266 0.6485245227813721 0.060115229338407516 -2.842599315044936e-06 0.0 -2.042413818895097e-17 0.7198734283447266 0.6485245227813721 0.060115229338407516 -2.842599315044936e-06 0.0 0.3000000239117409 -0.1999999243390919 0.4000000238953417 -1.2090988127156799 1.2090484906990822 -1.2090485909104884 0.0 0.0 0.0 0.0 0.0 0.0 -1.0890554891596372e-06 9.98766185006256e-07 -1.3043891436449114e-07 -9.23571675495262e-12 1.1786325613286326e-07 -8.181886395111488e-08 0.30000000000000016 -0.2 0.4 -1.2090987223823242 1.2090487307044389 -1.2090487304564574 0.0 0.0 0.0 0.0 0.0 0.0
91.112 -0.3527446235783671 -1.8721694061323095 -1.6035221024492134 0.3342271727141579 1.9237026850968153 0.00016474031218383087 0.0 0.0 0.0 0.0 0.0 0.0 0.0 0.0 0.0 0.0 0.0 0.0 -2.0424138718205872e-17 0.7198734422690871 0.6485245092712707 0.0601152284726053 -2.8425992629702087e-06 0.0 -2.681689413700431e-16 9.451938296993113 6.039189935235927 0.27322371340799106 -1.2919613650199598e-05 0.0 -0.3527444044696253 -1.872169319783346 -1.6035221258746546 0.33422717452049255 1.9237027168273926 0.00016474031144753098 0.0 0.0 0.0 0.0 0.0 0.0 -2.042413818895097e-17 0.7198734283447266 0.6485245227813721 0.060115229338407516 -2.842599315044936e-06 0.0 -2.042413818895097e-17 0.7198734283447266 0.6485245227813721 0.060115229338407516 -2.842599315044936e-06 0.0 0.3000000239117409 -0.1999999243390919 0.4000000238953417 -1.2090988127156799 1.2090484906990822 -1.2090485909104884 0.0 0.0 0.0 0.0 0.0 0.0 -1.0890554891596372e-06 9.98766185006256e-07 -1.3043891436449114e-07 -9.23571675495262e-12 1.1786325613286326e-07 -8.181886395111488e-08 0.30000000000000016 -0.2 0.4 -1.2090987223823242 1.2090487307044389 -1.2090487304564574 0.0 0.0 0.0 0.0 0.0 0.0
91.11999999999999 -0.3527446235783671 -1.8721694061323095 -1.6035221024492134 0.3342271727141579 1.9237026850968153 0.00016474031218383087 0.0 0.0 0.0 0.0 0.0 0.0 0.0 0.0 0.0 0.0 0.0 0.0 -2.0424138718205872e-17 0.7198734422690871 0.6485245092712707 0.0601152284726053 -2.8425992629702087e-06 0.0 -2.681689413700431e-16 9.451938296993113 6.039189935235927 0.27322371340799106 -1.2919613650199598e-05 0.0 -0.3527444044696253 -1.872169319783346 -1.6035221258746546 0.33422717452049255 1.9237027168273926 0.00016474031144753098 0.0 0.0 0.0 0.0 0.0 0.0 -2.042413818895097e-17 0.7198734283447266 0.6485245227813721 0.060115229338407516 -2.842599315044936e-06 0.0 -2.042413818895097e-17 0.7198734283447266 0.6485245227813721 0.060115229338407516 -2.842599315044936e-06 0.0 0.3000000239117409 -0.1999999243390919 0.4000000238953417 -1.2090988127156799 1.2090484906990822 -1.2090485909104884 0.0 0.0 0.0 0.0 0.0 0.0 -1.0890554891596372e-06 9.98766185006256e-07 -1.3043891436449114e-07 -9.23571675495262e-12 1.1786325613286326e-07 -8.181886395111488e-08 0.30000000000000016 -0.2 0.4 -1.2090987223823242 1.2090487307044389 -1.2090487304564574 0.0 0.0 0.0 0.0 0.0 0.0
91.128 -0.3527446235783671 -1.8721694061323095 -1.6035221024492134 0.3342271727141579 1.9237026850968153 0.00016474031218383087 0.0 0.0 0.0 0.0 0.0 0.0 0.0 0.0 0.0 0.0 0.0 0.0 -2.0424138718205872e-17 0.7198734422690871 0.6485245092712707 0.0601152284726053 -2.8425992629702087e-06 0.0 -2.681689413700431e-16 9.451938296993113 6.039189935235927 0.27322371340799106 -1.2919613650199598e-05 0.0 -0.3527444044696253 -1.872169319783346 -1.6035221258746546 0.33422717452049255 1.9237027168273926 0.00016474031144753098 0.0 0.0 0.0 0.0 0.0 0.0 -2.042413818895097e-17 0.7198734283447266 0.6485245227813721 0.060115229338407516 -2.842599315044936e-06 0.0 -2.042413818895097e-17 0.7198734283447266 0.6485245227813721 0.060115229338407516 -2.842599315044936e-06 0.0 0.3000000239117409 -0.1999999243390919 0.4000000238953417 -1.2090988127156799 1.2090484906990822 -1.2090485909104884 0.0 0.0 0.0 0.0 0.0 0.0 -1.0890554891596372e-06 9.98766185006256e-07 -1.3043891436449114e-07 -9.23571675495262e-12 1.1786325613286326e-07 -8.181886395111488e-08 0.30000000000000016 -0.2 0.4 -1.2090987223823242 1.2090487307044389 -1.2090487304564574 0.0 0.0 0.0 0.0 0.0 0.0
91.136 -0.3527446235783671 -1.8721694061323095 -1.6035221024492134 0.3342271727141579 1.9237026850968153 0.00016474031218383087 0.0 0.0 0.0 0.0 0.0 0.0 0.0 0.0 0.0 0.0 0.0 0.0 -2.0424138718205872e-17 0.7198734422690871 0.6485245092712707 0.0601152284726053 -2.8425992629702087e-06 0.0 -2.681689413700431e-16 9.451938296993113 6.039189935235927 0.27322371340799106 -1.2919613650199598e-05 0.0 -0.3527444044696253 -1.872169319783346 -1.6035221258746546 0.33422717452049255 1.9237027168273926 0.00016474031144753098 0.0 0.0 0.0 0.0 0.0 0.0 -2.042413818895097e-17 0.7198734283447266 0.6485245227813721 0.060115229338407516 -2.842599315044936e-06 0.0 -2.042413818895097e-17 0.7198734283447266 0.6485245227813721 0.060115229338407516 -2.842599315044936e-06 0.0 0.3000000239117409 -0.1999999243390919 0.4000000238953417 -1.2090988127156799 1.2090484906990822 -1.2090485909104884 0.0 0.0 0.0 0.0 0.0 0.0 -1.0890554891596372e-06 9.98766185006256e-07 -1.3043891436449114e-07 -9.23571675495262e-12 1.1786325613286326e-07 -8.181886395111488e-08 0.30000000000000016 -0.2 0.4 -1.2090987223823242 1.2090487307044389 -1.2090487304564574 0.0 0.0 0.0 0.0 0.0 0.0
91.14399999999999 -0.3527446235783671 -1.8721694061323095 -1.6035221024492134 0.3342271727141579 1.9237026850968153 0.00016474031218383087 0.0 0.0 0.0 0.0 0.0 0.0 0.0 0.0 0.0 0.0 0.0 0.0 -2.0424138718205872e-17 0.7198734422690871 0.6485245092712707 0.0601152284726053 -2.8425992629702087e-06 0.0 -2.681689413700431e-16 9.451938296993113 6.039189935235927 0.27322371340799106 -1.2919613650199598e-05 0.0 -0.3527444044696253 -1.872169319783346 -1.6035221258746546 0.33422717452049255 1.9237027168273926 0.00016474031144753098 0.0 0.0 0.0 0.0 0.0 0.0 -2.042413818895097e-17 0.7198734283447266 0.6485245227813721 0.060115229338407516 -2.842599315044936e-06 0.0 -2.042413818895097e-17 0.7198734283447266 0.6485245227813721 0.060115229338407516 -2.842599315044936e-06 0.0 0.3000000239117409 -0.1999999243390919 0.4000000238953417 -1.2090988127156799 1.2090484906990822 -1.2090485909104884 0.0 0.0 0.0 0.0 0.0 0.0 -1.0890554891596372e-06 9.98766185006256e-07 -1.3043891436449114e-07 -9.23571675495262e-12 1.1786325613286326e-07 -8.181886395111488e-08 0.30000000000000016 -0.2 0.4 -1.2090987223823242 1.2090487307044389 -1.2090487304564574 0.0 0.0 0.0 0.0 0.0 0.0
91.152 -0.3527446235783671 -1.8721694061323095 -1.6035221024492134 0.3342271727141579 1.9237026850968153 0.00016474031218383087 0.0 0.0 0.0 0.0 0.0 0.0 0.0 0.0 0.0 0.0 0.0 0.0 -2.0424138718205872e-17 0.7198734422690871 0.6485245092712707 0.0601152284726053 -2.8425992629702087e-06 0.0 -2.681689413700431e-16 9.451938296993113 6.039189935235927 0.27322371340799106 -1.2919613650199598e-05 0.0 -0.3527444044696253 -1.872169319783346 -1.6035221258746546 0.33422717452049255 1.9237027168273926 0.00016474031144753098 0.0 0.0 0.0 0.0 0.0 0.0 -2.042413818895097e-17 0.7198734283447266 0.6485245227813721 0.060115229338407516 -2.842599315044936e-06 0.0 -2.042413818895097e-17 0.7198734283447266 0.6485245227813721 0.060115229338407516 -2.842599315044936e-06 0.0 0.3000000239117409 -0.1999999243390919 0.4000000238953417 -1.2090988127156799 1.2090484906990822 -1.2090485909104884 0.0 0.0 0.0 0.0 0.0 0.0 -1.0890554891596372e-06 9.98766185006256e-07 -1.3043891436449114e-07 -9.23571675495262e-12 1.1786325613286326e-07 -8.181886395111488e-08 0.30000000000000016 -0.2 0.4 -1.2090987223823242 1.2090487307044389 -1.2090487304564574 0.0 0.0 0.0 0.0 0.0 0.0
91.16 -0.3527446235783671 -1.8721694061323095 -1.6035221024492134 0.3342271727141579 1.9237026850968153 0.00016474031218383087 0.0 0.0 0.0 0.0 0.0 0.0 0.0 0.0 0.0 0.0 0.0 0.0 -2.0424138718205872e-17 0.7198734422690871 0.6485245092712707 0.0601152284726053 -2.8425992629702087e-06 0.0 -2.681689413700431e-16 9.451938296993113 6.039189935235927 0.27322371340799106 -1.2919613650199598e-05 0.0 -0.3527444044696253 -1.872169319783346 -1.6035221258746546 0.33422717452049255 1.9237027168273926 0.00016474031144753098 0.0 0.0 0.0 0.0 0.0 0.0 -2.042413818895097e-17 0.7198734283447266 0.6485245227813721 0.060115229338407516 -2.842599315044936e-06 0.0 -2.042413818895097e-17 0.7198734283447266 0.6485245227813721 0.060115229338407516 -2.842599315044936e-06 0.0 0.3000000239117409 -0.1999999243390919 0.4000000238953417 -1.2090988127156799 1.2090484906990822 -1.2090485909104884 0.0 0.0 0.0 0.0 0.0 0.0 -1.0890554891596372e-06 9.98766185006256e-07 -1.3043891436449114e-07 -9.23571675495262e-12 1.1786325613286326e-07 -8.181886395111488e-08 0.30000000000000016 -0.2 0.4 -1.2090987223823242 1.2090487307044389 -1.2090487304564574 0.0 0.0 0.0 0.0 0.0 0.0
91.16799999999999 -0.3527446235783671 -1.8721694061323095 -1.6035221024492134 0.3342271727141579 1.9237026850968153 0.00016474031218383087 0.0 0.0 0.0 0.0 0.0 0.0 0.0 0.0 0.0 0.0 0.0 0.0 -2.0424138718205872e-17 0.7198734422690871 0.6485245092712707 0.0601152284726053 -2.8425992629702087e-06 0.0 -2.681689413700431e-16 9.451938296993113 6.039189935235927 0.27322371340799106 -1.2919613650199598e-05 0.0 -0.3527444044696253 -1.872169319783346 -1.6035221258746546 0.33422717452049255 1.9237027168273926 0.00016474031144753098 0.0 0.0 0.0 0.0 0.0 0.0 -2.042413818895097e-17 0.7198734283447266 0.6485245227813721 0.060115229338407516 -2.842599315044936e-06 0.0 -2.042413818895097e-17 0.7198734283447266 0.6485245227813721 0.060115229338407516 -2.842599315044936e-06 0.0 0.3000000239117409 -0.1999999243390919 0.4000000238953417 -1.2090988127156799 1.2090484906990822 -1.2090485909104884 0.0 0.0 0.0 0.0 0.0 0.0 -1.0890554891596372e-06 9.98766185006256e-07 -1.3043891436449114e-07 -9.23571675495262e-12 1.1786325613286326e-07 -8.181886395111488e-08 0.30000000000000016 -0.2 0.4 -1.2090987223823242 1.2090487307044389 -1.2090487304564574 0.0 0.0 0.0 0.0 0.0 0.0
91.176 -0.3527446235783671 -1.8721694061323095 -1.6035221024492134 0.3342271727141579 1.9237026850968153 0.00016474031218383087 0.0 0.0 0.0 0.0 0.0 0.0 0.0 0.0 0.0 0.0 0.0 0.0 -2.0424138718205872e-17 0.7198734422690871 0.6485245092712707 0.0601152284726053 -2.8425992629702087e-06 0.0 -2.681689413700431e-16 9.451938296993113 6.039189935235927 0.27322371340799106 -1.2919613650199598e-05 0.0 -0.3527444044696253 -1.872169319783346 -1.6035221258746546 0.33422717452049255 1.9237027168273926 0.00016474031144753098 0.0 0.0 0.0 0.0 0.0 0.0 -2.042413818895097e-17 0.7198734283447266 0.6485245227813721 0.060115229338407516 -2.842599315044936e-06 0.0 -2.042413818895097e-17 0.7198734283447266 0.6485245227813721 0.060115229338407516 -2.842599315044936e-06 0.0 0.3000000239117409 -0.1999999243390919 0.4000000238953417 -1.2090988127156799 1.2090484906990822 -1.2090485909104884 0.0 0.0 0.0 0.0 0.0 0.0 -1.0890554891596372e-06 9.98766185006256e-07 -1.3043891436449114e-07 -9.23571675495262e-12 1.1786325613286326e-07 -8.181886395111488e-08 0.30000000000000016 -0.2 0.4 -1.2090987223823242 1.2090487307044389 -1.2090487304564574 0.0 0.0 0.0 0.0 0.0 0.0
91.184 -0.3527446235783671 -1.8721694061323095 -1.6035221024492134 0.3342271727141579 1.9237026850968153 0.00016474031218383087 0.0 0.0 0.0 0.0 0.0 0.0 0.0 0.0 0.0 0.0 0.0 0.0 -2.0424138718205872e-17 0.7198734422690871 0.6485245092712707 0.0601152284726053 -2.8425992629702087e-06 0.0 -2.681689413700431e-16 9.451938296993113 6.039189935235927 0.27322371340799106 -1.2919613650199598e-05 0.0 -0.3527444044696253 -1.872169319783346 -1.6035221258746546 0.33422717452049255 1.9237027168273926 0.00016474031144753098 0.0 0.0 0.0 0.0 0.0 0.0 -2.042413818895097e-17 0.7198734283447266 0.6485245227813721 0.060115229338407516 -2.842599315044936e-06 0.0 -2.042413818895097e-17 0.7198734283447266 0.6485245227813721 0.060115229338407516 -2.842599315044936e-06 0.0 0.3000000239117409 -0.1999999243390919 0.4000000238953417 -1.2090988127156799 1.2090484906990822 -1.2090485909104884 0.0 0.0 0.0 0.0 0.0 0.0 -1.0890554891596372e-06 9.98766185006256e-07 -1.3043891436449114e-07 -9.23571675495262e-12 1.1786325613286326e-07 -8.181886395111488e-08 0.30000000000000016 -0.2 0.4 -1.2090987223823242 1.2090487307044389 -1.2090487304564574 0.0 0.0 0.0 0.0 0.0 0.0
91.192 -0.3527446235783671 -1.8721694061323095 -1.6035221024492134 0.3342271727141579 1.9237026850968153 0.00016474031218383087 0.0 0.0 0.0 0.0 0.0 0.0 0.0 0.0 0.0 0.0 0.0 0.0 -2.0424138718205872e-17 0.7198734422690871 0.6485245092712707 0.0601152284726053 -2.8425992629702087e-06 0.0 -2.681689413700431e-16 9.451938296993113 6.039189935235927 0.27322371340799106 -1.2919613650199598e-05 0.0 -0.3527444044696253 -1.872169319783346 -1.6035221258746546 0.33422717452049255 1.9237027168273926 0.00016474031144753098 0.0 0.0 0.0 0.0 0.0 0.0 -2.042413818895097e-17 0.7198734283447266 0.6485245227813721 0.060115229338407516 -2.842599315044936e-06 0.0 -2.042413818895097e-17 0.7198734283447266 0.6485245227813721 0.060115229338407516 -2.842599315044936e-06 0.0 0.3000000239117409 -0.1999999243390919 0.4000000238953417 -1.2090988127156799 1.2090484906990822 -1.2090485909104884 0.0 0.0 0.0 0.0 0.0 0.0 -1.0890554891596372e-06 9.98766185006256e-07 -1.3043891436449114e-07 -9.23571675495262e-12 1.1786325613286326e-07 -8.181886395111488e-08 0.30000000000000016 -0.2 0.4 -1.2090987223823242 1.2090487307044389 -1.2090487304564574 0.0 0.0 0.0 0.0 0.0 0.0
91.2 -0.3527443493552287 -1.87216917938981 -1.6035224105915704 0.33422725410105486 1.9237024108736793 0.0001647402746851856 0.00013711159062580576 0.00011337123804078458 -0.00015407114832797364 4.0693430028719094e-05 -0.00013711158949700997 -1.874932369011043e-08 0.017138948828225718 0.014171404755098071 -0.019258893540996705 0.0050866787535898865 -0.017138948687126246 -2.343665461263804e-06 0.001067877030587903 0.7206407608992385 0.6480628824741799 0.06023549783437162 -0.0002394797826776578 -3.68215884691891e-08 0.014021225411619168 9.462013190607001 6.0348911741760585 0.27377033765721903 -0.0010884356122699548 -1.6735411959246443e-07 -0.3527444044696253 -1.872169319783346 -1.6035226027118128 0.3342272639274597 1.923702359199524 0.0001647402677917853 0.0001371115940855816 0.00011337123578414321 -0.0001540711527923122 4.069343049195595e-05 -0.0001371115940855816 -1.8749323871247725e-08 0.001067877048626542 0.7206407785415649 0.6480628848075867 0.06023549661040306 -0.00023947977751959115 -3.6821589333158045e-08 0.001067877048626542 0.7206407785415649 0.6480628848075867 0.06023549661040306 -0.00023947977751959115 -3.6821589333158045e-08 0.3000000236597772 -0.19999995353431077 0.3999998980628898 -1.2090988127583708 1.2090490850490192 -1.209048583853046 3.7218888259222476e-12 4.000000575808004e-05 1.398940466145702e-12 -3.935772129980541e-11 2.115844503228786e-11 -1.1287886904523915e-12 6.181916677711922e-07 -5.67919594209256e-07 -4.0494563550985764e-07 1.2150734965176248e-11 -1.097061011357483e-07 4.650073953793648e-08 0.30000000000000016 -0.19999991999999991 0.39999999999999997 -1.2090987223823244 1.209048730704439 -1.2090487304564572 -7.044988916699926e-21 3.999999999999999e-05 -1.1316938196876965e-21 5.153911980812162e-21 -3.2467517740369434e-20 4.0342663398962315e-21
91.208 -0.3527421555670198 -1.872167365451487 -1.603524875726099 0.33422790519357604 1.923700217085488 0.00016473997469587193 0.0006170037099064217 0.0005101697358900355 -0.0006933180049301621 0.00018311910802452238 -0.000617003704826886 -8.437203242801194e-08 0.059986514910077 0.049599812231156365 -0.06740585707527355 0.01780320974947541 -0.059986514416234496 -8.202838592237687e-06 0.003737570418506469 0.7225579523748422 0.6469087377900193 0.0605362031675058 -0.0008310760959766595 -1.2887570854915655e-07 0.04907429959498994 9.487185914681678 6.024143548048218 0.27513704339631384 -0.0037772408562139173 -5.857400953559165e-07 -0.3527420202838343 -1.8721674124347132 -1.6035249868976038 0.33422791957855225 1.923700213432312 0.00016473997675348073 0.0006170037086121738 0.0005101697170175612 -0.0006933180266059935 0.00018311910389456898 -0.0006170037086121738 -8.437203291578044e-08 0.00373757048510015 0.7225579619407654 0.6469087600708008 0.06053620204329491 -0.0008310761186294258 -1.2887571188002767e-07 0.00373757048510015 0.7225579619407654 0.6469087600708008 0.06053620204329491 -0.0008310761186294258 -1.2887571188002767e-07 0.30000003845300327 -0.19999924390970356 0.39999995369291713 -1.209098847368793 1.2090487566268888 -1.2090485331568566 -2.0831784714855314e-11 0.00018000000589542522 -7.875700835424379e-12 -6.780960321285033e-11 7.257309085470642e-11 -5.0795792904646186e-12 -4.90158520938068e-07 4.450376618905137e-07 -8.422353435308716e-07 7.39643537499002e-12 -1.858779655636959e-08 -3.635435712939293e-08 0.30000000000000016 -0.1999992800000001 0.39999999999999986 -1.2090987223823244 1.2090487307044395 -1.209048730456457 -8.002685527645924e-21 0.00017999999999993748 4.17701849015424e-17 5.003895167956505e-17 -4.987048561851593e-17 -4.9914898420455883e-17
91.216 -0.35273475149107103 -1.8721612434315702 -1.6035331954983665 0.3342301025959986 1.9236928130096003 0.00016473896222994594 0.001645357195272185 0.0013604451113987009 -0.0018488285503124415 0.0004883056775326659 -0.0016453571817267147 -2.249927695469386e-07 0.1285441856707204 0.10628442193858316 -0.14443881817278492 0.038148321188517936 -0.1285441846124786 -1.757759213986583e-05 0.008009115578737553 0.7256225703549195 0.6450619306834855 0.06101740023312123 -0.0017776562211922603 -2.761635031752254e-07 0.10515968754882409 9.527424348760093 6.006945710910753 0.27732408405953596 -0.008079447525318823 -1.2551631219313994e-06 -0.35273486772646123 -1.8721612135516565 -1.6035330931292933 0.33423009514808655 1.9236928224563599 0.00016473895811941475 0.0016453572316095233 0.0013604451669380069 -0.001848828513175249 0.0004883056972175837 -0.0016453572316095233 -2.249927746333924e-07 0.008009115234017372 0.7256225943565369 0.6450619101524353 0.06101740151643753 -0.001777656259946525 -2.7616349029813136e-07 0.008009115234017372 0.7256225943565369 0.6450619101524353 0.06101740151643753 -0.001777656259946525 -2.7616349029813136e-07 0.2999999689105749 -0.19999715120983957 0.4000000383935483 -1.2090986174214648 1.2090487026975567 -1.2090488962218273 5.271703568993078e-11 0.0004799999959713112 2.3160386421204976e-11 1.5388370010733465e-10 -1.763867360693936e-10 -1.3545590067495216e-11 1.7889034051568911e-06 -1.6206237430323889e-06 2.0091687772632377e-07 1.3168282397825575e-11 -1.8096414103511207e-07 1.3293766368390908e-07 0.3 -0.19999712 0.4000000000000002 -1.209098722382324 1.2090487307044389 -1.2090487304564579 -2.0931333880514355e-19 0.000480000000000111 1.6663556632555004e-16 6.601722405810318e-17 -1.9970920403388796e-16 -1.3251971588080746e-16
91.22399999999999 -0.3527172008377262 -1.8721467321120873 -1.60355291609019 0.33423531103890014 1.9236752623564002 0.00016473656229843404 0.0034278964726542705 0.002834223524560962 -0.003851630034648607 0.0010172445137638963 -0.003427896444433895 -4.687383099979511e-07 0.22281740967276067 0.1842223016452826 -0.25035018554202065 0.0661173545289038 -0.2228174078383975 -3.046819255637656e-05 0.01388268829234514 0.7298308367234863 0.6425223290529062 0.06167912696906412 -0.003079308881652313 -4.786891586079607e-07 0.1822796972784917 9.582678886179375 5.9832964326064735 0.28033163207439643 -0.013995458867109763 -2.175642225873181e-06 -0.3527172247516077 -1.8721469084369105 -1.6035531202899378 0.3342353105545044 1.923675298690796 0.00016473655705340207 0.0034278964158147573 0.0028342234436422586 -0.003851630026474595 0.0010172445327043533 -0.0034278964158147573 -4.687383068358031e-07 0.013882688246667385 0.7298308610916138 0.6425223350524902 0.06167912855744362 -0.003079308895394206 -4.78689173633029e-07 0.013882688246667385 0.7298308610916138 0.6425223350524902 0.06167912855744362 -0.003079308895394206 -4.78689173633029e-07 0.30000003926555646 -0.19999202041315298 0.39999988131103437 -1.2090988945931804 1.2090490471026283 -1.2090484553594496 4.605613696016733e-11 0.0010000001444113683 8.17357878957771e-11 -1.2070687717633298e-09 5.016530563623644e-10 -2.8219959194627785e-11 7.628730481056909e-07 -6.971334926548702e-07 -5.735919231212201e-07 1.3634390168089943e-11 -1.2630391396173833e-07 5.717130188330169e-08 0.3000000000000002 -0.19999199999999998 0.3999999999999998 -1.2090987223823246 1.2090487307044395 -1.2090487304564572 2.081132067304792e-16 0.0010000000000000007 -2.0778737288397528e-16 -8.24181495792782e-17 5.817258018473174e-19 1.669377520908868e-16
91.232 -0.3526829211993343 -1.8721183902393825 -1.6035914314519593 0.3342454829080657 1.9236409827182905 0.00016473187488239477 0.006170456171110195 0.005101471829315984 -0.006932596176002893 0.0018308327763470532 -0.006170456120313207 -8.437408167164933e-07 0.3428199623069906 0.28340603809437775 -0.38512076766928577 0.10169853282289461 -0.342819959484914 -4.687531333981778e-05 0.021358790817237384 0.7351774924105928 0.6392899368077387 0.06252133807723262 -0.004736256246313637 -7.364632562500261e-07 0.2804409234303269 9.652880475351084 5.953195749541025 0.2841594815610223 -0.02152628463949548 -3.347225499656368e-06 -0.3526828924762171 -1.8721182982074183 -1.603591267262594 0.3342454731464386 1.9236409664154053 0.00016473187133669853 0.006170456297695637 0.005101471673697233 -0.006932596210390329 0.0018308327998965979 -0.006170456297695637 -8.437407927885943e-07 0.02135879173874855 0.7351775169372559 0.639289915561676 0.06252133846282959 -0.004736256320029497 -7.364632779172098e-07 0.02135879173874855 0.7351775169372559 0.639289915561676 0.06252133846282959 -0.004736256320029497 -7.364632779172098e-07 0.2999999827213943 -0.199981984244179 0.4000000772114779 -1.2090986206538548 1.209048510976052 -1.2090488933430215 1.3010824253147341e-11 0.0017999998476395586 -1.6132493057156958e-10 1.4847069680367572e-09 -3.6908239147315736e-10 -5.07968977269413e-11 1.8125066876343913e-06 -1.7191031242590848e-06 1.9420054890764812e-07 1.395670461446985e-11 -1.9096296125242586e-07 1.4116278211566098e-07 0.30000000000000016 -0.19998199999999994 0.3999999999999999 -1.2090987223823244 1.209048730704439 -1.209048730456457 -8.671539284032585e-17 0.001799999999999958 3.346910330994222e-16 1.9768107511028304e-16 -3.067417323726968e-16 -1.0207008636453026e-16
91.24 -0.35262368280848744 -1.8720694171923657 -1.6036579815727645 0.3342630571829707 1.9235817443279308 0.00016472377487217933 0.010079096254450444 0.008332035621686162 -0.011322286804985374 0.002989775016786135 -0.010079096171480081 -1.3781434759894974e-06 0.48858001041753113 0.4038204740462723 -0.5487113286228101 0.14486778005488524 -0.48858000639585925 -6.68003324091255e-05 0.030438518766949963 0.7416555895980789 0.6353650691860687 0.06354381276299638 -0.006748950028869521 -1.0495074447389274e-06 0.39965775141005305 9.737937891422776 5.916646597274509 0.2888066290078185 -0.030673977881211973 -4.770011336338425e-06 -0.3526237646685999 -1.8720691839801233 -1.6036580244647425 0.33426305651664734 1.9235817193984985 0.00016472378047183156 0.0100790960714221 0.00833203550428152 -0.011322286911308765 0.0029897750355303288 -0.0100790960714221 -1.3781434518023161e-06 0.030438518151640892 0.7416555881500244 0.6353650689125061 0.06354381144046783 -0.006748950108885765 -1.0495074320715503e-06 0.030438518151640892 0.7416555881500244 0.6353650689125061 0.06354381144046783 -0.006748950108885765 -1.0495074320715503e-06 0.29999993000560754 -0.19996472686528433 0.4000000697764379 -1.2090985890791297 1.209048647294941 -1.2090489414718177 8.287483027718254e-12 0.002939999411638672 -5.071360740901576e-10 1.864728584702952e-09 -4.677622588220738e-10 -8.297041453948066e-11 -4.499927888005473e-08 7.663547328791814e-08 6.65642762230708e-09 5.92741455447052e-13 3.883108125030649e-10 -5.913360008973271e-09 0.3 -0.19996472 0.4 -1.2090987223823237 1.2090487307044393 -1.209048730456458 -1.4868511519224558e-18 0.002939999999999857 1.931051279672678e-16 1.1796522670055997e-16 -1.1633913608448889e-16 -2.319818087290985e-16
91.24799999999999 -0.3525296061707177 -1.8719916542563473 -1.6037636491831835 0.3342909574136323 1.9234876676909356 0.00016471091195163282 0.015360279280004059 0.012695543873957875 -0.017250701087299966 0.004554431783689427 -0.015360279153567401 -2.1001091700400838e-06 0.6601478781942018 0.545438531533964 -0.7410517852893239 0.19558209586291148 -0.660147872760915 -9.02457117563233e-05 0.04112390890302623 0.7492562254764485 0.630748579811002 0.06474603567410289 -0.009118194321219146 -1.4178604047049016e-06 0.5399569238967344 9.83773424050577 5.873656924916013 0.2942707321387977 -0.041442193189941016 -6.4441755393837775e-06 -0.3525298277484339 -1.8719914595233362 -1.6037638823138636 0.3342909514904022 1.923487663269043 0.00016471091657876968 0.015360279008746147 0.012695543467998505 -0.017250701785087585 0.004554431885480881 -0.015360279008746147 -2.100109213643009e-06 0.04112390801310539 0.7492562532424927 0.6307485699653625 0.06474603712558746 -0.009118194691836834 -1.4178604033077136e-06 0.04112390801310539 0.7492562532424927 0.6307485699653625 0.06474603712558746 -0.009118194691836834 -1.4178604033077136e-06 0.2999999142042834 -0.19993733156985546 0.40000000293430743 -1.209098634892404 1.2090489349811313 -1.209048865959365 5.996380946026903e-10 0.004479999331497517 -9.109710444979586e-10 -2.9302780390388355e-10 1.1754084880403608e-09 -1.2643625210295815e-10 1.5318778990109747e-06 -1.358583794272846e-06 -1.7413085926874233e-07 1.5573168904084306e-11 -1.8066035841441972e-07 1.1298010291040854e-07 0.29999999999999993 -0.19993727999999972 0.3999999999999999 -1.2090987223823242 1.209048730704439 -1.2090487304564579 3.2953852941250565e-16 0.00448 -5.9571467032786224e-18 -2.6372854568664377e-16 -2.5544514178975493e-16 3.967026847022143e-16
91.256 -0.35238915802786686 -1.8718755867948644 -1.6039213541348536 0.3343325882723945 1.9233472195492414 0.0001646917104005499 0.0222211234317847 0.01836127284232939 -0.024946925523618498 0.006584603739080095 -0.02222112324889284 -3.0378328754065723e-06 0.8576055189725802 0.7082161210464396 -0.9620280545398164 0.25377149442383357 -0.8576055119156798 -0.00011721546317081107 0.053418368122181405 0.7579682177470118 0.6254421394371483 0.0661270511433982 -0.011845295238756277 -1.841585165816965e-06 0.7013831734442418 9.952122699018267 5.824242290866613 0.3005474474467448 -0.053836866860147284 -8.370004578638105e-06 -0.35238916078676397 -1.8718755880938929 -1.6039212385760706 0.33433258533477783 1.9233472347259521 0.00016469170805066824 0.022221123799681664 0.018361272290349007 -0.024946926161646843 0.006584603805094957 -0.022221123799681664 -3.0378328119695652e-06 0.053418368101119995 0.7579682469367981 0.6254421472549438 0.06612705439329147 -0.011845295317471027 -1.8415851172903785e-06 0.053418368101119995 0.7579682469367981 0.6254421472549438 0.06612705439329147 -0.011845295317471027 -1.8415851172903785e-06 0.29999999831478763 -0.1998963191678575 0.400000031479156 -1.2090986796238858 1.20904862644906 -1.2090487990010326 3.585239867156097e-10 0.006479999938442619 -3.4310711246504684e-10 2.7097622294344953e-09 2.010780106089673e-10 -1.8289140157959057e-10 8.952805415697417e-07 -8.210004579811214e-07 -6.782164272607621e-07 1.459867472403528e-11 -1.4199454195561164e-07 6.76133874359124e-08 0.2999999999999998 -0.1998963199999989 0.39999999999999963 -1.2090987223823244 1.2090487307044384 -1.2090487304564574 4.902853709911996e-16 0.006479999999999314 2.5029501191487485e-16 -5.054139096762544e-18 -1.625205476747205e-16 3.0824630024785783e-16
91.264 -0.3521891449989383 -1.871710347670387 -1.6041458445509633 0.3343918301257259 1.9231472065219586 0.00016466436878324593 0.030869745040623363 0.025497961931210754 -0.034638658045551 0.009139239922726403 -0.030869744786586464 -4.219558472695671e-06 1.0810777011048327 0.8920861361101703 -1.2114665652415633 0.3193295229557884 -1.0810776922117031 -0.00014771569966113735 0.06732718412330878 0.7677777220826749 0.6194485662575865 0.06768529092791811 -0.014932237512294434 -2.320777770231647e-06 0.8840059275390444 10.080921490945522 5.768428938703897 0.3076296472673878 -0.0678670194933782 -1.0547934965702835e-05 -0.35218936601747686 -1.8717101255999964 -1.6041458288775843 0.33439183235168457 1.923147201538086 0.00016466436500195414 0.0308697447180748 0.025497961789369583 -0.0346386581659317 0.00913923978805542 -0.0308697447180748 -4.219558377371868e-06 0.06732718646526337 0.7677777409553528 0.6194485425949097 0.06768529117107391 -0.014932237565517426 -2.3207778667710954e-06 0.06732718646526337 0.7677777409553528 0.6194485425949097 0.06768529117107391 -0.014932237565517426 -2.3207778667710954e-06 0.299999903713396 -0.19983804755948634 0.40000008237334267 -1.2090985106615302 1.209048692097262 -1.209049064340007 1.4060722282051443e-09 0.00899999827325117 -1.3538415368242884e-09 7.0901081650549815e-09 -2.1827929960438435e-09 -2.5403598975836137e-10 1.6537733537460573e-06 -1.6575385082596435e-06 3.616608588197784e-07 1.0255104387629338e-11 -1.6237642643155837e-07 1.3602469101241453e-07 0.29999999999999927 -0.19983799999999763 0.399999999999999 -1.2090987223823242 1.2090487307044384 -1.2090487304564577 8.239647617617566e-16 0.008999999999997219 9.728193597226736e-16 1.6595903052509522e-16 3.396422021710175e-16 9.300714016828694e-18
91.27199999999999 -0.3519147041351962 -1.8714837223233598 -1.6044536836929613 0.33447303098087344 1.922872765660475 0.00016462685948555306 0.04151570440863868 0.034273574188949836 -0.046551589717775656 0.012276059001154372 -0.04151570406706155 -5.6736006732064766e-06 1.3307449210019144 1.0969515322173853 -1.4891164590280814 0.3921023848034962 -1.330744910059386 -0.00018175527506385068 0.08285811852335204 0.7786677917572173 0.6127722075204721 0.06941837576373894 -0.01838188824139761 -2.8555773215587207e-06 1.0879270962116123 10.223908105772264 5.706257350872141 0.31550651784619343 -0.08354568205715213 -1.2978598926484385e-05 -0.35191470781435186 -1.87148362794985 -1.6044538656817835 0.33447304368019104 1.92287278175354 0.00016462686471641064 0.04151570424437523 0.034273575991392136 -0.04655158892273903 0.01227605901658535 -0.04151570424437523 -5.673600753652863e-06 0.0828581154346466 0.7786678075790405 0.6127722263336182 0.06941837817430496 -0.018381888046860695 -2.8555773496918846e-06 0.0828581154346466 0.7786678075790405 0.6127722263336182 0.06941837817430496 -0.018381888046860695 -2.8555773496918846e-06 0.2999999788959023 -0.19975799230624686 0.3999999834024764 -1.209098761010814 1.2090487855653467 -1.2090486690493985 -1.1538294810417406e-09 0.01209999940452595 8.885655987780557e-11 -3.820298716432795e-09 -1.3808054969715525e-09 -3.4157682452847923e-10 -2.9077263368311704e-08 2.1663734091361736e-07 -7.798801816426339e-07 9.311706715580143e-12 -4.291907635174523e-08 -1.8628079649969404e-08 0.2999999999999984 -0.19975799999999466 0.39999999999999764 -1.2090987223823242 1.2090487307044384 -1.2090487304564577 2.4332614299356114e-15 0.012099999999993437 2.74052849601524e-15 -9.658810168950005e-19 3.835940199425966e-16 1.9623114264896517e-16
91.28 -0.35154928951521924 -1.8711821559776975 -1.6048632313418523 0.33458099507393146 1.9225073510435033 0.0001645769280567272 0.05437056891263986 0.04485499409392311 -0.060908625842501535 0.016051072640016827 -0.05437056846541734 -7.42837281144528e-06 1.6068580630001477 1.322677488121659 -1.7946295155907348 0.47187670485780686 -1.6068580497944733 -0.0002193465172798504 0.100022083567317 0.7906178796199449 0.605419372040258 0.07132289122762996 -0.02219822812930427 -3.4461775048189825e-06 1.313289957238872 10.380812759409876 5.637786276313291 0.3241625406295781 -0.1008909468476879 -1.5662876759402276e-05 -0.35154945055116826 -1.8711822668658655 -1.60486346880068 0.3345809876918793 1.922507405281067 0.00016457692254334688 0.054370567202568054 0.04485499486327171 -0.06090862676501274 0.016051072627305984 -0.054370567202568054 -7.428373010043288e-06 0.1000220850110054 0.7906178832054138 0.605419397354126 0.07132288813591003 -0.022198228165507317 -3.446177515797899e-06 0.1000220850110054 0.7906178832054138 0.605419397354126 0.07132288813591003 -0.022198228165507317 -3.446177515797899e-06 0.29999999769285596 -0.1996515748152981 0.39999989448977735 -1.2090988275909529 1.2090491132057783 -1.2090485610263155 1.9187540081905185e-09 0.015840001537957893 1.0151865657831866e-09 -1.8101520116590364e-08 6.815577057904793e-09 -4.472188915363739e-10 -8.84109443005707e-07 7.217287328485652e-07 -8.651979631540442e-07 5.149752470365471e-12 1.2249252668527613e-08 -5.896040434105529e-08 0.2999999999999963 -0.1996515199999893 0.3999999999999952 -1.2090987223823235 1.2090487307044384 -1.2090487304564583 5.3175271914433795e-15 0.01583999999998393 7.149150498982737e-15 1.2649748439383025e-17 4.504293643075077e-16 1.9468687035884394e-16
91.288 -0.35107465389301673 -1.8707907634996674 -1.6053946183481962 0.33472096728047546 1.922032715425205 0.00016451209230666062 0.06964860758430487 0.05740765526050271 -0.07792892866701401 0.02051800057259459 -0.06964860701161235 -9.512421288575934e-06 1.909754833958126 1.5690826458224505 -2.127537853064059 0.5583659915722204 -1.9097548182743767 -0.0002605060596413318 0.11883390405337588 0.8036032825102035 0.5973988129816472 0.07339413861905926 -0.026386610652013375 -4.092839648142701e-06 1.5602891602208253 10.551311099358973 5.563097226247696 0.33357636002362434 -0.1199271454134008 -1.8601956200808576e-05 -0.35107452074159795 -1.8707907835589808 -1.6053946653949183 0.3347209692001343 1.9220327138900757 0.0001645120937610045 0.0696486085653305 0.05740765482187271 -0.07792893052101135 0.020518001168966293 -0.0696486085653305 -9.512421456747688e-06 0.11883390694856644 0.8036032915115356 0.5973988175392151 0.07339414209127426 -0.02638661116361618 -4.092839844815899e-06 0.11883390694856644 0.8036032915115356 0.5973988175392151 0.07339414209127426 -0.02638661116361618 -4.092839844815899e-06 0.3000000317620907 -0.19951324208351745 0.39999998002680354 -1.209098813161752 1.2090486894713426 -1.2090485880796367 -2.473520555451136e-09 0.020280000566143905 -3.872462409126339e-10 -3.6798363488014273e-09 3.1541228259546578e-09 -5.726915141560286e-10 1.5414778392625755e-07 -3.2597859694699814e-07 -2.2165466988440732e-07 1.3977826564804759e-12 -2.4693053177335816e-08 2.902521326030727e-08 0.29999999999999327 -0.19951327999997906 0.3999999999999899 -1.2090987223823244 1.2090487307044389 -1.2090487304564572 1.2441020212483315e-14 0.02027999999996526 1.568982512880518e-14 -6.434709594075631e-16 3.98921283736369e-16 8.719421922254264e-16
91.29599999999999 -0.350470824297747 -1.870293342496236 -1.6060697128644081 0.3348986124485534 1.9214288858348987 0.0001644296411023248 0.08756763166740757 0.07209509064084059 -0.09782676444052628 0.025727567536358444 -0.08756763094769371 -1.1954467512126618e-05 2.2398780103878373 1.8359294225422347 -2.4872294716890337 0.6511958704704816 -2.2398779920101695 -0.00030525577794383553 0.13931316666978713 0.8175945280463401 0.5887222600514107 0.07562586185495564 -0.030954049772326044 -4.795907444584261e-06 1.829181878374305 10.735016153248447 5.482299430050747 0.3437195421307734 -0.14068615621522187 -2.1797399335635463e-05 -0.3504708448993128 -1.870293442402975 -1.6060698668109339 0.33489862084388733 1.921428918838501 0.00016442964260932058 0.08756763488054276 0.07209508866071701 -0.0978267639875412 0.025727568194270134 -0.08756762742996216 -1.1954467481700704e-05 0.13931316137313843 0.8175945281982422 0.588722288608551 0.07562585920095444 -0.03095404990017414 -4.795907443622127e-06 0.13931316137313843 0.8175945281982422 0.588722288608551 0.07562585920095444 -0.03095404990017414 -4.795907443622127e-06 0.3000000207115455 -0.19933753255019984 0.39999992281177116 -1.2090988359248682 1.2090489311952353 -1.2090485502780854 1.6126845177246006e-09 0.025480003552203877 1.0130174224771373e-09 -1.9889515655776864e-08 8.19595713571267e-09 6.7308691285989546e-09 -1.037509252060343e-06 1.264544891501362e-06 -8.90215360709714e-07 5.5354818329177046e-12 4.2281747614791154e-08 -1.0300396186740257e-07 0.29999999999998717 -0.19933751999996174 0.39999999999998165 -1.209098722382324 1.2090487307044389 -1.2090487304564583 2.4081035720995785e-14 0.025479999999926645 3.537453303266113e-14 2.0627206727993554e-16 -8.009093186571828e-17 -2.423675286547607e-16
91.304 -0.3497160703661404 -1.8696723902986818 -1.606912076637391 0.33511998867796733 1.9206741319094935 0.00016432663280015598 0.10834999604632448 0.089078397703248 -0.12081013827155716 0.03172667304985624 -0.10834999515629105 -1.4783458285848002e-05 2.5977955473646137 2.122913382800927 -2.8729217288788607 0.7498881891872247 -2.597795526074668 -0.000353623846715173 0.1614851596186439 0.8325567034413957 0.5794049999672816 0.07800995171008525 -0.0359095369916139 -5.555823547280606e-06 2.1203001457927946 10.931469516185526 5.395535240695319 0.35455523052233745 -0.16320884562688517 -2.5251218022390356e-05 -0.34971601167787725 -1.8696726004229944 -1.6069119612323206 0.33511999249458313 1.9206740856170654 0.00016432662960141897 0.1083499938249588 0.0890783965587616 -0.1208101361989975 0.03172667324542999 -0.1083499938249588 -1.4783458027523011e-05 0.16148516535758972 0.8325567245483398 0.5794050097465515 0.0780099481344223 -0.035909537225961685 -5.5558234635100234e-06 0.16148516535758972 0.8325567245483398 0.5794050097465515 0.0780099481344223 -0.035909537225961685 -5.5558234635100234e-06 0.3000000587031555 -0.19911800333210003 0.3999999588564641 -1.2090987681808731 1.2090487991951393 -1.2090486580180149 4.811982447832919e-10 0.031500004203305565 4.483770718229125e-09 -9.63802021090893e-09 2.3197856332958586e-09 -8.900319552908489e-10 3.6201871030863243e-07 -6.809248653797557e-07 -7.324814462299758e-07 1.3707394662548523e-11 -1.2938157689293764e-07 5.684069822305696e-08 0.2999999999999773 -0.19911799999993285 0.3999999999999672 -1.209098722382324 1.209048730704439 -1.2090487304564583 4.872558233324673e-14 0.03149999999985647 6.893774966667124e-14 -2.3341430584214924e-16 5.513493833021227e-17 1.0298985103980568e-15
91.312 -0.3487868640679279 -1.868909125537952 -1.6079469096101704 0.3353915135011644 1.9197449256189119 0.00016419989324337235 0.13222377693285334 0.10851561090383563 -0.1470792011117685 0.03855742604124132 -0.1322237758474458 -1.8028625671511438e-05 2.9842226108161074 2.429651650073453 -3.2836328550264176 0.853844123923135 -2.984222586394343 -0.0004056459232079294 0.18538190615544362 0.8484487255335282 0.5694665038125377 0.08053612914068521 -0.041264388728292446 -6.373148171289025e-06 2.4340644278209744 11.140131766255227 5.302985976803114 0.36603670694441426 -0.18754664677008914 -2.8965958438508617e-05 -0.34878665605653936 -1.8689091841327112 -1.6079466978656214 0.3353915214538574 1.9197449684143066 0.00016419989697169513 0.13222377002239227 0.10851561278104782 -0.147079199552536 0.038557425141334534 -0.13222377002239227 -1.8028626072918996e-05 0.1853819042444229 0.8484487533569336 0.5694665312767029 0.0805361270904541 -0.04126438871026039 -6.3731481532158796e-06 0.1853819042444229 0.8484487533569336 0.5694665312767029 0.0805361270904541 -0.04126438871026039 -6.3731481532158796e-06 0.30000005136201774 -0.19884793772805726 0.40000003904470494 -1.2090987700267293 1.2090484085020579 -1.2090486578670987 -7.723329703444861e-09 0.03839999930493742 2.684829931635182e-09 1.9150984297152736e-08 -9.664304619303966e-09 -1.085404788764129e-09 7.915855128792094e-08 4.324355159477006e-08 -1.3370579083889087e-06 2.0573953557671263e-11 -1.248204346353477e-07 -3.621880548966613e-09 0.2999999999999617 -0.19884799999988678 0.3999999999999436 -1.2090987223823244 1.2090487307044395 -1.2090487304564574 9.145311139365123e-14 0.03839999999973135 1.312176255361003e-13 -2.2265536200211596e-16 -2.3793149578394e-16 1.0979634364967921e-15
91.32 -0.347657829359342 -1.8679835150806756 -1.609200980959498 0.33571992186174393 1.9186158909195903 0.00016404601324410538 0.1594241417926104 0.13056097349216783 -0.1768244142348068 0.04625603765855198 -0.15942414048499284 -2.1719557558193926e-05 3.4000456074696346 2.755670323541525 -3.7181516403797867 0.9623264521638318 -3.400045579693381 -0.00046136648583531106 0.21104329648944053 0.8652225504711857 0.5589310996638336 0.08319160990342263 -0.0470326252116199 -7.248580121901442e-06 2.7709984829063545 11.360372087686669 5.204878186289552 0.3781058670110558 -0.21376328158681243 -3.294479665404205e-05 -0.34765798250307256 -1.867983643208639 -1.6092007795916956 0.33571991324424744 1.9186159372329712 0.00016404601046815515 0.15942414104938507 0.1305609792470932 -0.1768244206905365 0.046256039291620255 -0.15942414104938507 -2.1719557480537333e-05 0.21104329824447632 0.8652225732803345 0.5589311122894287 0.08319161087274551 -0.04703262448310852 -7.248580004670657e-06 0.21104329824447632 0.8652225732803345 0.5589311122894287 0.08319161087274551 -0.04703262448310852 -7.248580004670657e-06 0.2999999973109536 -0.1985203721926929 0.4000000105800706 -1.2090986433656057 1.2090487542097283 -1.2090488540732118 8.917044716334053e-09 0.0462400040101496 4.288497240516208e-09 9.368530960467955e-09 -4.387502901162394e-09 -1.3076172188318596e-09 4.1521237244171365e-07 -4.684462307607422e-07 -7.538486540478816e-07 1.2534331085749205e-11 -1.0697909408884188e-07 3.506213341678141e-08 0.2999999999999369 -0.19852031999981606 0.3999999999999071 -1.2090987223823242 1.209048730704439 -1.2090487304564572 1.635007091697255e-13 0.04623999999951871 2.3969768907765886e-13 2.617312368271393e-16 -7.536208580373185e-16 -1.28149671238583e-17
91.328 -0.3463016801695096 -1.866874307159942 -1.610702544583508 0.336112214738957 1.9172597417408754 0.00016386134546006023 0.19019492817776013 0.15536410024200933 -0.21022445776729595 0.054851567230521044 -0.19019492661928689 -2.5886280303122384e-05 3.846348298143714 3.100390843730188 -4.175005441561145 1.0744411964961333 -3.8463482667867552 -0.0005208403431160571 0.23851832329701872 0.8828223203498026 0.5478286887627171 0.08596075322520258 -0.05323138225837181 -8.18298050184561e-06 3.131745584889856 11.591457066192907 5.101490315496174 0.39069162340854574 -0.24193663236429985 -3.719164638088829e-05 -0.3463018576251429 -1.8668745199786585 -1.6107023398028772 0.33611220121383667 1.917259693145752 0.00016386134666390717 0.19019493460655212 0.15536409616470337 -0.2102244645357132 0.05485156551003456 -0.19019491970539093 -2.5886280127451755e-05 0.23851832747459412 0.8828223347663879 0.5478286743164062 0.085960753262043 -0.053231380879879 -8.182980309356935e-06 0.23851832747459412 0.8828223347663879 0.5478286743164062 0.085960753262043 -0.053231380879879 -8.182980309356935e-06 0.300000012694192 -0.19812735448357285 0.3999999815915989 -1.2090986250532139 1.2090489155483484 -1.2090488819510374 1.7645304395388976e-08 0.05508001039987999 4.18155214492635e-09 4.068438324830582e-10 1.3213806806470082e-08 1.334268761520034e-08 1.0925021807147236e-06 -1.2153186065626202e-06 1.660983532671035e-07 6.776894801261729e-12 -1.1691320580789583e-07 9.328946560474003e-08 0.2999999999998994 -0.1981272799997109 0.39999999999985125 -1.2090987223823242 1.2090487307044393 -1.2090487304564577 2.847667258568291e-13 0.055079999999172305 4.181540074403244e-13 -4.122142251530829e-17 -1.1941441142402656e-16 -2.919480557254064e-16
91.336 -0.3446891449885614 -1.8655590716046584 -1.612481236950555 0.33657559723334907 1.9156472065731331 0.00016364200056349663 0.22479044888509445 0.18306902198354705 -0.24744387111672608 0.06436451834944598 -0.22479044704527995 -3.055935507844434e-05 4.32444008841679 3.463115217692214 -4.652426668678766 1.1891188898656173 -4.324440053249133 -0.0005841343469152444 0.2678664268358105 0.9011834423688504 0.5361955035579844 0.08882469789791193 -0.0598813574277857 -9.177399628201728e-06 3.5170861843541923 11.832538598303007 4.993159768232663 0.4037082519460098 -0.27216076950928597 -4.1711281310176855e-05 -0.3446891943560999 -1.865558926259176 -1.612481419240133 0.33657559752464294 1.9156471490859985 0.00016364200564567 0.22479045391082764 0.18306902050971985 -0.24744386970996857 0.06436451524496078 -0.22479045391082764 -3.055935667362064e-05 0.26786643266677856 0.9011834263801575 0.5361955165863037 0.08882469683885574 -0.05988135561347008 -9.177399988402613e-06 0.26786643266677856 0.9011834263801575 0.5361955165863037 0.08882469683885574 -0.05988135561347008 -9.177399988402613e-06 0.2999999588463736 -0.19766072824609818 0.40000000002667446 -1.2090986881342531 1.2090488406475852 -1.2090487837142367 1.858369016277401e-11 0.06497999447868173 -6.625867324117526e-09 -6.683661776467585e-09 5.7705245713699785e-09 -1.8398142667728205e-09 -1.2523708773976286e-06 8.218803039490338e-07 -1.1724795911637272e-07 -8.236729674904312e-12 1.1737761366652769e-07 -7.558012808881182e-08 0.2999999999998439 -0.19766071999955848 0.3999999999997676 -1.2090987223823242 1.2090487307044384 -1.2090487304564577 4.785270489718674e-13 0.0649799999986266 7.067377675237578e-13 -9.18229672978495e-17 -8.44726148147012e-16 3.2119625773335773e-16
91.344 -0.342788876184172 -1.8640142481481377 -1.6145679551277627 0.33711740491293984 1.9137469377842853 0.00016338384258609656 0.26347754162760195 0.21381310170666412 -0.2886304144449047 0.07480528445894005 -0.26347753947408314 -3.5769989873300226e-05 4.835886592813438 3.8430099653896344 -5.1483179160223305 1.3050957636867588 -4.835886553600399 -0.0006513293493569859 0.2991589561756636 0.9202315935496165 0.5240749062854331 0.09176098986714698 -0.06700729207727106 -1.0233107777675312e-05 3.9279570945864637 12.082640823306464 4.88029034231121 0.41705369894618305 -0.30454814249119694 -4.650947484953429e-05 -0.34278899828066045 -1.8640144507037562 -1.61456805864443 0.33711740374565125 1.913746953010559 0.00016338384011760354 0.26347753405570984 0.21381309628486633 -0.2886304259300232 0.07480528205633163 -0.26347753405570984 -3.5769990063272417e-05 0.2991589605808258 0.9202315807342529 0.524074912071228 0.09176099300384521 -0.06700729578733444 -1.0233107786916662e-05 0.2991589605808258 0.9202315807342529 0.524074912071228 0.09176099300384521 -0.06700729578733444 -1.0233107786916662e-05 0.30000002480473803 -0.19711205282254826 0.39999990044195965 -1.2090988088665033 1.2090490713186404 -1.2090485963221795 1.2535577105949978e-08 0.07600001099214672 4.21440986478512e-09 -6.975170499609875e-08 4.539456697868946e-08 -2.153506061221057e-09 -8.270236361160983e-07 4.049951962525056e-07 1.2371026540093862e-07 -1.5486512841173445e-11 1.0820432028987436e-07 -1.6322021690474384e-08 0.2999999999997631 -0.1971119999993442 0.3999999999996451 -1.2090987223823235 1.209048730704438 -1.2090487304564588 7.81309494696496e-13 0.07599999999779232 1.1620957744695414e-12 1.590914486889768e-17 7.459011995851881e-16 3.109917380968151e-16
91.35199999999999 -0.34056734202519223 -1.862215203884186 -1.6169947127253126 0.33774501722450134 1.9115254036434495 0.00016308248330662218 0.2919408401041641 0.23592934317234182 -0.3180115633622166 0.08206899637976373 -0.2919408377217699 -3.957158993671949e-05 3.5579123095702685 2.7645301832097124 -3.6726436146639827 0.9079639901029591 -3.5579122809608412 -0.0004752000079274077 0.21941854905653924 0.8602795897803153 0.5593399850054348 0.08252859046575411 -0.049388146817402015 -7.465920124548383e-06 2.8809655491123602 11.29547101381554 5.20868580836761 0.3750924436668524 -0.22446912728509213 -3.39326069660724e-05 -0.3405674139605921 -1.8622153441058558 -1.6169946829425257 0.3377450108528137 1.9115253686904907 0.0001630824845051393 0.291940838098526 0.23592934012413025 -0.3180115520954132 0.08206899464130402 -0.291940838098526 -3.9571590605191886e-05 0.21941855549812317 0.8602795600891113 0.5593400001525879 0.08252859115600586 -0.04938814789056778 -7.46592013456393e-06 0.21941855549812317 0.8602795600891113 0.5593400001525879 0.08252859115600586 -0.04938814789056778 -7.46592013456393e-06 0.30000001875705923 -0.19647203609780928 0.39999995894650286 -1.2090987241774345 1.2090489089402694 -1.2090487283895834 1.0212407807418516e-08 0.08400000855510824 9.369635349782487e-09 -3.430828131040901e-08 5.284163298822713e-09 -2.38239049386918e-09 -1.9148848749079237e-06 1.3149927843841493e-06 1.0239499151084048e-07 -2.2324066896776046e-11 2.149528302206434e-07 -1.0285452675389804e-07 0.2999999999996492 -0.19647199999904996 0.399999999999468 -1.2090987223823242 1.2090487307044384 -1.2090487304564577 1.1850380396429548e-12 0.08399999999672098 1.7747521614992996e-12 -1.005797669527486e-15 1.4510651017451215e-15 1.834378285332287e-15
91.36 -0.3381172368231935 -1.860239691666827 -1.6196553444893045 0.3384300262699111 1.9090752984614274 0.00016275066744836724 0.32062386122674386 0.2579282032330471 -0.3470943473165841 0.0891517463829683 -0.32062385861480674 -4.3384327903445495e-05 3.585377640322469 2.7498575075881604 -3.635347994295941 0.8853437504005718 -3.5853776116296086 -0.0004765922458407509 0.22069248971912908 0.8576240858502494 0.5600195386176076 0.08217968601262148 -0.04982105453777855 -7.48779372909802e-06 2.897692390012165 11.260604247213776 5.215013947514886 0.3735066729273646 -0.2264366928742035 -3.40320224987505e-05 -0.33811742464174444 -1.8602398077594202 -1.6196554342852991 0.3384300172328949 1.9090752601623535 0.00016275067173410207 0.32062387466430664 0.25792819261550903 -0.3470943570137024 0.08915174752473831 -0.32062384486198425 -4.3384327000239864e-05 0.2206924855709076 0.8576241135597229 0.5600195527076721 0.08217968791723251 -0.04982105270028114 -7.48779393688892e-06 0.2206924855709076 0.8576241135597229 0.5600195527076721 0.08217968791723251 -0.04982105270028114 -7.48779393688892e-06 0.29999999236620994 -0.1957680697254732 0.39999993390643457 -1.2090987122597328 1.209049080227387 -1.209048748624042 2.4203223412464024e-08 0.09200001414015457 1.1483998233826697e-10 -5.86495125677756e-08 4.09479217417181e-08 2.7190392854993323e-08 6.711435023664111e-07 -3.1445303568949087e-07 -8.686793135917736e-07 1.9635814271547388e-11 -1.2868846287126868e-07 1.7413588483729426e-08 0.299999999999527 -0.19576799999874903 0.3999999999992757 -1.2090987223823242 1.209048730704438 -1.2090487304564583 1.7546347038230291e-12 0.0919999999952498 2.6601582419110804e-12 9.247629108925613e-17 8.050364503136961e-16 2.9340346754570755e-16
91.368 -0.3354367172379078 -1.8580886959210474 -1.6225473531505745 0.339170919387207 1.9063947788979578 0.00016238830122788808 0.34954801318350875 0.2797983265749624 -0.3758512115086492 0.09603733726613815 -0.3495480103412847 -4.720937894747807e-05 3.6155189945956123 2.7337654177394115 -3.5946080240081346 0.8606988603962317 -3.6155189658097426 -0.00047813138050407147 0.22209445617335005 0.8547245529397441 0.5607649550386934 0.08179839578918317 -0.05029602358255939 -7.5119752448084114e-06 2.9161002095560864 11.222533380098842 5.221955414311321 0.3717737088618375 -0.22859542718273246 -3.414192748765423e-05 -0.33543664613832647 -1.858088795338766 -1.622547451649801 0.3391709327697754 1.9063947200775146 0.00016238829994108528 0.34954801201820374 0.27979832887649536 -0.37585121393203735 0.09603733569383621 -0.34954801201820374 -4.720937795354985e-05 0.22209446132183075 0.8547245264053345 0.5607649683952332 0.08179839700460434 -0.05029602348804474 -7.511975127272308e-06 0.22209446132183075 0.8547245264053345 0.5607649683952332 0.08179839700460434 -0.05029602348804474 -7.511975127272308e-06 0.30000003741945835 -0.19499999169744409 0.3999999390641022 -1.2090988117431902 1.2090488787094982 -1.209048594301263 -6.640604943533453e-09 0.10000000849898377 6.1148356363878424e-09 -6.034974220896996e-08 2.2835844929392062e-08 -2.8422166130155255e-09 -1.6889111780930454e-06 1.202190742062939e-06 1.1098727648090942e-07 -2.0163119508254906e-11 1.9488445578502918e-07 -9.891915345422936e-08 0.2999999999993975 -0.19499999999844594 0.39999999999906816 -1.2090987223823237 1.2090487307044375 -1.2090487304564586 2.36587729617489e-12 0.09999999999374522 3.6214847338346916e-12 2.9041583387797755e-17 1.3786562080569063e-15 1.487373587648806e-15
91.37599999999999 -0.3325237682189526 -1.8557632922246219 -1.6256680217883055 0.33996605543407227 1.9034818299026643 0.00016199528133314077 0.3787348155824097 0.30152827706463653 -0.40425479836732975 0.10270984993758775 -0.3787348125090856 -5.104795059114082e-05 3.6483502998626154 2.7162438112092664 -3.550448357335069 0.8340640839311995 -3.648350270975112 -0.0004798214554578438 0.22362527421911324 0.8515811848189417 0.5615760993523128 0.0813851445834649 -0.05081327348032227 -7.538528200193235e-06 2.936199850496957 11.181260956672705 5.229508952388607 0.3698954821318479 -0.2309463279680647 -3.426261066987825e-05 -0.3325236479388636 -1.8557632605182093 -1.6256678740130823 0.3399660587310791 1.9034818410873413 0.00016199528181459755 0.378734827041626 0.30152827501296997 -0.4042547941207886 0.10270985215902328 -0.378734827041626 -5.104795127408579e-05 0.2236252725124359 0.8515811562538147 0.5615761280059814 0.08138514310121536 -0.05081327259540558 -7.538528279837919e-06 0.2236252725124359 0.8515811562538147 0.5615761280059814 0.08138514310121536 -0.05081327259540558 -7.538528279837919e-06 0.3000000136580803 -0.1941679596497541 0.4000000524028432 -1.2090987012679637 1.2090484784630253 -1.209048759250162 -8.900668915558592e-09 0.10799999748696557 -1.0469050452883318e-09 6.399207321302235e-08 -2.6772527014440187e-08 -3.0733159281636005e-09 -2.273050756467257e-06 2.1450012352892386e-06 -3.5347493837270177e-07 -1.37690286445523e-11 2.2119295409084747e-07 -1.7973809901313158e-07 0.29999999999926125 -0.19416799999814532 0.3999999999988441 -1.209098722382324 1.2090487307044375 -1.2090487304564583 3.013116420631929e-12 0.10799999999222974 4.659375935971223e-12 -6.208339137295052e-16 2.0322301115838145e-15 1.776650032328003e-15
91.384 -0.32937620211134444 -1.8532646480370847 -1.629014415416334 0.3408136671036484 1.9003342638205696 0.00016157149465145752 0.4082058998131698 0.32310651658632333 -0.43227794909876005 0.10915366613440572 -0.4082058965078575 -5.4901286032918266e-05 3.683885528845014 2.6972799402108505 -3.502893841428788 0.8054770246022462 -3.6838854998464883 -0.00048166693022218103 0.22528579056841042 0.8481941080771528 0.5624528680502814 0.0809403897118335 -0.0513730241878919 -7.567522659268489e-06 2.958002430163229 11.136788639053016 5.237673597857831 0.3678740712402832 -0.23349039493396864 -3.439439048637528e-05 -0.32937604585756475 -1.853264633809225 -1.6290143171893519 0.34081366658210754 1.9003342390060425 0.00016157150093931705 0.40820589661598206 0.3231065273284912 -0.43227794766426086 0.10915366560220718 -0.40820589661598206 -5.490128751262091e-05 0.22528578341007233 0.8481941223144531 0.5624528527259827 0.08094038814306259 -0.05137302353978157 -7.5675225161830895e-06 0.22528578341007233 0.8481941223144531 0.5624528527259827 0.08094038814306259 -0.05137302353978157 -7.5675225161830895e-06 0.3000000255897855 -0.19327195357849375 0.40000003224047315 -1.2090987331916532 1.2090485388083234 -1.2090487103836192 -1.9841330166629666e-08 0.11599999729797077 3.3455404527427156e-09 3.946773783057113e-08 -2.579629859974879e-08 -3.305308618419213e-09 1.2966023706331191e-06 -7.046543885750018e-07 1.5876453549123735e-07 1.3106329437007535e-11 -1.2577781100732501e-07 5.478844052563699e-08 0.299999999999118 -0.19327199999785216 0.39999999999860414 -1.2090987223823226 1.209048730704437 -1.2090487304564597 3.694563760179135e-12 0.11599999999072669 5.779417368933992e-12 -2.4439141526002093e-16 2.3092914127006226e-15 1.3565896117997328e-15
91.392 -0.32599165776863614 -1.8505940236117464 -1.632583382567951 0.3417118634219227 1.896949719505235 0.00016111681797039416 0.437983006721886 0.3445213804028302 -0.45989370173613 0.11535349111814912 -0.437983003183617 -5.8770667601512613e-05 3.722138363589526 2.6768579770633583 -3.451969079671241 0.7749781229679248 -3.7221383344699377 -0.00048367269607429346 0.22707685818423545 0.8445633627609197 0.5633951992698534 0.08046462049028799 -0.05197549078484519 -7.599035469433899e-06 2.9815191479590117 11.089116953050876 5.2464487746407285 0.3657117001283589 -0.23622860561712136 -3.453761620857707e-05 -0.32599145570863897 -1.8505938688861292 -1.6325834433185022 0.3417118489742279 1.8969497680664062 0.0001611168117960915 0.4379830062389374 0.3445213735103607 -0.45989370346069336 0.11535348743200302 -0.4379830062389374 -5.8770667237695307e-05 0.22707685828208923 0.844563364982605 0.5633952021598816 0.08046462386846542 -0.051975492388010025 -7.59903559810482e-06 0.22707685828208923 0.844563364982605 0.5633952021598816 0.08046462386846542 -0.051975492388010025 -7.59903559810482e-06 0.30000000446089126 -0.1923119237747703 0.4000000354605759 -1.2090988041599744 1.2090484786398714 -1.2090486002634147 -2.962991426341872e-08 0.12399998432420178 -1.5485689021171933e-08 3.6937983833249896e-08 4.974716621320085e-10 -3.538264072723136e-09 -1.5314162750156273e-08 -2.5791936860613734e-08 -5.530494954184055e-08 -2.5306488798909207e-12 1.224262311723395e-08 9.397857132997412e-09 0.29999999999896876 -0.19231199999757123 0.3999999999983466 -1.2090987223823235 1.2090487307044375 -1.2090487304564594 4.41052848771843e-12 0.12399999998926088 6.979418410657794e-12 -2.267941869976769e-15 2.7043306457852095e-15 3.4326820839138237e-15
91.39999999999999 -0.3223675996966078 -1.847752773119585 -1.636371556850654 0.3426586324270181 1.893325661462448 0.00016063111765048896 0.4680879812359055 0.36576104878004223 -0.48707528556103435 0.12129437647865057 -0.46808797746363606 -6.265742034104219e-05 3.7631218142524374 2.6549585471515034 -3.397697978113047 0.7426106700626819 -3.7631217850023835 -0.0004858440924411965 0.22899931956199002 0.8406888816752549 0.5644030834137991 0.07995835791137376 -0.05262087745465511 -7.633150519020577e-06 3.006761065848929 11.038245016396097 5.25583439336598 0.36341073670719376 -0.23916188803140745 -3.469266910894852e-05 -0.3223674933062952 -1.847752873097555 -1.6363714377032679 0.3426586389541626 1.893325686454773 0.0001606311125215143 0.46808797121047974 0.36576104164123535 -0.4870752990245819 0.12129437923431396 -0.46808797121047974 -6.265741831157357e-05 0.2289993166923523 0.8406888842582703 0.5644030570983887 0.07995835691690445 -0.05262087658047676 -7.633150744368322e-06 0.2289993166923523 0.8406888842582703 0.5644030570983887 0.07995835691690445 -0.05262087658047676 -7.633150744368322e-06 0.3000000417958285 -0.19128797319676513 0.3999999991835045 -1.2090987725507394 1.2090486121641064 -1.209048651221265 -8.217129308697379e-09 0.13200000606605944 2.7244681838672033e-09 1.706399128979597e-08 1.3115354535958495e-08 -3.772265699079273e-09 1.1826272343398646e-06 -8.463629093701337e-07 7.019103177573748e-07 4.866801424940684e-12 -7.237187444969641e-08 6.536488476974928e-08 0.29999999999881366 -0.19128799999730803 0.39999999999807156 -1.2090987223823229 1.209048730704437 -1.2090487304564597 5.156977128243421e-12 0.13199999998785625 8.267030650934413e-12 -1.048297491407689e-15 2.0531482725271737e-15 3.299100997365432e-15
91.408 -0.3185013172534763 -1.8447423460159609 -1.6403753584414131 0.34365184403185833 1.8894593790504344 0.00016011424926850912 0.4985427635378347 0.38681351461503 -0.5137961117924443 0.12696174320216086 -0.4985427595304365 -6.65629157802776e-05 3.806847787741152 2.6315582293734705 -3.340103278926247 0.7084208404387858 -3.8068477583500515 -0.00048818692990442635 0.23105398771873165 0.8365704683727146 0.5654765740794825 0.07942215457536025 -0.05330937067625691 -7.669959098720654e-06 3.0337388587469465 10.984170249733744 5.265830953142957 0.3609736925450123 -0.24229108972358768 -3.4859964103685374e-05 -0.3185012976275843 -1.8447421232806605 -1.6403754393206995 0.34365183115005493 1.8894593715667725 0.00016011424304451793 0.49854275584220886 0.38681352138519287 -0.5137960910797119 0.12696173787117004 -0.49854275584220886 -6.656291225226596e-05 0.23105399310588837 0.8365704417228699 0.5654765963554382 0.07942215353250504 -0.0533093698322773 -7.669958904443774e-06 0.23105399310588837 0.8365704417228699 0.5654765963554382 0.07942215353250504 -0.0533093698322773 -7.669958904443774e-06 0.29999995333422225 -0.19019997810484032 0.40000005319258236 -1.2090986676835611 1.2090486124607271 -1.2090488091655465 -1.5877664396856863e-08 0.1399999739717028 -1.2156272078205391e-08 5.413163883766329e-08 -4.117201354565861e-08 -4.007390466871331e-09 -2.0648674126035443e-06 1.4941593743616395e-06 -1.878753691954816e-07 -1.7683581294801793e-11 1.979416198723209e-07 -1.2624337365878197e-07 0.29999999999865307 -0.19019999999706821 0.39999999999777797 -1.2090987223823229 1.209048730704437 -1.2090487304564597 5.9324738837526896e-12 0.13999999998654009 9.642147597781139e-12 -1.9312780007827595e-15 2.574038856496199e-15 3.2664460708551497e-15
91.416 -0.31438992393597953 -1.841564288683152 -1.6445909954922469 0.344689253073036 1.8853479857659416 0.00015956605723015945 0.5293693763455809 0.40766654680824477 -0.5400297604668034 0.13234140518686677 -0.5293693721018395 -7.04885758327023e-05 3.853326600968272 2.606629024151846 -3.2792060842948834 0.6724577480882384 -3.8533265714253835 -0.000490707506553088 0.23324162463669088 0.8322077738646065 0.5666157992172688 0.07885659492725458 -0.05404113154357589 -7.709560158511849e-06 3.0624625314797513 10.926888070842285 5.276439645471051 0.3584032239443721 -0.2456169428655524 -3.5039950920436355e-05 -0.31439000764955694 -1.8415644804583948 -1.6445911566363733 0.3446892499923706 1.8853479623794556 0.00015956605784595013 0.5293693542480469 0.40766653418540955 -0.540029764175415 0.1323413997888565 -0.5293693542480469 -7.048857514746487e-05 0.23324161767959595 0.8322077989578247 0.5666158199310303 0.07885659486055374 -0.05404113233089447 -7.709560122748371e-06 0.23324161767959595 0.8322077989578247 0.5666158199310303 0.07885659486055374 -0.05404113233089447 -7.709560122748371e-06 0.30000003171264594 -0.1890480424850077 0.3999998889411338 -1.2090988399434919 1.2090491109382908 -1.2090485682103052 1.579406524869712e-08 0.1480000201820662 1.1161799020562178e-08 -1.7250032560504122e-07 7.894405225168755e-08 -4.2437045513878295e-09 3.367607762175939e-07 1.1049450408311767e-07 -1.0651943182432322e-06 1.8794555779920294e-11 -1.132265107289367e-07 -5.46566385497509e-09 0.29999999999848725 -0.18904799999685745 0.3999999999974655 -1.2090987223823226 1.2090487307044362 -1.2090487304564599 6.735393349157098e-12 0.14799999998534114 1.111025081005966e-11 -2.084374375264197e-15 2.636829420123878e-15 3.4262982534440847e-15
91.42399999999999 -0.31003035678441293 -1.8382202463838109 -1.6490144654154317 0.3457685025502897 1.8809884186492742 0.000158986374350615 0.5605899078092723 0.4283076491197036 -0.5657499634605755 0.13741959341720963 -0.5605899033278849 -7.443587691011623e-05 3.902566432961427 2.5801377889323533 -3.2150253742215114 0.6347735287928584 -3.902566403255675 -0.0004934126346767413 0.23556291688263165 0.8276002720813461 0.5678209724349751 0.07826229585396967 -0.05481628712215171 -7.752060727032359e-06 3.0929410986689536 10.866391572428075 5.287662459508975 0.35570213465629213 -0.24914002497017954 -3.523311600436207e-05 -0.31003028551210576 -1.8382204214679163 -1.6490142981158655 0.3457685112953186 1.880988359451294 0.0001589863677509129 0.5605899095535278 0.4283076524734497 -0.5657499432563782 0.13741959631443024 -0.5605899095535278 -7.443587674060836e-05 0.23556292057037354 0.8276003003120422 0.5678209662437439 0.07826229929924011 -0.05481628701090813 -7.75206081016222e-06 0.23556292057037354 0.8276003003120422 0.5678209662437439 0.07826229929924011 -0.05481628701090813 -7.75206081016222e-06 0.300000051954024 -0.18783199581888832 0.3999999872377305 -1.209098727630763 1.2090487210003356 -1.2090487222131112 -7.434326827188371e-10 0.15600002062095056 2.473045247614657e-08 -7.55745284984698e-09 -2.5353998084793897e-08 -4.481383872639032e-09 1.3851974612801929e-06 -1.4127581231786177e-06 -2.6483484791037066e-07 1.2726705366226405e-11 -1.6212074841266827e-07 1.1522305558562802e-07 0.2999999999983172 -0.18783199999668238 0.39999999999713287 -1.2090987223823222 1.2090487307044357 -1.2090487304564608 7.564284439682795e-12 0.15599999998428726 1.2672656935899702e-11 -2.3663284558782225e-15 3.548563244593715e-15 3.5371626539381715e-15
91.432 -0.3054193759437984 -1.8347119655624908 -1.6536415560173898 0.34688712706279934 1.8763774378454665 0.0001583750214015461 0.5922264894853 0.4487240142482457 -0.5909305836335843 0.14218298103631313 -0.5922264847648703 -7.840635421233047e-05 3.9545727095034593 2.5520456410677643 -3.147577521626102 0.5954234523879373 -3.954572679623167 -0.0004963096627767795 0.2380184480956068 0.8227472341121178 0.5690924043683843 0.07763990769534143 -0.05563492074329342 -7.79757625740407e-06 3.125182223495317 10.802671183892107 5.2995022879592675 0.3528733804753268 -0.25286071477826855 -3.54399840899015e-05 -0.30541927019228154 -1.8347118536578577 -1.6536415258990687 0.34688714146614075 1.8763774633407593 0.00015837502724025398 0.592226505279541 0.44872400164604187 -0.5909305810928345 0.14218297600746155 -0.592226505279541 -7.840635225875303e-05 0.2380184531211853 0.8227472305297852 0.5690923929214478 0.07763990759849548 -0.05563491955399513 -7.797576472512446e-06 0.2380184531211853 0.8227472305297852 0.5690923929214478 0.07763990759849548 -0.05563491955399513 -7.797576472512446e-06 0.2999999917045715 -0.1865519573483295 0.40000004780907533 -1.2090987092237346 1.2090485019607375 -1.2090487389618956 -1.544093882111975e-08 0.1639999851288495 -1.4974709916008954e-08 9.289449020145014e-08 -1.3466977588375361e-08 -4.720417300603937e-09 2.2913784473665755e-07 -4.7377756075985927e-07 3.988558331064717e-07 -3.031310281760047e-12 -1.1022427951131101e-10 3.34013050377213e-08 0.29999999999814353 -0.18655199999654895 0.399999999996779 -1.2090987223823229 1.2090487307044357 -1.20904873045646 8.414522184659139e-12 0.16399999998341191 1.433578381192583e-11 -2.9432990827627965e-15 4.592748805274179e-15 4.789942765403232e-15
91.44 -0.3005535644229269 -1.8310412965345337 -1.6584678464502005 0.3480425564505367 1.8715116263633198 0.00015773180662293304 0.6243012687922835 0.46890247287114356 -0.6155455900983221 0.14661870958442214 -0.6243012638313218 -8.240160623209083e-05 4.009347413372943 2.5223073278622317 -3.076875808092225 0.5544660685136253 -4.009347383306438 -0.0004994065024700447 0.24060866800500313 0.8176477012492196 0.5704305140364041 0.07699011572392392 -0.05649706112664855 -7.846231049918258e-06 3.159191810905691 10.735714317402254 5.311963032809802 0.34992007596523417 -0.25677914282061765 -3.5661120121878484e-05 -0.30055362382997686 -1.83104116121401 -1.6584680716144007 0.3480425477027893 1.8715115785598755 0.0001577318034833297 0.6243012547492981 0.46890246868133545 -0.6155455708503723 0.14661870896816254 -0.6243012547492981 -8.240160968853161e-05 0.24060866236686707 0.8176476955413818 0.5704305171966553 0.07699011266231537 -0.056497059762477875 -7.846230801078491e-06 0.24060866236686707 0.8176476955413818 0.5704305171966553 0.07699011266231537 -0.056497059762477875 -7.846230801078491e-06 0.29999996036273274 -0.18520801285902072 0.3999999827580449 -1.2090987195370564 1.2090488927974161 -1.2090487433976935 -3.426322122628059e-09 0.17199998034637673 -1.1573616995528762e-08 -6.30716566034622e-08 4.4318317175490334e-09 -4.960955278688548e-09 -2.8829699891392634e-07 6.126942487323974e-07 -5.05548547757562e-08 2.079239665971534e-12 2.2110480704840734e-08 -5.6384609464443236e-08 0.2999999999979666 -0.18520799999646426 0.3999999999964038 -1.2090987223823226 1.2090487307044346 -1.2090487304564606 9.282962098022854e-12 0.1719999999827449 1.610517430106301e-11 -1.9685073355109624e-15 4.617244955404766e-15 4.016567806394176e-15
91.448 -0.2954293280979776 -1.8272101966036782 -1.663488707949881 0.3492321196511648 1.8663873900790255 0.00015705652519794458 0.656836375293807 0.4888294373797094 -0.6395690296467587 0.1507144166992752 -0.65683637009072 -8.642329948189544e-05 4.066888312690434 2.490870563570731 -3.002929943554569 0.5119633893566344 -4.066888282424783 -0.0005027116562255769 0.24333385761213666 0.8123004568675659 0.5718358401009462 0.07631364214776391 -0.057402670213057755 -7.89815868781073e-06 3.1949735504473544 10.66550499867114 5.325049710188032 0.346845503561587 -0.26089513611834747 -3.5897131236099765e-05 -0.2954295317279261 -1.8272102514850062 -1.6634886900531214 0.34923210740089417 1.8663873672485352 0.00015705652185715735 0.6568363904953003 0.48882943391799927 -0.6395690441131592 0.15071441233158112 -0.6568363904953003 -8.642330067232251e-05 0.2433338612318039 0.812300443649292 0.5718358159065247 0.07631364464759827 -0.05740267038345337 -7.898158401076216e-06 0.2433338612318039 0.812300443649292 0.5718358159065247 0.07631364464759827 -0.05740267038345337 -7.898158401076216e-06 0.29999997638487036 -0.183800067159315 0.39999998533666686 -1.209098639445718 1.2090489389149766 -1.2090488644126343 4.408657936766587e-08 0.18000001137685695 4.2267958533698283e-10 -2.4445501550260597e-08 3.074671295820603e-08 -5.203081615124619e-09 3.482586508683884e-07 -5.149766389169605e-07 1.0051841443367106e-06 -1.472431535942732e-11 5.108460297356812e-08 4.29567853312202e-08 0.2999999999977876 -0.1837999999964356 0.3999999999960051 -1.2090987223823233 1.209048730704435 -1.2090487304564606 1.0167534348113431e-11 0.17999999998232152 1.798106589583899e-11 -2.1892940038650924e-15 6.4838816954135434e-15 4.68574715235766e-15
91.45599999999999 -0.2900428960129542 -1.823220733651877 -1.6686993043308815 0.35045304878545697 1.8610009580366003 0.0001563489586891629 0.6898538800874018 0.5084908400443023 -0.6629749943915617 0.1544582656019565 -0.6898538746404937 -9.047317344783543e-05 4.127188099199347 2.4576753330741163 -2.9257455931003817 0.4679811128351606 -4.127188068721713 -0.000506234245742498 0.24619409013323548 0.8067039971685924 0.5733090519532501 0.07561124868951678 -0.05835162957922105 -7.953502483109913e-06 3.232528403449382 10.592023482823619 5.338768553599056 0.3436531252938538 -0.26520815643755963 -3.6148668785734556e-05 -0.2900427023517054 -1.8232205549823206 -1.668699089680807 0.35045304894447327 1.8610010147094727 0.00015634896408300847 0.6898539066314697 0.5084908604621887 -0.662975013256073 0.15445826947689056 -0.689853847026825 -9.047317143995315e-05 0.24619409441947937 0.8067039847373962 0.573309063911438 0.07561124861240387 -0.058351628482341766 -7.9535020631738e-06 0.24619409441947937 0.8067039847373962 0.573309063911438 0.07561124861240387 -0.058351628482341766 -7.9535020631738e-06 0.29999999031382296 -0.1823279238280366 0.40000012052285444 -1.2090986459928421 1.2090482155031692 -1.2090488072128782 -3.940820839151144e-08 0.18799997874658253 -1.7519475330679587e-08 2.5855127125285463e-07 -8.283647542400589e-08 5.4157794767156974e-08 -1.054254735193865e-06 6.462394758283147e-07 -1.210418551586764e-07 -1.0491543058505618e-11 9.618084634050508e-08 -5.793014167927661e-08 0.2999999999976069 -0.18232799999647037 0.3999999999955834 -1.2090987223823229 1.2090487307044349 -1.209048730456462 1.106262274048333e-11 0.18799999998217812 1.997463195618962e-11 -1.4279549166633666e-15 5.5341706228419815e-15 4.45866882196108e-15
91.464 -0.2843903210351897 -1.8190750902469883 -1.674094592206842 0.35170248348690597 1.855348383103393 0.00015560887443407068 0.7233757475092415 0.5278720653402967 -0.6857375857040919 0.15783897671901825 -0.7233757418167034 -9.455304580275245e-05 4.190233427729964 2.4226531619992997 -2.845323914066278 0.4225888896327197 -4.190233397026205 -0.0005099840443646276 0.24918918727177525 0.8008565008229805 0.5748509605464459 0.07488373979475431 -0.05934372529623216 -8.012415985906483e-06 3.2718540288784093 10.515245855805734 5.353127114800614 0.34034659736715833 -0.2697172314713751 -3.6416430655944965e-05 -0.28439027467836553 -1.8190749327289026 -1.6740945021258753 0.351702481508255 1.8553483486175537 0.00015560886822640896 0.7233757376670837 0.5278720855712891 -0.6857376098632812 0.15783897042274475 -0.7233757376670837 -9.455304825678468e-05 0.24918918311595917 0.8008564710617065 0.5748509764671326 0.07488373667001724 -0.05934372544288635 -8.012416401470546e-06 0.24918918311595917 0.8008564710617065 0.5748509764671326 0.07488373667001724 -0.05934372544288635 -8.012416401470546e-06 0.29999996999970474 -0.18079197769517721 0.40000007830188555 -1.2090986051635484 1.2090485157585684 -1.2090488839183686 -2.0261472493878786e-08 0.19599996998490601 -1.8780000101465362e-08 1.7340486438291622e-07 -4.003371846005643e-08 -5.692509390380489e-09 -1.8508049940790263e-06 1.7814819173203252e-06 2.352521016005549e-08 -1.1248037920029942e-11 1.8956917425429217e-07 -1.4526796141103914e-07 0.2999999999974269 -0.18079199999657597 0.3999999999951367 -1.2090987223823233 1.2090487307044337 -1.2090487304564617 1.1966362647039101e-11 0.19599999998235204 2.2083143024836506e-11 -2.0262663533655555e-15 5.640779816866585e-15 7.296204626863036e-15
91.472 -0.2784872828591496 -1.8147898678684165 -1.6796508155256555 0.3529732703731487 1.8494453449737265 0.0001548386043702549 0.7425575443774676 0.5362412745303262 -0.6939710873144954 0.15770320668745028 -0.7425575385539046 -9.672938325974726e-05 2.3977246085282595 1.046151148753685 -1.0291877013004351 -0.016971253945997217 -2.397724592150152 -0.00027204218212435207 0.1391487619352746 0.7239338727022747 0.6185255638294584 0.06462236604780822 -0.03442399199873063 -4.27408495026482e-06 1.8270232442101555 9.505251748580868 5.759833755492683 0.2937086536872883 -0.15645704363423069 -1.9425716098953607e-05 -0.27848750749696904 -1.8147900740252894 -1.679650608693258 0.3529732823371887 1.8494453430175781 0.00015483860624954104 0.7425575256347656 0.5362412929534912 -0.6939710974693298 0.1577032059431076 -0.7425575256347656 -9.672938176663592e-05 0.1391487568616867 0.7239338755607605 0.6185255646705627 0.06462236493825912 -0.03442399203777313 -4.27408485847991e-06 0.1391487568616867 0.7239338755607605 0.6185255646705627 0.06462236493825912 -0.03442399203777313 -4.27408485847991e-06 0.3000000055474935 -0.17919741403098122 0.39999998896693123 -1.2090986088685645 1.2090488869571845 -1.209048905636159 5.337851081614824e-08 0.20000002889474364 2.9696898177520154e-08 6.955577016671131e-09 -9.813583504771384e-09 -5.823556412903232e-09 1.5507873780098337e-07 1.771962937213244e-07 -1.013114994033822e-07 4.935519399993113e-12 -2.2455159334835022e-08 -1.4332388978716465e-08 0.2999999999270303 -0.1791973333629832 0.3999999999712167 -1.209098722382348 1.2090487307044502 -1.2090487304564546 1.286625727815694e-11 0.19999999998287984 2.431675077052466e-11 -1.3265139862023956e-15 7.232925065204928e-15 6.339521355116155e-15
91.47999999999999 -0.27252940402683734 -1.8105098692419794 -1.6851791932115505 0.354221438539491 1.8434874661880603 0.00015406381175221999 0.7469457894900119 0.5337797652366141 -0.6881559749251339 0.154350092359138 -0.7469457836517566 -9.697360342337992e-05 0.54853063906804 -0.3076886617140173 0.7268890486701873 -0.4191392910390355 -0.5485306372314952 -3.05275204540815e-05 0.026160115749497163 0.6485888303933992 0.6608053277980529 0.05510721494756701 -0.008631174980995833 -4.796212658007915e-07 0.34348231979089777 8.515971343065333 6.1535513735210285 0.25046229193669206 -0.039228690288626064 -2.1798786530645973e-06 -0.272529427205221 -1.810509983693258 -1.6851790587054651 0.3542214334011078 1.8434875011444092 0.0001540638186270371 0.7469457983970642 0.5337797403335571 -0.6881559491157532 0.15435008704662323 -0.7469457983970642 -9.69736065599136e-05 0.026160115376114845 0.6485888361930847 0.660805344581604 0.05510721355676651 -0.008631175383925438 -4.796212920155085e-07 0.026160115376114845 0.6485888361930847 0.660805344581604 0.05510721355676651 -0.008631175383925438 -4.796212920155085e-07 0.30000002210346277 -0.17759743368937214 0.39999999853902 -1.2090987203287482 1.2090487095562643 -1.2090487315281617 2.217413438449375e-08 0.1999866850934843 1.3013685709126748e-08 1.191523504727814e-08 1.2406591267502609e-09 -5.838259751868712e-09 -4.135962989893674e-07 3.50901222923028e-07 -6.30812542272695e-07 5.712644069485998e-12 -1.4543390211477307e-08 -2.6914223512196717e-08 0.29999999992951476 -0.17759742225093558 0.399999999972229 -1.209098722382348 1.2090487307044506 -1.2090487304564541 3.6484903750756745e-10 0.19998666681491611 1.4391661059396278e-10 3.571517067090484e-14 -1.7200707819349607e-14 -4.4976589461054316e-15
91.488 -0.2665360635552272 -1.8062493770922528 -1.6906614093772072 0.35544295558527267 1.8374941257632174 0.00015328700804905692 0.7513887413439205 0.5313398317942782 -0.6823986199174984 0.15103316400782293 -0.7513887354903666 -9.722772137082341e-05 0.5553689817385798 -0.30499168029198 0.7196693759544404 -0.4146160439143821 -0.5553689798262484 -3.1764743430436694e-05 0.026587547188869395 0.6449452272880808 0.6604092118758984 0.05529199021954931 -0.00872726682665729 -4.990594134515276e-07 0.3490944945898552 8.468130834292502 6.149862662830741 0.2513020955478516 -0.039665427727157386 -2.2682250341371928e-06 -0.2665360609637659 -1.8062494436847132 -1.6906612555133265 0.35544294118881226 1.837494134902954 0.00015328700828831643 0.7513887286186218 0.5313398241996765 -0.6823986172676086 0.1510331630706787 -0.7513887286186218 -9.722771937958896e-05 0.02658754773437977 0.6449452042579651 0.6604092121124268 0.05529199168086052 -0.00872726645320654 -4.990594106857316e-07 0.02658754773437977 0.6449452042579651 0.6604092121124268 0.05529199168086052 -0.00872726645320654 -4.990594106857316e-07 0.3000000158536804 -0.175997528650067 0.40000001939306773 -1.2090986903027223 1.2090486612177243 -1.2090487691878506 7.116292756085667e-09 0.19998711788685142 6.841320406648026e-09 5.4374317375739064e-08 -8.749152557731097e-09 -5.853556916121347e-09 -1.0041979475518487e-06 7.853648729888242e-07 4.584283347882777e-07 -1.6068200845002213e-11 1.4844963643074096e-07 -6.603566850026333e-08 0.2999999999323874 -0.17599752595351498 0.39999999997336777 -1.209098722382348 1.2090487307044506 -1.2090487304564541 3.524269808249583e-10 0.19998711125467805 1.3885499663356199e-10 3.5650444231341375e-14 -1.7944353652735385e-14 -5.032112265098919e-15
91.496 -0.26050716630089443 -1.8020084681238382 -1.696097604751487 0.3566380389920425 1.8314652285557746 0.00015250815807781065 0.7558346332282194 0.5288836707623393 -0.6766504629246084 0.14774166761466262 -0.7558346273591663 -9.748515277740584e-05 0.5557364855373614 -0.30702012899236353 0.7185196241112496 -0.4114370491450393 -0.5557364835999667 -3.2178925822804396e-05 0.026621978488667 0.641068837217071 0.66016438894924 0.055442958089157224 -0.008732824767470762 -5.055666790382824e-07 0.3495465775561977 8.417233832660141 6.1475828227731135 0.25198824451521956 -0.039690688568154615 -2.2978005562289934e-06 -0.2605069319354456 -1.8020084539996546 -1.6960976759540003 0.3566380441188812 1.831465244293213 0.00015250816068146378 0.7558346390724182 0.528883695602417 -0.6766504645347595 0.1477416604757309 -0.7558346390724182 -9.748515003593639e-05 0.026621978729963303 0.6410688161849976 0.6601644158363342 0.05544295907020569 -0.008732824586331844 -5.055666747466603e-07 0.026621978729963303 0.6410688161849976 0.6601644158363342 0.05544295907020569 -0.008732824586331844 -5.055666747466603e-07 0.300000037751111 -0.17439755319343936 0.3999999852459234 -1.2090988677255066 1.2090485898461418 -1.209048512679381 -5.35093094785417e-08 0.19998763021866675 5.462830566726668e-09 -4.208223496885944e-08 -5.436054898553574e-09 -5.869056117759339e-09 -1.970797553214831e-06 1.5652916257428814e-06 -3.7120863183951856e-07 -1.3331012674832609e-11 1.7806501450027648e-07 -1.2905349614437315e-07 0.2999999999351486 -0.17439762560675537 0.3999999999744624 -1.2090987223823473 1.2090487307044506 -1.2090487304564541 3.380637793491477e-10 0.19998762976757511 1.3316113323875378e-10 3.5581473415558336e-14 -1.7652478556239937e-14 -4.561977556665894e-15
91.50399999999999 -0.254442694980451 -1.7977872779445292 -1.7014878471002044 0.3578068921846323 1.8254007572823459 0.0001517272354749506 0.7602821361186384 0.5264100033128066 -0.6709102689222548 0.1444756470738676 -0.760282130233888 -9.774589213406203e-05 0.5559378613023691 -0.3092084311915877 0.7175242502941992 -0.4082525675993785 -0.5559378593402164 -3.259241958202264e-05 0.026648234649095198 0.6372006448866423 0.6599276123356368 0.05559225478453515 -0.00873584779258807 -5.120631254331112e-07 0.34989132094262 8.366444467361614 6.145377911591917 0.2526667979957123 -0.03970442821731278 -2.3273269050934906e-06 -0.25444251695741826 -1.7977874914752405 -1.7014878431903284 0.35780689120292664 1.825400710105896 0.00015172723215073347 0.7602821588516235 0.5264099836349487 -0.6709102392196655 0.14447565376758575 -0.7602821588516235 -9.774589125299826e-05 0.026648234575986862 0.637200653553009 0.6599276065826416 0.05559225380420685 -0.008735847659409046 -5.120631385580054e-07 0.026648234575986862 0.637200653553009 0.6599276065826416 0.05559225380420685 -0.008735847659409046 -5.120631385580054e-07 0.30000008201230893 -0.17279768504888574 0.39999992970459464 -1.2090988952705153 1.2090488095275789 -1.209048498697389 -1.7229998234432788e-08 0.1999881704879717 2.801885027342085e-08 -1.5916595190381146e-07 2.4126004427341914e-08 -5.884738498153592e-09 6.023106566574906e-07 -4.700719867930918e-07 -1.6204280998275984e-08 6.475054165673489e-12 -6.77813030756778e-08 3.790365988217571e-08 0.2999999999377992 -0.17279772124687034 0.39999999997551355 -1.2090987223823462 1.2090487307044508 -1.2090487304564546 3.2425786332810335e-10 0.19998812803377697 1.27688142463585e-10 3.4669498756640514e-14 -1.7645812963668294e-14 -5.166350492201525e-15
