Fleaurent/UniversalRobot/csv/ursim_movej_Trapez_Zeit.csv
timestamp target_q_0 target_q_1 target_q_2 target_q_3 target_q_4 target_q_5 target_qd_0 target_qd_1 target_qd_2 target_qd_3 target_qd_4 target_qd_5 target_qdd_0 target_qdd_1 target_qdd_2 target_qdd_3 target_qdd_4 target_qdd_5 target_current_0 target_current_1 target_current_2 target_current_3 target_current_4 target_current_5 target_moment_0 target_moment_1 target_moment_2 target_moment_3 target_moment_4 target_moment_5 actual_q_0 actual_q_1 actual_q_2 actual_q_3 actual_q_4 actual_q_5 actual_qd_0 actual_qd_1 actual_qd_2 actual_qd_3 actual_qd_4 actual_qd_5 actual_current_0 actual_current_1 actual_current_2 actual_current_3 actual_current_4 actual_current_5 joint_control_output_0 joint_control_output_1 joint_control_output_2 joint_control_output_3 joint_control_output_4 joint_control_output_5 actual_TCP_pose_0 actual_TCP_pose_1 actual_TCP_pose_2 actual_TCP_pose_3 actual_TCP_pose_4 actual_TCP_pose_5 actual_TCP_speed_0 actual_TCP_speed_1 actual_TCP_speed_2 actual_TCP_speed_3 actual_TCP_speed_4 actual_TCP_speed_5 actual_TCP_force_0 actual_TCP_force_1 actual_TCP_force_2 actual_TCP_force_3 actual_TCP_force_4 actual_TCP_force_5 target_TCP_pose_0 target_TCP_pose_1 target_TCP_pose_2 target_TCP_pose_3 target_TCP_pose_4 target_TCP_pose_5 target_TCP_speed_0 target_TCP_speed_1 target_TCP_speed_2 target_TCP_speed_3 target_TCP_speed_4 target_TCP_speed_5
5852.0 1.240327285323417e-16 -1.5707963267948966 -1.5707963267948966 0.0 1.5707963267948966 0.0 0.0 0.0 0.0 0.0 0.0 0.0 0.0 0.0 0.0 0.0 0.0 0.0 -1.6018983243994446e-26 0.4870342307692309 0.6867077006507593 0.06409467546754684 -8.567713817370151e-28 0.0 -2.1032924999364705e-25 6.394759450000002 6.3947594500000005 0.2913103000000004 -3.894025929994733e-27 0.0 1.240327285323417e-16 -1.570796314870016 -1.570796314870016 0.0 1.5707963705062866 0.0 0.0 0.0 0.0 0.0 0.0 0.0 -1.6018983942199055e-26 0.48703423142433167 0.6867076754570007 0.064094677567482 -8.567714098795418e-28 0.0 -1.6018983942199055e-26 0.48703423142433167 0.6867076754570007 0.064094677567482 -8.567714098795418e-28 0.0 0.2951499950589256 -0.11234999647001058 0.4809000069994156 -1.2091995794109558 1.2091995265551612 -1.2091995551462713 0.0 0.0 0.0 0.0 0.0 0.0 9.98197363699076e-07 -5.258967243140415e-07 1.1449168978424658e-06 -1.8103060594866696e-15 1.8116749963477785e-08 4.307094529482907e-08 0.29515000000000013 -0.11235000004997343 0.4808999999601586 -1.2091995763071837 1.2091995763071837 -1.209199576059172 0.0 0.0 0.0 0.0 0.0 0.0
5852.008 1.240327285323417e-16 -1.5707963267948966 -1.5707963267948966 0.0 1.5707963267948966 0.0 0.0 0.0 0.0 0.0 0.0 0.0 0.0 0.0 0.0 0.0 0.0 0.0 -1.6018983243994446e-26 0.4870342307692309 0.6867077006507593 0.06409467546754684 -8.567713817370151e-28 0.0 -2.1032924999364705e-25 6.394759450000002 6.3947594500000005 0.2913103000000004 -3.894025929994733e-27 0.0 1.240327285323417e-16 -1.570796314870016 -1.570796314870016 0.0 1.5707963705062866 0.0 0.0 0.0 0.0 0.0 0.0 0.0 -1.6018983942199055e-26 0.48703423142433167 0.6867076754570007 0.064094677567482 -8.567714098795418e-28 0.0 -1.6018983942199055e-26 0.48703423142433167 0.6867076754570007 0.064094677567482 -8.567714098795418e-28 0.0 0.2951499950589256 -0.11234999647001058 0.4809000069994156 -1.2091995794109558 1.2091995265551612 -1.2091995551462713 0.0 0.0 0.0 0.0 0.0 0.0 9.98197363699076e-07 -5.258967243140415e-07 1.1449168978424658e-06 -1.8103060594866696e-15 1.8116749963477785e-08 4.307094529482907e-08 0.29515000000000013 -0.11235000004997343 0.4808999999601586 -1.2091995763071837 1.2091995763071837 -1.209199576059172 0.0 0.0 0.0 0.0 0.0 0.0
5852.016 1.240327285323417e-16 -1.5707963267948966 -1.5707963267948966 0.0 1.5707963267948966 0.0 0.0 0.0 0.0 0.0 0.0 0.0 0.0 0.0 0.0 0.0 0.0 0.0 -1.6018983243994446e-26 0.4870342307692309 0.6867077006507593 0.06409467546754684 -8.567713817370151e-28 0.0 -2.1032924999364705e-25 6.394759450000002 6.3947594500000005 0.2913103000000004 -3.894025929994733e-27 0.0 1.240327285323417e-16 -1.570796314870016 -1.570796314870016 0.0 1.5707963705062866 0.0 0.0 0.0 0.0 0.0 0.0 0.0 -1.6018983942199055e-26 0.48703423142433167 0.6867076754570007 0.064094677567482 -8.567714098795418e-28 0.0 -1.6018983942199055e-26 0.48703423142433167 0.6867076754570007 0.064094677567482 -8.567714098795418e-28 0.0 0.2951499950589256 -0.11234999647001058 0.4809000069994156 -1.2091995794109558 1.2091995265551612 -1.2091995551462713 0.0 0.0 0.0 0.0 0.0 0.0 9.98197363699076e-07 -5.258967243140415e-07 1.1449168978424658e-06 -1.8103060594866696e-15 1.8116749963477785e-08 4.307094529482907e-08 0.29515000000000013 -0.11235000004997343 0.4808999999601586 -1.2091995763071837 1.2091995763071837 -1.209199576059172 0.0 0.0 0.0 0.0 0.0 0.0
5852.023999999999 1.240327285323417e-16 -1.5707963267948966 -1.5707963267948966 0.0 1.5707963267948966 0.0 0.0 0.0 0.0 0.0 0.0 0.0 0.0 0.0 0.0 0.0 0.0 0.0 -1.6018983243994446e-26 0.4870342307692309 0.6867077006507593 0.06409467546754684 -8.567713817370151e-28 0.0 -2.1032924999364705e-25 6.394759450000002 6.3947594500000005 0.2913103000000004 -3.894025929994733e-27 0.0 1.240327285323417e-16 -1.570796314870016 -1.570796314870016 0.0 1.5707963705062866 0.0 0.0 0.0 0.0 0.0 0.0 0.0 -1.6018983942199055e-26 0.48703423142433167 0.6867076754570007 0.064094677567482 -8.567714098795418e-28 0.0 -1.6018983942199055e-26 0.48703423142433167 0.6867076754570007 0.064094677567482 -8.567714098795418e-28 0.0 0.2951499950589256 -0.11234999647001058 0.4809000069994156 -1.2091995794109558 1.2091995265551612 -1.2091995551462713 0.0 0.0 0.0 0.0 0.0 0.0 9.98197363699076e-07 -5.258967243140415e-07 1.1449168978424658e-06 -1.8103060594866696e-15 1.8116749963477785e-08 4.307094529482907e-08 0.29515000000000013 -0.11235000004997343 0.4808999999601586 -1.2091995763071837 1.2091995763071837 -1.209199576059172 0.0 0.0 0.0 0.0 0.0 0.0
5852.032 1.240327285323417e-16 -1.5707963267948966 -1.5707963267948966 0.0 1.5707963267948966 0.0 0.0 0.0 0.0 0.0 0.0 0.0 0.0 0.0 0.0 0.0 0.0 0.0 -1.6018983243994446e-26 0.4870342307692309 0.6867077006507593 0.06409467546754684 -8.567713817370151e-28 0.0 -2.1032924999364705e-25 6.394759450000002 6.3947594500000005 0.2913103000000004 -3.894025929994733e-27 0.0 1.240327285323417e-16 -1.570796314870016 -1.570796314870016 0.0 1.5707963705062866 0.0 0.0 0.0 0.0 0.0 0.0 0.0 -1.6018983942199055e-26 0.48703423142433167 0.6867076754570007 0.064094677567482 -8.567714098795418e-28 0.0 -1.6018983942199055e-26 0.48703423142433167 0.6867076754570007 0.064094677567482 -8.567714098795418e-28 0.0 0.2951499950589256 -0.11234999647001058 0.4809000069994156 -1.2091995794109558 1.2091995265551612 -1.2091995551462713 0.0 0.0 0.0 0.0 0.0 0.0 9.98197363699076e-07 -5.258967243140415e-07 1.1449168978424658e-06 -1.8103060594866696e-15 1.8116749963477785e-08 4.307094529482907e-08 0.29515000000000013 -0.11235000004997343 0.4808999999601586 -1.2091995763071837 1.2091995763071837 -1.209199576059172 0.0 0.0 0.0 0.0 0.0 0.0
5852.04 1.240327285323417e-16 -1.5707963267948966 -1.5707963267948966 0.0 1.5707963267948966 0.0 0.0 0.0 0.0 0.0 0.0 0.0 0.0 0.0 0.0 0.0 0.0 0.0 -1.6018983243994446e-26 0.4870342307692309 0.6867077006507593 0.06409467546754684 -8.567713817370151e-28 0.0 -2.1032924999364705e-25 6.394759450000002 6.3947594500000005 0.2913103000000004 -3.894025929994733e-27 0.0 1.240327285323417e-16 -1.570796314870016 -1.570796314870016 0.0 1.5707963705062866 0.0 0.0 0.0 0.0 0.0 0.0 0.0 -1.6018983942199055e-26 0.48703423142433167 0.6867076754570007 0.064094677567482 -8.567714098795418e-28 0.0 -1.6018983942199055e-26 0.48703423142433167 0.6867076754570007 0.064094677567482 -8.567714098795418e-28 0.0 0.2951499950589256 -0.11234999647001058 0.4809000069994156 -1.2091995794109558 1.2091995265551612 -1.2091995551462713 0.0 0.0 0.0 0.0 0.0 0.0 9.98197363699076e-07 -5.258967243140415e-07 1.1449168978424658e-06 -1.8103060594866696e-15 1.8116749963477785e-08 4.307094529482907e-08 0.29515000000000013 -0.11235000004997343 0.4808999999601586 -1.2091995763071837 1.2091995763071837 -1.209199576059172 0.0 0.0 0.0 0.0 0.0 0.0
5852.048 1.240327285323417e-16 -1.5707963267948966 -1.5707963267948966 0.0 1.5707963267948966 0.0 0.0 0.0 0.0 0.0 0.0 0.0 0.0 0.0 0.0 0.0 0.0 0.0 -1.6018983243994446e-26 0.4870342307692309 0.6867077006507593 0.06409467546754684 -8.567713817370151e-28 0.0 -2.1032924999364705e-25 6.394759450000002 6.3947594500000005 0.2913103000000004 -3.894025929994733e-27 0.0 1.240327285323417e-16 -1.570796314870016 -1.570796314870016 0.0 1.5707963705062866 0.0 0.0 0.0 0.0 0.0 0.0 0.0 -1.6018983942199055e-26 0.48703423142433167 0.6867076754570007 0.064094677567482 -8.567714098795418e-28 0.0 -1.6018983942199055e-26 0.48703423142433167 0.6867076754570007 0.064094677567482 -8.567714098795418e-28 0.0 0.2951499950589256 -0.11234999647001058 0.4809000069994156 -1.2091995794109558 1.2091995265551612 -1.2091995551462713 0.0 0.0 0.0 0.0 0.0 0.0 9.98197363699076e-07 -5.258967243140415e-07 1.1449168978424658e-06 -1.8103060594866696e-15 1.8116749963477785e-08 4.307094529482907e-08 0.29515000000000013 -0.11235000004997343 0.4808999999601586 -1.2091995763071837 1.2091995763071837 -1.209199576059172 0.0 0.0 0.0 0.0 0.0 0.0
5852.056 1.5707963391981694e-08 -1.5707963267948966 -1.5707963267948966 0.0 1.5707963267948966 0.0 7.853981633974484e-06 0.0 0.0 0.0 0.0 0.0 0.0009817477042468104 0.0 0.0 0.0 0.0 0.0 6.127508913810298e-05 0.48702543894021577 0.6867064433162179 0.06409209932878121 1.6734262141724703e-06 0.0 0.0008045419203832922 6.394644013285033 6.394747741449285 0.2912985914493106 7.6057221434138775e-06 0.0 1.5707962930378017e-08 -1.570796314870016 -1.570796314870016 0.0 1.5707963705062866 0.0 7.853981514927e-06 0.0 0.0 0.0 0.0 0.0 6.127508822828531e-05 0.4870254397392273 0.6867064237594604 0.06409209966659546 1.6734262544559897e-06 0.0 6.127508822828531e-05 0.4870254397392273 0.6867064237594604 0.06409209966659546 1.6734262544559897e-06 0.0 0.2951499968237151 -0.11234999183380541 0.4809000069994156 -1.2091995868376757 1.2091995149878196 -1.2091995435789296 8.82394759064907e-07 2.3181026191842214e-06 0.0 0.0 0.0 7.853981514927e-06 7.905087502124675e-07 -4.1641982558465594e-07 8.612042502030571e-07 -1.0796061340878166e-15 4.598069296193729e-09 3.4104604473754725e-08 0.2951500017647897 -0.11234999541376806 0.4808999999601586 -1.2091995837339045 1.2091995647398417 -1.20919956449183 8.823948005568517e-07 2.318102693128195e-06 0.0 0.0 0.0 7.853981633974484e-06
5852.063999999999 1.4137166953557345e-07 -1.5707963267948966 -1.5707963267948966 0.0 1.5707963267948966 0.0 3.5342917352885184e-05 0.0 0.0 0.0 0.0 0.0 0.003436116964863837 0.0 0.0 0.0 0.0 0.0 0.0002144628119833605 0.4870034593821441 0.6867032999826572 0.06408565898758886 5.856992507270201e-06 0.0 0.0028158967213415234 6.394355421687552 6.394718470098501 0.29126932009859136 2.6620030945543063e-05 0.0 1.4137167170247267e-07 -1.570796314870016 -1.570796314870016 0.0 1.5707963705062866 0.0 3.53429168171715e-05 0.0 0.0 0.0 0.0 0.0 0.0002144628087989986 0.4870034456253052 0.6867033243179321 0.06408566236495972 5.856992629560409e-06 0.0 0.0002144628087989986 0.4870034456253052 0.6867033243179321 0.06408566236495972 5.856992629560409e-06 0.0 0.2951500109420294 -0.11234995474416129 0.4809000069994156 -1.2091996462514356 1.2091994224490825 -1.20919945104019 3.9707751049358745e-06 1.0431462285311403e-05 0.0 0.0 0.0 3.53429168171715e-05 -1.6714232292256575e-06 8.807817413410498e-07 -9.906907615843504e-07 -1.252142000514883e-14 7.686854440332084e-08 -7.213660576076619e-08 0.2951500158831042 -0.11234995832412407 0.4808999999601586 -1.2091996431476655 1.2091994722011055 -1.209199471953094 3.970775291649612e-06 1.04314626180593e-05 0.0 0.0 0.0 3.5342917352885184e-05
5852.072 5.654866777701956e-07 -1.5707963267948966 -1.5707963267948966 0.0 1.5707963267948966 0.0 9.424777960769381e-05 0.0 0.0 0.0 0.0 0.0 0.0073631077818510785 0.0 0.0 0.0 0.0 0.0 0.0004595631685357724 0.4869682921695059 0.6866982706644569 0.0640753544734323 1.2550702780710517e-05 0.0 0.0060340644028746915 6.393893676185613 6.394671636081556 0.2912224860817498 5.70429441383293e-05 0.0 5.654866868098907e-07 -1.570796314870016 -1.570796314870016 0.0 1.5707963705062866 0.0 9.4247778179124e-05 0.0 0.0 0.0 0.0 0.0 0.00045956316171213984 0.4869682788848877 0.6866982579231262 0.06407535076141357 1.2550703104352579e-05 0.0 0.00045956316171213984 0.4869682788848877 0.6866982579231262 0.06407535076141357 1.2550703104352579e-05 0.0 0.29515005859130566 -0.11234982956659985 0.4809000069994156 -1.2091998467728355 1.2091991101308377 -1.209199138721938 1.058872181545529e-05 2.7817237251668826e-05 0.0 0.0 0.0 9.4247778179124e-05 -2.289236013274889e-07 1.2103445332446373e-07 4.772740591034646e-07 -2.5203405151831378e-14 4.1756243360781145e-08 -9.91420410220068e-09 0.29515006353238116 -0.11234983314656256 0.4808999999601586 -1.2091998436690718 1.2091991598828629 -1.2091991596348515 1.0588722313358402e-05 2.7817238138996686e-05 0.0 0.0 0.0 9.424777960769381e-05
5852.08 1.5707963269189294e-06 -1.5707963267948966 -1.5707963267948966 0.0 1.5707963267948966 0.0 0.00019634954084936208 0.0 0.0 0.0 0.0 0.0 0.012762720155208533 0.0 0.0 0.0 0.0 0.0 0.0007965761587953387 0.48691993752058943 0.6866913554037559 0.06406118587264942 2.175456846734246e-05 0.0 0.010459044964982797 6.393258779645339 6.394607239790856 0.2911580897911916 9.887451368407146e-05 0.0 1.5707963711975026e-06 -1.570796314870016 -1.570796314870016 0.0 1.5707963705062866 0.0 0.0001963495451491326 0.0 0.0 0.0 0.0 0.0 0.0007965761469677091 0.48691993951797485 0.6866913437843323 0.06406118720769882 2.175456756958738e-05 0.0 0.0007965761469677091 0.48691993951797485 0.6866913437843323 0.06406118720769882 2.175456756958738e-05 0.0 0.29515017153752826 -0.11234953284933082 0.4809000069994156 -1.2092003220825895 1.2091983698208595 -1.2091983984119425 2.2059779672683637e-05 5.795260193208214e-05 0.0 0.0 0.0 0.0001963495451491326 5.517265623016916e-07 -2.899649625763726e-07 5.358508755336136e-07 -5.185824581761038e-15 2.8641608723124687e-09 2.3752283685611566e-08 0.2951501764786033 -0.11234953642929897 0.4808999999601586 -1.2092003189788318 1.2091984195729042 -1.2091984193248932 2.2059779892531533e-05 5.795260163318195e-05 0.0 0.0 0.0 0.00019634954084936208
5852.088 3.5342917354125503e-06 -1.5707963267948966 -1.5707963267948966 0.0 1.5707963267948966 0.0 0.0003534291735288517 0.0 0.0 0.0 0.0 0.0 0.019634954084936204 0.0 0.0 0.0 0.0 0.0 0.0012255017827620595 0.4868583959205511 0.6866825542942101 0.06404315337713089 3.346861497726671e-05 0.0 0.01609083840766584 6.392450738436836 6.3945252820985425 0.29107613209905986 0.0001521148550716772 0.0 3.534291636242415e-06 -1.570796314870016 -1.570796314870016 0.0 1.5707963705062866 0.0 0.0003534291754476726 0.0 0.0 0.0 0.0 0.0 0.0012255017645657063 0.48685839772224426 0.6866825819015503 0.06404315680265427 3.346861558384262e-05 0.0 0.0012255017645657063 0.48685839772224426 0.6866825819015503 0.06404315680265427 3.346861558384262e-05 0.0 0.29515039213473504 -0.11234895332314994 0.4809000069994156 -1.2092012504208813 1.209196923902887 -1.2091969524939359 3.970739793540994e-05 0.00010431475972523664 0.0 0.0 0.0 0.0003534291754476726 -9.580516075041147e-07 5.058750420315693e-07 -1.132549000828739e-06 -1.5417563361167106e-14 4.582796851441086e-09 -4.143420357560009e-08 0.29515039707583335 -0.11234895690306607 0.4808999999601586 -1.2092012473172358 1.2091969736548134 -1.2091969734068024 3.970739898507922e-05 0.0001043147609052242 0.0 0.0 0.0 0.0003534291735288517
5852.096 6.9272118012895255e-06 -1.5707963267948966 -1.5707963267948966 0.0 1.5707963267948966 0.0 0.0005772676500971244 0.0 0.0 0.0 0.0 0.0 0.027979809571034082 0.0 0.0 0.0 0.0 0.0 0.0017463400404359342 0.48678366828335135 0.6866718675122525 0.0640212573483688 4.76928901791776e-05 0.0 0.022929444730923818 6.391469564560404 6.394425764647599 0.29097661464833624 0.0002167641858643622 0.0 6.9272118707885966e-06 -1.570796314870016 -1.570796314870016 0.0 1.5707963705062866 0.0 0.0005772676668129861 0.0 0.0 0.0 0.0 0.0 0.0017463400727137923 0.4867836534976959 0.6866718530654907 0.06402125954627991 4.7692890802863985e-05 0.0 0.0017463400727137923 0.4867836534976959 0.6866718530654907 0.06402125954627991 4.7692890802863985e-05 0.0 0.2951507733240732 -0.11234795190076556 0.4809000069994156 -1.2092028545866176 1.20919442535569 -1.2091944539466797 6.485484006497253e-05 0.00017038099827483628 0.0 0.0 0.0 0.0005772676668129861 -2.4463261542948853e-07 1.2690757896131724e-07 6.777052278387325e-07 -6.018529050516343e-13 8.637288190966101e-08 -1.039670503661282e-08 0.29515077826516467 -0.11234795548071469 0.4808999999601586 -1.2092028514829687 1.2091944751077184 -1.2091944748597079 6.485484025356852e-05 0.00017038099619346903 0.0 0.0 0.0 0.0005772676500971244
5852.103999999999 1.2315043202196022e-05 -1.5707963267948966 -1.5707963267948966 0.0 1.5707963267948966 0.0 0.000879645943005142 0.0 0.0 0.0 0.0 0.0 0.03779728661350221 0.0 0.0 0.0 0.0 0.0 0.0023590909318169655 0.48669575615255284 0.6866592953558571 0.06399549839687763 6.442747491722731e-05 0.0 0.03097486393475676 6.390315278283019 6.394308690212812 0.2908595402138088 0.0002928228734987981 0.0 1.2315043022681493e-05 -1.570796314870016 -1.570796314870016 0.0 1.5707963705062866 0.0 0.000879645929671824 0.0 0.0 0.0 0.0 0.0 0.0023590908385813236 0.4866957664489746 0.6866592764854431 0.06399549543857574 6.442747690016404e-05 0.0 0.0023590908385813236 0.4866957664489746 0.6866592764854431 0.06399549543857574 6.442747690016404e-05 0.0 0.2951513786315844 -0.11234636167660389 0.4809000069994156 -1.2092054019342642 1.2091904577540111 -1.209190486344907 9.88250197622632e-05 0.0002596287088503006 0.0 0.0 0.0 0.000879645929671824 1.2760890000908583e-06 -6.665000360271996e-07 7.60982854615957e-07 7.406609741584432e-13 -6.003448587147425e-08 5.457863213335019e-08 0.29515138357272314 -0.1123463652564529 0.4808999999601586 -1.209205398830854 1.2091905075058207 -1.209190507257811 9.882502440921264e-05 0.0002596287171321004 0.0 0.0 0.0 0.000879645943005142
5852.112 2.035752039538589e-05 -1.5707963267948966 -1.5707963267948966 0.0 1.5707963267948966 0.0 0.001272345024703866 0.0 0.0 0.0 0.0 0.0 0.04908738521234048 0.0 0.0 0.0 0.0 0.0 0.003063754456905147 0.4865946619409844 0.686644838290802 0.06396587747698634 8.367249556341175e-05 0.0 0.040227096019164583 6.388987911285125 6.394174063131607 0.29072491313290294 0.0003802914923357064 0.0 2.0357520043035038e-05 -1.570796314870016 -1.570796314870016 0.0 1.5707963705062866 0.0 0.0012723450781777501 0.0 0.0 0.0 0.0 0.0 0.0030637544114142656 0.48659464716911316 0.6866448521614075 0.06396587938070297 8.367249392904341e-05 0.0 0.0030637544114142656 0.48659464716911316 0.6866448521614075 0.06396587938070297 8.367249392904341e-05 0.0 0.2951522821650711 -0.11234398792479039 0.4809000069994156 -1.2092092043711515 1.2091845352659603 -1.2091845638567158 0.00014294032009896763 0.00037553555352565877 0.0 0.0 0.0 0.0012723450781777501 -1.3261809922789957e-06 7.014252920787969e-07 -5.651276278234193e-07 -1.5400930069518469e-12 7.555677199291387e-08 -5.744151906909646e-08 0.295152287106258 -0.11234399150454866 0.4808999999601586 -1.2092092012680045 1.2091845850175893 -1.2091845847695808 0.00014294031864618586 0.0003755355440296144 0.0 0.0 0.0 0.001272345024703866
5852.12 3.1808625617720685e-05 -1.5707963267948966 -1.5707963267948966 0.0 1.5707963267948966 0.0 0.0017671458676442582 0.0 0.0 0.0 0.0 0.0 0.061850105367549035 0.0 0.0 0.0 0.0 0.0 0.003860330615700487 0.4864803892092691 0.68662849700444 0.0639323959970028 0.00010542813860547938 0.0 0.0506861409841474 6.387487510317704 6.394021889804747 0.2905727398063777 0.00047917088996190377 0.0 3.180862404406071e-05 -1.570796314870016 -1.570796314870016 0.0 1.5707963705062866 0.0 0.0017671458190307021 0.0 0.0 0.0 0.0 0.0 0.0038603306747972965 0.48648038506507874 0.686628520488739 0.0639323964715004 0.00010542813834035769 0.0 0.0038603306747972965 0.48648038506507874 0.686628520488739 0.0639323964715004 0.00010542813834035769 0.0 0.29515356860840936 -0.11234060809794554 0.4809000069994156 -1.2092146183500705 1.209176102653838 -1.2091761312443943 0.0001985222359076511 0.000521579394738342 0.0 0.0 0.0 0.0017671458190307021 -1.1209039803499984e-06 5.868544830781631e-07 -1.015399314541081e-06 -4.659128266919071e-13 1.4662953377056204e-08 -4.8065101270873146e-08 0.2951535735497745 -0.11234061167728675 0.4808999999601586 -1.209214615247759 1.2091761524044928 -1.209176152156486 0.00019852224769414557 0.0005215794178189196 0.0 0.0 0.0 0.0017671458676442582
5852.128 4.751658888566965e-05 -1.5707963267948966 -1.5707963267948966 0.0 1.5707963267948966 0.0 0.00237582944427728 0.0 0.0 0.0 0.0 0.0 0.07608544707912775 0.0 0.0 0.0 0.0 0.0 0.004748819408202977 0.486352942983216 0.686610272466966 0.06389505594474962 0.00012969466727036084 0.0 0.062351998829705095 6.385814141369627 6.39385217926688 0.290403029268887 0.0005894622627437901 0.0 4.751658707391471e-05 -1.570796314870016 -1.570796314870016 0.0 1.5707963705062866 0.0 0.0023758294992148876 0.0 0.0 0.0 0.0 0.0 0.004748819395899773 0.48635295033454895 0.6866102814674377 0.06389505416154861 0.00012969467206858099 0.0 0.004748819395899773 0.48635295033454895 0.6866102814674377 0.06389505416154861 0.00012969467206858099 0.0 0.2951553332141149 -0.11233597182274245 0.4809000069994156 -1.209222044862528 1.2091645352687397 -1.2091645638590227 0.00026689111567944395 0.0007012387475006939 0.0 0.0 0.0 0.0023758294992148876 5.2161371831590626e-08 -2.661810376097745e-08 -4.3103794079000907e-07 2.2761144719786697e-12 -4.785852021118534e-08 2.158417963378085e-09 0.29515533815556305 -0.11233597540193575 0.4808999999601586 -1.2092220417606825 1.2091645850191162 -1.2091645847711119 0.00026689111801152726 0.0007012387430256041 0.0 0.0 0.0 0.00237582944427728
5852.1359999999995 6.842388799530972e-05 -1.5707963267948966 -1.5707963267948966 0.0 1.5707963267948966 0.0 0.003110176727053895 0.0 0.0 0.0 0.0 0.0 0.09179341034707686 0.0 0.0 0.0 0.0 0.0 0.005729220834412634 0.48621233011007736 0.6865901660001914 0.06385386002847164 0.00015647244018312248 0.0 0.07522466955583788 6.383967894345316 6.393664943826983 0.2902157938294036 0.0007111672406322916 0.0 6.842389120720327e-05 -1.570796314870016 -1.570796314870016 0.0 1.5707963705062866 0.0 0.0031101766508072615 0.0 0.0 0.0 0.0 0.0 0.005729220807552338 0.4862123429775238 0.6865901947021484 0.06385385990142822 0.00015647243708372116 0.0 0.005729220807552338 0.4862123429775238 0.6865901947021484 0.06385385990142822 0.00015647243708372116 0.0 0.29515768179193425 -0.11232980089587292 0.4809000069994156 -1.2092319294255467 1.2091491390485507 -1.2091491676384694 0.0003493655239361726 0.0009179925302156735 0.0 0.0 0.0 0.0031101766508072615 -4.035803806270179e-07 2.141773058812529e-07 -1.2560646127128901e-06 4.725005377373899e-12 -6.900476599853189e-08 -1.7529297607175385e-08 0.29515768673289294 -0.11232980447644568 0.4808999999601586 -1.2092319263217974 1.2091491888024894 -1.2091491885544883 0.00034936554363715577 0.0009179925680877078 0.0 0.0 0.0 0.003110176727053895
5852.143999999999 9.556724852232554e-05 -1.5707963267948966 -1.5707963267948966 0.0 1.5707963267948966 0.0 0.003981968688425062 0.0 0.0 0.0 0.0 0.0 0.10897399517139592 0.0 0.0 0.0 0.0 0.0 0.006801534894329429 0.4860585596536689 0.6865681793538193 0.06380881183311556 0.00018576193206143893 0.0 0.0893041531625454 6.381948888252673 6.393460199778636 0.2900110497815102 0.0008442879812192399 0.0 9.556725126458332e-05 -1.570796314870016 -1.570796314870016 0.0 1.5707963705062866 0.0 0.003981968853622675 0.0 0.0 0.0 0.0 0.0 0.0068015349097549915 0.4860585629940033 0.6865682005882263 0.06380881369113922 0.0001857619354268536 0.0 0.0068015349097549915 0.4860585629940033 0.6865682005882263 0.06380881369113922 0.0001857619354268536 0.0 0.2951607306914343 -0.11232178928326317 0.4809000069994156 -1.2092447620560303 1.2091291505270207 -1.209129179116467 0.0004472618665091231 0.0011753208364258015 0.0 0.0 0.0 0.003981968853622675 -6.315952323365861e-07 3.317985929546005e-07 -8.876639184118566e-07 9.903128305915385e-13 -1.0351007817190921e-08 -2.7194546178780846e-08 0.2951607356325429 -0.11232179286356318 0.4808999999601586 -1.2092447589531141 1.209129200280435 -1.209129200032438 0.0004472618622104742 0.0011753208073412935 0.0 0.0 0.0 0.003981968688425062
5852.152 0.00013007764382200944 -1.5707963267948966 -1.5707963267948966 0.0 1.5707963267948966 0.0 0.005002986300841746 0.0 0.0 0.0 0.0 0.0 0.1276272015520854 0.0 0.0 0.0 0.0 0.0 0.00796576158795339 0.485891643328356 0.6865443147892214 0.0637599159919809 0.00021756375644559238 0.0 0.10459044964982803 6.379757276901315 6.393237968180188 0.2897888181835532 0.0009888272730452174 0.0 0.00013007764937356114 -1.570796314870016 -1.570796314870016 0.0 1.5707963705062866 0.0 0.005002986174076796 0.0 0.0 0.0 0.0 0.0 0.007965761236846447 0.4858916401863098 0.6865442991256714 0.06375991553068161 0.00021756374917458743 0.0 0.007965761236846447 0.4858916401863098 0.6865442991256714 0.06375991553068161 0.00021756374917458743 0.0 0.2951646067853346 -0.1123116031020571 0.4809000069994156 -1.2092610772638954 1.2091037368034574 -1.2091037653923027 0.0005618933975079922 0.001476704446823843 0.0 0.0 0.0 0.005002986174076796 4.293598597954958e-07 -2.0467382227136102e-07 6.741641609699503e-07 -2.1439964789045604e-12 1.6473845756503468e-08 1.6800408281632932e-08 0.2951646117262512 -0.1123116066830158 0.4808999999601586 -1.209261074160428 1.209103786558714 -1.2091037863107221 0.0005618934296606543 0.0014767045089597076 0.0 0.0 0.0 0.005002986300841746
5852.16 0.0001731802950292614 -1.5707963267948966 -1.5707963267948966 0.0 1.5707963267948966 0.0 0.0061850105367549065 0.0 0.0 0.0 0.0 0.0 0.1477530294891451 0.0 0.0 0.0 0.0 0.0 0.009221900915284508 0.48571159597190255 0.6865185751707183 0.0637071783737429 0.000251878690463989 0.0 0.1210835590176856 6.377393255111081 6.392998275704764 0.2895491257086615 0.00114478864815883 0.0 0.0001731802913127467 -1.570796314870016 -1.570796314870016 0.0 1.5707963705062866 0.0 0.00618501054123044 0.0 0.0 0.0 0.0 0.0 0.009221901185810566 0.48571160435676575 0.6865185499191284 0.06370718032121658 0.00025187869323417544 0.0 0.009221901185810566 0.48571160435676575 0.6865185499191284 0.06370718032121658 0.00025187869323417544 0.0 0.29516944743796325 -0.11229888062337327 0.4809000069994156 -1.209281454001353 1.2090719955685858 -1.2090720241566806 0.0006945697604239425 0.001825626143852967 0.0 0.0 0.0 0.00618501054123044 1.4170872189671509e-06 -7.628698361638623e-07 1.144192876000051e-06 3.1817659540657177e-12 -1.837645676058063e-08 6.248655242834077e-08 0.29516945238007497 -0.11229888420138336 0.4808999999601586 -1.209281450903238 1.2090720453167345 -1.209072045068749 0.0006945697820513752 0.0018256261730989394 0.0 0.0 0.0 0.0061850105367549065
5852.168 0.00022619467105858916 -1.5707963267948966 -1.5707963267948966 0.0 1.5707963267948966 0.0 0.007539822368615505 0.0 0.0 0.0 0.0 0.0 0.16935147898257483 0.0 0.0 0.0 0.0 0.0 0.010569952876322767 0.4855184360571858 0.6864909640643632 0.06365060628484721 0.00028870770163420047 0.0 0.13878348126611795 6.37485706543085 6.392741155560164 0.2892920055646306 0.0013121765039274412 0.0 0.00022619466471951455 -1.570796314870016 -1.570796314870016 0.0 1.5707963705062866 0.0 0.00753982225432992 0.0 0.0 0.0 0.0 0.0 0.010569952428340912 0.4855184257030487 0.6864909529685974 0.06365060806274414 0.00028870769892819226 0.0 0.010569952428340912 0.4855184257030487 0.6864909529685974 0.06365060806274414 0.00028870769892819226 0.0 0.29517540047796065 -0.11228323224226652 0.4809000069994156 -1.2093065156522294 1.2090329550536942 -1.2090329836408662 0.0008465956132483359 0.002225570053454474 0.0 0.0 0.0 0.00753982225432992 -1.3391847227279378e-07 9.80374810306049e-08 5.224221837244316e-07 -1.409332225727848e-11 6.229496461392052e-08 -8.01945204862627e-09 0.29517540542055654 -0.11228323581924049 0.4808999999601586 -1.2093065125565476 1.2090330047995634 -1.2090330045515862 0.0008465956530504391 0.0022255701244550626 0.0 0.0 0.0 0.007539822368615505
5852.1759999999995 0.00029053448860410814 -1.5707963267948966 -1.5707963267948966 0.0 1.5707963267948966 0.0 0.009079202768874505 0.0 0.0 0.0 0.0 0.0 0.19242255003237504 0.0 0.0 0.0 0.0 0.0 0.012009917471068198 0.4853121862427739 0.6864614858442252 0.06359020868727618 0.0003280519766995279 0.0 0.15769021639512545 6.372149005367621 6.392466648478595 0.2890174984836702 0.0014909962340993541 0.0 0.0002905344881583005 -1.570796314870016 -1.570796314870016 0.0 1.5707963705062866 0.0 0.009079203009605408 0.0 0.0 0.0 0.0 0.0 0.012009917758405209 0.48531219363212585 0.6864615082740784 0.06359020620584488 0.0003280519740656018 0.0 0.012009917758405209 0.48531219363212585 0.6864615082740784 0.06359020620584488 0.0003280519740656018 0.0 0.29518262415033725 -0.11226424047672483 0.4809000069994156 -1.2093369299602228 1.208985574058177 -1.2089856026442283 0.0010192698300073454 0.002680022969568964 0.0 0.0 0.0 0.009079203009605408 -4.5912146114700157e-07 2.239710887694797e-07 -1.0323535123512743e-06 1.6460931132520168e-11 -5.664739130486992e-08 -1.8342186537007145e-08 0.2951826290925017 -0.11226424405512038 0.4808999999601586 -1.209336926863204 1.2089856238079633 -1.2089856235599956 0.0010192698354708522 0.0026800229433802977 0.0 0.0 0.0 0.009079202768874505
5852.183999999999 0.0003677077121395414 -1.5707963267948966 -1.5707963267948966 0.0 1.5707963267948966 0.0 0.010814932709982867 0.0 0.0 0.0 0.0 0.0 0.2169662426385452 0.0 0.0 0.0 0.0 0.0 0.013541794699520769 0.48509287396236933 0.6864301458061782 0.06352599643168697 0.00036991295250108416 0.0 0.1778037644047077 6.36926943512591 6.392174803776294 0.28872565378201726 0.0016812543691174275 0.0 0.00036770771839655936 -1.570796314870016 -1.570796314870016 0.0 1.5707963705062866 0.0 0.010814933106303215 0.0 0.0 0.0 0.0 0.0 0.013541794382035732 0.4850928783416748 0.6864301562309265 0.06352599710226059 0.0003699129447340965 0.0 0.013541794382035732 0.4850928783416748 0.6864301562309265 0.06352599710226059 0.0003699129447340965 0.0 0.2951912870653958 -0.11224145994582507 0.4809000069994156 -1.2093734089737658 1.2089287419319272 -1.208928770516635 0.0012138838810679098 0.0031924740231758053 0.0 0.0 0.0 0.010814933106303215 -1.6247264417714467e-07 1.0490038092597783e-07 -4.4093591885222726e-07 7.061451286374851e-12 -1.9201145055595336e-08 -8.560933145921605e-09 0.2951912920070841 -0.11224146352581783 0.4808999999601586 -1.2093734058753165 1.2089287916861433 -1.2089287914381872 0.0012138838753017161 0.0031924739596295177 0.0 0.0 0.0 0.010814932709982867
5852.192 0.00045931655391821976 -1.5707963267948966 -1.5707963267948966 0.0 1.5707963267948966 0.0 0.012758793164391552 0.0 0.0 0.0 0.0 0.0 0.24298255680108558 0.0 0.0 0.0 0.0 0.0 0.015165584561680491 0.48486053205311563 0.6863969502891908 0.06345798250592134 0.00041429234888540415 0.0 0.19912412529486484 6.366218785857409 6.3918656804830025 0.28841653048941246 0.0018829587256841617 0.0 0.00045931656495667994 -1.570796314870016 -1.570796314870016 0.0 1.5707963705062866 0.0 0.01275879330933094 0.0 0.0 0.0 0.0 0.0 0.015165584161877632 0.48486053943634033 0.6863969564437866 0.06345798075199127 0.00041429235716350377 0.0 0.015165584161877632 0.48486053943634033 0.6863969564437866 0.06345798075199127 0.00041429235716350377 0.0 0.295201568137414 -0.11221441734156493 0.4809000069994156 -1.2094167089818624 1.2088612785497763 -1.2088613071328889 0.0014317205571880284 0.0037664157924556393 0.0 0.0 0.0 0.01275879330933094 1.6267484032852977e-07 -6.082255557533267e-08 -3.0614039232010763e-07 2.155601626475901e-11 -4.6926416793853916e-08 4.949862901946005e-09 0.29520157307889366 -0.11221442092251645 0.4808999999601586 -1.2094167058832161 1.2088613283069118 -1.2088613280589697 0.0014317205866123592 0.0037664158127166214 0.0 0.0 0.0 0.012758793164391552
5852.2 0.0005670574739730819 -1.5707963267948966 -1.5707963267948966 0.0 1.5707963267948966 0.0 0.014922565104551519 0.0 0.0 0.0 0.0 0.0 0.2704714925199959 0.0 0.0 0.0 0.0 0.0 0.01688128705754735 0.48461519942276954 0.6863619068041181 0.06338618229888746 0.0004611922036475714 0.0 0.22165129906559672 6.362997568420964 6.3915393485413095 0.2880901985484435 0.002096118565578212 0.0 0.0005670574610121548 -1.570796314870016 -1.570796314870016 0.0 1.5707963705062866 0.0 0.01492256484925747 0.0 0.0 0.0 0.0 0.0 0.016881287097930908 0.4846152067184448 0.6863619089126587 0.06338617950677872 0.0004611921904142946 0.0 0.016881287097930908 0.4846152067184448 0.6863619089126587 0.06338617950677872 0.0004611921904142946 0.0 0.2952136565059006 -0.11218261140886021 0.4809000069994156 -1.2094676304151655 1.2087819343151278 -1.208781962896364 0.0016740522937077674 0.004405344933595721 0.0 0.0 0.0 0.01492256484925747 3.1266237576106655e-07 -1.672662844218952e-07 -1.5158398161013988e-07 2.936558732479596e-11 -5.1782488349564366e-08 1.3773773520762068e-08 0.2952136614504583 -0.11218261498219438 0.4808999999601586 -1.2094676273302882 1.2087819840538818 -1.2087819838059561 0.0016740523756706323 0.004405345082747495 0.0 0.0 0.0 0.014922565104551519
5852.208 0.0006927211801166737 -1.5707963267948966 -1.5707963267948966 0.0 1.5707963267948966 0.0 0.01649336143134642 0.0 0.0 0.0 0.0 0.0 0.19634954084936243 0.0 0.0 0.0 0.0 0.0 0.012255017827620621 0.485279673500535 0.6864569689519544 0.06358095407691294 0.00033488471495197894 0.0 0.16090838407665875 6.371722113062025 6.392424586274389 0.28897543627956934 0.0015220510294567443 0.0 0.0006927211652509868 -1.570796314870016 -1.570796314870016 0.0 1.5707963705062866 0.0 0.016493361443281174 0.0 0.0 0.0 0.0 0.0 0.012255017645657063 0.4852796792984009 0.6864569783210754 0.0635809525847435 0.00033488470944575965 0.0 0.012255017645657063 0.4852796792984009 0.6864569783210754 0.0635809525847435 0.00033488470944575965 0.0 0.2952277514574508 -0.11214551288158106 0.4809000069994156 -1.209527017793076 1.208689390063835 -1.2086894186428832 0.0018496564781980613 0.004869298012874916 0.0 0.0 0.0 0.016493361443281174 -4.5668279076272076e-08 3.510203759259224e-08 -4.4093336107646837e-07 2.7016953372745933e-11 -3.8998630729014145e-08 -2.8524215235107734e-09 0.2952277564026711 -0.11214551645373153 0.4808999999601586 -1.2095270147119273 1.2086894398003603 -1.2086894395524534 0.0018496565357764008 0.004869298090914752 0.0 0.0 0.0 0.01649336143134642
5852.215999999999 0.0008309512568746248 -1.5707963267948966 -1.5707963267948966 0.0 1.5707963267948966 0.0 0.018064157758141314 0.0 0.0 0.0 0.0 0.0 0.196349540849362 0.0 0.0 0.0 0.0 0.0 0.01225501782762059 0.4852804335146429 0.6864571156670713 0.0635812546798864 0.0003349245207171799 0.0 0.16090838407665836 6.371732092047261 6.392425952514902 0.2889768025200837 0.0015222319466595825 0.0 0.0008309512631967664 -1.570796314870016 -1.570796314870016 0.0 1.5707963705062866 0.0 0.018064158037304878 0.0 0.0 0.0 0.0 0.0 0.012255017645657063 0.48528042435646057 0.686457097530365 0.06358125805854797 0.00033492452348582447 0.0 0.012255017645657063 0.48528042435646057 0.686457097530365 0.06358125805854797 0.00033492452348582447 0.0 0.2952432505220902 -0.1121047024492972 0.4809000069994156 -1.209592337840924 1.208587590099221 -1.2085876186758622 0.0020250770617691437 0.0053333207368786335 0.0 0.0 0.0 0.018064158037304878 1.997319917119159e-07 -9.375839943076877e-08 8.640030706469193e-07 -5.740314398407556e-11 6.907737223391321e-08 7.6798202283314e-09 0.295243255465429 -0.1121047060270196 0.4808999999601586 -1.2095923347528752 1.208587639850442 -1.2085876396025563 0.0020250770951021372 0.005333320743754728 0.0 0.0 0.0 0.018064157758141314
5852.224 0.0009817477042469351 -1.5707963267948966 -1.5707963267948966 0.0 1.5707963267948966 0.0 0.019634954084936214 0.0 0.0 0.0 0.0 0.0 0.19634954084936243 0.0 0.0 0.0 0.0 0.0 0.012255017827620618 0.4852812626209425 0.6864572757199264 0.06358158261040289 0.0003349679451883096 0.0 0.16090838407665872 6.371742978212975 6.392427442959099 0.2889782929642811 0.001522429310880867 0.0 0.0009817477548494935 -1.570796314870016 -1.570796314870016 0.0 1.5707963705062866 0.0 0.019634954631328583 0.0 0.0 0.0 0.0 0.0 0.012255017645657063 0.4852812588214874 0.6864572763442993 0.06358158588409424 0.0003349679464008659 0.0 0.012255017645657063 0.4852812588214874 0.6864572763442993 0.06358158588409424 0.0003349679464008659 0.0 0.29526015216099927 -0.11206017952849605 0.4809000069994156 -1.2096635888220852 1.2084765340583248 -1.2084765626323404 0.002200296541020556 0.005797419692120395 0.0 0.0 0.0 0.019634954631328583 -2.287404069999766e-07 1.314480275339496e-07 4.250710815413645e-08 -3.7182370835613156e-11 3.787221144327278e-08 -1.078949205555499e-08 0.29526015709991543 -0.11206018311854717 0.4808999999601586 -1.2096635857165103 1.2084765838411662 -1.2084765835933031 0.002200296550282218 0.005797419627767893 0.0 0.0 0.0 0.019634954084936214
5852.232 0.0011451105222336044 -1.5707963267948966 -1.5707963267948966 0.0 1.5707963267948966 0.0 0.02120575041173111 0.0 0.0 0.0 0.0 0.0 0.196349540849362 0.0 0.0 0.0 0.0 0.0 0.01225501782762059 0.48528216081943365 0.6864574491105194 0.06358193786846242 0.00033501498836536537 0.0 0.16090838407665836 6.371754771559164 6.392429057606979 0.2889799076121617 0.0015226431221205855 0.0 0.0011451104655861855 -1.570796314870016 -1.570796314870016 0.0 1.5707963705062866 0.0 0.021205751225352287 0.0 0.0 0.0 0.0 0.0 0.012255017645657063 0.48528215289115906 0.6864574551582336 0.0635819360613823 0.000335014978190884 0.0 0.012255017645657063 0.48528215289115906 0.6864574551582336 0.0635819360613823 0.000335014978190884 0.0 0.295278454675752 -0.11201194353458499 0.4809000069994156 -1.2097407687596535 1.2083562216738823 -1.208356250245053 0.0023752974088626167 0.006261601452060457 0.0 0.0 0.0 0.021205751225352287 -6.587954338852327e-07 3.571010163888025e-07 -3.0260589374955895e-07 -2.656304536958333e-11 2.319663691117965e-08 -2.926209822411789e-08 0.2952784596272679 -0.11201194709216065 0.4808999999601586 -1.2097407657084258 1.2083562713766638 -1.2083562711288254 0.002375297393168389 0.0062616013168162645 0.0 0.0 0.0 0.02120575041173111
5852.24 0.001321039710834633 -1.5707963267948966 -1.5707963267948966 0.0 1.5707963267948966 0.0 0.02277654673852601 0.0 0.0 0.0 0.0 0.0 0.19634954084936243 0.0 0.0 0.0 0.0 0.0 0.012255017827620621 0.4852831281101164 0.6864576358388501 0.06358232045406496 0.00033506565024835 0.0 0.16090838407665875 6.371767472085829 6.392430796458541 0.28898164646372526 0.0015228733803787507 0.0 0.0013210397446528077 -1.570796314870016 -1.570796314870016 0.0 1.5707963705062866 0.0 0.022776545956730843 0.0 0.0 0.0 0.0 0.0 0.012255017645657063 0.48528313636779785 0.686457633972168 0.06358232349157333 0.00033506564795970917 0.0 0.012255017645657063 0.48528313636779785 0.686457633972168 0.06358232349157333 0.00033506564795970917 0.0 0.2952981562865251 -0.1119599936757509 0.4809000069994156 -1.209823875766454 1.2082266522599292 -1.2082266808280364 0.002550061941271035 0.0067258720275979265 0.0 0.0 0.0 0.022776545956730843 5.166843144479107e-07 -2.6019474035591815e-07 1.4625273434974233e-07 2.415689548742943e-11 -1.8286041474148277e-08 2.1376236051703395e-08 0.2952981612285383 -0.11195999725916972 0.4808999999601586 -1.209823872676451 1.2082267020281807 -1.2082267017803687 0.002550062110418723 0.006725872371022592 0.0 0.0 0.0 0.02277654673852601
5852.248 0.001509535270050021 -1.5707963267948966 -1.5707963267948966 0.0 1.5707963267948966 0.0 0.02434734306532091 0.0 0.0 0.0 0.0 0.0 0.19634954084936243 0.0 0.0 0.0 0.0 0.0 0.012255017827620621 0.48528416449299094 0.6864578359049189 0.06358273036721059 0.0003351199308372613 0.0 0.16090838407665875 6.371781079792972 6.392432659513787 0.28898350951897206 0.0015231200856553526 0.0 0.0015095352428033948 -1.570796314870016 -1.570796314870016 0.0 1.5707963705062866 0.0 0.024347342550754547 0.0 0.0 0.0 0.0 0.0 0.012255017645657063 0.48528414964675903 0.6864578127861023 0.06358273327350616 0.000335119926603511 0.0 0.012255017645657063 0.48528414964675903 0.6864578127861023 0.06358273327350616 0.000335119926603511 0.0 0.2953192549951277 -0.11190432931400812 0.4809000069994156 -1.2099129074675934 1.2080878256120642 -1.2080878541768887 0.0027245730387205993 0.0071902390632000044 0.0 0.0 0.0 0.024347342550754547 8.359570905379013e-08 -3.277640003033574e-08 1.0714942937176152e-06 -1.4164958676941813e-10 9.383372403724875e-08 2.7139618102851755e-09 0.29531925994464964 -0.1119043328784617 0.4808999999601586 -1.2099129044106764 1.2080878753341027 -1.2080878750863193 0.0027245731830877772 0.007190239335669068 0.0 0.0 0.0 0.02434734306532091
5852.255999999999 0.001710597199879768 -1.5707963267948966 -1.5707963267948966 0.0 1.5707963267948966 0.0 0.025918139392115805 0.0 0.0 0.0 0.0 0.0 0.196349540849362 0.0 0.0 0.0 0.0 0.0 0.012255017827620592 0.4852852699680571 0.6864580493087257 0.06358316760789924 0.0003351778301320994 0.0 0.1609083840766584 6.37179559468059 6.392434646772716 0.28898549677790203 0.0015233832379503917 0.0 0.0017105971928685904 -1.570796314870016 -1.570796314870016 0.0 1.5707963705062866 0.0 0.02591813914477825 0.0 0.0 0.0 0.0 0.0 0.012255017645657063 0.48528528213500977 0.6864580512046814 0.06358316540718079 0.0003351778432261199 0.0 0.012255017645657063 0.48528528213500977 0.6864580512046814 0.06358316540718079 0.0003351778432261199 0.0 0.2953417487283742 -0.11184494958719002 0.4809000069994156 -1.2100078616054315 1.2079397410643629 -1.207939769625686 0.0028988129660414996 0.007654708538804138 0.0 0.0 0.0 0.02591813914477825 5.837046449427395e-07 -2.9477581600780066e-07 -1.2969651269737388e-07 1.2042933136751133e-10 -7.040038909143929e-08 2.4164369535037823e-08 0.2953417536763495 -0.11184495315662475 0.4808999999601586 -1.2100078585434821 1.2079397907999827 -1.2079397905522293 0.0028988130862180627 0.007654708740095557 0.0 0.0 0.0 0.025918139392115805
5852.264 0.0019242255003238742 -1.5707963267948966 -1.5707963267948966 0.0 1.5707963267948966 0.0 0.027488935718910704 0.0 0.0 0.0 0.0 0.0 0.19634954084936243 0.0 0.0 0.0 0.0 0.0 0.012255017827620621 0.4852864445353148 0.6864582760502703 0.0635836321761309 0.00033523934813286616 0.0 0.16090838407665875 6.371811016748683 6.392436758235328 0.28898760824051495 0.0015236628372638768 0.0 0.0019242254784330726 -1.570796314870016 -1.570796314870016 0.0 1.5707963705062866 0.0 0.027488935738801956 0.0 0.0 0.0 0.0 0.0 0.012255017645657063 0.4852864444255829 0.6864582896232605 0.06358363479375839 0.00033523933961987495 0.0 0.012255017645657063 0.4852864444255829 0.6864582896232605 0.06358363479375839 0.00033523933961987495 0.0 0.2953656352337596 -0.111781853684097 0.4809000069994156 -1.2101087355996816 1.207782398175313 -1.2077824267329158 0.0030727641926863052 0.008119286966391236 0.0 0.0 0.0 0.027488935738801956 -5.25219387660524e-07 2.8643119308381644e-07 -5.369157553764553e-07 -2.444547796989715e-11 1.2704045588745368e-08 -2.350275302534808e-08 0.29536564018416056 -0.1117818572480797 0.4808999999601586 -1.2101087325495659 1.2077824478985686 -1.207782447650848 0.003072764288432915 0.008119287096597299 0.0 0.0 0.0 0.027488935718910704
5852.272 0.0021504201713823394 -1.5707963267948966 -1.5707963267948966 0.0 1.5707963267948966 0.0 0.0290597320457056 0.0 0.0 0.0 0.0 0.0 0.196349540849362 0.0 0.0 0.0 0.0 0.0 0.01225501782762059 0.48528768819476426 0.686458516129553 0.06358412407190567 0.00033530448483955904 0.0 0.16090838407665836 6.3718273459972545 6.3924389939016235 0.28898984390681126 0.0015239588835957959 0.0 0.0021504200994968414 -1.570796314870016 -1.570796314870016 0.0 1.5707963705062866 0.0 0.02905973233282566 0.0 0.0 0.0 0.0 0.0 0.012255017645657063 0.48528769612312317 0.6864585280418396 0.06358412653207779 0.0003353044739924371 0.0 0.012255017645657063 0.48528769612312317 0.6864585280418396 0.06358412653207779 0.0003353044739924371 0.0 0.29539091213153523 -0.11171504070712601 0.4809000069994156 -1.210215526767397 1.207615796384892 -1.2076158249385556 0.003246409180499805 0.008583980840091638 0.0 0.0 0.0 0.02905973233282566 -2.8088294195309963e-08 2.5681224318979438e-08 -4.677519959676592e-07 5.319127477368884e-11 -2.473473109721624e-08 -2.058934229702336e-09 0.2953909170883274 -0.11171504425522087 0.4808999999601586 -1.2102155237459713 1.2076158460698359 -1.2076158458221493 0.0032464092515308613 0.008583980899322033 0.0 0.0 0.0 0.0290597320457056
5852.28 0.0023891812130551644 -1.5707963267948966 -1.5707963267948966 0.0 1.5707963267948966 0.0 0.0306305283725005 0.0 0.0 0.0 0.0 0.0 0.19634954084936243 0.0 0.0 0.0 0.0 0.0 0.012255017827620621 0.4852890009464053 0.6864587695465736 0.06358464329522341 0.0003353732402521808 0.0 0.16090838407665875 6.371844582426302 6.392441353771603 0.2889922037767904 0.0015242713769461616 0.0 0.0023891811724752188 -1.570796314870016 -1.570796314870016 0.0 1.5707963705062866 0.0 0.030630528926849365 0.0 0.0 0.0 0.0 0.0 0.012255017645657063 0.4852890074253082 0.6864587664604187 0.06358464062213898 0.0003353732463438064 0.0 0.012255017645657063 0.4852890074253082 0.6864587664604187 0.06358464062213898 0.0003353732463438064 0.0 0.2954175769146162 -0.11164450967240626 0.4809000069994156 -1.2103282323229605 1.2074399350145872 -1.2074399635640924 0.0034197303830445537 0.009048796635182897 0.0 0.0 0.0 0.030630528926849365 4.676512064653464e-07 -2.3363545299189627e-07 7.779472521346212e-08 1.0905335734757524e-10 -4.5643925994586875e-08 1.919851128777926e-08 0.29541758186876027 -0.11164451322856575 0.4808999999601586 -1.2103282292921256 1.2074399847210178 -1.2074399844733674 0.0034197304300815907 0.009048796623166551 0.0 0.0 0.0 0.0306305283725005
5852.288 0.002640508625342348 -1.5707963267948966 -1.5707963267948966 0.0 1.5707963267948966 0.0 0.032201324699295396 0.0 0.0 0.0 0.0 0.0 0.196349540849362 0.0 0.0 0.0 0.0 0.0 0.012255017827620592 0.48529038279023795 0.6864590363013319 0.06358518984608423 0.00033544561437072847 0.0 0.1609083840766584 6.371862726035824 6.3924438378452635 0.28899468785045285 0.0015246003173149609 0.0 0.0026405085809528828 -1.570796314870016 -1.570796314870016 0.0 1.5707963705062866 0.0 0.03220132365822792 0.0 0.0 0.0 0.0 0.0 0.012255017645657063 0.48529037833213806 0.6864590644836426 0.06358519196510315 0.0003354456275701523 0.0 0.012255017645657063 0.48529037833213806 0.6864590644836426 0.06358519196510315 0.0003354456275701523 0.0 0.29544562690951315 -0.11157025961312446 0.4809000069994156 -1.2104468492132547 1.2072548135246712 -1.2072548420697995 0.0035927100404347357 0.009513740255521286 0.0 0.0 0.0 0.03220132365822792 -1.3192158923420724e-06 7.020491534132679e-07 -1.1855023655460166e-06 -6.594573470239401e-11 2.4974680221958907e-08 -5.7842911517221524e-08 0.2954456318649758 -0.11157026316691321 0.4808999999601586 -1.2104468461898692 1.2072548632266413 -1.207254862979029 0.0035927102710236096 0.00951374072267258 0.0 0.0 0.0 0.032201324699295396
5852.295999999999 0.002904402408243891 -1.5707963267948966 -1.5707963267948966 0.0 1.5707963267948966 0.0 0.03377212102609029 0.0 0.0 0.0 0.0 0.0 0.196349540849362 0.0 0.0 0.0 0.0 0.0 0.012255017827620592 0.4852918337262621 0.6864593163938283 0.0635857637244881 0.00033552160719520436 0.0 0.1609083840766584 6.3718817768258225 6.392446446122608 0.2889972961277984 0.0015249457047022037 0.0 0.0029044023249298334 -1.570796314870016 -1.570796314870016 0.0 1.5707963705062866 0.0 0.033772122114896774 0.0 0.0 0.0 0.0 0.0 0.012255017645657063 0.48529183864593506 0.6864593029022217 0.06358576565980911 0.0003355216176714748 0.0 0.012255017645657063 0.48529183864593506 0.6864593029022217 0.06358576565980911 0.0003355216176714748 0.0 0.29547505931529405 -0.11149228947653135 0.4809000069994156 -1.2105713742825814 1.2070604312570032 -1.2070604597975354 0.0037653312150708372 0.009978819785102478 0.0 0.0 0.0 0.033772122114896774 7.819168550663022e-07 -3.976436434140243e-07 6.303989544444177e-07 1.8041749290707128e-11 -6.212018277675092e-09 3.2705259912366995e-08 0.2954750642760342 -0.11149229301751101 0.4808999999601586 -1.2105713712834951 1.2070604809285639 -1.2070604806809913 0.0037653312132637034 0.009978819630922035 0.0 0.0 0.0 0.03377212102609029
5852.304 0.003180862561759793 -1.5707963267948966 -1.5707963267948966 0.0 1.5707963267948966 0.0 0.035342917352885195 0.0 0.0 0.0 0.0 0.0 0.19634954084936287 0.0 0.0 0.0 0.0 0.0 0.012255017827620647 0.485293353754478 0.6864596098240625 0.06358636493043496 0.0003356012187256091 0.0 0.1609083840766591 6.371901734796297 6.392449178603635 0.2890000286088269 0.0015253075391078934 0.0 0.0031808626372367144 -1.570796314870016 -1.570796314870016 0.0 1.5707963705062866 0.0 0.03534291684627533 0.0 0.0 0.0 0.0 0.0 0.012255017645657063 0.48529335856437683 0.6864596009254456 0.06358636170625687 0.000335601216647774 0.0 0.012255017645657063 0.48529335856437683 0.6864596009254456 0.06358636170625687 0.000335601216647774 0.0 0.29550587121644567 -0.1114105980896999 0.4809000069994156 -1.2107018043275681 1.2068567873493021 -1.2068568158850193 0.0039375755040780645 0.010444039433988986 0.0 0.0 0.0 0.03534291684627533 6.002667229645194e-07 -3.026723455385104e-07 3.198678284322205e-07 1.2598551542308254e-10 -3.9606849980409766e-08 2.495456241141258e-08 0.2955058761604735 -0.11141060167623167 0.4808999999601586 -1.2107018012597857 1.2068568371360098 -1.206856836888479 0.003937575687278269 0.010444039758431544 0.0 0.0 0.0 0.035342917352885195
5852.312 0.0034698890858900545 -1.5707963267948966 -1.5707963267948966 0.0 1.5707963267948966 0.0 0.03691371367968009 0.0 0.0 0.0 0.0 0.0 0.196349540849362 0.0 0.0 0.0 0.0 0.0 0.012255017827620592 0.4852949428748856 0.6864599165920349 0.0635869934639249 0.00033568444896193826 0.0 0.1609083840766584 6.371922599947249 6.392452035288347 0.2890028852935387 0.0015256858205320092 0.0 0.0034698890522122383 -1.570796314870016 -1.570796314870016 0.0 1.5707963705062866 0.0 0.03691371530294418 0.0 0.0 0.0 0.0 0.0 0.012255017645657063 0.4852949380874634 0.6864598989486694 0.0635869950056076 0.00033568445360288024 0.0 0.012255017645657063 0.4852949380874634 0.6864598989486694 0.0635869950056076 0.00033568445360288024 0.0 0.2955380594790247 -0.11132518443491435 0.4809000069994156 -1.2108381356578446 1.2066438814212153 -1.2066439099518982 0.0041094261642781816 0.010909407788793301 0.0 0.0 0.0 0.03691371530294418 4.17053012174801e-07 -2.065954377943837e-07 8.033083122071893e-07 -1.293030929633855e-10 3.7263595707248703e-08 1.7017492423365186e-08 0.2955380644362406 -0.1113251879877576 0.4808999999601586 -1.2108381326480535 1.2066439311256136 -1.206643930878126 0.004109426114716645 0.01090940749204623 0.0 0.0 0.0 0.03691371367968009
5852.32 0.003771481980634675 -1.5707963267948966 -1.5707963267948966 0.0 1.5707963267948966 0.0 0.03848451000647499 0.0 0.0 0.0 0.0 0.0 0.196349540849362 0.0 0.0 0.0 0.0 0.0 0.01225501782762059 0.4852966010874847 0.6864602366977448 0.06358764932495789 0.00033577129790419644 0.0 0.16090838407665836 6.371944372278675 6.392455016176739 0.28900586618193363 0.0015260805489745728 0.0 0.0037714820355176926 -1.570796314870016 -1.570796314870016 0.0 1.5707963705062866 0.0 0.03848451003432274 0.0 0.0 0.0 0.0 0.0 0.012255017645657063 0.4852966070175171 0.6864602565765381 0.06358765065670013 0.00033577129943296313 0.0 0.012255017645657063 0.4852966070175171 0.6864602565765381 0.06358765065670013 0.00033577129943296313 0.0 0.2955716209321827 -0.11123604716825071 0.4809000069994156 -1.2109803648649546 1.206421712373808 -1.2064217408992375 0.004280864773424942 0.011374929011625621 0.0 0.0 0.0 0.03848451003432274 -4.4111079606573726e-07 2.414904856295844e-07 -8.396836224746196e-07 9.484096955396198e-11 -2.5146334720459957e-08 -1.9921131842530235e-08 0.2955716258806188 -0.11123605074577485 0.4808999999601586 -1.210980361820183 1.2064217621414584 -1.2064217618940165 0.004280864908006532 0.011374929193832756 0.0 0.0 0.0 0.03848451000647499
5852.3279999999995 0.004085641245993655 -1.5707963267948966 -1.5707963267948966 0.0 1.5707963267948966 0.0 0.04005530633326989 0.0 0.0 0.0 0.0 0.0 0.19634954084936287 0.0 0.0 0.0 0.0 0.0 0.012255017827620647 0.48529832839227555 0.6864605701411929 0.0635883325135339 0.00033586176555238333 0.0 0.1609083840766591 6.371967051790578 6.392458121268816 0.28900897127401154 0.0015264917244355823 0.0 0.0040856413543224335 -1.570796314870016 -1.570796314870016 0.0 1.5707963705062866 0.0 0.040055304765701294 0.0 0.0 0.0 0.0 0.0 0.012255017645657063 0.4852983355522156 0.686460554599762 0.06358833611011505 0.00033586175413802266 0.0 0.012255017645657063 0.4852983355522156 0.686460554599762 0.06358833611011505 0.00033586175413802266 0.0 0.2956065521865331 -0.11114318510140735 0.4809000069994156 -1.2111284880535722 1.2061902795901682 -1.206190308110126 0.004451874151867622 0.011840610538569767 0.0 0.0 0.0 0.040055304765701294 9.818834271657563e-07 -5.012507044192639e-07 7.553171363980199e-07 2.214880277876462e-11 -5.421284029703516e-09 4.1432522889712976e-08 0.2956065571301527 -0.11114318869317562 0.4808999999601586 -1.2111284849906758 1.2061903293951226 -1.2061903291477287 0.004451874469961568 0.011840611199971514 0.0 0.0 0.0 0.04005530633326989
5852.335999999999 0.004412366881966994 -1.5707963267948966 -1.5707963267948966 0.0 1.5707963267948966 0.0 0.041626102660064786 0.0 0.0 0.0 0.0 0.0 0.196349540849362 0.0 0.0 0.0 0.0 0.0 0.01225501782762059 0.485300124789258 0.6864609169223787 0.06358904302965293 0.00033595585190649487 0.0 0.16090838407665836 6.371990638482957 6.3924613505645755 0.28901220056977256 0.0015269193469150191 0.0 0.004412367008626461 -1.570796314870016 -1.570796314870016 0.0 1.5707963705062866 0.0 0.04162610322237015 0.0 0.0 0.0 0.0 0.0 0.012255017645657063 0.48530012369155884 0.6864609122276306 0.06358904391527176 0.0003359558468218893 0.0 0.012255017645657063 0.48530012369155884 0.6864609122276306 0.06358904391527176 0.0003359558468218893 0.0 0.29564284973781235 -0.11104659692669783 0.4809000069994156 -1.2112825012808706 1.2059495822494177 -1.2059496107636842 0.004622437106163655 0.012306459780141844 0.0 0.0 0.0 0.04162610322237015 1.2050709403161554e-07 -5.174132448358971e-08 2.2388544353269935e-07 -5.3370947755287557e-11 1.2095542097682864e-08 4.304231038913631e-09 0.2956428546805697 -0.11104660052227003 0.4808999999601586 -1.2112824982166934 1.2059496320657257 -1.2059496318183807 0.004622437193391216 0.01230645981964801 0.0 0.0 0.0 0.041626102660064786
5852.344 0.004751658888554692 -1.5707963267948966 -1.5707963267948966 0.0 1.5707963267948966 0.0 0.04319689898685968 0.0 0.0 0.0 0.0 0.0 0.196349540849362 0.0 0.0 0.0 0.0 0.0 0.01225501782762059 0.48530199027843207 0.6864612770413027 0.06358978087331503 0.0003360535569665353 0.0 0.16090838407665836 6.372015132355814 6.392464704064019 0.2890155540692168 0.0015273634164129028 0.0 0.004751658998429775 -1.570796314870016 -1.570796314870016 0.0 1.5707963705062866 0.0 0.0431968979537487 0.0 0.0 0.0 0.0 0.0 0.012255017645657063 0.48530200123786926 0.6864612698554993 0.06358978152275085 0.00033605354838073254 0.0 0.012255017645657063 0.48530200123786926 0.6864612698554993 0.06358978152275085 0.00033605354838073254 0.0 0.29568050994085915 -0.1109462812860742 0.4809000069994156 -1.2114424004467341 1.2056996194982657 -1.2056996480066218 0.004792535191062447 0.012772480814827672 0.0 0.0 0.0 0.0431968979537487 8.673328753657435e-07 -4.4070586659109095e-07 3.2763108368111416e-07 2.093708519434917e-10 -4.4062129151928474e-08 3.6469959325707606e-08 0.29568051488669833 -0.11094628487500634 0.4808999999601586 -1.2114423973981094 1.2056996692999746 -1.205699669052681 0.0047925354607130065 0.012772481333943368 0.0 0.0 0.0 0.04319689898685968
5852.352 0.005103517265756749 -1.5707963267948966 -1.5707963267948966 0.0 1.5707963267948966 0.0 0.04476769531365458 0.0 0.0 0.0 0.0 0.0 0.196349540849362 0.0 0.0 0.0 0.0 0.0 0.012255017827620592 0.4853039248597978 0.6864616504979645 0.06359054604452018 0.00033615488073250306 0.0 0.1609083840766584 6.372040533409145 6.3924681817671445 0.28901903177234417 0.0015278239329292263 0.0 0.005103517323732376 -1.570796314870016 -1.570796314870016 0.0 1.5707963705062866 0.0 0.04476769641041756 0.0 0.0 0.0 0.0 0.0 0.012255017645657063 0.48530393838882446 0.6864616274833679 0.06359054893255234 0.0003361548879183829 0.0 0.012255017645657063 0.48530393838882446 0.6864616274833679 0.06359054893255234 0.0003361548879183829 0.0 0.2957195290095292 -0.11084223677135627 0.4809000069994156 -1.2116081812938069 1.20544039045106 -1.2054404189532868 0.004962151605231699 0.01323868209733027 0.0 0.0 0.0 0.04476769641041756 1.6129172295641936e-06 -8.279449360994283e-07 1.0665539996172566e-06 1.8792691404952923e-10 -3.682270078058287e-08 6.844931423708327e-08 0.2957195339623835 -0.11084224034320027 0.4808999999601586 -1.2116081782775556 1.2054404402122136 -1.2054404399649732 0.004962151643567261 0.013238681994723911 0.0 0.0 0.0 0.04476769531365458
5852.36 0.005467942013573166 -1.5707963267948966 -1.5707963267948966 0.0 1.5707963267948966 0.0 0.04633849164044948 0.0 0.0 0.0 0.0 0.0 0.19634954084936287 0.0 0.0 0.0 0.0 0.0 0.012255017827620647 0.4853059285333551 0.686462037292364 0.06359133854326837 0.00033625982320439977 0.0 0.1609083840766591 6.372066841642952 6.392471783673953 0.2890226336791547 0.0015283008964639968 0.0 0.005467941984534264 -1.570796314870016 -1.570796314870016 0.0 1.5707963705062866 0.0 0.04633849114179611 0.0 0.0 0.0 0.0 0.0 0.012255017645657063 0.48530593514442444 0.6864620447158813 0.06359133869409561 0.00033625983633100986 0.0 0.012255017645657063 0.48530593514442444 0.6864620447158813 0.06359133869409561 0.00033625983633100986 0.0 0.29575990301660793 -0.1107344619244698 0.4809000069994156 -1.211779839407545 1.205171894189837 -1.2051719226857154 0.005131267882978603 0.013705067646033563 0.0 0.0 0.0 0.04633849114179611 7.268382829697097e-08 -2.6336305564146283e-08 -3.2095553648046683e-07 1.7383689820242368e-10 -3.179145405928646e-08 2.129800431143159e-09 0.29575990798039914 -0.11073446546877322 0.4808999999601586 -1.2117798364404746 1.2051719438844777 -1.2051719436372925 0.0051312681024343896 0.013705068023529833 0.0 0.0 0.0 0.04633849164044948
5852.3679999999995 0.005844933132003942 -1.5707963267948966 -1.5707963267948966 0.0 1.5707963267948966 0.0 0.04790928796724438 0.0 0.0 0.0 0.0 0.0 0.196349540849362 0.0 0.0 0.0 0.0 0.0 0.012255017827620592 0.48530800129910406 0.6864624374245017 0.06359215836955955 0.00033636838438222085 0.0 0.1609083840766584 6.372094057057237 6.392475509784446 0.28902635978964814 0.0015287943070171938 0.0 0.005844932980835438 -1.570796314870016 -1.570796314870016 0.0 1.5707963705062866 0.0 0.047909289598464966 0.0 0.0 0.0 0.0 0.0 0.012255017645657063 0.4853079915046692 0.6864624619483948 0.06359215825796127 0.0003363683936186135 0.0 0.012255017645657063 0.4853079915046692 0.6864624619483948 0.06359215825796127 0.0003363683936186135 0.0 0.29580162789371944 -0.11062295523769351 0.4809000069994156 -1.211957370216269 1.2048941297643778 -1.2048941582536885 0.0052998671987206855 0.014171645854457578 0.0 0.0 0.0 0.047909289598464966 -1.4696561022024948e-06 7.747080058016539e-07 -1.073287775919218e-06 -2.1413999653257716e-10 3.663642936909753e-08 -6.419300690978686e-08 0.2958016328723567 -0.11062295874399923 0.4808999999601586 -1.2119573673151738 1.204894179366544 -1.2048941791194159 0.005299867186254853 0.014171645610462838 0.0 0.0 0.0 0.04790928796724438
5852.375999999999 0.006234490621049076 -1.5707963267948966 -1.5707963267948966 0.0 1.5707963267948966 0.0 0.04948008429403927 0.0 0.0 0.0 0.0 0.0 0.196349540849362 0.0 0.0 0.0 0.0 0.0 0.012255017827620592 0.48531014315704457 0.6864628508943772 0.06359300552339382 0.0003364805642659709 0.0 0.1609083840766584 6.372122179651996 6.39247936009862 0.2890302101038249 0.0015293041645888378 0.0 0.006234490778297186 -1.570796314870016 -1.570796314870016 0.0 1.5707963705062866 0.0 0.04948008432984352 0.0 0.0 0.0 0.0 0.0 0.012255017645657063 0.4853101372718811 0.6864628791809082 0.06359300762414932 0.00033648055978119373 0.0 0.012255017645657063 0.4853101372718811 0.6864628791809082 0.06359300762414932 0.00033648055978119373 0.0 0.29584469948269176 -0.11050771501615161 0.4809000069994156 -1.2121407692104178 1.204607095849145 -1.2046071243316687 0.005467931058097497 0.014638420678940802 0.0 0.0 0.0 0.04948008432984352 -1.402878238865409e-06 7.390358688395913e-07 -1.1904427074721723e-06 -1.957040805080067e-10 3.1390153149061994e-08 -6.122179476098963e-08 0.2958447044286122 -0.11050771861176102 0.4808999999601586 -1.2121407661728791 1.2046071456759873 -1.204607145428918 0.005467931232051908 0.014638420913072867 0.0 0.0 0.0 0.04948008429403927
5852.384 0.006636614480708571 -1.5707963267948966 -1.5707963267948966 0.0 1.5707963267948966 0.0 0.051050880620834176 0.0 0.0 0.0 0.0 0.0 0.19634954084936287 0.0 0.0 0.0 0.0 0.0 0.012255017827620647 0.4853123541071768 0.6864632777019908 0.06359388000477112 0.00033659636285564987 0.0 0.1609083840766591 6.372151209427233 6.392483334616479 0.28903418462168473 0.0015298304691789286 0.0 0.006636614445596933 -1.570796314870016 -1.570796314870016 0.0 1.5707963705062866 0.0 0.051050879061222076 0.0 0.0 0.0 0.0 0.0 0.012255017645657063 0.4853123426437378 0.6864632964134216 0.06359387934207916 0.0003365963639225811 0.0 0.012255017645657063 0.4853123426437378 0.6864632964134216 0.06359387934207916 0.0003365963639225811 0.0 0.2958891133295683 -0.11038873992911172 0.4809000069994156 -1.2123300310657532 1.2043107921157896 -1.2043108205913073 0.0056354422118417785 0.015105399340120024 0.0 0.0 0.0 0.051050879061222076 -1.3375992012793257e-06 7.045951294340675e-07 -8.312146684438914e-07 -2.832096957731799e-10 4.267312143877844e-08 -5.843695587641628e-08 0.29588911829816855 -0.1103887434658148 0.4808999999601586 -1.212330028127794 1.2043108417982384 -1.2043108415512298 0.0056354425645572 0.015105400055243684 0.0 0.0 0.0 0.051050880620834176
5852.392 0.007051304710982424 -1.5707963267948966 -1.5707963267948966 0.0 1.5707963267948966 0.0 0.05262167694762907 0.0 0.0 0.0 0.0 0.0 0.196349540849362 0.0 0.0 0.0 0.0 0.0 0.01225501782762059 0.48531463414950077 0.6864637178473423 0.06359478181369145 0.0003367157801512533 0.0 0.16090838407665836 6.372181146382945 6.392487433338021 0.2890382833432276 0.0015303732207874463 0.0 0.007051304914057255 -1.570796314870016 -1.570796314870016 0.0 1.5707963705062866 0.0 0.05262167751789093 0.0 0.0 0.0 0.0 0.0 0.012255017645657063 0.48531463742256165 0.6864637136459351 0.06359478086233139 0.00033671577693894506 0.0 0.012255017645657063 0.48531463742256165 0.6864637136459351 0.06359478086233139 0.00033671577693894506 0.0 0.29593486504477373 -0.1102660280459341 0.4809000069994156 -1.2125251511778596 1.2040052168314166 -1.2040052452997092 0.005802383369011861 0.015572589034686656 0.0 0.0 0.0 0.05262167751789093 3.38122123497449e-07 -1.6400942053621795e-07 1.6319068964531327e-07 1.3903642508278841e-10 -1.971742579382358e-08 1.3641903297049514e-08 0.2959348699885764 -0.11026603165106416 0.4808999999601586 -1.2125251481371575 1.204005266686642 -1.204005266439696 0.0058023834958393404 0.015572589126077476 0.0 0.0 0.0 0.05262167694762907
5852.4 0.007478561311870637 -1.5707963267948966 -1.5707963267948966 0.0 1.5707963267948966 0.0 0.05419247327442397 0.0 0.0 0.0 0.0 0.0 0.196349540849362 0.0 0.0 0.0 0.0 0.0 0.012255017827620592 0.48531698328401623 0.6864641713304315 0.06359571095015486 0.0003368388161527856 0.0 0.1609083840766584 6.3722119905191335 6.392491656263244 0.2890425062684538 0.0015309324194144106 0.0 0.0074785612523555756 -1.570796314870016 -1.570796314870016 0.0 1.5707963705062866 0.0 0.054192472249269485 0.0 0.0 0.0 0.0 0.0 0.012255017645657063 0.4853169918060303 0.6864641904830933 0.063595712184906 0.0003368388279341161 0.0 0.012255017645657063 0.4853169918060303 0.6864641904830933 0.063595712184906 0.0003368388279341161 0.0 0.29598194989156673 -0.11013957793854708 0.4809000069994156 -1.2127261239088813 1.2036903696036187 -1.2036903980644669 0.005968736020980966 0.0160399936057834 0.0 0.0 0.0 0.054192472249269485 -2.739184694447578e-07 1.5311619740335945e-07 -8.100420845483625e-07 2.80071038634382e-10 -3.74488981329905e-08 -1.2761184913320285e-08 0.29598195486583073 -0.11013958146384265 0.4808999999601586 -1.2127261210013047 1.203690419262519 -1.2036904190156377 0.005968736324935534 0.016039994178778293 0.0 0.0 0.0 0.05419247327442397
5852.407999999999 0.007918384283373209 -1.5707963267948966 -1.5707963267948966 0.0 1.5707963267948966 0.0 0.055763269601218864 0.0 0.0 0.0 0.0 0.0 0.196349540849362 0.0 0.0 0.0 0.0 0.0 0.012255017827620592 0.48531940151072356 0.686464638151259 0.06359666741416126 0.0003369654708602453 0.0 0.1609083840766584 6.3722437418358 6.392496003392154 0.2890468533973629 0.001531508065059815 0.0 0.007918383926153183 -1.570796314870016 -1.570796314870016 0.0 1.5707963705062866 0.0 0.05576327070593834 0.0 0.0 0.0 0.0 0.0 0.012255017645657063 0.4853194057941437 0.6864646673202515 0.06359666585922241 0.0003369654587004334 0.0 0.012255017645657063 0.4853194057941437 0.6864646673202515 0.06359666585922241 0.0003369654587004334 0.0 0.2960303631457014 -0.11000938771722779 0.4809000069994156 -1.2129329441214667 1.2033662489786299 -1.2033662774318141 0.006134483267470302 0.01650762127727098 0.0 0.0 0.0 0.05576327070593834 -8.877450316457493e-07 4.6966113769089643e-07 -1.306891877873258e-06 3.0606382964489997e-10 -3.865117229789202e-08 -3.898448862580929e-08 0.29603036815426576 -0.1100093911522055 0.4808999999601586 -1.2129329413637302 1.2033662984152271 -1.2033662981684121 0.006134483337486376 0.016507621229534395 0.0 0.0 0.0 0.055763269601218864
5852.416 0.00837077362549014 -1.5707963267948966 -1.5707963267948966 0.0 1.5707963267948966 0.0 0.05733406592801377 0.0 0.0 0.0 0.0 0.0 0.19634954084936287 0.0 0.0 0.0 0.0 0.0 0.012255017827620647 0.4853218888296222 0.686465118309824 0.06359765120571069 0.00033709574427363397 0.0 0.1609083840766591 6.3722764003329395 6.392500474724743 0.2890513247299551 0.0015321001577236664 0.0 0.008370773866772652 -1.570796314870016 -1.570796314870016 0.0 1.5707963705062866 0.0 0.057334065437316895 0.0 0.0 0.0 0.0 0.0 0.012255017645657063 0.48532187938690186 0.6864651441574097 0.0635976493358612 0.00033709575654938817 0.0 0.012255017645657063 0.48532187938690186 0.6864651441574097 0.0635976493358612 0.00033709575654938817 0.0 0.29608009999208895 -0.10987545530631407 0.4809000069994156 -1.2131456067400856 1.203032853127548 -1.2030328815728495 0.0062996065444871985 0.016975475827633757 0.0 0.0 0.0 0.057334065437316895 -1.503384662792402e-06 7.874608953352397e-07 -1.1685644096588905e-06 -1.9706953938917304e-10 2.354208357441982e-08 -6.557724443712196e-08 0.296080104936446 -0.10987545891623031 0.4808999999601586 -1.2131456037111514 1.2030329030022269 -1.2030329027554805 0.006299606805373917 0.01697547625639943 0.0 0.0 0.0 0.05733406592801377
5852.424 0.008835729338221429 -1.5707963267948966 -1.5707963267948966 0.0 1.5707963267948966 0.0 0.05890486225480866 0.0 0.0 0.0 0.0 0.0 0.196349540849362 0.0 0.0 0.0 0.0 0.0 0.012255017827620592 0.48532444524071255 0.686465611806127 0.0635986623248032 0.0003372296363929471 0.0 0.1609083840766584 6.3723099660105555 6.3925050702610156 0.28905592026623056 0.0015327086974059444 0.0 0.008835729211568832 -1.570796314870016 -1.570796314870016 0.0 1.5707963705062866 0.0 0.05890486389398575 0.0 0.0 0.0 0.0 0.0 0.012255017645657063 0.4853244423866272 0.6864656209945679 0.06359866261482239 0.00033722963416948915 0.0 0.012255017645657063 0.4853244423866272 0.6864656209945679 0.06359866261482239 0.00033722963416948915 0.0 0.29613115516664335 -0.10973777940966654 0.4809000069994156 -1.213364105219157 1.2026901822487124 -1.2026902106859114 0.00646408896015464 0.017443565389859902 0.0 0.0 0.0 0.05890486389398575 -5.074110408710356e-07 2.7273132871695365e-07 -3.9505962327105515e-07 -1.0658334822309803e-10 1.2062454753587703e-08 -2.2692901410060136e-08 0.29613116015305463 -0.10973778290832643 0.4808999999601586 -1.2133641023735773 1.2026902318491495 -1.202690231602473 0.006464088986363065 0.017443565198172365 0.0 0.0 0.0 0.05890486225480866
5852.432 0.00931325142156708 -1.5707963267948966 -1.5707963267948966 0.0 1.5707963267948966 0.0 0.06047565858160356 0.0 0.0 0.0 0.0 0.0 0.196349540849362 0.0 0.0 0.0 0.0 0.0 0.012255017827620592 0.48532707074399456 0.6864661186401678 0.06359970077143873 0.0003373671472181891 0.0 0.1609083840766584 6.372344438868648 6.392509790000972 0.289060640006189 0.0015333336841066695 0.0 0.009313251823186874 -1.570796314870016 -1.570796314870016 0.0 1.5707963705062866 0.0 0.060475658625364304 0.0 0.0 0.0 0.0 0.0 0.012255017645657063 0.4853270649909973 0.6864660978317261 0.06359969824552536 0.0003373671497683972 0.0 0.012255017645657063 0.4853270649909973 0.6864660978317261 0.06359969824552536 0.0003373671497683972 0.0 0.2961835236725948 -0.10959635758080968 0.4809000069994156 -1.2135884346073815 1.202338233763229 -1.2023382621921062 0.006627911907640404 0.017911893668081352 0.0 0.0 0.0 0.060475658625364304 4.875229779709555e-07 -2.3987367307427915e-07 8.548281240017726e-07 -1.5937223949126644e-10 1.711179012891354e-08 2.000506824475171e-08 0.29618352860277947 -0.10959636123355362 0.4808999999601586 -1.2135884315243741 1.202338283749862 -1.2023382835032579 0.006627912123746481 0.017911893953276303 0.0 0.0 0.0 0.06047565858160356
5852.44 0.009803339875527088 -1.5707963267948966 -1.5707963267948966 0.0 1.5707963267948966 0.0 0.06204645490839846 0.0 0.0 0.0 0.0 0.0 0.19634954084936287 0.0 0.0 0.0 0.0 0.0 0.012255017827620646 0.4853297653394681 0.6864666388119468 0.06360076654561733 0.00033750827674936 0.0 0.16090838407665908 6.372379818907217 6.392514633944612 0.2890654839498307 0.0015339751178258412 0.0 0.009803339838981628 -1.570796314870016 -1.570796314870016 0.0 1.5707963705062866 0.0 0.06204645335674286 0.0 0.0 0.0 0.0 0.0 0.012255017645657063 0.4853297770023346 0.686466634273529 0.06360076367855072 0.0003375082742422819 0.0 0.012255017645657063 0.4853297770023346 0.686466634273529 0.06360076367855072 0.0003375082742422819 0.0 0.29623719996226355 -0.1094511884294231 0.4809000069994156 -1.2138185880465433 1.2019770078061018 -1.2019770362264381 0.006791058057726274 0.018380467609990694 0.0 0.0 0.0 0.06204645335674286 8.059480598611882e-07 -4.034749027428176e-07 1.3707779651350597e-07 6.8868489942941e-10 -7.024754568629802e-08 3.3701484325358227e-08 0.2962372049421956 -0.10945119194994954 0.4808999999601586 -1.213818585180336 1.2019770574665403 -1.2019770572200104 0.006791058445993009 0.018380468378635932 0.0 0.0 0.0 0.06204645490839846
5852.447999999999 0.010305994700101455 -1.5707963267948966 -1.5707963267948966 0.0 1.5707963267948966 0.0 0.06361725123519335 0.0 0.0 0.0 0.0 0.0 0.19634954084936113 0.0 0.0 0.0 0.0 0.0 0.012255017827620538 0.48533252902713336 0.6864671723214636 0.06360185964733893 0.0003376530249864538 0.0 0.16090838407665767 6.372416106126262 6.392519602091934 0.28907045209715543 0.0015346329985634326 0.0 0.010305995121598244 -1.570796314870016 -1.570796314870016 0.0 1.5707963705062866 0.0 0.06361725181341171 0.0 0.0 0.0 0.0 0.0 0.012255017645657063 0.48533251881599426 0.686467170715332 0.06360185891389847 0.0003376530366949737 0.0 0.012255017645657063 0.48533251881599426 0.686467170715332 0.06360185891389847 0.0003376530366949737 0.0 0.29629217875400926 -0.10930226941512894 0.4809000069994156 -1.2140545602716817 1.2016065017350024 -1.2016065301465781 0.006953509997159627 0.0188492941461382 0.0 0.0 0.0 0.06361725181341171 -4.916265936098165e-07 2.6396535320676157e-07 5.450470786664655e-08 -4.416710385489851e-10 4.2854090745761433e-08 -2.208578679701539e-08 0.29629218368564514 -0.10930227306886608 0.4808999999601586 -1.214054557201759 1.2016065517297392 -1.201606551483285 0.006953510166399762 0.018849294288553742 0.0 0.0 0.0 0.06361725123519335
5852.456 0.010821215895290183 -1.5707963267948966 -1.5707963267948966 0.0 1.5707963267948966 0.0 0.06518804756198826 0.0 0.0 0.0 0.0 0.0 0.19634954084936374 0.0 0.0 0.0 0.0 0.0 0.012255017827620701 0.48533536180699044 0.6864677191687185 0.06360298007660359 0.00033780139192948256 0.0 0.1609083840766598 6.372453300525785 6.39252469444294 0.2890755444481633 0.0015353073263194982 0.0 0.010821215808391571 -1.570796314870016 -1.570796314870016 0.0 1.5707963705062866 0.0 0.06518805027008057 0.0 0.0 0.0 0.0 0.0 0.012255017645657063 0.4853353500366211 0.686467707157135 0.063602976500988 0.0003378013789188117 0.0 0.012255017645657063 0.4853353500366211 0.686467707157135 0.063602976500988 0.0003378013789188117 0.0 0.2963484542161062 -0.10914959905478147 0.4809000069994156 -1.2142963441122636 1.201226715621895 -1.2012267440244908 0.007115249550142233 0.019318377930900202 0.0 0.0 0.0 0.06518805027008057 -1.7632001278196406e-07 1.0133476813848062e-07 4.483146270428637e-07 -3.8328389272218765e-10 3.54181627031559e-08 -8.395960620865323e-09 0.2963484592051152 -0.10914960255531506 0.4808999999601586 -1.2142963412925118 1.2012267652384678 -1.2012267649920916 0.007115249482747993 0.019318377453584987 0.0 0.0 0.0 0.06518804756198826
5852.464 0.011349003461093268 -1.5707963267948966 -1.5707963267948966 0.0 1.5707963267948966 0.0 0.06675884388878316 0.0 0.0 0.0 0.0 0.0 0.196349540849362 0.0 0.0 0.0 0.0 0.0 0.01225501782762059 0.4853382636790389 0.686468279353711 0.0636041278334113 0.0003379533775784313 0.0 0.16090838407665836 6.372491402105781 6.392529910997629 0.28908076100285435 0.0015359981010939702 0.0 0.01134900376200676 -1.570796314870016 -1.570796314870016 0.0 1.5707963705062866 0.0 0.06675884127616882 0.0 0.0 0.0 0.0 0.0 0.012255017645657063 0.4853382706642151 0.6864683032035828 0.06360413134098053 0.0003379533882252872 0.0 0.012255017645657063 0.4853382706642151 0.6864683032035828 0.06360413134098053 0.0003379533882252872 0.0 0.29640602078152467 -0.10899317471547272 0.4809000069994156 -1.2145439339899313 1.200837646761304 -1.2008376751547005 0.00727625805101598 0.019787722494654603 0.0 0.0 0.0 0.06675884127616882 -5.384041259954062e-07 2.8725934875022736e-07 -9.667192318484022e-07 1.9929477177920847e-10 -1.755968036046001e-08 -2.407384440608561e-08 0.2964060257301116 -0.10899317832832253 0.4808999999601586 -1.2145439310001134 1.200837696660264 -1.2008376964139678 0.007276258576962787 0.019787723599411163 0.0 0.0 0.0 0.06675884388878316
5852.472 0.011889357397510713 -1.5707963267948966 -1.5707963267948966 0.0 1.5707963267948966 0.0 0.06832964021557805 0.0 0.0 0.0 0.0 0.0 0.196349540849362 0.0 0.0 0.0 0.0 0.0 0.012255017827620592 0.48534123464327905 0.6864688528764418 0.06360530291776205 0.0003381089819333105 0.0 0.1609083840766584 6.372530410866255 6.3925352517560015 0.2890861017612285 0.001536705322886896 0.0 0.01188935711979866 -1.570796314870016 -1.570796314870016 0.0 1.5707963705062866 0.0 0.06832963973283768 0.0 0.0 0.0 0.0 0.0 0.012255017645657063 0.48534122109413147 0.6864688396453857 0.06360530108213425 0.0003381089773029089 0.0 0.012255017645657063 0.48534122109413147 0.6864688396453857 0.06360530108213425 0.0003381089773029089 0.0 0.29646487233401914 -0.10883299482265922 0.4809000069994156 -1.2147973224221684 1.2004392951624638 -1.2004393235464412 0.007436519327278093 0.020257337920025244 0.0 0.0 0.0 0.06832963973283768 -2.2598372980094757e-07 1.2668398651721028e-07 5.386509282569723e-07 -6.530736661408222e-10 5.4926497371612255e-08 -1.057368465426788e-08 0.296464877347531 -0.10883299826129235 0.4808999999601586 -1.214797319715809 1.2004393446312727 -1.200439344385058 0.007436519614776738 0.02025733840571227 0.0 0.0 0.0 0.06832964021557805
5852.48 0.012442277704542518 -1.5707963267948966 -1.5707963267948966 0.0 1.5707963267948966 0.0 0.06990043654237295 0.0 0.0 0.0 0.0 0.0 0.196349540849362 0.0 0.0 0.0 0.0 0.0 0.012255017827620592 0.48534427469971075 0.6864694397369101 0.06360650532965582 0.0003382682049941171 0.0 0.1609083840766584 6.372570326807203 6.392540716718055 0.28909156672328573 0.0015374289916982621 0.0 0.012442277744412422 -1.570796314870016 -1.570796314870016 0.0 1.5707963705062866 0.0 0.06990043818950653 0.0 0.0 0.0 0.0 0.0 0.012255017645657063 0.485344260931015 0.6864694356918335 0.06360650807619095 0.0003382682043593377 0.0 0.012255017645657063 0.485344260931015 0.6864694356918335 0.06360650807619095 0.0003382682043593377 0.0 0.2965250030206292 -0.10866905665234723 0.4809000069994156 -1.2150565035174985 1.2000316580570565 -1.2000316864313954 0.007596014677639381 0.020727227645286728 0.0 0.0 0.0 0.06990043818950653 -5.913210485078475e-07 3.133146905114482e-07 2.3517731088629181e-07 -1.0187087437462611e-09 8.187031644163713e-08 -2.625815789040039e-08 0.2965250080015303 -0.10866906018237876 0.4808999999601586 -1.2150565006746508 1.2000317077563258 -1.2000317075101947 0.007596014745397674 0.0207272275050376 0.0 0.0 0.0 0.06990043654237295
5852.487999999999 0.013007764382188682 -1.5707963267948966 -1.5707963267948966 0.0 1.5707963267948966 0.0 0.07147123286916784 0.0 0.0 0.0 0.0 0.0 0.196349540849362 0.0 0.0 0.0 0.0 0.0 0.012255017827620592 0.48534738384833426 0.6864700399351167 0.06360773506909265 0.00033843104676085093 0.0 0.1609083840766584 6.3726111499286295 6.392546305883793 0.28909715588902607 0.0015381691075280674 0.0 0.01300776470452547 -1.570796314870016 -1.570796314870016 0.0 1.5707963705062866 0.0 0.07147122919559479 0.0 0.0 0.0 0.0 0.0 0.012255017645657063 0.4853473901748657 0.6864700317382812 0.06360773742198944 0.0003384310402907431 0.0 0.012255017645657063 0.4853473901748657 0.6864700317382812 0.06360773742198944 0.0003384310402907431 0.0 0.2965864065411442 -0.10850135826387769 0.4809000069994156 -1.2153214699180646 1.1996147347052422 -1.1996147630697234 0.007754725444510945 0.021197395038199972 0.0 0.0 0.0 0.07147122919559479 6.584925544459956e-07 -3.2506393510235134e-07 4.08086706482714e-07 1.5245293966930856e-10 -1.1719498237379052e-08 2.7351388983978947e-08 0.29658641149339265 -0.10850136187486786 0.4808999999601586 -1.2153214669555772 1.199614784609021 -1.1996147843629756 0.007754726101180531 0.021197396481675106 0.0 0.0 0.0 0.07147123286916784
5852.496 0.013585817430449204 -1.5707963267948966 -1.5707963267948966 0.0 1.5707963267948966 0.0 0.07304202919596274 0.0 0.0 0.0 0.0 0.0 0.196349540849362 0.0 0.0 0.0 0.0 0.0 0.012255017827620592 0.48535056208914945 0.6864706534710611 0.06360899213607252 0.0003385975072335123 0.0 0.1609083840766584 6.3726528802305324 6.392552019253215 0.2891028692584496 0.0015389256703763133 0.0 0.013585817068815231 -1.570796314870016 -1.570796314870016 0.0 1.5707963705062866 0.0 0.07304202765226364 0.0 0.0 0.0 0.0 0.0 0.012255017645657063 0.4853505492210388 0.686470627784729 0.06360898911952972 0.00033859751420095563 0.0 0.012255017645657063 0.4853505492210388 0.686470627784729 0.06360898911952972 0.00033859751420095563 0.0 0.2966490764529621 -0.10832989767234065 0.4809000069994156 -1.2155922141106763 1.1991885243361773 -1.1991885526905808 0.007912635381349996 0.02166785004529573 0.0 0.0 0.0 0.07304202765226364 2.9015649394100483e-07 -1.3659469540181884e-07 1.0573790193950242e-06 -6.559728916035035e-10 4.8280508056750846e-08 1.147724808161871e-08 0.2966490814813917 -0.10832990107756826 0.4808999999601586 -1.2155922114814977 1.199188573731808 -1.1991885734858498 0.007912635797303497 0.021667850870519343 0.0 0.0 0.0 0.07304202919596274
5852.504 0.014176436849324087 -1.5707963267948966 -1.5707963267948966 0.0 1.5707963267948966 0.0 0.07461282552275764 0.0 0.0 0.0 0.0 0.0 0.196349540849362 0.0 0.0 0.0 0.0 0.0 0.01225501782762059 0.485353809422156 0.6864712803447434 0.06361027653059541 0.000338767586412101 0.0 0.16090838407665836 6.372695517712909 6.392557856826318 0.2891087068315561 0.0015396986802429992 0.0 0.014176436699926853 -1.570796314870016 -1.570796314870016 0.0 1.5707963705062866 0.0 0.0746128261089325 0.0 0.0 0.0 0.0 0.0 0.012255017645657063 0.4853537976741791 0.6864712834358215 0.06361027806997299 0.0003387675969861448 0.0 0.012255017645657063 0.4853537976741791 0.6864712834358215 0.06361027806997299 0.0003387675969861448 0.0 0.2967130064731671 -0.10815467201998023 0.4809000069994156 -1.2158687297347301 1.1987530240878814 -1.198753052431988 0.008069725736295412 0.02213859595624098 0.0 0.0 0.0 0.0746128261089325 -7.56920871216894e-07 3.965183638976149e-07 -1.02172430624483e-07 -8.89479776886899e-10 6.273919569483531e-08 -3.339844618522903e-08 0.2967130114806525 -0.10815467548521078 0.4808999999601586 -1.2158687270193744 1.1987530736360705 -1.1987530733902019 0.008069725931448505 0.02213859615593791 0.0 0.0 0.0 0.07461282552275764
5852.512 0.014779622638813328 -1.5707963267948966 -1.5707963267948966 0.0 1.5707963267948966 0.0 0.07618362184955255 0.0 0.0 0.0 0.0 0.0 0.19634954084936374 0.0 0.0 0.0 0.0 0.0 0.012255017827620701 0.48535712584735446 0.6864719205561636 0.06361158825266135 0.00033894128429662026 0.0 0.1609083840766598 6.372739062375764 6.392563818603106 0.2891146686083458 0.001540488137128139 0.0 0.014779622666537762 -1.570796314870016 -1.570796314870016 0.0 1.5707963705062866 0.0 0.07618362456560135 0.0 0.0 0.0 0.0 0.0 0.012255017645657063 0.4853571355342865 0.6864719390869141 0.06361158937215805 0.00033894128864631057 0.0 0.012255017645657063 0.4853571355342865 0.6864719390869141 0.06361158937215805 0.00033894128864631057 0.0 0.29677818987256094 -0.10797567923408184 0.4809000069994156 -1.2161510089650531 1.1983082331274308 -1.19830826146102 0.008225978608985088 0.022609638196509935 0.0 0.0 0.0 0.07618362456560135 -1.8781712321277692e-07 1.0664188543045513e-07 -7.853408822212528e-07 6.404889207897102e-10 -4.3332647407132195e-08 -8.980121697120967e-09 0.2967781948630108 -0.10797568274885715 0.4808999999601586 -1.2161510061803122 1.1983082828022151 -1.1983082825564373 0.008225978583486187 0.022609637770636435 0.0 0.0 0.0 0.07618362184955255
5852.5199999999995 0.015395374798916929 -1.5707963267948966 -1.5707963267948966 0.0 1.5707963267948966 0.0 0.07775441817634744 0.0 0.0 0.0 0.0 0.0 0.196349540849362 0.0 0.0 0.0 0.0 0.0 0.012255017827620592 0.4853605113647445 0.6864725741053216 0.06361292730227035 0.000339118600887061 0.0 0.1609083840766584 6.372783514219095 6.392569904583577 0.2891207545888187 0.001541294041031692 0.0 0.015395374968647957 -1.570796314870016 -1.570796314870016 0.0 1.5707963705062866 0.0 0.0777544155716896 0.0 0.0 0.0 0.0 0.0 0.012255017645657063 0.4853605031967163 0.6864725947380066 0.0636129304766655 0.000339118589181453 0.0 0.012255017645657063 0.4853605031967163 0.6864725947380066 0.0636129304766655 0.000339118589181453 0.0 0.2968446198795631 -0.1077929169224623 0.4809000069994156 -1.2164390442569961 1.197854149904345 -1.1978541782271976 0.008381375258073746 0.023080979934335784 0.0 0.0 0.0 0.0777544155716896 -1.2387264397370338e-06 6.393160249090046e-07 -8.333320964556296e-07 -7.859111745750142e-10 5.1044428969182716e-08 -5.386240504890536e-08 0.29684462485686897 -0.10779292047631794 0.4808999999601586 -1.216439041419644 1.1978541996797571 -1.1978541994340728 0.00838137581516539 0.02308098109452197 0.0 0.0 0.0 0.07775441817634744
5852.527999999999 0.016023693329634887 -1.5707963267948966 -1.5707963267948966 0.0 1.5707963267948966 0.0 0.07932521450314234 0.0 0.0 0.0 0.0 0.0 0.196349540849362 0.0 0.0 0.0 0.0 0.0 0.012255017827620592 0.485363965974326 0.6864732409922177 0.06361429367942238 0.000339299536183432 0.0 0.1609083840766584 6.3728288732429 6.39257611476773 0.28912696477297467 0.0015421163919536983 0.0 0.01602369360625744 -1.570796314870016 -1.570796314870016 0.0 1.5707963705062866 0.0 0.07932521402835846 0.0 0.0 0.0 0.0 0.0 0.012255017645657063 0.4853639602661133 0.6864732503890991 0.06361429393291473 0.0003392995276954025 0.0 0.012255017645657063 0.4853639602661133 0.6864732503890991 0.06361429393291473 0.0003392995276954025 0.0 0.29691228957901417 -0.10760638265011446 0.4809000069994156 -1.2167328279102323 1.1973907728373447 -1.1973908011492411 0.008535899334537769 0.023552630918505242 0.0 0.0 0.0 0.07932521402835846 -6.724729512968997e-07 3.5156951544552224e-07 -4.0494030227511906e-07 -3.9889186396592863e-10 2.4891722594954516e-08 -2.9633746918118948e-08 0.2969122945470497 -0.1076063862325795 0.4808999999601586 -1.2167328250370215 1.197390822687414 -1.1973908224418244 0.008535899669807352 0.0235526314535649 0.0 0.0 0.0 0.07932521450314234
5852.536 0.016664578230967207 -1.5707963267948966 -1.5707963267948966 0.0 1.5707963267948966 0.0 0.08089601082993723 0.0 0.0 0.0 0.0 0.0 0.196349540849362 0.0 0.0 0.0 0.0 0.0 0.012255017827620592 0.48536748967609933 0.6864739212168517 0.06361568738411745 0.00033948409018573044 0.0 0.1609083840766584 6.372875139447184 6.392582449155567 0.2891332991608138 0.0015429551898941448 0.0 0.016664577648043633 -1.570796314870016 -1.570796314870016 0.0 1.5707963705062866 0.0 0.08089601248502731 0.0 0.0 0.0 0.0 0.0 0.012255017645657063 0.48536747694015503 0.6864739060401917 0.06361568719148636 0.0003394841041881591 0.0 0.012255017645657063 0.48536747694015503 0.6864739060401917 0.06361568719148636 0.0003394841041881591 0.0 0.2969811918119881 -0.10741607421622847 0.4809000069994156 -1.2170323516336803 1.1969181010013432 -1.1969181293020636 0.008689532080888638 0.024024594200640882 0.0 0.0 0.0 0.08089601248502731 -1.0738887487279785e-07 6.57143804799263e-08 6.586287679888939e-07 -1.0354430480912502e-09 6.212846397006104e-08 -5.591462540891522e-09 0.29698119687464775 -0.10741607754023978 0.4808999999601586 -1.2170323491765076 1.1969181502131938 -1.1969181499677015 0.008689532172004615 0.024024594118659225 0.0 0.0 0.0 0.08089601082993723
5852.544 0.017318029502913886 -1.5707963267948966 -1.5707963267948966 0.0 1.5707963267948966 0.0 0.08246680715673213 0.0 0.0 0.0 0.0 0.0 0.196349540849362 0.0 0.0 0.0 0.0 0.0 0.012255017827620592 0.4853710824700641 0.6864746147792237 0.06361710841635557 0.00033967226289395634 0.0 0.1609083840766584 6.3729223128319425 6.392588907747086 0.289139757752336 0.0015438104348530315 0.0 0.017318028956651688 -1.570796314870016 -1.570796314870016 0.0 1.5707963705062866 0.0 0.08246680349111557 0.0 0.0 0.0 0.0 0.0 0.012255017645657063 0.48537108302116394 0.686474621295929 0.06361711025238037 0.0003396722604520619 0.0 0.012255017645657063 0.48537108302116394 0.686474621295929 0.06361711025238037 0.0003396722604520619 0.0 0.29705131957597886 -0.10722198854836118 0.4809000069994156 -1.2173376082864595 1.196436131379983 -1.1964361596693072 0.008842254659544345 0.02449687279824882 0.0 0.0 0.0 0.08246680349111557 -2.215292403627991e-07 1.2290684218329328e-07 -2.4544024076488174e-07 -1.2063496217680232e-10 6.965159997631412e-09 -1.0367652842266899e-08 0.2970513246368785 -0.10722199187995389 0.4808999999601586 -1.2173376058266683 1.196436180614492 -1.1964361803690986 0.008842255327324855 0.024496874304481293 0.0 0.0 0.0 0.08246680715673213
5852.552 0.017984047145474923 -1.5707963267948966 -1.5707963267948966 0.0 1.5707963267948966 0.0 0.08403760348352703 0.0 0.0 0.0 0.0 0.0 0.196349540849362 0.0 0.0 0.0 0.0 0.0 0.01225501782762059 0.48537474435622063 0.6864753216793335 0.06361855677613668 0.0003398640543081097 0.0 0.16090838407665836 6.3729703933971775 6.392595490542289 0.2891463405475412 0.0015446821268303586 0.0 0.017984047532081604 -1.570796314870016 -1.570796314870016 0.0 1.5707963705062866 0.0 0.08403760194778442 0.0 0.0 0.0 0.0 0.0 0.012255017645657063 0.4853747487068176 0.6864753365516663 0.06361855566501617 0.00033986405469477177 0.0 0.012255017645657063 0.4853747487068176 0.6864753365516663 0.06361855566501617 0.00033986405469477177 0.0 0.297122665523647 -0.10702412308549028 0.4809000069994156 -1.217648589701151 1.1959448623000195 -1.1959448905777277 0.008994050654669117 0.02496947629494094 0.0 0.0 0.0 0.08403760194778442 -3.3727764247990434e-07 1.8112465981802594e-07 -6.731262928902309e-07 5.696174105248338e-10 -3.16699703647647e-08 -1.5330216677329706e-08 0.297122670486925 -0.1070241266908881 0.4808999999601586 -1.2176485868206703 1.195944912218186 -1.195944911972893 0.008994051122019614 0.024969477168346858 0.0 0.0 0.0 0.08403760348352703
5852.5599999999995 0.018662631158650318 -1.5707963267948966 -1.5707963267948966 0.0 1.5707963267948966 0.0 0.08560839981032192 0.0 0.0 0.0 0.0 0.0 0.196349540849362 0.0 0.0 0.0 0.0 0.0 0.012255017827620592 0.4853784753345687 0.686476041917181 0.06362003246346087 0.00034005946442819044 0.0 0.1609083840766584 6.373019381142887 6.392602197541173 0.2891530475464297 0.0015455702658261255 0.0 0.018662631511688232 -1.570796314870016 -1.570796314870016 0.0 1.5707963705062866 0.0 0.08560840040445328 0.0 0.0 0.0 0.0 0.0 0.012255017645657063 0.4853784739971161 0.6864760518074036 0.06362003087997437 0.0003400594578124583 0.0 0.012255017645657063 0.4853784739971161 0.6864760518074036 0.06362003087997437 0.0003400594578124583 0.0 0.2971952219644727 -0.10682247577913091 0.4809000069994156 -1.2179652866859194 1.1954442934318388 -1.1954443216977113 0.00914490127869485 0.025442407560224943 0.0 0.0 0.0 0.08560840040445328 -4.546268921539667e-07 2.397401472193434e-07 -4.6563507011531474e-07 1.2911364717151032e-10 -6.917452908557354e-09 -2.0296074951099795e-08 0.297195226933782 -0.10682247937118344 0.4808999999601586 -1.2179652838363753 1.1954443433207305 -1.1954443430755404 0.009144901522738138 0.02544240780906656 0.0 0.0 0.0 0.08560839981032192
5852.567999999999 0.019353781542440072 -1.5707963267948966 -1.5707963267948966 0.0 1.5707963267948966 0.0 0.08717919613711683 0.0 0.0 0.0 0.0 0.0 0.19634954084936374 0.0 0.0 0.0 0.0 0.0 0.012255017827620701 0.48538227540510853 0.6864767754927668 0.0636215354783281 0.00034025849325420156 0.0 0.1609083840766598 6.373069276069075 6.392609028743743 0.28915987874900123 0.001546474851840346 0.0 0.019353780895471573 -1.570796314870016 -1.570796314870016 0.0 1.5707963705062866 0.0 0.08717919886112213 0.0 0.0 0.0 0.0 0.0 0.012255017645657063 0.4853822886943817 0.6864767670631409 0.06362153589725494 0.0003402584989089519 0.0 0.012255017645657063 0.4853822886943817 0.6864767670631409 0.06362153589725494 0.0003402584989089519 0.0 0.29726898126368956 -0.10661704398708205 0.4809000069994156 -1.2182876907640765 1.1949344230417096 -1.1949344512955262 0.009294788479734832 0.02591567163283038 0.0 0.0 0.0 0.08717919886112213 1.0484923090710997e-06 -5.155161995746356e-07 3.7703348141689687e-07 1.0806006355106478e-09 -5.5827040420456945e-08 4.384900741096577e-08 0.2972689863420981 -0.10661704727842827 0.4808999999601586 -1.2182876883964406 1.19493447218826 -1.1949344719431745 0.009294788476246357 0.025915671265799675 0.0 0.0 0.0 0.08717919613711683
5852.576 0.020057498296844188 -1.5707963267948966 -1.5707963267948966 0.0 1.5707963267948966 0.0 0.08874999246391173 0.0 0.0 0.0 0.0 0.0 0.196349540849362 0.0 0.0 0.0 0.0 0.0 0.012255017827620592 0.4853861445678398 0.6864775224060902 0.06362306582073837 0.0003404611407861341 0.0 0.1609083840766584 6.373120078175737 6.392615984149994 0.2891668341552559 0.0015473958848729796 0.0 0.020057497546076775 -1.570796314870016 -1.570796314870016 0.0 1.5707963705062866 0.0 0.08874998986721039 0.0 0.0 0.0 0.0 0.0 0.012255017645657063 0.4853861331939697 0.686477541923523 0.06362306326627731 0.0003404611488804221 0.0 0.012255017645657063 0.4853861331939697 0.686477541923523 0.06362306326627731 0.0003404611488804221 0.0 0.29734393584024704 -0.10640782447323245 0.4809000069994156 -1.2186157941720814 1.1944152479914525 -1.1944152762329934 0.009443693343791281 0.02638927129289838 0.0 0.0 0.0 0.08874998986721039 -1.3731853126883014e-06 6.998929837530551e-07 -9.067304569184029e-07 -6.038600766531866e-10 3.010241870932901e-08 -5.9602091594460354e-08 0.29734394093201544 -0.10640782773014014 0.4808999999601586 -1.2186157918684195 1.194415297056687 -1.1944152968117079 0.009443693909151155 0.026389272516906183 0.0 0.0 0.0 0.08874999246391173
5852.584 0.020773781421862664 -1.5707963267948966 -1.5707963267948966 0.0 1.5707963267948966 0.0 0.09032078879070662 0.0 0.0 0.0 0.0 0.0 0.196349540849362 0.0 0.0 0.0 0.0 0.0 0.012255017827620592 0.4853900828227628 0.6864782826571517 0.06362462349069167 0.00034066740702399725 0.0 0.1609083840766584 6.373171787462876 6.392623063759928 0.28917391376519364 0.0015483333649240674 0.0 0.020773781463503838 -1.570796314870016 -1.570796314870016 0.0 1.5707963705062866 0.0 0.09032078832387924 0.0 0.0 0.0 0.0 0.0 0.012255017645657063 0.4853900969028473 0.6864782571792603 0.06362462043762207 0.000340667407726869 0.0 0.012255017645657063 0.4853900969028473 0.6864782571792603 0.06362462043762207 0.000340667407726869 0.0 0.29742007776905754 -0.10619481451531881 0.4809000069994156 -1.2189495881218577 1.1938867664867319 -1.1938867947157772 0.009591599362931729 0.026863215887450748 0.0 0.0 0.0 0.09032078832387924 1.7508661581356736e-06 -8.653667388824132e-07 1.0474983742638209e-06 1.5777825043896573e-09 -7.593966279731102e-08 7.383371701268606e-08 0.29742008277900783 -0.10619481800425672 0.4808999999601586 -1.2189495854648618 1.1938868161318068 -1.1938868158869362 0.00959159972763 0.026863216478797247 0.0 0.0 0.0 0.09032078879070662
5852.592 0.021502630917495495 -1.5707963267948966 -1.5707963267948966 0.0 1.5707963267948966 0.0 0.09189158511750152 0.0 0.0 0.0 0.0 0.0 0.196349540849362 0.0 0.0 0.0 0.0 0.0 0.012255017827620592 0.4853940901698775 0.6864790562459511 0.06362620848818801 0.0003408772919677876 0.0 0.1609083840766584 6.373224403930492 6.392630267573546 0.2891811175788145 0.0015492872919935946 0.0 0.021502630785107613 -1.570796314870016 -1.570796314870016 0.0 1.5707963705062866 0.0 0.0918915867805481 0.0 0.0 0.0 0.0 0.0 0.012255017645657063 0.48539409041404724 0.6864790320396423 0.06362620741128922 0.00034087730455212295 0.0 0.012255017645657063 0.48539409041404724 0.6864790320396423 0.06362620741128922 0.00034087730455212295 0.0 0.2974973987827804 -0.1059780119061238 0.4809000069994156 -1.2192890628030737 1.1933489780776123 -1.1933490062939418 0.009738487677901534 0.02733750803723519 0.0 0.0 0.0 0.0918915867805481 9.484782516133499e-07 -4.625886573137918e-07 1.034089040769192e-06 6.1832114652137335e-12 -2.875545679488668e-10 3.949026395498291e-08 0.29749740381371553 -0.10597801533963608 0.4808999999601586 -1.2192890602434194 1.193349027589399 -1.1933490273446385 0.00973848781716605 0.027337508004783764 0.0 0.0 0.0 0.09189158511750152
5852.599999999999 0.02224404678374269 -1.5707963267948966 -1.5707963267948966 0.0 1.5707963267948966 0.0 0.09346238144429642 0.0 0.0 0.0 0.0 0.0 0.196349540849362 0.0 0.0 0.0 0.0 0.0 0.012255017827620592 0.48539816660918383 0.6864798431724887 0.06362782081322742 0.0003410907956175055 0.0 0.1609083840766584 6.3732779275785845 6.392637595590848 0.28918844559611856 0.0015502576660815623 0.0 0.02224404737353325 -1.570796314870016 -1.570796314870016 0.0 1.5707963705062866 0.0 0.09346237778663635 0.0 0.0 0.0 0.0 0.0 0.012255017645657063 0.48539817333221436 0.6864798665046692 0.06362782418727875 0.0003410907811485231 0.0 0.012255017645657063 0.48539817333221436 0.6864798665046692 0.06362782418727875 0.0003410907811485231 0.0 0.29757589086467556 -0.10575741329188175 0.4809000069994156 -1.2196342099861688 1.1928018795355992 -1.1928019077389929 0.00988433931482329 0.027812150332189176 0.0 0.0 0.0 0.09346237778663635 -5.35765761285447e-07 2.779863843979986e-07 -9.46958362638539e-07 3.7883624198163514e-10 -1.7028036616447974e-08 -2.367166380169024e-08 0.29757589582177923 -0.10575741693656596 0.4808999999601586 -1.2196342071069517 1.1928019295753358 -1.1928019293306875 0.009884340042288822 0.027812151883923344 0.0 0.0 0.0 0.09346238144429642
5852.608 0.02299802902060424 -1.5707963267948966 -1.5707963267948966 0.0 1.5707963267948966 0.0 0.09503317777109131 0.0 0.0 0.0 0.0 0.0 0.196349540849362 0.0 0.0 0.0 0.0 0.0 0.01225501782762059 0.4854023121406819 0.6864806434367638 0.06362946046580988 0.0003413079179731507 0.0 0.16090838407665836 6.373332358407153 6.392645047811833 0.28919589781710586 0.0015512444871879697 0.0 0.022998029366135597 -1.570796314870016 -1.570796314870016 0.0 1.5707963705062866 0.0 0.0950331762433052 0.0 0.0 0.0 0.0 0.0 0.012255017645657063 0.48540231585502625 0.6864806413650513 0.06362946331501007 0.0003413079248275608 0.0 0.012255017645657063 0.48540231585502625 0.6864806413650513 0.06362946331501007 0.0003413079248275608 0.0 0.2976555454580434 -0.10553301638904206 0.4809000069994156 -1.2199850195522353 1.1922454703512346 -1.192245498541472 0.010029137745987451 0.028287151911311384 0.0 0.0 0.0 0.0950331762433052 2.8239089656933653e-07 -1.293606393161587e-07 1.5119258233386202e-07 -3.4275739580307136e-11 1.4901002360837615e-09 1.1092529657797268e-08 0.2976555504436712 -0.10553301995728258 0.4808999999601586 -1.219985016803632 1.1922455202056899 -1.1922455199611557 0.010029138246320563 0.028287152839865444 0.0 0.0 0.0 0.09503317777109131
5852.616 0.023764577628080152 -1.5707963267948966 -1.5707963267948966 0.0 1.5707963267948966 0.0 0.09660397409788621 0.0 0.0 0.0 0.0 0.0 0.196349540849362 0.0 0.0 0.0 0.0 0.0 0.01225501782762059 0.4854065267643713 0.6864814570387769 0.06363112744593533 0.0003415286590347235 0.0 0.16090838407665836 6.373387696416196 6.392652624236499 0.28920347424177606 0.0015522477553128182 0.0 0.023764576762914658 -1.570796314870016 -1.570796314870016 0.0 1.5707963705062866 0.0 0.09660397469997406 0.0 0.0 0.0 0.0 0.0 0.012255017645657063 0.4854065179824829 0.6864814758300781 0.06363112479448318 0.00034152864827774465 0.0 0.012255017645657063 0.4854065179824829 0.6864814758300781 0.06363112479448318 0.00034152864827774465 0.0 0.2977363540586707 -0.10530481832254912 0.4809000069994156 -1.2203414820955993 1.1916797486110504 -1.1916797767879117 0.0101728640050169 0.028762515214746345 0.0 0.0 0.0 0.09660397469997406 -1.2062809113911277e-06 6.101889692255486e-07 -8.77088913848375e-07 -4.230890252252396e-10 1.7800015402101858e-08 -5.225906564691885e-08 0.2977363591745244 -0.10530482152649841 0.4808999999601586 -1.2203414799270584 1.191679797566843 -1.191679797322425 0.010172864251128382 0.0287625155296947 0.0 0.0 0.0 0.09660397409788621
5852.624 0.024543692606170415 -1.5707963267948966 -1.5707963267948966 0.0 1.5707963267948966 0.0 0.0981747704246811 0.0 0.0 0.0 0.0 0.0 0.196349540849362 0.0 0.0 0.0 0.0 0.0 0.012255017827620592 0.4854108104802526 0.6864822839785281 0.06363282175360384 0.0003417530188022236 0.0 0.1609083840766584 6.373443941605716 6.392660324864849 0.28921117487012943 0.001553267470456106 0.0 0.02454369328916073 -1.570796314870016 -1.570796314870016 0.0 1.5707963705062866 0.0 0.09817477315664291 0.0 0.0 0.0 0.0 0.0 0.012255017645657063 0.48541080951690674 0.686482310295105 0.06363282352685928 0.0003417530097067356 0.0 0.012255017645657063 0.48541080951690674 0.686482310295105 0.06363282352685928 0.0003417530097067356 0.0 0.2978183084082811 -0.10507281507090774 0.4809000069994156 -1.2207035897870562 1.191104709622396 -1.1911047377856605 0.010315499784516258 0.029238244869878117 0.0 0.0 0.0 0.09817477315664291 -1.0713493601201028e-06 5.421379079076031e-07 -1.1113987663705822e-06 -1.7945599077217687e-10 7.310258190744148e-09 -4.649972032492205e-08 0.29781831336396036 -0.10507281873193934 0.4808999999601586 -1.2207035869163612 1.1911047597155966 -1.1911047594712965 0.010315499856882277 0.029238244542772546 0.0 0.0 0.0 0.0981747704246811
