Fleaurent/UniversalRobot/csv/ursim_movel_x400.csv
timestamp target_q_0 target_q_1 target_q_2 target_q_3 target_q_4 target_q_5 target_qd_0 target_qd_1 target_qd_2 target_qd_3 target_qd_4 target_qd_5 target_qdd_0 target_qdd_1 target_qdd_2 target_qdd_3 target_qdd_4 target_qdd_5 target_current_0 target_current_1 target_current_2 target_current_3 target_current_4 target_current_5 target_moment_0 target_moment_1 target_moment_2 target_moment_3 target_moment_4 target_moment_5 actual_q_0 actual_q_1 actual_q_2 actual_q_3 actual_q_4 actual_q_5 actual_qd_0 actual_qd_1 actual_qd_2 actual_qd_3 actual_qd_4 actual_qd_5 actual_current_0 actual_current_1 actual_current_2 actual_current_3 actual_current_4 actual_current_5 joint_control_output_0 joint_control_output_1 joint_control_output_2 joint_control_output_3 joint_control_output_4 joint_control_output_5 actual_TCP_pose_0 actual_TCP_pose_1 actual_TCP_pose_2 actual_TCP_pose_3 actual_TCP_pose_4 actual_TCP_pose_5 actual_TCP_speed_0 actual_TCP_speed_1 actual_TCP_speed_2 actual_TCP_speed_3 actual_TCP_speed_4 actual_TCP_speed_5 actual_TCP_force_0 actual_TCP_force_1 actual_TCP_force_2 actual_TCP_force_3 actual_TCP_force_4 actual_TCP_force_5 target_TCP_pose_0 target_TCP_pose_1 target_TCP_pose_2 target_TCP_pose_3 target_TCP_pose_4 target_TCP_pose_5 target_TCP_speed_0 target_TCP_speed_1 target_TCP_speed_2 target_TCP_speed_3 target_TCP_speed_4 target_TCP_speed_5
5998.504 -0.3527446235783671 -1.8721694061323095 -1.6035221024492134 0.3342271727141579 1.9237026850968149 0.000164740312183831 0.0 0.0 0.0 0.0 0.0 0.0 0.0 0.0 0.0 0.0 0.0 0.0 -2.0424138718205872e-17 0.7198734422690871 0.6485245092712707 0.060115228472605316 -2.8425992629702053e-06 0.0 -2.681689413700431e-16 9.451938296993113 6.039189935235927 0.2732237134079912 -1.2919613650199583e-05 0.0 -0.3527444044696253 -1.872169319783346 -1.6035221258746546 0.33422717452049255 1.9237027168273926 0.00016474031144753098 0.0 0.0 0.0 0.0 0.0 0.0 -2.042413818895097e-17 0.7198734283447266 0.6485245227813721 0.060115229338407516 -2.842599315044936e-06 0.0 -2.042413818895097e-17 0.7198734283447266 0.6485245227813721 0.060115229338407516 -2.842599315044936e-06 0.0 0.3000000239117409 -0.1999999243390919 0.4000000238953417 -1.2090988127156799 1.2090484906990822 -1.2090485909104884 0.0 0.0 0.0 0.0 0.0 0.0 -1.0890554892296405e-06 9.987661850703712e-07 -1.3043891464708918e-07 -9.235716740979446e-12 1.178632560504953e-07 -8.181886395634881e-08 0.30000000000000016 -0.20000000000000007 0.4 -1.2090987223823242 1.2090487307044393 -1.2090487304564579 0.0 0.0 0.0 0.0 0.0 0.0
5998.512 -0.3527446235783671 -1.8721694061323095 -1.6035221024492134 0.3342271727141579 1.9237026850968149 0.000164740312183831 0.0 0.0 0.0 0.0 0.0 0.0 0.0 0.0 0.0 0.0 0.0 0.0 -2.0424138718205872e-17 0.7198734422690871 0.6485245092712707 0.060115228472605316 -2.8425992629702053e-06 0.0 -2.681689413700431e-16 9.451938296993113 6.039189935235927 0.2732237134079912 -1.2919613650199583e-05 0.0 -0.3527444044696253 -1.872169319783346 -1.6035221258746546 0.33422717452049255 1.9237027168273926 0.00016474031144753098 0.0 0.0 0.0 0.0 0.0 0.0 -2.042413818895097e-17 0.7198734283447266 0.6485245227813721 0.060115229338407516 -2.842599315044936e-06 0.0 -2.042413818895097e-17 0.7198734283447266 0.6485245227813721 0.060115229338407516 -2.842599315044936e-06 0.0 0.3000000239117409 -0.1999999243390919 0.4000000238953417 -1.2090988127156799 1.2090484906990822 -1.2090485909104884 0.0 0.0 0.0 0.0 0.0 0.0 -1.0890554892296405e-06 9.987661850703712e-07 -1.3043891464708918e-07 -9.235716740979446e-12 1.178632560504953e-07 -8.181886395634881e-08 0.30000000000000016 -0.20000000000000007 0.4 -1.2090987223823242 1.2090487307044393 -1.2090487304564579 0.0 0.0 0.0 0.0 0.0 0.0
5998.5199999999995 -0.3527446235783671 -1.8721694061323095 -1.6035221024492134 0.3342271727141579 1.9237026850968149 0.000164740312183831 0.0 0.0 0.0 0.0 0.0 0.0 0.0 0.0 0.0 0.0 0.0 0.0 -2.0424138718205872e-17 0.7198734422690871 0.6485245092712707 0.060115228472605316 -2.8425992629702053e-06 0.0 -2.681689413700431e-16 9.451938296993113 6.039189935235927 0.2732237134079912 -1.2919613650199583e-05 0.0 -0.3527444044696253 -1.872169319783346 -1.6035221258746546 0.33422717452049255 1.9237027168273926 0.00016474031144753098 0.0 0.0 0.0 0.0 0.0 0.0 -2.042413818895097e-17 0.7198734283447266 0.6485245227813721 0.060115229338407516 -2.842599315044936e-06 0.0 -2.042413818895097e-17 0.7198734283447266 0.6485245227813721 0.060115229338407516 -2.842599315044936e-06 0.0 0.3000000239117409 -0.1999999243390919 0.4000000238953417 -1.2090988127156799 1.2090484906990822 -1.2090485909104884 0.0 0.0 0.0 0.0 0.0 0.0 -1.0890554892296405e-06 9.987661850703712e-07 -1.3043891464708918e-07 -9.235716740979446e-12 1.178632560504953e-07 -8.181886395634881e-08 0.30000000000000016 -0.20000000000000007 0.4 -1.2090987223823242 1.2090487307044393 -1.2090487304564579 0.0 0.0 0.0 0.0 0.0 0.0
5998.527999999999 -0.3527446235783671 -1.8721694061323095 -1.6035221024492134 0.3342271727141579 1.9237026850968149 0.000164740312183831 0.0 0.0 0.0 0.0 0.0 0.0 0.0 0.0 0.0 0.0 0.0 0.0 -2.0424138718205872e-17 0.7198734422690871 0.6485245092712707 0.060115228472605316 -2.8425992629702053e-06 0.0 -2.681689413700431e-16 9.451938296993113 6.039189935235927 0.2732237134079912 -1.2919613650199583e-05 0.0 -0.3527444044696253 -1.872169319783346 -1.6035221258746546 0.33422717452049255 1.9237027168273926 0.00016474031144753098 0.0 0.0 0.0 0.0 0.0 0.0 -2.042413818895097e-17 0.7198734283447266 0.6485245227813721 0.060115229338407516 -2.842599315044936e-06 0.0 -2.042413818895097e-17 0.7198734283447266 0.6485245227813721 0.060115229338407516 -2.842599315044936e-06 0.0 0.3000000239117409 -0.1999999243390919 0.4000000238953417 -1.2090988127156799 1.2090484906990822 -1.2090485909104884 0.0 0.0 0.0 0.0 0.0 0.0 -1.0890554892296405e-06 9.987661850703712e-07 -1.3043891464708918e-07 -9.235716740979446e-12 1.178632560504953e-07 -8.181886395634881e-08 0.30000000000000016 -0.20000000000000007 0.4 -1.2090987223823242 1.2090487307044393 -1.2090487304564579 0.0 0.0 0.0 0.0 0.0 0.0
5998.536 -0.3527446235783671 -1.8721694061323095 -1.6035221024492134 0.3342271727141579 1.9237026850968149 0.000164740312183831 0.0 0.0 0.0 0.0 0.0 0.0 0.0 0.0 0.0 0.0 0.0 0.0 -2.0424138718205872e-17 0.7198734422690871 0.6485245092712707 0.060115228472605316 -2.8425992629702053e-06 0.0 -2.681689413700431e-16 9.451938296993113 6.039189935235927 0.2732237134079912 -1.2919613650199583e-05 0.0 -0.3527444044696253 -1.872169319783346 -1.6035221258746546 0.33422717452049255 1.9237027168273926 0.00016474031144753098 0.0 0.0 0.0 0.0 0.0 0.0 -2.042413818895097e-17 0.7198734283447266 0.6485245227813721 0.060115229338407516 -2.842599315044936e-06 0.0 -2.042413818895097e-17 0.7198734283447266 0.6485245227813721 0.060115229338407516 -2.842599315044936e-06 0.0 0.3000000239117409 -0.1999999243390919 0.4000000238953417 -1.2090988127156799 1.2090484906990822 -1.2090485909104884 0.0 0.0 0.0 0.0 0.0 0.0 -1.0890554892296405e-06 9.987661850703712e-07 -1.3043891464708918e-07 -9.235716740979446e-12 1.178632560504953e-07 -8.181886395634881e-08 0.30000000000000016 -0.20000000000000007 0.4 -1.2090987223823242 1.2090487307044393 -1.2090487304564579 0.0 0.0 0.0 0.0 0.0 0.0
5998.544 -0.3527446235783671 -1.8721694061323095 -1.6035221024492134 0.3342271727141579 1.9237026850968149 0.000164740312183831 0.0 0.0 0.0 0.0 0.0 0.0 0.0 0.0 0.0 0.0 0.0 0.0 -2.0424138718205872e-17 0.7198734422690871 0.6485245092712707 0.060115228472605316 -2.8425992629702053e-06 0.0 -2.681689413700431e-16 9.451938296993113 6.039189935235927 0.2732237134079912 -1.2919613650199583e-05 0.0 -0.3527444044696253 -1.872169319783346 -1.6035221258746546 0.33422717452049255 1.9237027168273926 0.00016474031144753098 0.0 0.0 0.0 0.0 0.0 0.0 -2.042413818895097e-17 0.7198734283447266 0.6485245227813721 0.060115229338407516 -2.842599315044936e-06 0.0 -2.042413818895097e-17 0.7198734283447266 0.6485245227813721 0.060115229338407516 -2.842599315044936e-06 0.0 0.3000000239117409 -0.1999999243390919 0.4000000238953417 -1.2090988127156799 1.2090484906990822 -1.2090485909104884 0.0 0.0 0.0 0.0 0.0 0.0 -1.0890554892296405e-06 9.987661850703712e-07 -1.3043891464708918e-07 -9.235716740979446e-12 1.178632560504953e-07 -8.181886395634881e-08 0.30000000000000016 -0.20000000000000007 0.4 -1.2090987223823242 1.2090487307044393 -1.2090487304564579 0.0 0.0 0.0 0.0 0.0 0.0
5998.552 -0.3527446235783671 -1.8721694061323095 -1.6035221024492134 0.3342271727141579 1.9237026850968149 0.000164740312183831 0.0 0.0 0.0 0.0 0.0 0.0 0.0 0.0 0.0 0.0 0.0 0.0 -2.0424138718205872e-17 0.7198734422690871 0.6485245092712707 0.060115228472605316 -2.8425992629702053e-06 0.0 -2.681689413700431e-16 9.451938296993113 6.039189935235927 0.2732237134079912 -1.2919613650199583e-05 0.0 -0.3527444044696253 -1.872169319783346 -1.6035221258746546 0.33422717452049255 1.9237027168273926 0.00016474031144753098 0.0 0.0 0.0 0.0 0.0 0.0 -2.042413818895097e-17 0.7198734283447266 0.6485245227813721 0.060115229338407516 -2.842599315044936e-06 0.0 -2.042413818895097e-17 0.7198734283447266 0.6485245227813721 0.060115229338407516 -2.842599315044936e-06 0.0 0.3000000239117409 -0.1999999243390919 0.4000000238953417 -1.2090988127156799 1.2090484906990822 -1.2090485909104884 0.0 0.0 0.0 0.0 0.0 0.0 -1.0890554892296405e-06 9.987661850703712e-07 -1.3043891464708918e-07 -9.235716740979446e-12 1.178632560504953e-07 -8.181886395634881e-08 0.30000000000000016 -0.20000000000000007 0.4 -1.2090987223823242 1.2090487307044393 -1.2090487304564579 0.0 0.0 0.0 0.0 0.0 0.0
5998.5599999999995 -0.3527446235783671 -1.8721694061323095 -1.6035221024492134 0.3342271727141579 1.9237026850968149 0.000164740312183831 0.0 0.0 0.0 0.0 0.0 0.0 0.0 0.0 0.0 0.0 0.0 0.0 -2.0424138718205872e-17 0.7198734422690871 0.6485245092712707 0.060115228472605316 -2.8425992629702053e-06 0.0 -2.681689413700431e-16 9.451938296993113 6.039189935235927 0.2732237134079912 -1.2919613650199583e-05 0.0 -0.3527444044696253 -1.872169319783346 -1.6035221258746546 0.33422717452049255 1.9237027168273926 0.00016474031144753098 0.0 0.0 0.0 0.0 0.0 0.0 -2.042413818895097e-17 0.7198734283447266 0.6485245227813721 0.060115229338407516 -2.842599315044936e-06 0.0 -2.042413818895097e-17 0.7198734283447266 0.6485245227813721 0.060115229338407516 -2.842599315044936e-06 0.0 0.3000000239117409 -0.1999999243390919 0.4000000238953417 -1.2090988127156799 1.2090484906990822 -1.2090485909104884 0.0 0.0 0.0 0.0 0.0 0.0 -1.0890554892296405e-06 9.987661850703712e-07 -1.3043891464708918e-07 -9.235716740979446e-12 1.178632560504953e-07 -8.181886395634881e-08 0.30000000000000016 -0.20000000000000007 0.4 -1.2090987223823242 1.2090487307044393 -1.2090487304564579 0.0 0.0 0.0 0.0 0.0 0.0
5998.567999999999 -0.3527446235783671 -1.8721694061323095 -1.6035221024492134 0.3342271727141579 1.9237026850968149 0.000164740312183831 0.0 0.0 0.0 0.0 0.0 0.0 0.0 0.0 0.0 0.0 0.0 0.0 -2.0424138718205872e-17 0.7198734422690871 0.6485245092712707 0.060115228472605316 -2.8425992629702053e-06 0.0 -2.681689413700431e-16 9.451938296993113 6.039189935235927 0.2732237134079912 -1.2919613650199583e-05 0.0 -0.3527444044696253 -1.872169319783346 -1.6035221258746546 0.33422717452049255 1.9237027168273926 0.00016474031144753098 0.0 0.0 0.0 0.0 0.0 0.0 -2.042413818895097e-17 0.7198734283447266 0.6485245227813721 0.060115229338407516 -2.842599315044936e-06 0.0 -2.042413818895097e-17 0.7198734283447266 0.6485245227813721 0.060115229338407516 -2.842599315044936e-06 0.0 0.3000000239117409 -0.1999999243390919 0.4000000238953417 -1.2090988127156799 1.2090484906990822 -1.2090485909104884 0.0 0.0 0.0 0.0 0.0 0.0 -1.0890554892296405e-06 9.987661850703712e-07 -1.3043891464708918e-07 -9.235716740979446e-12 1.178632560504953e-07 -8.181886395634881e-08 0.30000000000000016 -0.20000000000000007 0.4 -1.2090987223823242 1.2090487307044393 -1.2090487304564579 0.0 0.0 0.0 0.0 0.0 0.0
5998.576 -0.3527446235783671 -1.8721694061323095 -1.6035221024492134 0.3342271727141579 1.9237026850968149 0.000164740312183831 0.0 0.0 0.0 0.0 0.0 0.0 0.0 0.0 0.0 0.0 0.0 0.0 -2.0424138718205872e-17 0.7198734422690871 0.6485245092712707 0.060115228472605316 -2.8425992629702053e-06 0.0 -2.681689413700431e-16 9.451938296993113 6.039189935235927 0.2732237134079912 -1.2919613650199583e-05 0.0 -0.3527444044696253 -1.872169319783346 -1.6035221258746546 0.33422717452049255 1.9237027168273926 0.00016474031144753098 0.0 0.0 0.0 0.0 0.0 0.0 -2.042413818895097e-17 0.7198734283447266 0.6485245227813721 0.060115229338407516 -2.842599315044936e-06 0.0 -2.042413818895097e-17 0.7198734283447266 0.6485245227813721 0.060115229338407516 -2.842599315044936e-06 0.0 0.3000000239117409 -0.1999999243390919 0.4000000238953417 -1.2090988127156799 1.2090484906990822 -1.2090485909104884 0.0 0.0 0.0 0.0 0.0 0.0 -1.0890554892296405e-06 9.987661850703712e-07 -1.3043891464708918e-07 -9.235716740979446e-12 1.178632560504953e-07 -8.181886395634881e-08 0.30000000000000016 -0.20000000000000007 0.4 -1.2090987223823242 1.2090487307044393 -1.2090487304564579 0.0 0.0 0.0 0.0 0.0 0.0
5998.584 -0.3527446235783671 -1.8721694061323095 -1.6035221024492134 0.3342271727141579 1.9237026850968149 0.000164740312183831 0.0 0.0 0.0 0.0 0.0 0.0 0.0 0.0 0.0 0.0 0.0 0.0 -2.0424138718205872e-17 0.7198734422690871 0.6485245092712707 0.060115228472605316 -2.8425992629702053e-06 0.0 -2.681689413700431e-16 9.451938296993113 6.039189935235927 0.2732237134079912 -1.2919613650199583e-05 0.0 -0.3527444044696253 -1.872169319783346 -1.6035221258746546 0.33422717452049255 1.9237027168273926 0.00016474031144753098 0.0 0.0 0.0 0.0 0.0 0.0 -2.042413818895097e-17 0.7198734283447266 0.6485245227813721 0.060115229338407516 -2.842599315044936e-06 0.0 -2.042413818895097e-17 0.7198734283447266 0.6485245227813721 0.060115229338407516 -2.842599315044936e-06 0.0 0.3000000239117409 -0.1999999243390919 0.4000000238953417 -1.2090988127156799 1.2090484906990822 -1.2090485909104884 0.0 0.0 0.0 0.0 0.0 0.0 -1.0890554892296405e-06 9.987661850703712e-07 -1.3043891464708918e-07 -9.235716740979446e-12 1.178632560504953e-07 -8.181886395634881e-08 0.30000000000000016 -0.20000000000000007 0.4 -1.2090987223823242 1.2090487307044393 -1.2090487304564579 0.0 0.0 0.0 0.0 0.0 0.0
5998.592 -0.3527446235783671 -1.8721694061323095 -1.6035221024492134 0.3342271727141579 1.9237026850968149 0.000164740312183831 0.0 0.0 0.0 0.0 0.0 0.0 0.0 0.0 0.0 0.0 0.0 0.0 -2.0424138718205872e-17 0.7198734422690871 0.6485245092712707 0.060115228472605316 -2.8425992629702053e-06 0.0 -2.681689413700431e-16 9.451938296993113 6.039189935235927 0.2732237134079912 -1.2919613650199583e-05 0.0 -0.3527444044696253 -1.872169319783346 -1.6035221258746546 0.33422717452049255 1.9237027168273926 0.00016474031144753098 0.0 0.0 0.0 0.0 0.0 0.0 -2.042413818895097e-17 0.7198734283447266 0.6485245227813721 0.060115229338407516 -2.842599315044936e-06 0.0 -2.042413818895097e-17 0.7198734283447266 0.6485245227813721 0.060115229338407516 -2.842599315044936e-06 0.0 0.3000000239117409 -0.1999999243390919 0.4000000238953417 -1.2090988127156799 1.2090484906990822 -1.2090485909104884 0.0 0.0 0.0 0.0 0.0 0.0 -1.0890554892296405e-06 9.987661850703712e-07 -1.3043891464708918e-07 -9.235716740979446e-12 1.178632560504953e-07 -8.181886395634881e-08 0.30000000000000016 -0.20000000000000007 0.4 -1.2090987223823242 1.2090487307044393 -1.2090487304564579 0.0 0.0 0.0 0.0 0.0 0.0
5998.599999999999 -0.3527446235783671 -1.8721694061323095 -1.6035221024492134 0.3342271727141579 1.9237026850968149 0.000164740312183831 0.0 0.0 0.0 0.0 0.0 0.0 0.0 0.0 0.0 0.0 0.0 0.0 -2.0424138718205872e-17 0.7198734422690871 0.6485245092712707 0.060115228472605316 -2.8425992629702053e-06 0.0 -2.681689413700431e-16 9.451938296993113 6.039189935235927 0.2732237134079912 -1.2919613650199583e-05 0.0 -0.3527444044696253 -1.872169319783346 -1.6035221258746546 0.33422717452049255 1.9237027168273926 0.00016474031144753098 0.0 0.0 0.0 0.0 0.0 0.0 -2.042413818895097e-17 0.7198734283447266 0.6485245227813721 0.060115229338407516 -2.842599315044936e-06 0.0 -2.042413818895097e-17 0.7198734283447266 0.6485245227813721 0.060115229338407516 -2.842599315044936e-06 0.0 0.3000000239117409 -0.1999999243390919 0.4000000238953417 -1.2090988127156799 1.2090484906990822 -1.2090485909104884 0.0 0.0 0.0 0.0 0.0 0.0 -1.0890554892296405e-06 9.987661850703712e-07 -1.3043891464708918e-07 -9.235716740979446e-12 1.178632560504953e-07 -8.181886395634881e-08 0.30000000000000016 -0.20000000000000007 0.4 -1.2090987223823242 1.2090487307044393 -1.2090487304564579 0.0 0.0 0.0 0.0 0.0 0.0
5998.608 -0.3527446235783671 -1.8721694061323095 -1.6035221024492134 0.3342271727141579 1.9237026850968149 0.000164740312183831 0.0 0.0 0.0 0.0 0.0 0.0 0.0 0.0 0.0 0.0 0.0 0.0 -2.0424138718205872e-17 0.7198734422690871 0.6485245092712707 0.060115228472605316 -2.8425992629702053e-06 0.0 -2.681689413700431e-16 9.451938296993113 6.039189935235927 0.2732237134079912 -1.2919613650199583e-05 0.0 -0.3527444044696253 -1.872169319783346 -1.6035221258746546 0.33422717452049255 1.9237027168273926 0.00016474031144753098 0.0 0.0 0.0 0.0 0.0 0.0 -2.042413818895097e-17 0.7198734283447266 0.6485245227813721 0.060115229338407516 -2.842599315044936e-06 0.0 -2.042413818895097e-17 0.7198734283447266 0.6485245227813721 0.060115229338407516 -2.842599315044936e-06 0.0 0.3000000239117409 -0.1999999243390919 0.4000000238953417 -1.2090988127156799 1.2090484906990822 -1.2090485909104884 0.0 0.0 0.0 0.0 0.0 0.0 -1.0890554892296405e-06 9.987661850703712e-07 -1.3043891464708918e-07 -9.235716740979446e-12 1.178632560504953e-07 -8.181886395634881e-08 0.30000000000000016 -0.20000000000000007 0.4 -1.2090987223823242 1.2090487307044393 -1.2090487304564579 0.0 0.0 0.0 0.0 0.0 0.0
5998.616 -0.3527446235783671 -1.8721694061323095 -1.6035221024492134 0.3342271727141579 1.9237026850968149 0.000164740312183831 0.0 0.0 0.0 0.0 0.0 0.0 0.0 0.0 0.0 0.0 0.0 0.0 -2.0424138718205872e-17 0.7198734422690871 0.6485245092712707 0.060115228472605316 -2.8425992629702053e-06 0.0 -2.681689413700431e-16 9.451938296993113 6.039189935235927 0.2732237134079912 -1.2919613650199583e-05 0.0 -0.3527444044696253 -1.872169319783346 -1.6035221258746546 0.33422717452049255 1.9237027168273926 0.00016474031144753098 0.0 0.0 0.0 0.0 0.0 0.0 -2.042413818895097e-17 0.7198734283447266 0.6485245227813721 0.060115229338407516 -2.842599315044936e-06 0.0 -2.042413818895097e-17 0.7198734283447266 0.6485245227813721 0.060115229338407516 -2.842599315044936e-06 0.0 0.3000000239117409 -0.1999999243390919 0.4000000238953417 -1.2090988127156799 1.2090484906990822 -1.2090485909104884 0.0 0.0 0.0 0.0 0.0 0.0 -1.0890554892296405e-06 9.987661850703712e-07 -1.3043891464708918e-07 -9.235716740979446e-12 1.178632560504953e-07 -8.181886395634881e-08 0.30000000000000016 -0.20000000000000007 0.4 -1.2090987223823242 1.2090487307044393 -1.2090487304564579 0.0 0.0 0.0 0.0 0.0 0.0
5998.624 -0.3527446235783671 -1.8721694061323095 -1.6035221024492134 0.3342271727141579 1.9237026850968149 0.000164740312183831 0.0 0.0 0.0 0.0 0.0 0.0 0.0 0.0 0.0 0.0 0.0 0.0 -2.0424138718205872e-17 0.7198734422690871 0.6485245092712707 0.060115228472605316 -2.8425992629702053e-06 0.0 -2.681689413700431e-16 9.451938296993113 6.039189935235927 0.2732237134079912 -1.2919613650199583e-05 0.0 -0.3527444044696253 -1.872169319783346 -1.6035221258746546 0.33422717452049255 1.9237027168273926 0.00016474031144753098 0.0 0.0 0.0 0.0 0.0 0.0 -2.042413818895097e-17 0.7198734283447266 0.6485245227813721 0.060115229338407516 -2.842599315044936e-06 0.0 -2.042413818895097e-17 0.7198734283447266 0.6485245227813721 0.060115229338407516 -2.842599315044936e-06 0.0 0.3000000239117409 -0.1999999243390919 0.4000000238953417 -1.2090988127156799 1.2090484906990822 -1.2090485909104884 0.0 0.0 0.0 0.0 0.0 0.0 -1.0890554892296405e-06 9.987661850703712e-07 -1.3043891464708918e-07 -9.235716740979446e-12 1.178632560504953e-07 -8.181886395634881e-08 0.30000000000000016 -0.20000000000000007 0.4 -1.2090987223823242 1.2090487307044393 -1.2090487304564579 0.0 0.0 0.0 0.0 0.0 0.0
5998.632 -0.3527446235783671 -1.8721694061323095 -1.6035221024492134 0.3342271727141579 1.9237026850968149 0.000164740312183831 0.0 0.0 0.0 0.0 0.0 0.0 0.0 0.0 0.0 0.0 0.0 0.0 -2.0424138718205872e-17 0.7198734422690871 0.6485245092712707 0.060115228472605316 -2.8425992629702053e-06 0.0 -2.681689413700431e-16 9.451938296993113 6.039189935235927 0.2732237134079912 -1.2919613650199583e-05 0.0 -0.3527444044696253 -1.872169319783346 -1.6035221258746546 0.33422717452049255 1.9237027168273926 0.00016474031144753098 0.0 0.0 0.0 0.0 0.0 0.0 -2.042413818895097e-17 0.7198734283447266 0.6485245227813721 0.060115229338407516 -2.842599315044936e-06 0.0 -2.042413818895097e-17 0.7198734283447266 0.6485245227813721 0.060115229338407516 -2.842599315044936e-06 0.0 0.3000000239117409 -0.1999999243390919 0.4000000238953417 -1.2090988127156799 1.2090484906990822 -1.2090485909104884 0.0 0.0 0.0 0.0 0.0 0.0 -1.0890554892296405e-06 9.987661850703712e-07 -1.3043891464708918e-07 -9.235716740979446e-12 1.178632560504953e-07 -8.181886395634881e-08 0.30000000000000016 -0.20000000000000007 0.4 -1.2090987223823242 1.2090487307044393 -1.2090487304564579 0.0 0.0 0.0 0.0 0.0 0.0
5998.639999999999 -0.3527446235783671 -1.8721694061323095 -1.6035221024492134 0.3342271727141579 1.9237026850968149 0.000164740312183831 0.0 0.0 0.0 0.0 0.0 0.0 0.0 0.0 0.0 0.0 0.0 0.0 -2.0424138718205872e-17 0.7198734422690871 0.6485245092712707 0.060115228472605316 -2.8425992629702053e-06 0.0 -2.681689413700431e-16 9.451938296993113 6.039189935235927 0.2732237134079912 -1.2919613650199583e-05 0.0 -0.3527444044696253 -1.872169319783346 -1.6035221258746546 0.33422717452049255 1.9237027168273926 0.00016474031144753098 0.0 0.0 0.0 0.0 0.0 0.0 -2.042413818895097e-17 0.7198734283447266 0.6485245227813721 0.060115229338407516 -2.842599315044936e-06 0.0 -2.042413818895097e-17 0.7198734283447266 0.6485245227813721 0.060115229338407516 -2.842599315044936e-06 0.0 0.3000000239117409 -0.1999999243390919 0.4000000238953417 -1.2090988127156799 1.2090484906990822 -1.2090485909104884 0.0 0.0 0.0 0.0 0.0 0.0 -1.0890554892296405e-06 9.987661850703712e-07 -1.3043891464708918e-07 -9.235716740979446e-12 1.178632560504953e-07 -8.181886395634881e-08 0.30000000000000016 -0.20000000000000007 0.4 -1.2090987223823242 1.2090487307044393 -1.2090487304564579 0.0 0.0 0.0 0.0 0.0 0.0
5998.648 -0.3527446235783671 -1.8721694061323095 -1.6035221024492134 0.3342271727141579 1.9237026850968149 0.000164740312183831 0.0 0.0 0.0 0.0 0.0 0.0 0.0 0.0 0.0 0.0 0.0 0.0 -2.0424138718205872e-17 0.7198734422690871 0.6485245092712707 0.060115228472605316 -2.8425992629702053e-06 0.0 -2.681689413700431e-16 9.451938296993113 6.039189935235927 0.2732237134079912 -1.2919613650199583e-05 0.0 -0.3527444044696253 -1.872169319783346 -1.6035221258746546 0.33422717452049255 1.9237027168273926 0.00016474031144753098 0.0 0.0 0.0 0.0 0.0 0.0 -2.042413818895097e-17 0.7198734283447266 0.6485245227813721 0.060115229338407516 -2.842599315044936e-06 0.0 -2.042413818895097e-17 0.7198734283447266 0.6485245227813721 0.060115229338407516 -2.842599315044936e-06 0.0 0.3000000239117409 -0.1999999243390919 0.4000000238953417 -1.2090988127156799 1.2090484906990822 -1.2090485909104884 0.0 0.0 0.0 0.0 0.0 0.0 -1.0890554892296405e-06 9.987661850703712e-07 -1.3043891464708918e-07 -9.235716740979446e-12 1.178632560504953e-07 -8.181886395634881e-08 0.30000000000000016 -0.20000000000000007 0.4 -1.2090987223823242 1.2090487307044393 -1.2090487304564579 0.0 0.0 0.0 0.0 0.0 0.0
5998.656 -0.3527446235783671 -1.8721694061323095 -1.6035221024492134 0.3342271727141579 1.9237026850968149 0.000164740312183831 0.0 0.0 0.0 0.0 0.0 0.0 0.0 0.0 0.0 0.0 0.0 0.0 -2.0424138718205872e-17 0.7198734422690871 0.6485245092712707 0.060115228472605316 -2.8425992629702053e-06 0.0 -2.681689413700431e-16 9.451938296993113 6.039189935235927 0.2732237134079912 -1.2919613650199583e-05 0.0 -0.3527444044696253 -1.872169319783346 -1.6035221258746546 0.33422717452049255 1.9237027168273926 0.00016474031144753098 0.0 0.0 0.0 0.0 0.0 0.0 -2.042413818895097e-17 0.7198734283447266 0.6485245227813721 0.060115229338407516 -2.842599315044936e-06 0.0 -2.042413818895097e-17 0.7198734283447266 0.6485245227813721 0.060115229338407516 -2.842599315044936e-06 0.0 0.3000000239117409 -0.1999999243390919 0.4000000238953417 -1.2090988127156799 1.2090484906990822 -1.2090485909104884 0.0 0.0 0.0 0.0 0.0 0.0 -1.0890554892296405e-06 9.987661850703712e-07 -1.3043891464708918e-07 -9.235716740979446e-12 1.178632560504953e-07 -8.181886395634881e-08 0.30000000000000016 -0.20000000000000007 0.4 -1.2090987223823242 1.2090487307044393 -1.2090487304564579 0.0 0.0 0.0 0.0 0.0 0.0
5998.664 -0.3527446235783671 -1.8721694061323095 -1.6035221024492134 0.3342271727141579 1.9237026850968149 0.000164740312183831 0.0 0.0 0.0 0.0 0.0 0.0 0.0 0.0 0.0 0.0 0.0 0.0 -2.0424138718205872e-17 0.7198734422690871 0.6485245092712707 0.060115228472605316 -2.8425992629702053e-06 0.0 -2.681689413700431e-16 9.451938296993113 6.039189935235927 0.2732237134079912 -1.2919613650199583e-05 0.0 -0.3527444044696253 -1.872169319783346 -1.6035221258746546 0.33422717452049255 1.9237027168273926 0.00016474031144753098 0.0 0.0 0.0 0.0 0.0 0.0 -2.042413818895097e-17 0.7198734283447266 0.6485245227813721 0.060115229338407516 -2.842599315044936e-06 0.0 -2.042413818895097e-17 0.7198734283447266 0.6485245227813721 0.060115229338407516 -2.842599315044936e-06 0.0 0.3000000239117409 -0.1999999243390919 0.4000000238953417 -1.2090988127156799 1.2090484906990822 -1.2090485909104884 0.0 0.0 0.0 0.0 0.0 0.0 -1.0890554892296405e-06 9.987661850703712e-07 -1.3043891464708918e-07 -9.235716740979446e-12 1.178632560504953e-07 -8.181886395634881e-08 0.30000000000000016 -0.20000000000000007 0.4 -1.2090987223823242 1.2090487307044393 -1.2090487304564579 0.0 0.0 0.0 0.0 0.0 0.0
5998.672 -0.3527443493552287 -1.87216917938981 -1.6035224105915704 0.33422725410105486 1.9237024108736789 0.00016474027468518573 0.0001371115906258058 0.00011337123804078447 -0.00015407114832797377 4.0693430028719304e-05 -0.00013711158949700997 -1.8749323690114176e-08 0.017138948828225725 0.014171404755098057 -0.019258893540996722 0.0050866787535899126 -0.017138948687126246 -2.343665461264272e-06 0.0010678770305879034 0.7206407608992385 0.6480628824741799 0.06023549783437164 -0.0002394797826776578 -3.682158846919645e-08 0.014021225411619173 9.462013190607001 6.0348911741760585 0.2737703376572191 -0.0010884356122699548 -1.6735411959249786e-07 -0.3527444044696253 -1.872169319783346 -1.6035226027118128 0.3342272639274597 1.923702359199524 0.0001647402677917853 0.0001371115940855816 0.00011337123578414321 -0.0001540711527923122 4.069343049195595e-05 -0.0001371115940855816 -1.8749323871247725e-08 0.001067877048626542 0.7206407785415649 0.6480628848075867 0.06023549661040306 -0.00023947977751959115 -3.6821589333158045e-08 0.001067877048626542 0.7206407785415649 0.6480628848075867 0.06023549661040306 -0.00023947977751959115 -3.6821589333158045e-08 0.3000000236597772 -0.19999995353431077 0.3999998980628898 -1.2090988127583708 1.2090490850490192 -1.209048583853046 3.7218888259222476e-12 4.000000575808004e-05 1.398940466145702e-12 -3.935772129980541e-11 2.115844503228786e-11 -1.1287886904523915e-12 6.181916676734022e-07 -5.679195940934854e-07 -4.049456359337547e-07 1.2150734952867783e-11 -1.0970610125928803e-07 4.6500739528457483e-08 0.30000000000000016 -0.19999991999999994 0.39999999999999997 -1.2090987223823244 1.2090487307044393 -1.2090487304564574 1.4175129023374387e-20 4e-05 -6.015570725058784e-20 1.3109735112347182e-20 -6.739413686596186e-22 5.824392371916759e-20
5998.679999999999 -0.3527421555670198 -1.872167365451487 -1.603524875726099 0.33422790519357604 1.9237002170854876 0.00016473997469587198 0.0006170037099063645 0.0005101697358900113 -0.0006933180049301093 0.0001831191080244407 -0.0006170037048268788 -8.437203244647811e-08 0.05998651491006983 0.04959981223115336 -0.06740585707526695 0.017803209749465174 -0.0599865144162336 -8.202838594545491e-06 0.0037375704185060145 0.7225579523748421 0.6469087377900195 0.060536203167505645 -0.0008310760959766619 -1.2887570858541472e-07 0.049074299594983974 9.487185914681676 6.02414354804822 0.2751370433963131 -0.0037772408562139286 -5.857400955207099e-07 -0.3527420202838343 -1.8721674124347132 -1.6035249868976038 0.33422791957855225 1.923700213432312 0.00016473997675348073 0.0006170037086121738 0.0005101697170175612 -0.0006933180266059935 0.00018311910389456898 -0.0006170037086121738 -8.437203291578044e-08 0.00373757048510015 0.7225579619407654 0.6469087600708008 0.06053620204329491 -0.0008310761186294258 -1.2887571188002767e-07 0.00373757048510015 0.7225579619407654 0.6469087600708008 0.06053620204329491 -0.0008310761186294258 -1.2887571188002767e-07 0.30000003845300327 -0.19999924390970356 0.39999995369291713 -1.209098847368793 1.2090487566268888 -1.2090485331568566 -2.0831784714855314e-11 0.00018000000589542522 -7.875700835424379e-12 -6.780960321285033e-11 7.257309085470642e-11 -5.0795792904646186e-12 -4.901585188377294e-07 4.450376326525582e-07 -8.422353391453132e-07 7.396270284989768e-12 -1.8587796495213325e-08 -3.635435474562414e-08 0.30000000000000016 -0.19999928000000017 0.39999999999999986 -1.2090987223823242 1.20904873070444 -1.2090487304564577 -4.860319572078589e-20 0.0001799999999999167 4.1714844874660923e-17 4.990671699710458e-17 -6.913734213845742e-20 -1.0000726229624898e-16
5998.688 -0.35273475149107103 -1.8721612434315702 -1.6035331954983665 0.3342301025959986 1.9236928130095998 0.00016473896222994565 0.0016453571952721666 0.0013604451113986861 -0.0018488285503124226 0.0004883056775326612 -0.0016453571817266301 -2.2499276961299805e-07 0.12854418567072526 0.10628442193858434 -0.14443881817278917 0.03814832118852757 -0.12854418461246891 -1.757759214581499e-05 0.008009115578737885 0.7256225703549195 0.6450619306834853 0.061017400233121376 -0.0017776562211920953 -2.761635032686933e-07 0.10515968754882844 9.527424348760093 6.0069457109107525 0.2773240840595366 -0.008079447525318074 -1.2551631223562111e-06 -0.35273486772646123 -1.8721612135516565 -1.6035330931292933 0.33423009514808655 1.9236928224563599 0.00016473895811941475 0.0016453572316095233 0.0013604451669380069 -0.001848828513175249 0.0004883056972175837 -0.0016453572316095233 -2.249927746333924e-07 0.008009115234017372 0.7256225943565369 0.6450619101524353 0.06101740151643753 -0.001777656259946525 -2.7616349029813136e-07 0.008009115234017372 0.7256225943565369 0.6450619101524353 0.06101740151643753 -0.001777656259946525 -2.7616349029813136e-07 0.2999999689105749 -0.19999715120983957 0.4000000383935483 -1.2090986174214648 1.2090487026975567 -1.2090488962218273 5.271703568993078e-11 0.0004799999959713112 2.3160386421204976e-11 1.5388370010733465e-10 -1.763867360693936e-10 -1.3545590067495216e-11 1.7889034002810447e-06 -1.6206237220526046e-06 2.0091686827919127e-07 1.3167857742863553e-11 -1.8096414128261888e-07 1.3293766271552143e-07 0.3 -0.19999712000000003 0.4000000000000002 -1.209098722382324 1.209048730704439 -1.209048730456458 -3.6335358454561386e-19 0.0004800000000001111 1.6635721410744218e-16 1.3486465151929082e-19 -1.9920730290683177e-16 -6.639133755414745e-17
5998.696 -0.3527172008377262 -1.8721467321120873 -1.60355291609019 0.33423531103890014 1.9236752623563997 0.00016473656229843347 0.003427896472654175 0.0028342235245609197 -0.0038516300346485154 0.0010172445137637581 -0.0034278964444338813 -4.687383100286703e-07 0.22281740967275107 0.1842223016452792 -0.2503501855420116 0.06611735452888712 -0.2228174078384064 -3.0468192551959027e-05 0.013882688292344526 0.7298308367234859 0.6425223290529064 0.06167912696906384 -0.003079308881652478 -4.786891585385563e-07 0.18227969727848362 9.58267888617937 5.983296432606475 0.28033163207439515 -0.013995458867110512 -2.1756422255577383e-06 -0.3527172247516077 -1.8721469084369105 -1.6035531202899378 0.3342353105545044 1.923675298690796 0.00016473655705340207 0.0034278964158147573 0.0028342234436422586 -0.003851630026474595 0.0010172445327043533 -0.0034278964158147573 -4.687383068358031e-07 0.013882688246667385 0.7298308610916138 0.6425223350524902 0.06167912855744362 -0.003079308895394206 -4.78689173633029e-07 0.013882688246667385 0.7298308610916138 0.6425223350524902 0.06167912855744362 -0.003079308895394206 -4.78689173633029e-07 0.30000003926555646 -0.19999202041315298 0.39999988131103437 -1.2090988945931804 1.2090490471026283 -1.2090484553594496 4.605613696016733e-11 0.0010000001444113683 8.17357878957771e-11 -1.2070687717633298e-09 5.016530563623644e-10 -2.8219959194627785e-11 7.628730625110249e-07 -6.971335394006811e-07 -5.735919167370315e-07 1.3634705389174112e-11 -1.2630391487564098e-07 5.717130496306553e-08 0.3000000000000002 -0.19999200000000003 0.3999999999999998 -1.2090987223823244 1.2090487307044397 -1.2090487304564577 2.0856581885132654e-16 0.0009999999999999658 -2.0765627014203513e-16 -8.250182417151434e-17 8.380543066496804e-17 8.496836896066134e-17
5998.704 -0.3526829211993343 -1.8721183902393825 -1.6035914314519593 0.3342454829080657 1.92364098271829 0.0001647318748823934 0.006170456171110195 0.005101471829316029 -0.0069325961760029154 0.0018308327763469166 -0.006170456120313207 -8.437408168538706e-07 0.34281996230700246 0.28340603809438863 -0.3851207676693 0.1016985328228948 -0.34281995948491567 -4.687531335315004e-05 0.021358790817238116 0.7351774924105935 0.6392899368077386 0.06252133807723269 -0.004736256246313638 -7.364632564594907e-07 0.2804409234303365 9.652880475351093 5.953195749541023 0.28415948156102255 -0.021526284639495488 -3.347225500608385e-06 -0.3526828924762171 -1.8721182982074183 -1.603591267262594 0.3342454731464386 1.9236409664154053 0.00016473187133669853 0.006170456297695637 0.005101471673697233 -0.006932596210390329 0.0018308327998965979 -0.006170456297695637 -8.437407927885943e-07 0.02135879173874855 0.7351775169372559 0.639289915561676 0.06252133846282959 -0.004736256320029497 -7.364632779172098e-07 0.02135879173874855 0.7351775169372559 0.639289915561676 0.06252133846282959 -0.004736256320029497 -7.364632779172098e-07 0.2999999827213943 -0.199981984244179 0.4000000772114779 -1.2090986206538548 1.209048510976052 -1.2090488933430215 1.3010824253147341e-11 0.0017999998476395586 -1.6132493057156958e-10 1.4847069680367572e-09 -3.6908239147315736e-10 -5.07968977269413e-11 1.8125066680435649e-06 -1.7191030622042875e-06 1.9420055603296508e-07 1.395575252907097e-11 -1.9096295703265833e-07 1.4116277702889512e-07 0.30000000000000016 -0.199982 0.3999999999999999 -1.2090987223823242 1.2090487307044395 -1.2090487304564574 -8.594697208328008e-17 0.0017999999999999579 3.3365481760633606e-16 9.97013480226785e-17 -1.997255645293938e-16 -1.020866279305708e-16
5998.7119999999995 -0.35262368280848744 -1.8720694171923657 -1.6036579815727645 0.3342630571829707 1.9235817443279304 0.00016472377487217714 0.010079096254450439 0.008332035621686159 -0.011322286804985359 0.00298977501678612 -0.010079096171480076 -1.3781434761063248e-06 0.4885800104175305 0.40382047404626625 -0.5487113286228054 0.14486778005490042 -0.48858000639585863 -6.680033240655677e-05 0.030438518766949977 0.7416555895980784 0.6353650691860686 0.0635438127629966 -0.006748950028869514 -1.0495074446985696e-06 0.39965775141005316 9.737937891422769 5.916646597274508 0.28880662900781956 -0.030673977881211935 -4.770011336154999e-06 -0.3526237646685999 -1.8720691839801233 -1.6036580244647425 0.33426305651664734 1.9235817193984985 0.00016472378047183156 0.0100790960714221 0.00833203550428152 -0.011322286911308765 0.0029897750355303288 -0.0100790960714221 -1.3781434518023161e-06 0.030438518151640892 0.7416555881500244 0.6353650689125061 0.06354381144046783 -0.006748950108885765 -1.0495074320715503e-06 0.030438518151640892 0.7416555881500244 0.6353650689125061 0.06354381144046783 -0.006748950108885765 -1.0495074320715503e-06 0.29999993000560754 -0.19996472686528433 0.4000000697764379 -1.2090985890791297 1.209048647294941 -1.2090489414718177 8.287483027718254e-12 0.002939999411638672 -5.071360740901576e-10 1.864728584702952e-09 -4.677622588220738e-10 -8.297041453948066e-11 -4.499926612976934e-08 7.663546228729775e-08 6.656412008050525e-09 5.92925392028934e-13 3.88306956981184e-10 -5.913359076179907e-09 0.3 -0.19996472000000004 0.4 -1.2090987223823237 1.209048730704439 -1.2090487304564583 -7.297043410174984e-19 0.002939999999999855 1.944801611329319e-16 2.1859864824811297e-18 -1.1350826998765596e-16 -2.319958759089829e-16
5998.719999999999 -0.3525296061707177 -1.8719916542563473 -1.6037636491831835 0.3342909574136323 1.9234876676909352 0.00016471091195162962 0.015360279280003903 0.012695543873957915 -0.017250701087299848 0.004554431783688858 -0.015360279153567382 -2.1001091701836656e-06 0.660147878194183 0.5454385315339695 -0.7410517852893111 0.19558209586284225 -0.6601478727609132 -9.024571175966759e-05 0.04112390890302491 0.7492562254764489 0.6307485798110023 0.0647460356741018 -0.009118194321219162 -1.4178604047574441e-06 0.5399569238967171 9.837734240505775 5.873656924916016 0.2942707321387926 -0.041442193189941086 -6.444175539622583e-06 -0.3525298277484339 -1.8719914595233362 -1.6037638823138636 0.3342909514904022 1.923487663269043 0.00016471091657876968 0.015360279008746147 0.012695543467998505 -0.017250701785087585 0.004554431885480881 -0.015360279008746147 -2.100109213643009e-06 0.04112390801310539 0.7492562532424927 0.6307485699653625 0.06474603712558746 -0.009118194691836834 -1.4178604033077136e-06 0.04112390801310539 0.7492562532424927 0.6307485699653625 0.06474603712558746 -0.009118194691836834 -1.4178604033077136e-06 0.2999999142042834 -0.19993733156985546 0.40000000293430743 -1.209098634892404 1.2090489349811313 -1.209048865959365 5.996380946026903e-10 0.004479999331497517 -9.109710444979586e-10 -2.9302780390388355e-10 1.1754084880403608e-09 -1.2643625210295815e-10 1.531877882301192e-06 -1.3585838579965154e-06 -1.7413082133230526e-07 1.5572928198053836e-11 -1.8066035048490776e-07 1.1298010805795466e-07 0.29999999999999993 -0.19993727999999977 0.3999999999999999 -1.2090987223823237 1.2090487307044393 -1.209048730456458 3.3290806911041958e-16 0.0044799999999999415 -2.802876220811041e-18 -2.653609556062442e-16 1.3037852048920403e-16 2.596422414167737e-16
5998.728 -0.35238915802786686 -1.8718755867948644 -1.6039213541348536 0.3343325882723945 1.923347219549241 0.00016469171040054442 0.022221123431784735 0.018361272842329482 -0.024946925523618584 0.006584603739079899 -0.022221123248893034 -3.0378328757613563e-06 0.8576055189726041 0.7082161210464458 -0.962028054539842 0.25377149442388014 -0.8576055119157064 -0.00011721546319721134 0.05341836812218298 0.7579682177470121 0.6254421394371477 0.06612705114339898 -0.011845295238756652 -1.8415851662317428e-06 0.7013831734442625 9.952122699018268 5.824242290866607 0.30054744744674833 -0.053836866860148984 -8.37000458052327e-06 -0.35238916078676397 -1.8718755880938929 -1.6039212385760706 0.33433258533477783 1.9233472347259521 0.00016469170805066824 0.022221123799681664 0.018361272290349007 -0.024946926161646843 0.006584603805094957 -0.022221123799681664 -3.0378328119695652e-06 0.053418368101119995 0.7579682469367981 0.6254421472549438 0.06612705439329147 -0.011845295317471027 -1.8415851172903785e-06 0.053418368101119995 0.7579682469367981 0.6254421472549438 0.06612705439329147 -0.011845295317471027 -1.8415851172903785e-06 0.29999999831478763 -0.1998963191678575 0.400000031479156 -1.2090986796238858 1.20904862644906 -1.2090487990010326 3.585239867156097e-10 0.006479999938442619 -3.4310711246504684e-10 2.7097622294344953e-09 2.010780106089673e-10 -1.8289140157959057e-10 8.952805308152903e-07 -8.210003454884048e-07 -6.782164586005693e-07 1.4596791066413956e-11 -1.419945431434085e-07 6.761337651931558e-08 0.2999999999999998 -0.19989631999999893 0.39999999999999963 -1.209098722382324 1.2090487307044389 -1.2090487304564577 4.931774243978965e-16 0.00647999999999931 2.428053030473046e-16 -2.9335533185406743e-16 1.813691864537801e-17 1.4860902102855397e-16
5998.736 -0.3521891449989383 -1.871710347670387 -1.6041458445509633 0.3343918301257259 1.9231472065219581 0.00016466436878323796 0.030869745040623196 0.025497961931210608 -0.03463865804555082 0.009139239922726363 -0.03086974478658647 -4.219558473028044e-06 1.0810777011048076 0.8920861361101408 -1.2114665652415297 0.3193295229558079 -1.0810776922116796 -0.000147715699658336 0.0673271841233073 0.7677777220826731 0.6194485662575873 0.06768529092791835 -0.014932237512294116 -2.3207777701876342e-06 0.8840059275390247 10.0809214909455 5.768428938703904 0.3076296472673889 -0.06786701949337676 -1.0547934965502798e-05 -0.35218936601747686 -1.8717101255999964 -1.6041458288775843 0.33439183235168457 1.923147201538086 0.00016466436500195414 0.0308697447180748 0.025497961789369583 -0.0346386581659317 0.00913923978805542 -0.0308697447180748 -4.219558377371868e-06 0.06732718646526337 0.7677777409553528 0.6194485425949097 0.06768529117107391 -0.014932237565517426 -2.3207778667710954e-06 0.06732718646526337 0.7677777409553528 0.6194485425949097 0.06768529117107391 -0.014932237565517426 -2.3207778667710954e-06 0.299999903713396 -0.19983804755948634 0.40000008237334267 -1.2090985106615302 1.209048692097262 -1.209049064340007 1.4060722282051443e-09 0.00899999827325117 -1.3538415368242884e-09 7.0901081650549815e-09 -2.1827929960438435e-09 -2.5403598975836137e-10 1.6537734286677196e-06 -1.6575386729257108e-06 3.616608452722273e-07 1.0255304866923678e-11 -1.6237644031794536e-07 1.3602470594297729e-07 0.29999999999999927 -0.19983799999999766 0.399999999999999 -1.209098722382324 1.209048730704439 -1.209048730456458 8.252070996470785e-16 0.008999999999997156 9.690113735645543e-16 -1.6461934410784567e-16 3.444780046742375e-16 -1.6421165460887257e-16
5998.744 -0.3519147041351962 -1.8714837223233598 -1.6044536836929613 0.33447303098087344 1.9228727656604745 0.00016462685948554393 0.041515704408638394 0.0342735741889495 -0.04655158971777528 0.01227605900115451 -0.04151570406706129 -5.673600673322904e-06 1.3307449210018998 1.0969515322173617 -1.4891164590280572 0.39210238480351833 -1.330744910059352 -0.00018175527503685744 0.08285811852335122 0.7786677917572158 0.6127722075204727 0.06941837576373926 -0.018381888241397096 -2.8555773211346266e-06 1.0879270962116017 10.223908105772244 5.706257350872146 0.3155065178461949 -0.0835456820571498 -1.2978598924556878e-05 -0.35191470781435186 -1.87148362794985 -1.6044538656817835 0.33447304368019104 1.92287278175354 0.00016462686471641064 0.04151570424437523 0.034273575991392136 -0.04655158892273903 0.01227605901658535 -0.04151570424437523 -5.673600753652863e-06 0.0828581154346466 0.7786678075790405 0.6127722263336182 0.06941837817430496 -0.018381888046860695 -2.8555773496918846e-06 0.0828581154346466 0.7786678075790405 0.6127722263336182 0.06941837817430496 -0.018381888046860695 -2.8555773496918846e-06 0.2999999788959023 -0.19975799230624686 0.3999999834024764 -1.209098761010814 1.2090487855653467 -1.2090486690493985 -1.1538294810417406e-09 0.01209999940452595 8.885655987780557e-11 -3.820298716432795e-09 -1.3808054969715525e-09 -3.4157682452847923e-10 -2.9077196640372928e-08 2.1663721979697058e-07 -7.798801994453153e-07 9.313634884436288e-12 -4.291908955512352e-08 -1.8628067395122888e-08 0.2999999999999984 -0.1997579999999947 0.39999999999999764 -1.2090987223823237 1.2090487307044389 -1.2090487304564579 2.437606700530904e-15 0.01209999999999335 2.7387836008346737e-15 -1.7901283187829202e-16 2.1585958883992679e-16 1.754004419084947e-16
5998.7519999999995 -0.35154928951521924 -1.8711821559776975 -1.6048632313418523 0.33458099507393146 1.922507351043503 0.00016457692805671545 0.05437056891263961 0.04485499409392294 -0.06090862584250119 0.016051072640016716 -0.054370568465417296 -7.428372811842864e-06 1.606858063000152 1.3226774881216798 -1.7946295155907384 0.47187670485777583 -1.606858049794501 -0.00021934651731499508 0.10002208356731714 0.7906178796199465 0.6054193720402583 0.07132289122762955 -0.0221982281293047 -3.4461775053711446e-06 1.313289957238874 10.380812759409897 5.637786276313293 0.32416254062957633 -0.10089094684768984 -1.566287676191185e-05 -0.35154945055116826 -1.8711822668658655 -1.60486346880068 0.3345809876918793 1.922507405281067 0.00016457692254334688 0.054370567202568054 0.04485499486327171 -0.06090862676501274 0.016051072627305984 -0.054370567202568054 -7.428373010043288e-06 0.1000220850110054 0.7906178832054138 0.605419397354126 0.07132288813591003 -0.022198228165507317 -3.446177515797899e-06 0.1000220850110054 0.7906178832054138 0.605419397354126 0.07132288813591003 -0.022198228165507317 -3.446177515797899e-06 0.29999999769285596 -0.1996515748152981 0.39999989448977735 -1.2090988275909529 1.2090491132057783 -1.2090485610263155 1.9187540081905185e-09 0.015840001537957893 1.0151865657831866e-09 -1.8101520116590364e-08 6.815577057904793e-09 -4.472188915363739e-10 -8.841094863223218e-07 7.217287898267289e-07 -8.651979177252357e-07 5.147241737677925e-12 1.2249264739032348e-08 -5.896041096412038e-08 0.2999999999999963 -0.19965151999998934 0.3999999999999952 -1.2090987223823235 1.2090487307044393 -1.2090487304564586 5.3103377741072775e-15 0.015839999999983843 7.179042561861348e-15 -4.088346162195071e-16 3.852261754355972e-16 -1.3527819846270379e-17
5998.759999999999 -0.35107465389301673 -1.8707907634996674 -1.6053946183481962 0.3347209672804755 1.9220327154252046 0.00016451209230664937 0.06964860758430463 0.05740765526050234 -0.0779289286670137 0.020518000572595094 -0.06964860701161238 -9.512421288426787e-06 1.9097548339581278 1.5690826458224245 -2.1275378530640645 0.5583659915722973 -1.9097548182743853 -0.0002605060595729903 0.1188339040533761 0.8036032825102015 0.5973988129816467 0.07339413861906041 -0.02638661065201351 -4.092839647068981e-06 1.5602891602208282 10.551311099358946 5.56309722624769 0.33357636002362956 -0.11992714541340141 -1.8601956195928518e-05 -0.35107452074159795 -1.8707907835589808 -1.6053946653949183 0.3347209692001343 1.9220327138900757 0.0001645120937610045 0.0696486085653305 0.05740765482187271 -0.07792893052101135 0.020518001168966293 -0.0696486085653305 -9.512421456747688e-06 0.11883390694856644 0.8036032915115356 0.5973988175392151 0.07339414209127426 -0.02638661116361618 -4.092839844815899e-06 0.11883390694856644 0.8036032915115356 0.5973988175392151 0.07339414209127426 -0.02638661116361618 -4.092839844815899e-06 0.3000000317620907 -0.19951324208351745 0.39999998002680354 -1.209098813161752 1.2090486894713426 -1.2090485880796367 -2.473520555451136e-09 0.020280000566143905 -3.872462409126339e-10 -3.6798363488014273e-09 3.1541228259546578e-09 -5.726915141560286e-10 1.5414784205120824e-07 -3.259786339402398e-07 -2.2165474493754938e-07 1.402665600814957e-12 -2.4693072804616913e-08 2.902521567702925e-08 0.29999999999999327 -0.1995132799999791 0.39999999999999 -1.2090987223823242 1.2090487307044393 -1.2090487304564577 1.2436090203152648e-14 0.020279999999965173 1.5682373257474397e-14 -6.434665588067043e-16 -1.0210010348660566e-17 6.082816865603726e-16
5998.768 -0.350470824297747 -1.870293342496236 -1.6060697128644081 0.33489861244855346 1.9214288858348982 0.00016442964110231228 0.08756763166740726 0.07209509064084008 -0.0978267644405266 0.0257275675363592 -0.08756763094769342 -1.1954467512345632e-05 2.2398780103878284 1.8359294225422174 -2.487229471689112 0.6511958704705132 -2.23987799201013 -0.0003052557779898557 0.13931316666978663 0.8175945280463381 0.5887222600514077 0.07562586185495598 -0.030954049772325434 -4.795907445307288e-06 1.8291818783742986 10.73501615324842 5.48229943005072 0.34371954213077494 -0.1406861562152191 -2.1797399338921626e-05 -0.3504708448993128 -1.870293442402975 -1.6060698668109339 0.33489862084388733 1.921428918838501 0.00016442964260932058 0.08756763488054276 0.07209508866071701 -0.0978267639875412 0.025727568194270134 -0.08756762742996216 -1.1954467481700704e-05 0.13931316137313843 0.8175945281982422 0.588722288608551 0.07562585920095444 -0.03095404990017414 -4.795907443622127e-06 0.13931316137313843 0.8175945281982422 0.588722288608551 0.07562585920095444 -0.03095404990017414 -4.795907443622127e-06 0.3000000207115455 -0.19933753255019984 0.39999992281177116 -1.2090988359248682 1.2090489311952353 -1.2090485502780854 1.6126845177246006e-09 0.025480003552203877 1.0130174224771373e-09 -1.9889515655776864e-08 8.19595713571267e-09 6.7308691285989546e-09 -1.0375093015562935e-06 1.2645448939433e-06 -8.902154906690986e-07 5.5321964671717345e-12 4.228174079650592e-08 -1.0300395929333606e-07 0.29999999999998717 -0.19933751999996177 0.39999999999998165 -1.2090987223823237 1.209048730704439 -1.2090487304564586 2.408366711943511e-14 0.025479999999926554 3.5164498203399236e-14 1.8290869994859377e-17 -9.630593308567846e-18 -2.562716879973135e-16
5998.776 -0.3497160703661404 -1.8696723902986818 -1.606912076637391 0.3351199886779674 1.920674131909493 0.0001643266328001411 0.10834999604632425 0.08907839770324795 -0.120810138271557 0.031726673049855936 -0.10834999515629114 -1.4783458286192799e-05 2.597795547364624 2.1229133828009843 -2.8729217288788 0.749888189187092 -2.597795526074715 -0.0003536238467308958 0.1614851596186443 0.8325567034414005 0.5794049999672845 0.07800995171008338 -0.035909536991614636 -5.55582354752763e-06 2.1203001457927995 10.931469516185588 5.395535240695347 0.3545552305223289 -0.1632088456268885 -2.5251218023513075e-05 -0.34971601167787725 -1.8696726004229944 -1.6069119612323206 0.33511999249458313 1.9206740856170654 0.00016432662960141897 0.1083499938249588 0.0890783965587616 -0.1208101361989975 0.03172667324542999 -0.1083499938249588 -1.4783458027523011e-05 0.16148516535758972 0.8325567245483398 0.5794050097465515 0.0780099481344223 -0.035909537225961685 -5.5558234635100234e-06 0.16148516535758972 0.8325567245483398 0.5794050097465515 0.0780099481344223 -0.035909537225961685 -5.5558234635100234e-06 0.3000000587031555 -0.19911800333210003 0.3999999588564641 -1.2090987681808731 1.2090487991951393 -1.2090486580180149 4.811982447832919e-10 0.031500004203305565 4.483770718229125e-09 -9.63802021090893e-09 2.3197856332958586e-09 -8.900319552908489e-10 3.620186445554923e-07 -6.809247666204151e-07 -7.324812371960271e-07 1.3706267609651158e-11 -1.2938154161458182e-07 5.6840686789912855e-08 0.2999999999999773 -0.19911799999993288 0.3999999999999672 -1.2090987223823235 1.2090487307044393 -1.2090487304564583 4.871615184358014e-14 0.031499999999856386 6.894186622716571e-14 -5.056179403917855e-16 2.346069232294197e-16 7.245448906527e-16
5998.784 -0.3487868640679279 -1.868909125537952 -1.6079469096101704 0.3353915135011645 1.9197449256189114 0.00016419989324335303 0.1322237769328531 0.10851561090383569 -0.14707920111176834 0.03855742604124087 -0.1322237758474461 -1.8028625672161874e-05 2.9842226108161043 2.429651650073467 -3.2836328550264176 0.8538441239231168 -2.9842225863943703 -0.00040564592324613443 0.18538190615544328 0.8484487255335292 0.5694665038125377 0.08053612914068496 -0.04126438872829288 -6.373148171889267e-06 2.4340644278209704 11.140131766255239 5.302985976803114 0.36603670694441315 -0.18754664677009114 -2.896595844123672e-05 -0.34878665605653936 -1.8689091841327112 -1.6079466978656214 0.3353915214538574 1.9197449684143066 0.00016419989697169513 0.13222377002239227 0.10851561278104782 -0.147079199552536 0.038557425141334534 -0.13222377002239227 -1.8028626072918996e-05 0.1853819042444229 0.8484487533569336 0.5694665312767029 0.0805361270904541 -0.04126438871026039 -6.3731481532158796e-06 0.1853819042444229 0.8484487533569336 0.5694665312767029 0.0805361270904541 -0.04126438871026039 -6.3731481532158796e-06 0.30000005136201774 -0.19884793772805726 0.40000003904470494 -1.2090987700267293 1.2090484085020579 -1.2090486578670987 -7.723329703444861e-09 0.03839999930493742 2.684829931635182e-09 1.9150984297152736e-08 -9.664304619303966e-09 -1.085404788764129e-09 7.9158508890259e-08 4.324357931393666e-08 -1.3370578855678038e-06 2.0571224585071282e-11 -1.2482042608668777e-07 -3.6218848071988708e-09 0.2999999999999617 -0.19884799999988684 0.3999999999999437 -1.209098722382324 1.2090487307044395 -1.2090487304564579 9.142664817308077e-14 0.03839999999973124 1.3125540135577019e-13 -7.874570701976263e-16 -2.468423107765368e-17 5.427726647068674e-16
5998.7919999999995 -0.347657829359342 -1.8679835150806756 -1.609200980959498 0.335719921861744 1.9186158909195898 0.00016404601324408025 0.15942414179261039 0.13056097349216786 -0.17682441423480785 0.04625603765855252 -0.1594241404849928 -2.1719557558919566e-05 3.400045607469662 2.7556703235415214 -3.7181516403799395 0.9623264521639558 -3.400045579693336 -0.00046136648584471147 0.21104329648944234 0.8652225504711839 0.5589310996638283 0.08319160990342452 -0.04703262521161911 -7.248580122049134e-06 2.770998482906378 11.360372087686645 5.204878186289501 0.3781058670110644 -0.21376328158680888 -3.294479665471331e-05 -0.34765798250307256 -1.867983643208639 -1.6092007795916956 0.33571991324424744 1.9186159372329712 0.00016404601046815515 0.15942414104938507 0.1305609792470932 -0.1768244206905365 0.046256039291620255 -0.15942414104938507 -2.1719557480537333e-05 0.21104329824447632 0.8652225732803345 0.5589311122894287 0.08319161087274551 -0.04703262448310852 -7.248580004670657e-06 0.21104329824447632 0.8652225732803345 0.5589311122894287 0.08319161087274551 -0.04703262448310852 -7.248580004670657e-06 0.2999999973109536 -0.1985203721926929 0.4000000105800706 -1.2090986433656057 1.2090487542097283 -1.2090488540732118 8.917044716334053e-09 0.0462400040101496 4.288497240516208e-09 9.368530960467955e-09 -4.387502901162394e-09 -1.3076172188318596e-09 4.152122520321893e-07 -4.6844602888070254e-07 -7.538488796346869e-07 1.2533663138753558e-11 -1.0697910491986385e-07 3.506212044450966e-08 0.2999999999999369 -0.19852031999981612 0.3999999999999071 -1.209098722382324 1.2090487307044395 -1.2090487304564577 1.6346029096932535e-13 0.046239999999518715 2.394463202890942e-13 -2.984301800378507e-16 -2.970623806729659e-16 1.4853233951754573e-17
5998.8 -0.3463016801695096 -1.866874307159942 -1.610702544583508 0.3361122147389571 1.917259741740875 0.00016386134546003242 0.19019492817776004 0.15536410024200922 -0.21022445776729587 0.0548515672305212 -0.1901949266192868 -2.5886280303372475e-05 3.846348298143707 3.1003908437301706 -4.175005441561002 1.0744411964960856 -3.8463482667867517 -0.0005208403430566137 0.23851832329701847 0.8828223203498026 0.5478286887627221 0.08596075322520186 -0.05323138225837178 -8.182980500911686e-06 3.1317455848898526 11.591457066192909 5.10149031549622 0.3906916234085424 -0.24193663236429974 -3.719164637664361e-05 -0.3463018576251429 -1.8668745199786585 -1.6107023398028772 0.33611220121383667 1.917259693145752 0.00016386134666390717 0.19019493460655212 0.15536409616470337 -0.2102244645357132 0.05485156551003456 -0.19019491970539093 -2.5886280127451755e-05 0.23851832747459412 0.8828223347663879 0.5478286743164062 0.085960753262043 -0.053231380879879 -8.182980309356935e-06 0.23851832747459412 0.8828223347663879 0.5478286743164062 0.085960753262043 -0.053231380879879 -8.182980309356935e-06 0.300000012694192 -0.19812735448357285 0.3999999815915989 -1.2090986250532139 1.2090489155483484 -1.2090488819510374 1.7645304395388976e-08 0.05508001039987999 4.18155214492635e-09 4.068438324830582e-10 1.3213806806470082e-08 1.334268761520034e-08 1.0925023755161316e-06 -1.215318799160024e-06 1.660985138244685e-07 6.781138772562078e-12 -1.16913213265925e-07 9.32894815085996e-08 0.2999999999998994 -0.19812727999971091 0.39999999999985125 -1.209098722382324 1.2090487307044395 -1.2090487304564579 2.8476169255426414e-13 0.05507999999917228 4.181402042466696e-13 -3.2551550940110137e-16 -2.4871951493283945e-16 -2.9197952122112015e-16
5998.808 -0.3446891449885614 -1.8655590716046584 -1.612481236950555 0.3365755972333491 1.9156472065731327 0.00016364200056346584 0.22479044888509422 0.18306902198354696 -0.24744387111672614 0.06436451834944559 -0.22479044704527995 -3.055935507888204e-05 4.324440088416773 3.4631152176922178 -4.652426668678784 1.1891188898655487 -4.324440053249144 -0.0005841343469386954 0.2678664268358093 0.9011834423688505 0.536195503557984 0.08882469789791078 -0.059881357427785914 -9.17739962857017e-06 3.5170861843541763 11.832538598303008 4.993159768232658 0.40370825194600446 -0.27216076950928697 -4.171128131185142e-05 -0.3446891943560999 -1.865558926259176 -1.612481419240133 0.33657559752464294 1.9156471490859985 0.00016364200564567 0.22479045391082764 0.18306902050971985 -0.24744386970996857 0.06436451524496078 -0.22479045391082764 -3.055935667362064e-05 0.26786643266677856 0.9011834263801575 0.5361955165863037 0.08882469683885574 -0.05988135561347008 -9.177399988402613e-06 0.26786643266677856 0.9011834263801575 0.5361955165863037 0.08882469683885574 -0.05988135561347008 -9.177399988402613e-06 0.2999999588463736 -0.19766072824609818 0.40000000002667446 -1.2090986881342531 1.2090488406475852 -1.2090487837142367 1.858369016277401e-11 0.06497999447868173 -6.625867324117526e-09 -6.683661776467585e-09 5.7705245713699785e-09 -1.8398142667728205e-09 -1.2523709122815982e-06 8.218802665299725e-07 -1.1724794659234316e-07 -8.238405954715525e-12 1.1737762268716899e-07 -7.558012600285526e-08 0.2999999999998439 -0.1976607199995585 0.3999999999997676 -1.2090987223823242 1.2090487307044389 -1.209048730456458 4.785340721900634e-13 0.06497999999862651 7.066646908064724e-13 -3.3885345598010657e-16 -3.546951320610586e-16 7.414714973936623e-17
5998.816 -0.342788876184172 -1.8640142481481377 -1.6145679551277627 0.3371174049129399 1.9137469377842848 0.00016338384258606517 0.2634775416276016 0.21381310170666373 -0.288630414444904 0.07480528445893997 -0.2634775394740826 -3.576998987325626e-05 4.8358865928134245 3.843009965389596 -5.148317916022233 1.305095763686797 -4.8358865536003295 -0.000651329349296778 0.29915895617566307 0.9202315935496149 0.5240749062854362 0.0917609898671476 -0.06700729207726998 -1.0233107776729378e-05 3.927957094586456 12.082640823306445 4.880290342311239 0.4170536989461858 -0.30454814249119205 -4.650947484523502e-05 -0.34278899828066045 -1.8640144507037562 -1.61456805864443 0.33711740374565125 1.913746953010559 0.00016338384011760354 0.26347753405570984 0.21381309628486633 -0.2886304259300232 0.07480528205633163 -0.26347753405570984 -3.5769990063272417e-05 0.2991589605808258 0.9202315807342529 0.524074912071228 0.09176099300384521 -0.06700729578733444 -1.0233107786916662e-05 0.2991589605808258 0.9202315807342529 0.524074912071228 0.09176099300384521 -0.06700729578733444 -1.0233107786916662e-05 0.30000002480473803 -0.19711205282254826 0.39999990044195965 -1.2090988088665033 1.2090490713186404 -1.2090485963221795 1.2535577105949978e-08 0.07600001099214672 4.21440986478512e-09 -6.975170499609875e-08 4.539456697868946e-08 -2.153506061221057e-09 -8.270234691575771e-07 4.049949893668419e-07 1.237103156813075e-07 -1.5482212805020484e-11 1.0820429930482185e-07 -1.6321999822921167e-08 0.29999999999976307 -0.19711199999934426 0.39999999999964514 -1.2090987223823233 1.2090487307044386 -1.2090487304564592 7.813309586693329e-13 0.07599999999779224 1.1621679037807775e-12 -9.534318659580162e-18 5.070284559717711e-16 5.037934119268981e-16
5998.824 -0.34056734202519223 -1.862215203884186 -1.6169947127253126 0.3377450172245014 1.911525403643449 0.00016308248330658938 0.2919408401041641 0.23592934317234018 -0.3180115633622161 0.08206899637976545 -0.2919408377217699 -3.957158993691273e-05 3.5579123095703102 2.764530183209556 -3.6726436146640102 0.9079639901031846 -3.5579122809609105 -0.00047520000795705814 0.21941854905654304 0.8602795897803033 0.5593399850054316 0.0825285904657568 -0.049388146817403084 -7.465920125014225e-06 2.88096554911241 11.295471013815384 5.20868580836758 0.3750924436668646 -0.22446912728509702 -3.393260696818965e-05 -0.3405674139605921 -1.8622153441058558 -1.6169946829425257 0.3377450108528137 1.9115253686904907 0.0001630824845051393 0.291940838098526 0.23592934012413025 -0.3180115520954132 0.08206899464130402 -0.291940838098526 -3.9571590605191886e-05 0.21941855549812317 0.8602795600891113 0.5593400001525879 0.08252859115600586 -0.04938814789056778 -7.46592013456393e-06 0.21941855549812317 0.8602795600891113 0.5593400001525879 0.08252859115600586 -0.04938814789056778 -7.46592013456393e-06 0.30000001875705923 -0.19647203609780928 0.39999995894650286 -1.2090987241774345 1.2090489089402694 -1.2090487283895834 1.0212407807418516e-08 0.08400000855510824 9.369635349782487e-09 -3.430828131040901e-08 5.284163298822713e-09 -2.38239049386918e-09 -1.914884455816335e-06 1.3149926580039164e-06 1.0239462850783063e-07 -2.2326171638641127e-11 2.149527487307721e-07 -1.0285452125259658e-07 0.2999999999996492 -0.19647199999905 0.399999999999468 -1.2090987223823237 1.2090487307044389 -1.2090487304564579 1.1852756037402416e-12 0.08399999999672089 1.7744546772959095e-12 -1.393728591665866e-15 9.01643326092217e-16 1.8343550170054006e-15
5998.831999999999 -0.3381172368231935 -1.860239691666827 -1.6196553444893045 0.33843002626991114 1.909075298461427 0.00016275066744832998 0.32062386122674347 0.25792820323304677 -0.34709434731658356 0.08915174638296824 -0.32062385861480663 -4.3384327904171104e-05 3.5853776403224207 2.7498575075883234 -3.6353479942959344 0.8853437504003497 -3.585377611629595 -0.00047659224590729715 0.22069248971912475 0.857624085850262 0.5600195386176102 0.08217968601261888 -0.049821054537778374 -7.487793730143535e-06 2.897692390012108 11.260604247213939 5.21501394751491 0.3735066729273528 -0.2264366928742027 -3.4032022503502366e-05 -0.33811742464174444 -1.8602398077594202 -1.6196554342852991 0.3384300172328949 1.9090752601623535 0.00016275067173410207 0.32062387466430664 0.25792819261550903 -0.3470943570137024 0.08915174752473831 -0.32062384486198425 -4.3384327000239864e-05 0.2206924855709076 0.8576241135597229 0.5600195527076721 0.08217968791723251 -0.04982105270028114 -7.48779393688892e-06 0.2206924855709076 0.8576241135597229 0.5600195527076721 0.08217968791723251 -0.04982105270028114 -7.48779393688892e-06 0.29999999236620994 -0.1957680697254732 0.39999993390643457 -1.2090987122597328 1.209049080227387 -1.209048748624042 2.4203223412464024e-08 0.09200001414015457 1.1483998233826697e-10 -5.86495125677756e-08 4.09479217417181e-08 2.7190392854993323e-08 6.711430343074047e-07 -3.144528797947816e-07 -8.686789580654333e-07 1.9631049643512333e-11 -1.2868837494872926e-07 1.7413576495135578e-08 0.299999999999527 -0.19576799999874908 0.3999999999992757 -1.209098722382324 1.209048730704438 -1.2090487304564586 1.7546330378162719e-12 0.09199999999524966 2.660195449864702e-12 -6.705883114138675e-16 6.434129434716366e-16 1.5758068615957382e-17
5998.84 -0.3354367172379078 -1.8580886959210474 -1.6225473531505745 0.33917091938720706 1.9063947788979574 0.0001623883012278461 0.34954801318350875 0.2797983265749627 -0.37585121150864953 0.09603733726613743 -0.34954801034128513 -4.720937894800901e-05 3.6155189945956607 2.733765417739488 -3.5946080240082456 0.8606988603961484 -3.615518965809812 -0.0004781313804797379 0.22209445617335283 0.8547245529397482 0.5607649550386905 0.08179839578918197 -0.050296023582560405 -7.511975244426104e-06 2.916100209556123 11.222533380098895 5.221955414311294 0.37177370886183203 -0.22859542718273704 -3.4141927485916645e-05 -0.33543664613832647 -1.858088795338766 -1.622547451649801 0.3391709327697754 1.9063947200775146 0.00016238829994108528 0.34954801201820374 0.27979832887649536 -0.37585121393203735 0.09603733569383621 -0.34954801201820374 -4.720937795354985e-05 0.22209446132183075 0.8547245264053345 0.5607649683952332 0.08179839700460434 -0.05029602348804474 -7.511975127272308e-06 0.22209446132183075 0.8547245264053345 0.5607649683952332 0.08179839700460434 -0.05029602348804474 -7.511975127272308e-06 0.30000003741945835 -0.19499999169744409 0.3999999390641022 -1.2090988117431902 1.2090488787094982 -1.209048594301263 -6.640604943533453e-09 0.10000000849898377 6.1148356363878424e-09 -6.034974220896996e-08 2.2835844929392062e-08 -2.8422166130155255e-09 -1.6889114039404908e-06 1.2021911322144466e-06 1.1098729060795835e-07 -2.016138355005209e-11 1.9488449303618784e-07 -9.891919001637552e-08 0.2999999999993975 -0.19499999999844597 0.39999999999906816 -1.2090987223823235 1.209048730704438 -1.209048730456459 2.3658745710900947e-12 0.09999999999374519 3.6214343725928684e-12 -2.2662080630169107e-16 2.107573341923017e-15 1.0432179726988265e-15
5998.848 -0.33252376821895346 -1.8557632922246219 -1.6256680217883055 0.3399660554340723 1.903481829902664 0.000161995281333096 0.37873481558240896 0.30152827706463614 -0.4042547983673295 0.10270984993758776 -0.37873481250908486 -5.104795059152339e-05 3.6483502998625252 2.7162438112091833 -3.5504483573349996 0.8340640839312914 -3.6483502709749662 -0.000479821455439298 0.2236252742191077 0.8515811848189371 0.5615760993523138 0.08138514458346627 -0.05081327348032012 -7.53852819990186e-06 2.9361998504968843 11.181260956672643 5.229508952388617 0.3698954821318542 -0.23094632796805495 -3.426261066855395e-05 -0.3325236479388636 -1.8557632605182093 -1.6256678740130823 0.3399660587310791 1.9034818410873413 0.00016199528181459755 0.378734827041626 0.30152827501296997 -0.4042547941207886 0.10270985215902328 -0.378734827041626 -5.104795127408579e-05 0.2236252725124359 0.8515811562538147 0.5615761280059814 0.08138514310121536 -0.05081327259540558 -7.538528279837919e-06 0.2236252725124359 0.8515811562538147 0.5615761280059814 0.08138514310121536 -0.05081327259540558 -7.538528279837919e-06 0.3000000136580803 -0.1941679596497541 0.4000000524028432 -1.2090987012679637 1.2090484784630253 -1.209048759250162 -8.900668915558592e-09 0.10799999748696557 -1.0469050452883318e-09 6.399207321302235e-08 -2.6772527014440187e-08 -3.0733159281636005e-09 -2.2730506321078908e-06 2.1450007456931735e-06 -3.534750212151167e-07 -1.3767704059343353e-11 2.211929151956903e-07 -1.7973804916705127e-07 0.2999999999992611 -0.19416799999814566 0.3999999999988441 -1.209098722382323 1.2090487307044389 -1.2090487304564592 3.0131644075531455e-12 0.10799999999222958 4.659300158347108e-12 -9.536579509630392e-16 2.171306843456375e-15 1.7766012872683998e-15
5998.856 -0.32937620211134444 -1.8532646480370847 -1.629014415416334 0.34081366710364847 1.9003342638205691 0.00016157149465140678 0.40820589981317534 0.3231065165863239 -0.43227794909876077 0.10915366613440752 -0.4082058965078623 -5.490128603368005e-05 3.6838855288457983 2.697279940210968 -3.5028938414289055 0.80547702460247 -3.6838854998471824 -0.00048166693026958186 0.22528579056846282 0.8481941080771556 0.5624528680502797 0.08094038971183617 -0.051373024187901566 -7.567522660013208e-06 2.958002430163917 11.136788639053053 5.237673597857815 0.36787407124029536 -0.23349039493401258 -3.439439048976003e-05 -0.32937604585756475 -1.853264633809225 -1.6290143171893519 0.34081366658210754 1.9003342390060425 0.00016157150093931705 0.40820589661598206 0.3231065273284912 -0.43227794766426086 0.10915366560220718 -0.40820589661598206 -5.490128751262091e-05 0.22528578341007233 0.8481941223144531 0.5624528527259827 0.08094038814306259 -0.05137302353978157 -7.5675225161830895e-06 0.22528578341007233 0.8481941223144531 0.5624528527259827 0.08094038814306259 -0.05137302353978157 -7.5675225161830895e-06 0.3000000255897855 -0.19327195357849375 0.40000003224047315 -1.2090987331916532 1.2090485388083234 -1.2090487103836192 -1.9841330166629666e-08 0.11599999729797077 3.3455404527427156e-09 3.946773783057113e-08 -2.579629859974879e-08 -3.305308618419213e-09 1.2966030584521442e-06 -7.046516419813036e-07 1.5876448198188989e-07 1.3102976229466113e-11 -1.2577780567859852e-07 5.478817165650694e-08 0.299999999999118 -0.1932719999978522 0.39999999999860414 -1.2090987223823229 1.2090487307044375 -1.20904873045646 3.695369803305472e-12 0.11599999999072805 5.779548960208873e-12 -1.5352836922547105e-15 7.537562226322763e-16 2.078139967421669e-15
5998.864 -0.32599165776863614 -1.8505940236117464 -1.632583382567951 0.3417118634219228 1.8969497195052345 0.00016111681797034447 0.4379830067218854 0.34452138040282965 -0.45989370173612903 0.11535349111814891 -0.4379830031836163 -5.877066760113999e-05 3.722138363588756 2.6768579770632197 -3.451969079671033 0.7749781229676733 -3.7221383344692507 -0.0004836726959324925 0.22707685818418422 0.8445633627609164 0.5633951992698581 0.08046462049028479 -0.05197549078483562 -7.599035467206048e-06 2.981519147958339 11.089116953050832 5.246448774640774 0.3657117001283443 -0.2362286056170779 -3.453761619845149e-05 -0.32599145570863897 -1.8505938688861292 -1.6325834433185022 0.3417118489742279 1.8969497680664062 0.0001611168117960915 0.4379830062389374 0.3445213735103607 -0.45989370346069336 0.11535348743200302 -0.4379830062389374 -5.8770667237695307e-05 0.22707685828208923 0.844563364982605 0.5633952021598816 0.08046462386846542 -0.051975492388010025 -7.59903559810482e-06 0.22707685828208923 0.844563364982605 0.5633952021598816 0.08046462386846542 -0.051975492388010025 -7.59903559810482e-06 0.30000000446089126 -0.1923119237747703 0.4000000354605759 -1.2090988041599744 1.2090484786398714 -1.2090486002634147 -2.962991426341872e-08 0.12399998432420178 -1.5485689021171933e-08 3.6937983833249896e-08 4.974716621320085e-10 -3.538264072723136e-09 -1.5314677829058493e-08 -2.5794766611135044e-08 -5.530480447969725e-08 -2.5205542179289372e-12 1.2242609274770753e-08 9.398132374894352e-09 0.29999999999896876 -0.19231199999757126 0.3999999999983466 -1.209098722382323 1.2090487307044377 -1.2090487304564594 4.41054538217699e-12 0.1239999999892607 6.979473629331812e-12 -1.92886361277595e-15 2.527485341394395e-15 3.4882350117896353e-15
5998.871999999999 -0.3223675996966078 -1.847752773119585 -1.636371556850654 0.34265863242701816 1.8933256614624476 0.00016063111765043434 0.4680879812359053 0.3657610487800423 -0.4870752855610347 0.12129437647865045 -0.46808797746363673 -6.265742034179973e-05 3.763121814252486 2.6549585471515798 -3.3976979781132064 0.7426106700626922 -3.76312178500255 -0.00048584409258246804 0.22899931956199263 0.8406888816752586 0.5644030834137943 0.07995835791137411 -0.052620877454657655 -7.633150521240108e-06 3.006761065848963 11.038245016396145 5.2558343933659355 0.3634107367071953 -0.23916188803141902 -3.4692669119036294e-05 -0.3223674933062952 -1.847752873097555 -1.6363714377032679 0.3426586389541626 1.893325686454773 0.0001606311125215143 0.46808797121047974 0.36576104164123535 -0.4870752990245819 0.12129437923431396 -0.46808797121047974 -6.265741831157357e-05 0.2289993166923523 0.8406888842582703 0.5644030570983887 0.07995835691690445 -0.05262087658047676 -7.633150744368322e-06 0.2289993166923523 0.8406888842582703 0.5644030570983887 0.07995835691690445 -0.05262087658047676 -7.633150744368322e-06 0.3000000417958285 -0.19128797319676513 0.3999999991835045 -1.2090987725507394 1.2090486121641064 -1.209048651221265 -8.217129308697379e-09 0.13200000606605944 2.7244681838672033e-09 1.706399128979597e-08 1.3115354535958495e-08 -3.772265699079273e-09 1.1826269479935122e-06 -8.463624480594882e-07 7.01910237543122e-07 4.8567143014811645e-12 -7.23718417158956e-08 6.536483540763626e-08 0.29999999999881366 -0.19128799999730808 0.39999999999807156 -1.209098722382323 1.2090487307044373 -1.2090487304564599 5.156935497773375e-12 0.13199999998785614 8.266949562696028e-12 -1.6522662545471443e-15 2.4282376831637714e-15 2.410828062060926e-15
5998.88 -0.3185013172534763 -1.8447423460159609 -1.6403753584414131 0.3436518440318584 1.889459379050434 0.00016011424926845407 0.49854276353783544 0.3868135146150306 -0.5137961117924443 0.12696174320215933 -0.49854275953043725 -6.656291578022149e-05 3.80684778774127 2.6315582293735402 -3.3401032789262053 0.7084208404386105 -3.8068477583500653 -0.0004881869298027197 0.23105398771873936 0.8365704683727193 0.5654765740794849 0.07942215457535745 -0.053309370676256934 -7.66995909712273e-06 3.0337388587470477 10.984170249733804 5.26583095314298 0.36097369254499956 -0.24229108972358776 -3.4859964096422805e-05 -0.3185012976275843 -1.8447421232806605 -1.6403754393206995 0.34365183115005493 1.8894593715667725 0.00016011424304451793 0.49854275584220886 0.38681352138519287 -0.5137960910797119 0.12696173787117004 -0.49854275584220886 -6.656291225226596e-05 0.23105399310588837 0.8365704417228699 0.5654765963554382 0.07942215353250504 -0.0533093698322773 -7.669958904443774e-06 0.23105399310588837 0.8365704417228699 0.5654765963554382 0.07942215353250504 -0.0533093698322773 -7.669958904443774e-06 0.29999995333422225 -0.19019997810484032 0.40000005319258236 -1.2090986676835611 1.2090486124607271 -1.2090488091655465 -1.5877664396856863e-08 0.1399999739717028 -1.2156272078205391e-08 5.413163883766329e-08 -4.117201354565861e-08 -4.007390466871331e-09 -2.064867378532819e-06 1.4941598096005197e-06 -1.8787515528552182e-07 -1.7676320547986294e-11 1.9794165775162412e-07 -1.262434093989402e-07 0.2999999999986531 -0.19019999999706824 0.39999999999777797 -1.2090987223823229 1.2090487307044373 -1.20904873045646 5.932590436283786e-12 0.13999999998654025 9.64221127326798e-12 -1.560598152003577e-15 3.4370006134022036e-15 3.210938164542767e-15
5998.888 -0.31438992393597953 -1.841564288683152 -1.6445909954922469 0.34468925307303605 1.8853479857659412 0.00015956605723010337 0.5293693763455801 0.40766654680824516 -0.5400297604668035 0.13234140518686624 -0.5293693721018389 -7.048857583276929e-05 3.853326600968085 2.6066290241518186 -3.279206084294897 0.6724577480883633 -3.8533265714252027 -0.0004907075065684753 0.2332416246366783 0.8322077738646062 0.566615799217268 0.07885659492725708 -0.05404113154357332 -7.7095601587536e-06 3.062462531479586 10.92688807084228 5.276439645471044 0.3584032239443834 -0.24561694286554073 -3.503995092153511e-05 -0.31439000764955694 -1.8415644804583948 -1.6445911566363733 0.3446892499923706 1.8853479623794556 0.00015956605784595013 0.5293693542480469 0.40766653418540955 -0.540029764175415 0.1323413997888565 -0.5293693542480469 -7.048857514746487e-05 0.23324161767959595 0.8322077989578247 0.5666158199310303 0.07885659486055374 -0.05404113233089447 -7.709560122748371e-06 0.23324161767959595 0.8322077989578247 0.5666158199310303 0.07885659486055374 -0.05404113233089447 -7.709560122748371e-06 0.30000003171264594 -0.1890480424850077 0.3999998889411338 -1.2090988399434919 1.2090491109382908 -1.2090485682103052 1.579406524869712e-08 0.1480000201820662 1.1161799020562178e-08 -1.7250032560504122e-07 7.894405225168755e-08 -4.2437045513878295e-09 3.3676054231770714e-07 1.1049389626007271e-07 -1.0651943984918752e-06 1.8793452070368868e-11 -1.1322652578534163e-07 -5.465602376837251e-09 0.29999999999848725 -0.18904799999685748 0.3999999999974655 -1.2090987223823226 1.2090487307044364 -1.2090487304564606 6.7351983275209255e-12 0.14799999998534097 1.111031298955012e-11 -2.0447958674486783e-15 2.8671052966635525e-15 3.3152641628847817e-15
5998.896 -0.31003035678441293 -1.8382202463838109 -1.6490144654154317 0.34576850255028974 1.8809884186492738 0.00015898637435055827 0.5605899078092719 0.4283076491197032 -0.5657499634605753 0.13741959341720913 -0.5605899033278844 -7.443587691031997e-05 3.902566432961468 2.580137788932256 -3.2150253742214696 0.6347735287928619 -3.902566403255689 -0.0004934126346938344 0.2355629168826352 0.8276002720813388 0.5678209724349751 0.0782622958539689 -0.05481628712215193 -7.75206072730091e-06 3.0929410986690002 10.866391572427979 5.287662459508975 0.3557021346562887 -0.24914002497018053 -3.5233116005582635e-05 -0.31003028551210576 -1.8382204214679163 -1.6490142981158655 0.3457685112953186 1.880988359451294 0.0001589863677509129 0.5605899095535278 0.4283076524734497 -0.5657499432563782 0.13741959631443024 -0.5605899095535278 -7.443587674060836e-05 0.23556292057037354 0.8276003003120422 0.5678209662437439 0.07826229929924011 -0.05481628701090813 -7.75206081016222e-06 0.23556292057037354 0.8276003003120422 0.5678209662437439 0.07826229929924011 -0.05481628701090813 -7.75206081016222e-06 0.300000051954024 -0.18783199581888832 0.3999999872377305 -1.209098727630763 1.2090487210003356 -1.2090487222131112 -7.434326827188371e-10 0.15600002062095056 2.473045247614657e-08 -7.55745284984698e-09 -2.5353998084793897e-08 -4.481383872639032e-09 1.385197826379668e-06 -1.4127582191294317e-06 -2.6483496636479653e-07 1.2725490354903291e-11 -1.621207878689345e-07 1.1522306244064468e-07 0.29999999999831717 -0.1878319999966824 0.3999999999971328 -1.2090987223823222 1.209048730704436 -1.2090487304564614 7.564329078492552e-12 0.15599999998428712 1.2672549110366747e-11 -2.3046538760237137e-15 4.175221784621084e-15 3.710385758826829e-15
5998.9039999999995 -0.3054193759437984 -1.8347119655624908 -1.6536415560173898 0.3468871270627994 1.876377437845466 0.00015837502140148813 0.5922264894852997 0.4487240142482446 -0.5909305836335816 0.14218298103631108 -0.5922264847648696 -7.840635421257637e-05 3.954572709503473 2.5520456410676737 -3.147577521625797 0.595423452387743 -3.9545726796231526 -0.0004963096627820497 0.23801844809560874 0.8227472341121136 0.5690924043683938 0.07763990769533774 -0.05563492074329323 -7.79757625748687e-06 3.125182223495343 10.802671183892052 5.299502287959357 0.35287338047531003 -0.2528607147782677 -3.5439984090277824e-05 -0.30541927019228154 -1.8347118536578577 -1.6536415258990687 0.34688714146614075 1.8763774633407593 0.00015837502724025398 0.592226505279541 0.44872400164604187 -0.5909305810928345 0.14218297600746155 -0.592226505279541 -7.840635225875303e-05 0.2380184531211853 0.8227472305297852 0.5690923929214478 0.07763990759849548 -0.05563491955399513 -7.797576472512446e-06 0.2380184531211853 0.8227472305297852 0.5690923929214478 0.07763990759849548 -0.05563491955399513 -7.797576472512446e-06 0.2999999917045715 -0.1865519573483295 0.40000004780907533 -1.2090987092237346 1.2090485019607375 -1.2090487389618956 -1.544093882111975e-08 0.1639999851288495 -1.4974709916008954e-08 9.289449020145014e-08 -1.3466977588375361e-08 -4.720417300603937e-09 2.291384415117518e-07 -4.7377795819432964e-07 3.9885611123198325e-07 -3.0316872081586488e-12 -1.1024543117992238e-10 3.3401338448646734e-08 0.29999999999814353 -0.18655199999654895 0.399999999996779 -1.2090987223823226 1.209048730704436 -1.209048730456461 8.414855792581704e-12 0.16399999998341175 1.4335987298180483e-11 -3.0061781831729703e-15 5.052802106266659e-15 5.12297591283741e-15
5998.911999999999 -0.3005535644229278 -1.8310412965345337 -1.6584678464502005 0.3480425564505368 1.8715116263633194 0.00015773180662287167 0.6243012687922824 0.4689024728711428 -0.6155455900983218 0.1466187095844219 -0.6243012638313198 -8.240160623256404e-05 4.009347413372846 2.5223073278622734 -3.0768758080925163 0.5544660685138543 -4.009347383306272 -0.0004994065024984593 0.24060866800499608 0.8176477012492207 0.5704305140363941 0.07699011572392808 -0.056497061126645994 -7.846231050364683e-06 3.1591918109055985 10.735714317402268 5.311963032809709 0.3499200759652531 -0.25677914282060604 -3.566112012390748e-05 -0.30055362382997686 -1.83104116121401 -1.6584680716144007 0.3480425477027893 1.8715115785598755 0.0001577318034833297 0.6243012547492981 0.46890246868133545 -0.6155455708503723 0.14661870896816254 -0.6243012547492981 -8.240160968853161e-05 0.24060866236686707 0.8176476955413818 0.5704305171966553 0.07699011266231537 -0.056497059762477875 -7.846230801078491e-06 0.24060866236686707 0.8176476955413818 0.5704305171966553 0.07699011266231537 -0.056497059762477875 -7.846230801078491e-06 0.29999996036273274 -0.18520801285902072 0.3999999827580449 -1.2090987195370564 1.2090488927974161 -1.2090487433976935 -3.426322122628059e-09 0.17199998034637673 -1.1573616995528762e-08 -6.30716566034622e-08 4.4318317175490334e-09 -4.960955278688548e-09 -2.882975739908492e-07 6.1269425949224e-07 -5.0555212935420484e-08 2.0772092338859463e-12 2.2110481569125145e-08 -5.638459874894126e-08 0.29999999999796645 -0.1852079999964646 0.3999999999964038 -1.2090987223823222 1.2090487307044355 -1.2090487304564619 9.283119576322149e-12 0.17199999998274465 1.6104995321343524e-11 -2.210096279399266e-15 5.244952909041658e-15 4.904684876805491e-15
5998.92 -0.2954293280979776 -1.8272101966036782 -1.663488707949881 0.34923211965116485 1.866387390079025 0.00015705652519787912 0.6568363752938124 0.48882943737971 -0.6395690296467595 0.15071441669927624 -0.6568363700907244 -8.642329948247511e-05 4.066888312691252 2.4908705635709043 -3.002929943554722 0.5119633893567905 -4.066888282425573 -0.0005027116562388838 0.24333385761219023 0.8123004568675721 0.571835840100944 0.07631364214776565 -0.05740267021306889 -7.898158688019798e-06 3.194973550448058 10.665504998671222 5.325049710188011 0.3468455035615949 -0.2608951361183981 -3.589713123704998e-05 -0.2954295317279261 -1.8272102514850062 -1.6634886900531214 0.34923210740089417 1.8663873672485352 0.00015705652185715735 0.6568363904953003 0.48882943391799927 -0.6395690441131592 0.15071441233158112 -0.6568363904953003 -8.642330067232251e-05 0.2433338612318039 0.812300443649292 0.5718358159065247 0.07631364464759827 -0.05740267038345337 -7.898158401076216e-06 0.2433338612318039 0.812300443649292 0.5718358159065247 0.07631364464759827 -0.05740267038345337 -7.898158401076216e-06 0.29999997638487036 -0.183800067159315 0.39999998533666686 -1.209098639445718 1.2090489389149766 -1.2090488644126343 4.408657936766587e-08 0.18000001137685695 4.2267958533698283e-10 -2.4445501550260597e-08 3.074671295820603e-08 -5.203081615124619e-09 3.4825913014290075e-07 -5.149735858547937e-07 1.0051841584734205e-06 -1.4725234489211238e-11 5.108463457126011e-08 4.295648467322081e-08 0.2999999999977876 -0.18379999999643562 0.3999999999960051 -1.209098722382323 1.2090487307044355 -1.209048730456461 1.0168315271770502e-11 0.17999999998232288 1.7981109552465206e-11 -2.9501616907618916e-15 5.757609971082688e-15 5.795895789178013e-15
5998.928 -0.2900428960129542 -1.823220733651877 -1.6686993043308815 0.350453048785457 1.8610009580365998 0.00015634895868909363 0.689853880087401 0.5084908400443019 -0.6629749943915615 0.15445826560195655 -0.689853874640493 -9.047317344821002e-05 4.12718809919857 2.4576753330739844 -2.9257455931002427 0.4679811128350392 -4.1271880687210745 -0.0005062342457168634 0.2461940901331843 0.8067039971685895 0.573309051953253 0.07561124868951588 -0.05835162957921223 -7.953502482707165e-06 3.23252840344871 10.592023482823581 5.338768553599082 0.34365312529384967 -0.26520815643751955 -3.6148668783904064e-05 -0.2900427023517054 -1.8232205549823206 -1.668699089680807 0.35045304894447327 1.8610010147094727 0.00015634896408300847 0.6898539066314697 0.5084908604621887 -0.662975013256073 0.15445826947689056 -0.689853847026825 -9.047317143995315e-05 0.24619409441947937 0.8067039847373962 0.573309063911438 0.07561124861240387 -0.058351628482341766 -7.9535020631738e-06 0.24619409441947937 0.8067039847373962 0.573309063911438 0.07561124861240387 -0.058351628482341766 -7.9535020631738e-06 0.29999999031382296 -0.1823279238280366 0.40000012052285444 -1.2090986459928421 1.2090482155031692 -1.2090488072128782 -3.940820839151144e-08 0.18799997874658253 -1.7519475330679587e-08 2.5855127125285463e-07 -8.283647542400589e-08 5.4157794767156974e-08 -1.0542552750410301e-06 6.462366621705604e-07 -1.2104180549871358e-07 -1.048974235708809e-11 9.61808285472956e-08 -5.792987116298999e-08 0.2999999999976069 -0.1823279999964704 0.3999999999955834 -1.2090987223823224 1.209048730704435 -1.209048730456462 1.106257867638945e-11 0.18799999998217792 1.997454817255826e-11 -1.7167254485983068e-15 5.684158402147661e-15 4.458618904916604e-15
5998.936 -0.2843903210351897 -1.8190750902469883 -1.674094592206842 0.351702483486906 1.8553483831033926 0.00015560887443399538 0.7233757475092415 0.527872065340297 -0.685737585704092 0.15783897671901745 -0.7233757418167039 -9.455304580362839e-05 4.190233427730061 2.4226531619993827 -2.8453239140663196 0.42258888963261215 -4.190233397026372 -0.0005099840444272963 0.24918918727178122 0.8008565008229853 0.5748509605464456 0.07488373979475269 -0.05934372529623463 -8.012415986891076e-06 3.271854028878488 10.515245855805798 5.3531271148006105 0.3403465973671509 -0.2697172314713864 -3.641643066041994e-05 -0.28439027467836553 -1.8190749327289026 -1.6740945021258753 0.351702481508255 1.8553483486175537 0.00015560886822640896 0.7233757376670837 0.5278720855712891 -0.6857376098632812 0.15783897042274475 -0.7233757376670837 -9.455304825678468e-05 0.24918918311595917 0.8008564710617065 0.5748509764671326 0.07488373667001724 -0.05934372544288635 -8.012416401470546e-06 0.24918918311595917 0.8008564710617065 0.5748509764671326 0.07488373667001724 -0.05934372544288635 -8.012416401470546e-06 0.29999996999970474 -0.18079197769517721 0.40000007830188555 -1.2090986051635484 1.2090485157585684 -1.2090488839183686 -2.0261472493878786e-08 0.19599996998490601 -1.8780000101465362e-08 1.7340486438291622e-07 -4.003371846005643e-08 -5.692509390380489e-09 -1.8508051069900782e-06 1.78148242165978e-06 2.3525323188626933e-08 -1.1252513102853964e-11 1.8956921472861735e-07 -1.452680139468459e-07 0.2999999999974269 -0.18079199999657602 0.3999999999951367 -1.2090987223823229 1.209048730704434 -1.2090487304564619 1.1966376135781381e-11 0.19599999998235199 2.2083118267766106e-11 -2.7074613139153373e-15 6.296674240311128e-15 6.6606432233550076e-15
5998.9439999999995 -0.2784674809308205 -1.814775568316092 -1.679669320908384 0.352977475494099 1.8494255430455524 0.00015483602489784867 0.7574237782887256 0.5469578761658137 -0.7078308745558066 0.1608458618167798 -0.7574237723486412 -9.866481786844734e-05 4.256003847435519 2.385726353189593 -2.761661106464322 0.37586063722029256 -4.25600381649216 -0.0005139715081023691 0.25231867035228916 0.7947557975588982 0.5764625288981684 0.07413196651872109 -0.060378631084082875 -8.075063471741665e-06 3.3129441417255565 10.435143621948335 5.368134361605525 0.33692978782758737 -0.27442087827715667 -3.670116347906587e-05 -0.2784674803363245 -1.8147757689105433 -1.679669205342428 0.3529774844646454 1.8494255542755127 0.00015483603056054562 0.7574237585067749 0.5469578504562378 -0.7078308463096619 0.16084586083889008 -0.7574237585067749 -9.866481559583917e-05 0.25231868028640747 0.7947558164596558 0.5764625072479248 0.07413196563720703 -0.060378629714250565 -8.075063306023367e-06 0.25231868028640747 0.7947558164596558 0.5764625072479248 0.07413196563720703 -0.060378629714250565 -8.075063306023367e-06 0.3000000459214915 -0.1791920119978141 0.3999999651848274 -1.2090987664158759 1.2090487857399594 -1.20904867177735 1.5741554462348606e-08 0.2040000271770997 2.4792468288034124e-08 -5.581675859441124e-08 1.4336199036535984e-08 -5.940076170075058e-09 1.5254366662892902e-06 -1.8229318159348915e-06 2.6281464184854295e-07 7.477501360101675e-12 -1.5734646455145892e-07 1.4309858973018993e-07 0.2999999999972478 -0.1791919999967612 0.39999999999466457 -1.209098722382323 1.209048730704434 -1.2090487304564626 1.2866451024747139e-11 0.2039999999828801 2.4316555637258795e-11 -1.9644677890633923e-15 8.246875153450388e-15 5.868596027642675e-15
5998.951999999999 -0.2722700799323352 -1.810324594434416 -1.6854180320696726 0.3542749935275445 1.843228142095585 0.0001540301469816741 0.792019543207132 0.5657323336816533 -0.7292288583941977 0.16346886104848687 -0.7920195370174581 -0.00010281048036072491 4.3244706148007905 2.346807189479952 -2.674747979798886 0.3278749039633856 -4.324470583602108 -0.0005182078115346963 0.25558170581669104 0.7883993357452084 0.5781448821825734 0.07335683113982011 -0.06145588960460276 -8.141620505667341e-06 3.355787797373154 10.351683278334587 5.38380077186056 0.3334067975304824 -0.27931701825291955 -3.700366519825806e-05 -0.2722700277911585 -1.810324494038717 -1.685417954121725 0.3542749881744385 1.8432281017303467 0.00015403014549519867 0.7920195460319519 0.5657323598861694 -0.7292288541793823 0.1634688675403595 -0.7920195460319519 -0.00010281048162141815 0.25558170676231384 0.788399338722229 0.578144907951355 0.07335682958364487 -0.06145589053630829 -8.14162012829911e-06 0.25558170676231384 0.788399338722229 0.578144907951355 0.07335682958364487 -0.06145589053630829 -8.14162012829911e-06 0.2999999848472611 -0.17752798084611027 0.40000005511275843 -1.2090986395268613 1.2090485773340491 -1.2090488348092678 -2.0322507069945533e-08 0.21199998198704426 -2.043536188858928e-09 1.2203848866924748e-07 -7.239268558399715e-08 -6.18965516654922e-09 -9.098960024112122e-07 6.643573424293393e-07 -8.449977794233685e-07 1.5925703870221416e-12 1.6965507848127846e-08 -5.0191219967949286e-08 0.2999999999970721 -0.17752799999703434 0.3999999999941664 -1.2090987223823229 1.2090487307044329 -1.209048730456463 1.376149288645482e-11 0.2119999999838059 2.6677384151278837e-11 -1.752687370574511e-15 7.825627305705652e-15 7.0013618031914625e-15
5998.96 -0.26579365087825657 -1.8057247257819302 -1.6913350588566427 0.3555919284759268 1.8367517130920292 0.00015319096128318488 0.8271843062296635 0.5841787105067804 -0.7499054147084645 0.16569858333618334 -0.8271842997882348 -0.00010699211941743043 4.395595377816447 2.305797103140883 -2.5845695392833488 0.2787152859620584 -4.395595346347092 -0.0005227048820881903 0.2589770445487971 0.7817841490473928 0.5798993173333555 0.07255929254241351 -0.06257489172634004 -8.21227448080779e-06 3.400368594925706 10.264825876992267 5.400138422871674 0.3297819846052694 -0.28440288289621546 -3.73247875152714e-05 -0.26579362550844365 -1.8057249228106897 -1.6913350264178675 0.35559192299842834 1.8367516994476318 0.0001531909656478092 0.8271843194961548 0.5841786861419678 -0.7499054074287415 0.1656985878944397 -0.8271843194961548 -0.00010699211998144165 0.2589770555496216 0.781784176826477 0.5798993110656738 0.07255928963422775 -0.06257489323616028 -8.21227422420634e-06 0.2589770555496216 0.781784176826477 0.5798993110656738 0.07255928963422775 -0.06257489323616028 -8.21227422420634e-06 0.30000005172574595 -0.175800006372109 0.39999994247755083 -1.209098815843413 1.2090488640421424 -1.2090486113430279 1.382610050164585e-08 0.22000003970427992 2.0511457113214153e-08 -1.3244489087482258e-07 4.904015520577357e-08 -6.44140898286718e-09 1.2810110781209987e-06 -1.7263958534355325e-06 -4.0137462742142393e-07 1.2712468426832389e-11 -1.9603367714314305e-07 1.482762642952046e-07 0.2999999999969014 -0.17579999999740448 0.399999999993641 -1.209098722382323 1.209048730704432 -1.2090487304564637 1.464020633519331e-11 0.21999999998517178 2.9168316887470814e-11 -2.237843927315904e-15 9.181224819587453e-15 7.793949766013474e-15
5998.968 -0.25903355801356653 -1.8009786568218367 -1.697414524811089 0.35692509892022 1.8299916202798854 0.0001523181713083552 0.8629389359916733 0.6022793970072445 -0.7698342514640475 0.16752635052861817 -0.8629389292961918 -0.00011121192291726402 4.469328720251214 2.2625858125580183 -2.4911045944478736 0.22847089905435325 -4.469328688494617 -0.0005274754374791981 0.2625029544673897 0.7749068222441023 0.5817273120761354 0.07174037240761853 -0.06373485358705351 -8.287225206617624e-06 3.446663792156827 10.174526576065064 5.417161075515388 0.32605999259262625 -0.2896749095531582 -3.7665438564077096e-05 -0.25903350511659795 -1.8009784857379358 -1.6974147001849573 0.3569251000881195 1.8299915790557861 0.00015231817087624222 0.8629389405250549 0.6022794246673584 -0.7698342800140381 0.16752634942531586 -0.8629389405250549 -0.00011121192073915154 0.2625029683113098 0.7749068140983582 0.5817273259162903 0.07174037396907806 -0.06373485177755356 -8.287224773084745e-06 0.2625029683113098 0.7749068140983582 0.5817273259162903 0.07174037396907806 -0.06373485177755356 -8.287224773084745e-06 0.2999999699193642 -0.17400797709571766 0.40000000839940125 -1.2090987295295248 1.2090487247113395 -1.2090487198415112 -3.215671612615241e-08 0.22799996968720235 -2.321313318644796e-08 -2.0901981597864105e-09 2.621018404329558e-09 -6.695472558503339e-09 -1.0669819923051864e-06 5.5635959667451003e-08 -2.1971226752140256e-07 -1.3642718211682057e-11 8.169001600775681e-08 -1.2798079341823385e-08 0.2999999999967383 -0.17400799999788094 0.3999999999930881 -1.209098722382323 1.2090487307044313 -1.2090487304564643 1.549371459598013e-11 0.2279999999870224 3.1795090276207425e-11 -1.656977372390434e-15 1.1216434869743357e-14 8.63830012398266e-15
5998.976 -0.2519850005488369 -1.7960892267572213 -1.7036503422863856 0.35827125702768686 1.8229430628697436 0.00015141146263115645 0.8993038044273974 0.6200158004260348 -0.7889888546100388 0.16894424579166803 -0.899303797475427 -0.00011547218711163768 4.545608554465522 2.2170504273487794 -2.3943253932489084 0.17723690788123275 -4.545608522404404 -0.0005325330242967071 0.2661571457964288 0.7677634563308201 0.5836305333046602 0.07090116224393436 -0.06493479127251238 -8.366685515061599e-06 3.4946433243071104 10.080734181623669 5.434884252239657 0.3222457823986816 -0.29512862633356873 -3.802658566595496e-05 -0.25198489824403936 -1.796088997517721 -1.7036502997027796 0.3582712709903717 1.822943091392517 0.0001514114555902779 0.8993037939071655 0.6200157999992371 -0.7889888286590576 0.16894423961639404 -0.8993037939071655 -0.00011547219037311152 0.2661571502685547 0.7677634358406067 0.5836305618286133 0.07090116292238235 -0.06493479013442993 -8.366685506189242e-06 0.2661571502685547 0.7677634358406067 0.5836305618286133 0.07090116292238235 -0.06493479013442993 -8.366685506189242e-06 0.2999999609383249 -0.17215195238094963 0.4000000894207126 -1.209098632939211 1.2090483968613508 -1.2090488174265939 -3.732152121343528e-08 0.23599994571466273 -2.5293087696530566e-08 2.440638927917763e-07 -8.282004087130574e-08 -6.9519243386725745e-09 -2.070032715819648e-06 1.3885730448189675e-06 -4.346310659832935e-07 -1.3983434434910276e-11 1.7481143878755405e-07 -1.189306986446385e-07 0.2999999999965857 -0.17215199999847364 0.3999999999925069 -1.2090987223823237 1.2090487307044313 -1.2090487304564648 1.6309128121080715e-11 0.23599999998940493 3.455979216284577e-11 -1.7959590015970626e-15 1.1655210538768132e-14 9.817705222657574e-15
5998.9839999999995 -0.24464301708607827 -1.7910594278240968 -1.710036210452306 0.35962709485148525 1.815601079463635 0.00015047050199902654 0.9362986712349952 0.6373682366156312 -0.8073424328882792 0.16994516669835463 -0.9362986640239555 -0.00011977532356721944 4.624358350949723 2.1690545236995593 -2.2941972847800582 0.1251151133358254 -4.624358318566057 -0.0005378920569477209 0.2699366884028776 0.7603496330688511 0.5856108447133306 0.0700428312807111 -0.0661734929258805 -8.450881872489749e-06 3.544268718729783 9.983390682194015 5.453325308139477 0.3183446681708319 -0.3007585253481268 -3.840925811046591e-05 -0.24464303651918584 -1.7910593191729944 -1.7100361029254358 0.3596270978450775 1.815601110458374 0.00015047049964778125 0.936298668384552 0.6373682618141174 -0.8073424100875854 0.16994516551494598 -0.936298668384552 -0.00011977532267337665 0.2699366807937622 0.7603496313095093 0.5856108665466309 0.07004283368587494 -0.0661734938621521 -8.45088197820587e-06 0.2699366807937622 0.7603496313095093 0.5856108665466309 0.07004283368587494 -0.0661734938621521 -8.45088197820587e-06 0.2999999692079208 -0.17023199643045972 0.4000000663412797 -1.209098610379535 1.209048540488014 -1.2090488615679362 -4.806140436803785e-09 0.24399997371381782 -4.680053074600636e-10 1.8776185031238403e-07 -9.512953534158505e-08 -7.211006832085509e-09 -8.377271398719345e-07 1.0925016934023153e-06 -5.588429260627357e-07 1.009133554871116e-12 6.029441702934482e-08 -8.523482578155356e-08 0.29999999999644666 -0.17023199999919256 0.39999999999189784 -1.2090987223823235 1.2090487307044302 -1.209048730456466 1.7072170568128745e-11 0.24399999999236827 3.7465729200134725e-11 -9.180724027829915e-16 1.2097638406268216e-14 1.0194749631087439e-14
5998.991999999999 -0.23700249103016802 -1.785892414480915 -1.7165656128483704 0.3609892510753674 1.807960553466458 0.00014949493638151808 0.9739425527759025 0.6543158141564062 -0.8248678601995174 0.17052288349070535 -0.9739425453030577 -0.00012412386642463429 4.7054851926134065 2.1184471925968644 -2.190678413904773 0.07221459904383984 -4.705485159887779 -0.0005435678571768553 0.27383792057624257 0.75266037918664 0.5876703135901518 0.06916663523807169 -0.06744948809982632 -8.540055000534149e-06 3.595491897166065 9.882430778720583 5.4725034942142115 0.3143623571570358 -0.30655792341371063 -3.8814549977427706e-05 -0.23700267473329717 -1.7858923117267054 -1.7165654341327112 0.3609892427921295 1.8079605102539062 0.00014949493925087154 0.9739425778388977 0.6543158292770386 -0.824867844581604 0.17052288353443146 -0.9739425182342529 -0.0001241238642251119 0.2738379240036011 0.7526603937149048 0.5876703262329102 0.0691666379570961 -0.06744948774576187 -8.540055205230601e-06 0.2738379240036011 0.7526603937149048 0.5876703262329102 0.0691666379570961 -0.06744948774576187 -8.540055205230601e-06 0.2999999432473688 -0.16824805240819743 0.4000000832373364 -1.209098466815408 1.2090486718984883 -1.2090490703403465 4.65564473140386e-08 0.2519999840540821 -5.08882430185616e-09 2.5140199638264203e-07 -9.238578433742145e-08 5.2131848763468565e-08 1.1281797434375095e-07 -2.8599261258715364e-07 -5.948780035979955e-07 6.6199664515613645e-12 -5.1527095750356805e-08 2.181514587382319e-08 0.2999999999963251 -0.16824800000004808 0.39999999999126107 -1.2090987223823229 1.209048730704429 -1.2090487304564677 1.7767425750331563e-11 0.25199999999596306 4.0511034138439946e-11 -8.561373735320918e-16 1.4151865064245924e-14 1.2584769583272648e-14
5999.0 -0.2290581571163024 -1.7805915135562191 -1.7232318144672796 0.36235431824672926 1.8000162196134322 0.00014848439195962 1.0122535739115153 0.6708363106740878 -0.8415376158095701 0.17067210298317395 -1.0122535661739709 -0.00012852047997446758 4.7888776419516 2.065062064710202 -2.0837194512565853 0.01865243655857496 -4.7888776088641505 -0.0005495766937291622 0.27785634861978215 0.7446901304989042 0.5898112166690366 0.06827392597282088 -0.06876101416520695 -8.634460499255948e-06 3.64825385737774 9.777781413450612 5.492440011865403 0.3103049935464709 -0.31251880938086557 -3.9243622969118284e-05 -0.2290580908404749 -1.7805913130389612 -1.723231617604391 0.3623543083667755 1.800016164779663 0.00014848439604975283 1.0122535228729248 0.670836329460144 -0.841537594795227 0.17067210376262665 -1.0122535228729248 -0.00012852047802880406 0.27785634994506836 0.7446901202201843 0.5898112058639526 0.06827392429113388 -0.06876101344823837 -8.634460755274631e-06 0.27785634994506836 0.7446901202201843 0.5898112058639526 0.06827392429113388 -0.06876101344823837 -8.634460755274631e-06 0.29999996150695324 -0.1661999730670861 0.40000012030987553 -1.2090985147195619 1.2090484027633022 -1.209048965225208 -3.565818826252486e-08 0.2599999377219114 -1.7712318681827316e-08 3.7278583704572827e-07 -1.2857571081306945e-07 -7.737453211735912e-09 -4.900115602019129e-08 -2.7500531514591096e-08 4.819678119767505e-07 -4.417176082380845e-12 3.5254633932914576e-08 -1.0068587845813757e-09 0.29999999999622584 -0.16620000000105103 0.39999999999059616 -1.209098722382324 1.2090487307044284 -1.2090487304564679 1.8375189763805072e-11 0.2600000000002406 4.3694798378276483e-11 -1.9014140278125166e-15 1.538045386387468e-14 1.5386724090252107e-14
